;001 0019C1A4
!1  T90 T81 L O2 @1 E95,70,80,4,4 E95,70,80,4,4 YL. r64 r128 V5 g16 > c16 e16 g16 _V-3 g16 _V3 e16 c16 < g16 a16 > c16 f16 a16 _V-3 a16 _V3 f16 c16 < a16 g16 > c16 e16 g16 _V-3 g16 _V3 e16 c16 < g32 g128 E85,95,65,3,9 V6 YLR a32 V4 a32 V6 g32 V4 a32 V6 f32 V4 f32 V6 e32 V4 e32 V6 d32 V4 d32 V6 c32 V4 c32 < V6 b32 V4 b32 V6 a32 V4 a32 > @2 EP-2,0,0,1,0 V4 E80,90,75,12,3 O3 P19,10,6 r64 D2 YL. r8 e32 _V-3 e32 _V3 e32 _V-3 e32 Y.R V4 e24 r24 YL. V2 e24 r16 V4 e16 f16 e16 _V-2 e16 _V2 d16 _V-2 d16 _V2 c16 Y.R V3 d16 YL. c16 Y.R V2 d16 YL. c16 V4 r32. < g64 _V-2 g64 _V2 g64 _V-2 g64 _V2 g16. _V-2 Y.R r64 g16. YL. V4 g16 a16 > c16 _V-3 c16 _V3 c8 EP-20,-10,0,1,1 d8 _V-3 EPX d16 r16. r64 [ V4 e64 V2 e64 ]4 r64 V4 e32 r32 e16 _V-3 e16 _V3 e16 f16 e8 d8 c16 _V-3 Y.R c16 V2 YL. c16 r16. r64 < [ V4 g64 V2 g64 ]6 Y.R V4 g16 YL. V2 g16 r64 V4 g16 a16 > c16 _V-3 c16 _V3 c32 r32 c16 d8 r16 @@5,1,2 r8 V4 d16. r32 d32 r32 d16 V2 d16 V4 d16 e16 d16 r4. r8 [ V4 e32 V2 e32 ]4 V4 e16 d8 e16 r16 V2 Y.R d8 e16 r8 YL. r8 [ V4 c32 V2 c32 ]4 V4 c16 d8 c16 r16 V2 Y.R d8 c16 r16. r64 YL. YLR D0 < V6 g8 V4 g16 V6 a8 V4 r16 V6 b8 V4 b16 V6 b16 @@4,0,2 g8 a8 b8 YL. EP-20,-10,0,3,1 P6,10,4 @@4,1,0 E85,100,80,1,6 O1 V7 g8 _V-5 < EPX g16 > _V5 B3~ a8.~ b8 _V-5 < b16 > > _V5~ c8. < a16 _V-5 a16 _V5 b16 O2 V5 YLR @@2,2,1 EP-2,0,0,1,0 E100,100,90,6,1 d32 r32 P12,10,6 e8 _V-4 e16 _V4 e32 _V-4 e32 _V4 c8 _V-4 e16 _V4 f16 _V-4 f16 _V4 [ f32 _V-4 f32 _V4 ]2 f16 [ g32 _V-4 g32 _V4 ]2 _V-4 g16 _V4 e32 r32 e8 _V-4 e16 _V4 e32 _V-4 e32 _V4 e8 _V-4 e16 _V4 f8 _V-4 f16 _V4 [ f32 _V-4 f32 _V4 ]2 [ g32 _V-4 g32 _V4 ]2 _V-4 g16 _V4 e32 r32 e8 _V-4 e16 _V4 e32 _V-4 e32 _V4 e8 _V-4 e16 _V4 e8 _V-4 e16 _V4 [ e32 _V-4 e32 _V4 ]2 [ e32 _V-4 e32 _V4 ]2 _V-4 e16 _V4 e16 [ f16 _V-4 f16 _V4 ]3 f32 _V-4 f32 _V4 f16 f16 _V-4 f16 _V4 f32 _V-4 f32 _V4 f16 _V-4 f16 _V4 f32 _V-4 f32 _V4 f8 D1 V4 r32 b16 > c16 d16 e16 f16 g16 a16 b16 > c16 d16 e16 f16 b64 a64 g64 f64 e64 d64 c64 < b64 a64 g64 f64 e64 d64 c64 D2 O3 V4 YL. @@2,2,1 EP-2,0,0,1,0 EX r64 r8 [ d32 _V-3 d32 _V3 ]6 e16 d16~ d8~ d32. D0 YLR O1 V7 EP-20,-10,0,3,1 P6,10,4 @@4,1,0 E85,100,80,1,6 a+16 _V-2 YL. a+16 _V2 YLR a+16 f8 D2 O3 V4 YL. @@2,2,1 EP-2,0,0,1,0 EX r64 [ c32 _V-3 c32 _V3 ]6 e16 EP-20,-10,0,15,6 e16~ e8~ e32. D0 O2 V7 YLR EP-20,-10,0,3,1 P6,10,4 @@4,1,0 E85,100,80,1,6 c16 _V-2 YL. c16 _V2 YLR c16 < a+8 D2 O3 V4 YL. @@2,2,1 EP-2,0,0,1,0 P58,12,4 EX r64 [ d16 _V-3 d16 _V3 ]2 Y.R _V-3 d16 YL. d16 _V3 c8 _V-3 Y.R c16 _V3 YL. [ c32 _V-3 Y.R c32 _V3 YL. ]2 c8~ c32. D0 V6 YLR E100,100,90,6,1 g32 _V-4 g32 _V4 EP-20,-10,0,15,6 g16~ g4.~ g4 EPX _V-3 Y.R g8 _V-2 YL. g8 PX 
!2  L @@4,0,1 E80,90,100,6,6 O0 V4 c8 ( c16 ) c4 ( c16 ) f8 ( f16 ) f4 ( f16 ) c8 ( c16 ) c4 ( c16 ) f4 g4 @2 EP-2,0,0,1,0 V7 E80,90,75,12,3 O3 P19,10,6 r8 e32 _V-4 e32 _V4 e32 _V-4 e32 Y.R V6 e24 V3 e24 YL. V6 e24 r16 V7 YLR e16 f16 e16 _V-3 e16 _V3 d16 _V-3 d16 _V3 c16 Y.R V5 d16 YL. c16 Y.R V3 d16 YL. c16 YLR V7 r16 < g64 _V-3 g64 _V3 g64 _V-3 g64 _V3 g16. _V-2 Y.R g16. YLR V7 g16 a16 > c16 _V-3 c16 _V3 c8 EP-20,-10,0,1,1 d8 _V-3 EPX d16 V7 r8 [ V7 e64 V4 e64 ]4 V7 e32 r32 e16 _V-3 e16 _V3 e16 f16 e8 d8 c16 _V-3 Y.R c16 V3 YL. c16 V7 YLR r8 < [ V7 g64 V4 g64 ]6 Y.R V5 g16 YL. V3 g16 YLR V7 g16 a16 > c16 _V-4 c16 _V4 c32 r32 c16 d8 r16 @@5,1,2 YLR r8 V8 d16. r32 d32 r32 d16 V5 d16 V8 d16 e16 d16 r4. r8 [ V8 e32 V6 e32 ]4 V8 e16 d8 e16 r16 V4 Y.R d8 e16 r8 YLR r8 [ V8 c32 V6 c32 ]4 V8 c16 d8 c16 r16 V4 Y.R d8 c16 r8 YLR < V8 b8 V5 b16 > V8 c8 V5 r16 V8 d8 V5 d16 V8 d16 @@4,0,2 e8 f8 g8 EP-20,-10,0,3,1 P6,10,4 @@4,1,0 E85,100,80,1,6 O1 V9 b8 _V-5 < EPX b16 > _V5 > B3~ c8.~ d8 _V-5 < d16 > _V5~ e8. f16 _V-5 f16 _V5 g16 O3 V7 YLR @@2,2,1 EP-2,0,0,1,0 E100,100,90,6,1 g32 r32 P19,12,4 g8. e32 d32 c8 _V-4 c16 _V4 f16 _V-4 f16 _V4 [ f32 _V-4 f32 _V4 ]2 f16 e16 d16 _V-4 d16 _V4 g32 r32 g8. e32 d32 c8 _V-4 c16 _V4 f8 _V-4 f16 _V4 [ f32 _V-4 f32 _V4 ]2 e16 d16 _V-4 d16 _V4 g32 r32 g8. e32 d32 c8 _V-4 c16 _V4 e8 _V-4 e16 _V4 [ e32 _V-4 e32 _V4 ]2 g16 e16 _V-4 e16 _V4 e16 P19,12,5 f8 e8 d8 c32 _V-4 c32 _V4 c16 f8 e16 d8 c32 _V-4 c32 _V4 c8 V6 [ d32 r32 ]12 g4 O3 V7 YLR @@2,2,1 EP-2,0,0,1,0 E100,100,80,6,1 r8 [ d32 _V-4 d32 _V4 ]6 e16 d16~ d8. O2 V7 EP-20,-10,0,3,1 P15,11,3 @@4,1,0 E85,100,80,1,6 d16 _V-2 YL. d16 _V2 YLR d16 c8 O3 V8 YLR @@2,2,1 EP-2,0,0,1,0 P19,12,5 E100,100,80,6,1 [ c32 _V-4 c32 _V4 ]6 e16 EP-20,-10,0,15,6 e16~ e8. O2 V7 EP-20,-10,0,3,1 P15,11,4 @@4,1,0 E85,100,80,1,6 e16 _V-2 YL. e16 _V2 YLR e16 d8 O3 V8 YLR @@2,2,1 EP-2,0,0,1,0 P58,12,5 E100,100,80,6,1 [ d16 _V-4 d16 _V4 ]2 Y.R _V-4 d16 YL. d16 YLR V8 c8 _V-4 Y.R c16 _V4 YLR [ c32 _V-4 YL. c32 _V4 YLR ]2 c8. ( e32 _V-4 e32 _V4 EP-20,-10,0,15,6 e16~ e4.~ e4 EPX _V-3 Y.R e8 _V-2 YL. e8 YLR PX 
!3  L `9F00 `AE00 @A12 E100,90,80,25,6 P40,12,3 O3 V3 YLR e2 f2 g2 f4 g8. V2 g16 @A0 O1 V3 [ c8 ( c16 ) c4 ( c16 ) f8 ( f16 ) f4 ( f16 ) c8 ( c16 ) c4 ( c16 ) f4 g4 ]2 @A3 V3 `2E32 [ g8 g8 g8 g8 ]2 [ a8 a8 a8 a8 ]2 [ f8 f8 f8 f8 ]2 `2E63 g8~ g32 r32 f8~ f32 r32 g8. r16 [ g16 r16 ]3 V3 g8~ g32 r32 f8~ f32 r32 g8~ g32 r32 a8. f16~ f32 r32 g16~ g32 r32 O1 @A3 V3 [ c8~ c32 r32 [ c32. r64 ]3 r16 c16 f8~ f32 r32 f32 r32 [ g32. r64 ]2 r16 g16 ]2 c8~ c32 r32 [ c32. r64 ]3 r16 e8. r16 [ e32. r64 ]3 r16 e16 f8~ f32 r32 [ f32. r64 ]3 r16 f16 [ f32. r64 ]2 r16 f16 r16 f32. r64 f8 [ g32. r64 ]8 [ g32. r64 ]8 E80,100,90,1,9 < a+2~ a+4 r16 a+16 r16 a+16 f2 > c4 r16 c16 r16 c16 < a+2 f2 > E100,100,70,8,1 c8~ c32 r32 c32. r64 [ c32. r64 ]2 r16 c32. r64 [ c32. r64 ]8 
!4  L [ r2 ]20 @8 [ x8. ]2 r8 r16 x8. [ x8 ]2 @8 x8 @7 [ x8 ]17 @5 x16 @7 x16 @5 x8 [ @5 x8 @7 x8 ]2 @8 x8 @7 x8 @5 x8 @7 x8 @5 x8 @7 x8 @5 x8 @5 x16 @7 x16 @6 [ x8 ]8 @8 x8 r4. r2 [ @8 x8 r4. ]4 @8 x8 @5 [ x8 ]2 x16 @7 x16 r16 @6 [ x16 ]3 @5 [ x16 ]2 @7 [ x16 ]2 
!5  L V1 O1 YLR @39 g16 > c16 e16 g16 ( g16 ) e16 c16 < g16 a16 > c16 f16 a16 ( a16 ) f16 c16 < a16 g16 > c16 e16 g16 ( g16 ) e16 c16 < g16 > a16 g16 f16 e16 d16 c16 < b16 a16 [ V0 g16 > c16 e16 g16 Y.R g16 YLR e16 c16 < g16 a16 > c16 f16 a16 YL. a16 YLR f16 c16 < a16 g16 > c16 e16 g16 Y.R g16 YLR e16 c16 < g16 > a16 g16 f16 e16 d16 c16 < b16 a16 ]2 > [ g16 r16 ]8 [ e16 r16 ]8 [ c16 r16 ]8 < V1 b16 Y.R b16 YL. b16 YLR a16 Y.R a16 YL. a16 YLR b16 Y.R b16 O2 YLR @1 c16 < a16 @2 O2 c16 < b16 g16 g16 e16 c16 r8 O2 @0 c16 @1 c16 r8 @2 V0 O1 a64 > V1 c16. r64 @1 O2 V0 c64 V1 c32. @0 c16 r16 c16 [ c8 ]2 O2 [ @0 c8 @1 c8 @0 c16 V0 c16 V1 @1 c8 @0 c8 @1 c8 @0 c16 V0 c16 V1 @1 c16 @0 V0 c16 V1 ]2 @0 c8 @1 c8 @0 c16 V0 c16 V1 @1 c16 @0 V0 c16 V1 r16 c16 @1 c8 @0 c16 V0 c16 V1 @1 c16 @0 V0 c16 V1 @0 c8 @1 c16 V0 @0 c16 V1 c16 V0 c16 V1 @1 c16 @0 V0 c16 V1 @0 c16 c16 @1 c16 @0 c16 r16 c16 @1 c8 V1 @1 [ c16 ]4 [ c16 ]4 c16 c16 c32 c32 c16 c16 c16 c16 c32 c32 @1 c2 r4 r16 @0 c64 @1 c32. r16 @0 c64 @1 c32. r2 r4 r16 @0 c64 @1 c32. r16 @0 c64 @1 c32. r2 r4. @0 c64 @1 c32. r16 @0 c8 @1 c16 @0 V0 c16 V1 c16 V0 c16 V1 @1 c8 @0 c16 @1 c16 c16 c16 c16 c16 c16 c16 
!6  L V1 @26 [ O2 YLR c16 ( c16 c16 ) c16 ( c16 c16 YL. c16 Y.R c16 ) YLR f16 ( f16 f16 ) f16 ( f16 f16 YL. f16 Y.R f16 ) YLR c16 ( c16 c16 ) c16 ( c16 c16 YL. c16 Y.R c16 ) YLR f16 ( f16 f16 f16 ) g16 ( g16 g16 g16 ) ]3 YLR V0 O2 @39 < [ a+16 g16 ]8 [ > c16 < a16 ]8 [ a16 f16 ]8 V1 YLR g16 Y.R g16 YL. g16 YLR f16 Y.R f16 YL. f16 YLR g16 Y.R g16 YLR O2 g16 < g16 g16 g16 V0 [ g16 ]4 [ r2 ]2 @40 W0,95,0 O2 V1 [ c8. < g4 a16~ a4 b8 r16 > c16~ ]2 c8. < g4 g16~ g4 b16 g16 r16 g16 a2~ a2 @39 O0 b16 > c16 d16 e16 f16 g16 a16 b16 > c16 d16 e16 f16 b64 a64 g64 f64 e64 d64 c64 < b64 a64 g64 f64 e64 d64 c64 @26 O2 b64 a64 @40 O1 V0 [ a+32 > f32 < ]12 r4 [ f32 > c32 < ]8 [ c32 g32 ]8 [ a+32 > f32 < ]8 [ f32 > c32 < ]8 > [ c32 e32 ]16 
