;002 0019CDEE
!1  T90 r32 O2 V3 @2 E100,30,10,1,6 D-4 YL. r48 H5 e24 c24 b24 > g+24 < d24 > c+24 < b24 e24 c24 > d24 < f+24 b24 H4 d24 > c+24 < b24 e24 c24 > d24 < f+24 b24 H3 g+24 < d24 > c+24 < b24 H0 ( b24 e48 ) YLR D0 E90,100,70,1,6 @@4,2,0 EP-4,4,0,5,4 P15,11,5 V4 O3 f+12 EP0,0,-8,4,5 e12 c12 < g+12 e12 > r8 f24~ @@X EPX PX EX g+24~ f24~ g+24 _V-2~ f24~ g+24~ EP-2,0,0,1,0 E100,80,40,3,8 @@2,0,2 P19,9,10 V6 YLR O1 _V-2 d+32 e32 f32 ) f+32 L < EP-2,0,0,1,0 E100,80,40,3,8 @@2,0,2 P19,9,10 V6 YLR O2 < < _V-2 g16 _V2 > g16 g16 g16 g16 f16 g16 g16 g16 f16 g16 a+16 > c16 d16 f16 g16 _V-2 g16 _V2 < g16 g16 g16 g16 f16 g16 g16 g16 f16 g16 a+16 > c16 d16 f16 g16 > c16 ( c16 ) c8 c8. ( c16 _V-2 c16 _V2 < a+16 ) a+16 ( a+16 ) a+16 a+16 g+16 ( g16 ) g+16 g+16 g+16 ( g+16 ) g+16 g+8 g4. r16 r8 > E100,70,20,1,19 @@4,2,0 EP-4,0,-99,3,20 P15,11,5 V5 < YLR f8 _V-2 YL. f8 ( Y.R f8 YL. r8 r2 _V3 YLR f8 _V-2 YL. f8 ( Y.R f8 YL. r8 r4 _V3 E90,100,70,1,6 EP-8,0,0,1,3 YLR g16 _V2 EPX f8. _V-3 g8 EP-2,0,0,1,0 E100,80,40,3,8 @@2,0,2 P19,9,10 V6 g+4 f8 g16 g+8. g8 c8 ( c+16 ) c+16 _V-2 c+16 ) c+16 ) f16 _V-2 f16 _V2 c+16 f4. _V-4 f16 _V2 f8 _V2 g16 ( d+16 ) d+16 ( d+16 ) d+16 Y.R r32 EP2,-4,-4,1,0 P6,10,4 @@4,1,2 D-4 EX V4 > O2 f16~ g16 a+16 _V-2 a+16 _V2 g16 > c16 V8 E0,100,70,15,8 g4 r16 YLR EP-2,0,0,1,0 E100,80,40,3,8 @@2,0,2 P19,9,10 V4 YLR D-4 c8 _V-2 c16 _V2 c8 _V-2 c16 _V2 c8 _V-2 c32 E90,100,70,1,6 @@4,2,0 EP-8,0,0,1,3 P15,11,5 V6 D0 O2 g16 g+16 _V-2 g+16 _V2 g+16 a+16 _V-2 a+16 r16 r32 EP-2,0,0,1,0 E100,80,40,3,8 @@2,0,2 V6 D-4 P19,9,10 V4 YLR O3 c8 _V-2 c16 _V2 c8 _V-2 c16 _V2 c8 _V-2 c32 E90,100,70,1,6 @@4,2,0 EP-8,0,0,1,3 P15,11,5 V6 D0 O2 g16 g+16 _V-4 g+16 _V4 > d16 E90,100,100,1,6 d4 EP-2,0,0,1,0 E100,80,40,3,8 @@2,0,2 P19,9,10 V6 O2 r16 g+16 _V-2 g+16 _V2 g+8 f16 _V-4 f16 _V4 g16 g+8. g8 a+16 _V-4 a+16 _V4 r16 _V-2 g+16 _V2 g+16 _V-2 g+16 _V2 g+16 _V-2 g16 _V2 f16 _V-2 f16 _V2 g4 _V-4 g8 _V-2 g8 _V6 r8 g+8 g+8 f16 _V-4 f16 _V4 g16 g+8. g8 a+16 _V-4 a+16 _V4 r16 _V-2 g+16 _V2 g+16 _V-2 g+16 _V2 g+16 _V-2 g16 _V2 f16 _V-2 f16 _V2 g4 _V-4 g8 _V-2 g8 _V6 r32 YLR EP-2,0,0,1,0 O3 E100,80,40,3,8 @@2,0,2 P19,9,10 V4 YLR D2 c8 _V-2 c16 _V2 c8 _V-2 c16 _V2 c8 _V-2 c32 E90,100,70,1,6 @@4,2,0 EP-8,0,0,1,3 P15,11,5 V6 D0 O2 g16 g+16 _V-2 g+16 _V2 g+16 a+16 _V-2 a+16 r16 r32 EP-2,0,0,1,0 V6 D2 E100,80,40,3,8 @@2,0,2 P19,9,10 V4 YLR O3 c8 _V-2 c16 _V2 c8 _V-2 c16 _V2 c8 _V-2 c32 E90,100,70,1,6 @@4,2,0 EP-8,0,0,1,3 P15,11,5 V4 D0 O2 _V-2 g16 ) g16 ( g16 ) g16 ( g16 ) EP-2,0,0,1,0 E100,80,40,3,8 @@2,0,2 P19,9,10 V6 YLR O1 _V-2 d+32 e32 f32 ) f+32 
!2  r32 B4 O2 V5 @2 E100,30,10,1,6 H5 e24 c24 b24 > g+24 < d24 > c+24 < b24 e24 c24 > d24 < f+24 b24 H4 d24 > c+24 < b24 e24 c24 > d24 < f+24 b24 H3 g+24 < d24 > c+24 < b24 H0 _V-4 b24 e24 _V4 E90,100,70,1,6 @@4,2,3 EP-4,4,0,5,4 P15,11,5 V6 O3 b12 EP0,0,-8,4,5 f+12 e12 c12 < g+12 > r8 a+24 >~ @@X EPX PX EX c+24~ < a+24 >~ c+24~ _V-4 < a+24 >~ c+24~ < EP-2,0,0,1,0 E100,80,40,3,8 @@2,0,2 P19,9,10 V8 O1 _V-3 g+32 ) a32 ) a+32 ) b32 L EP-2,0,0,1,0 E100,80,40,3,8 @@2,0,2 P19,9,10 V8 O2 < _V-2 c16 _V2 > c16 c16 c16 c16 < a+16 > c16 c16 c16 < a+16 > c16 d+16 f16 g16 a+16 > c16 _V-5 c16 _V5 < c16 c16 c16 c16 < a+16 > c16 c16 c16 < a+16 > c16 d+16 f16 g16 a+16 > c16 d+16 _V-2 d+16 _V2 d+8 d+8. _V-2 d+16 _V-3 d+16 _V3 d16 _V2 d16 _V-2 d16 _V2 d16 d16 c16 < _V-2 a+16 > _V2 c16 c16 c16 _V-2 c16 _V2 c16 c8 < b4. r16 r8 > > E100,70,20,1,19 @@4,2,0 EP-4,0,-99,3,20 P15,11,5 V8 < YLR c8 _V-4 YL. c8 ( Y.R c8 ( YL. c8 ( Y.R r8 r8 r4 _V7 YLR c8 _V-4 YL. c8 ( Y.R c8 ( YL. c8 ( Y.R r8 r8 < _V5 E90,100,70,1,6 EP-8,0,0,1,3 YLR a+16 EPX _V2 b8. _V-5 a+8 EP-2,0,0,1,0 E100,80,40,3,8 @@2,0,2 P19,9,10 V8 > c4 < g+8 a+16 > c8. < a+8 d+8 _V-2 f16 _V2 f16 _V-4 f16 _V2 f16 _V2 g+16 _V-4 g+16 _V4 f16 g+4. _V-4 g+16 EP-28,-14,0,8,8 _V4 a+8 EP-2,0,0,1,0 > c16 < _V-2 g16 _V2 g16 _V-2 g16 _V2 g16 EP2,0,0,1,0 P6,10,4 @@4,1,2 E100,70,70,1,0 V6 O2 f16~ g16 a+16 _V-4 a+16 _V4 g16 > c16 EP-20,0,0,20,0 g4 r16 EP-2,0,0,1,0 E100,80,40,3,8 @@2,0,2 P19,9,10 V6 c8 _V-4 c16 _V4 c8 _V-4 c16 _V4 c8 _V-4 c16 E90,100,70,1,6 @@4,2,0 EP-8,0,0,1,3 P15,11,5 V8 O3 d+16 f16 _V-4 f16 _V4 f16 g16 _V-4 g16 r16 EP-2,0,0,1,0 E100,80,40,3,8 @@2,0,2 P19,9,10 V6 O3 c8 _V-4 c16 _V4 c8 _V-4 c16 _V4 c8 _V-4 c16 E90,100,70,1,6 @@4,2,0 EP-8,0,0,1,3 P15,11,5 V8 O3 d+16 f16 _V-4 f16 _V4 E90,100,100,1,6 a+16 b4 EP-2,0,0,1,0 E100,80,40,3,8 @@2,0,2 P19,9,10 V8 O3 r16 c16 _V-2 c16 _V2 c8 < g+8 a+16 > c8. < a+8 > d+16 _V-4 d+16 _V4 r16 _V-2 c+16 _V2 c+16 _V-2 c+16 _V2 c16 < _V-2 a+16 _V2 g+16 _V-2 g+16 _V2 a+4 _V-4 a+8 _V-2 a+8 _V6 > r8 c8 c8 < g+8 a+16 > c8. < a+8 > d+16 _V-4 d+16 _V4 r16 _V-2 c+16 _V2 c+16 _V-2 c+16 _V2 c16 < _V-2 a+16 _V2 g+16 _V-2 g+16 _V2 a+4 _V-4 a+8 _V-2 a+8 _V6 EP-2,0,0,1,0 O3 E100,80,40,3,8 @@2,0,2 P19,9,10 V6 c8 _V-4 c16 _V4 c8 _V-4 c16 _V4 c8 _V-4 c16 E90,100,70,1,6 @@4,2,0 EP-8,0,0,1,3 P15,11,5 V6 O3 d+16 f16 _V-4 f16 _V4 f16 g16 _V-4 g16 r16 EP-2,0,0,1,0 E100,80,40,3,8 @@2,0,2 P19,9,10 V6 O3 c8 _V-4 c16 _V4 c8 _V-4 c16 _V4 c8 _V-4 c16 E90,100,70,1,6 @@4,2,0 EP-8,0,0,1,3 P15,11,5 V6 O3 ( g16 ) g16 ( g16 ) g16 ( g16 EP-2,0,0,1,0 E100,80,40,3,8 @@2,0,2 P19,9,10 V8 O1 _V-3 g+32 ) a32 ) a+32 ) b32 
!3  r32 V3 `9F00 `2E63 r24 @A6 `AE00 D6 B1 O2 V3 Y.R E100,100,80,3,4 P12,8,13 H5 V2 e24 c24 b24 > g+24 < d24 > c+24 < b24 e24 c24 > d24 < f+24 b24 H4 d24 > c+24 < b24 e24 c24 > d24 < f+24 b24 H3 g+24 < d24 > c+24 < b24 H0 ( b24 ) YLR D0 P12,8,13 V3 @A0 EP-40,4,0,5,4 P12,10,50 V3 O2 f+12 EPX e12 EP-40,4,0,5,4 c12 < EPX g+12 e12 E100,100,80,3,4 P12,8,13 V3 EP-40,4,0,5,4 d+8 P0,10,80 V3 `2E06 E100,100,80,3,4 < V3 @A3 f+4 @A0 `2E63 EX PX V3 f+32 a32 a+32 b32 L E100,100,80,3,4 P12,10,13 V3 EPX @A3 O1 [ `2E06 V3 c16 V1 c16 r4 V3 c16 V1 c16 r8 V3 c16 V1 c16 r16 V3 f8. ]2 < g+4 V2 g+16 V3 > g+8 < V2 g+16 V3 g8. V2 g16 V3 g8 > g16 V1 g16 < V3 g8. V2 g16 V3 g8 > g16 V1 g16 < V3 g8. V2 g16 V2 > g16 r16 V3 g8 < V3 c8 r4. r2 f8 r4. r4 d+16 d8. O1 V3 c+16 > c+16 < V1 c+16 c+16 V3 r16 c+8 V1 c+16 V3 c16 > c16 < V1 c16 c16 V3 r16 c8 V1 c16 < < [ V3 a+16 > a+16 < V1 a+16 a+16 V3 r16 a+8 V2 a+16 ]2 > [ V3 c16 > c16 < V1 c16 c16 V3 r16 c8 V1 c16 ]2 EP0,0,80,8,12 O1 V3 PX E100,100,60,5,12 @A0 f8. > c8. EP0,0,-120,10,12 f8. V1 EX f8. f8. f16 E100,100,60,5,12 EP0,0,60,8,12 O2 V3 c8. f8. EP0,0,-120,5,12 > c8. V1 EX c8. c8. c16 @A3 E100,100,80,3,4 P12,10,13 V3 EPX [ O1 V3 c+16 > c+16 < V1 c+16 c+16 V3 r16 c+8 V1 c+16 V3 c16 > c16 < V1 c16 c16 V3 r16 c8 V1 c16 < < V3 a+16 > a+16 < V1 a+16 a+16 V3 r16 a+8 V2 a+16 > V3 c16 > c16 < V1 c16 c16 V3 r16 c8 V1 c16 ]2 EP0,0,80,8,12 O1 V3 PX E100,100,60,5,12 @A0 f8. > c8. EP0,0,-120,10,12 f8. V1 EX V1 f8. f8. f16 E100,100,60,5,12 EP0,0,60,8,12 O2 V3 c8. f8. EP0,0,-120,5,12 > c8. EPX < < V1 c16 V2 c16 V1 c16 V3 EP-20,0,0,5,0 c8 `2E63 EX < V3 f+32 a32 a+32 b32 
!4  r32 r2 r2 r2 @5 x8 @6 x8 @5 x8 @6 x8 L @7 x4 @6 x8 @5 x8 @6 x8 x8 @7 x16 @8 x8. @1 x8 @6 x8 x8 @5 x8 @6 x8 x8 @7 x16 @8 x8. @8 x4 @5 x8 x4 x4 x4 x4 x4 x4 x8 @8 x8 @5 x4 x4 x4 x8 @8 x8 @5 x4 x4 x8 x16 @8 x8. @8 x8 @7 x8 @6 x8 @7 x8 @5 x8 @7 x8 @6 x8 @7 x8 [ @5 x8 @7 x8 @6 x8 @7 x8 ]3 @5 x8 x4 x8 @8 x8. x8. x8. r8. r4 @7 x8. x8. x8. r8. r16 x8. @8 x4 @6 x8 @7 x8 [ @5 x8 @7 x8 @6 x8 @7 x8 ]7 @8 x8. x8. x8. r8. r4 @7 x8. x8. x8. r8. r16 x8. 
!5  @10 V1 YLR c2 r2 r32 @11 V0 c12 V1 V1 @3 b12 f+12 e12 c12 O1 g+12 @12 V1 r8 O2 c12 c12 V0 c12 @9 O1 V0 g+32 a32 a+32 b32 L O2 @9 V0 c16 r16 r4 c16 r16 r8 c16 r8 V1 @13 O2 c8. V0 O2 @9 V0 c16 r16 r4 c16 r16 r8 c16 r8 V1 @13 O2 c8. O1 @14 V0 r4 d+8 d+8 a+16 YL. a+16 YLR r16 r16 a+16 Y.R V0 a+16 r16 r16 YLR O2 r2 r12 r12 @15 W0,98,57 V0 c24 d+24 V1 g+12 g12 f24 V1 @10 O2 c2 r2 @10 O2 c2 @3 r4 r24 V0 O1 a+16 b8. r2 r2 r2 r2 r2 r4. r16. @10 O2 V1 c8. c8. c8. r32 V1 O2 @9 d+16 f16 r16 f16 g16 r16. O2 V0 @10 c8. c8. c8. V1 r32 @9 d+16 f16 r16 a+16 b8. O2 r2 r2 r2 r2 r2 r2 r2 r4. r16 r32 @10 O2 V1 c8. c8. c8. r32 V1 O2 @9 d+16 f16 r16 f16 g16 r16. r32 O2 V0 @10 c8. c8. c8. V0 @9 g16 V1 g16 V0 g16 g16 g16 g16 V1 g16 
!6  r32 @0 V1 c4 c4 c4 c4 c4 r8. @4 V0 d+48 d+48 d+48 V1 d+12 V0 Y.R d+12 YL. d+12 YLR V1 @0 c16. @1 V0 O2 c32 V1 c32 V0 c32 c32 c32 L [ YLR O2 V1 @1 c8 V0 @0 c8 c8 V1 @1 c8 V0 @0 c8 V1 @1 c8 @0 c16 @1 x8. ]2 [ V1 @0 c8. V0 c16 @1 V1 c8. @1 V0 c16 ]3 V1 @0 c8. V0 c32 c32 @1 V1 c12 @2 c12 < V0 f24 V1 f24 > V1 @0 c8 @18 V0 Y.R c16 c16 YLR V1 @1 c8 @18 Y.R V0 c16 YLR @1 @17 c16 V1 @0 c16 YL. @17 c16 V0 c16 YLR @0 c16 V1 @1 c8 V0 Y.R @18 c16 c16 YLR V1 @0 c8 @18 V0 Y.R c16 c16 YLR V1 @1 c8 @18 Y.R V0 c16 YLR @1 @17 c16 V1 @0 c8 YL. @17 c16 V0 c16 YLR V1 @1 V1 c16 @0 V0 c8 @1 c16 [ V1 @0 c8 @18 V0 Y.R c16 c16 YLR V1 @1 c8 @18 Y.R V0 c16 YLR @1 @17 c16 V1 @0 c16 YL. @17 c16 V0 c16 YLR @0 c16 V1 @1 c8 V0 Y.R @18 c16 c16 YLR ]3 V1 O2 @0 c16 V0 @2 O1 g+16 g+16 V1 O2 @0 c16 V0 Y.R @2 O1 f16 f16 YLR O2 V1 O2 @0 c16 V0 Y.R @2 O1 f16 f16 YLR O2 V1 @0 c16 @1 V0 c16 V1 c16 V0 @1 V0 c32 V1 c32 V0 @2 O1 g+16 V1 f16 V0 O2 @0 c16 V1 O2 @0 c16 V0 @2 O1 g+16 g+16 V1 O2 @0 c16 V0 Y.R @2 O1 f16 f16 YLR O2 V1 O2 @0 c16 O1 @2 V0 g+16 V1 f16 V1 O2 @0 c16 @1 V1 c16 V1 c64 V0 c64 c64 c64 V1 c16 @0 c8 V0 @1 c32 c32 [ V1 @0 c8 @18 V0 Y.R c16 c16 YLR V1 @1 c8 @18 Y.R V0 c16 YLR @1 @17 c16 V1 @0 c16 YL. @17 c16 V0 c16 YLR @0 c16 V1 @1 c8 V0 Y.R @18 c16 c16 YLR ]4 V1 O2 @0 c16 V0 @2 O1 g+16 g+16 V1 O2 @0 c16 V0 Y.R @2 O1 f16 f16 YLR O2 V1 O2 @0 c16 V0 Y.R @2 O1 f16 f16 YLR O2 V1 @0 c16 @1 V0 c16 V1 c16 V0 @1 V0 c32 V1 c32 V0 @2 O1 g+16 V1 f16 V0 O2 @0 c16 V1 O2 @0 c16 V0 @2 O1 g+16 g+16 V1 O2 @0 c16 V0 Y.R @2 O1 f16 f16 YLR O2 V1 O2 @0 c16 O1 @2 V0 g+16 V1 f16 V1 O2 @0 c16 @1 V0 c16 V1 c16 V0 c16 c16 V1 c32 V1 c32 @0 V0 c32 c32 
