;003 0019DD8E
!1  T90 T72 [ V8 @@3,2,1 O2 YLR a16 @@3,1,2 E100,60,20,1,0 V4 YL. a64 _V-2 a64 V6 YLR a64 _V-4 a64 _V2 Y.R a32 _V-2 a32 _V4 YLR a32 _V-4 a32 _V2 YL. a64 _V-2 a64 _V4 YLR a64 _V-4 a64 ) Y.R a32 _V-2 a32 _V6 YLR [ a32 _V-4 a32 _V2 ]2 EX ]2 V8 @@3,2,1 O2 YLR a16 @@3,1,2 E100,60,20,1,0 V4 YL. a64 _V-2 a64 V6 YLR a64 _V-4 a64 _V2 Y.R a32 _V-2 a32 _V4 YLR a32 _V-4 a32 _V2 YL. a64 _V-2 a64 _V4 YLR a64 _V-4 a64 ) Y.R a32 _V-2 a32 _V6 YLR [ a32 _V-4 a32 _V2 ]2 EX V8 @@3,2,1 O2 YLR a16 @@3,1,2 E100,60,20,1,0 V4 YL. a64 _V-2 a64 V6 YLR a64 _V-4 a64 YL. V6 E85,100,100,1,1 @1 O2 [ d48 > d48 < ]3 YLR [ d48 > d48 < ]3 Y.R [ d48 > d48 < ]3 L @@3,2,1 O3 YLR V6 P15,12,3 E90,100,75,1,5 g16 f16 d+16 a8 g16 f16 d+32 _V-4 d+32 _V4 d16 d+16 f16 < a+8 > c16 d32 _V-5 d32 _V5 d16 YLR d+16 _V-5 d+16 _V5 d+32 _V-4 d+32 _V4 d+32 d32~ d8 _V-5 d16 _V2 D2 f+32 f+32 _V3 D0 d16 a16 f+16 g16 _V-5 g16 _V5 g+8. YLR g16 f16 d+16 a8 g16 f16 d+32 _V-4 d+32 _V4 d16 d+16 f16 < a+8 > c16 d32 _V-5 d32 _V5 YLR d16 [ d+32 _V-4 d+32 _V4 ]3 d+32 f32~ f8 _V-4 f16 _V4 d+16~ d+32 _V-4 d+32 _V4 [ d+32 _V-4 d+32 _V4 ]2 d+32 f32~ f4 _V-4 f16 _V4 YLR [ d+32 _V-4 d+32 _V4 ]2 d+16 EX EP-10,-5,0,3,1 g16. EPX E90,100,75,1,5 g16 _V-4 g32 _V4 f32 _V-4 D2 EX g32~ g16 r64 @@2,0,2 E95,100,60,1,4 P9,12,2 O2 V7 EP-4,-2,0,3,3 YLR b16 > d16 g16 Y.R _V-4 g12 YL. g12 Y.R g12 _V4 Y.R f16 _V-4 f16 _V4 c16 f16 Y.R _V-4 f12 YL. f12 Y.R f12 YL. f16 _V4 Y.R < a+16 > c16 f16 Y.R _V-4 f12 YL. f12 Y.R f12 YL. f16 _V4 Y.R c16 g16 > c16 < d16 a8~ a32. D0 @@3,2,1 O3 E100,100,70,1,1 EPX V5 [ YLR g16 Y.R g32 YL. g32 r16 YLR g32 YL. g32 r16 YLR g32 Y.R g32 r16 YLR g32 YL. g32 Y.R g32 _V-3 YL. g32 Y.R g32 _V3 YL. g32 r16 YLR g32 YL. g32 r16 YLR g32 Y.R g32 _V-3 YL. g32 Y.R g32 _V3 YLR g32 _V-3 Y.R g32 _V3 ]3 YLR g16 Y.R g32 YL. g32 r16 YLR g32 YL. g32 r16 YLR g32 Y.R g32 r16 YLR g32 YL. g32 O3 V9 @1 E85,100,80,1,1 D2 r64 YL. [ d64 a+64 ]4 _V-3 YLR [ d64 a+64 ]4 Y.R _V4 d64 a+64 d64 D-1 @@2,1,2 YL. V4 O3 E100,90,70,1,4 P15,12,2 r32 g16 f16 g16 a16 _V-3 a16 _V3 a8. EP-4,-2,0,3,3 a+16 EPX a16 _V-3 g32 _V3 a32 g4 _V-3 g16 _V3 g16 f16 g16 a16 _V-3 a16 _V3 a8 EPX > c16 < a8 g32 _V-2 a32 _V2 g4 _V-3 g16. _V3 g32 _V-3 g32 _V3 g16 f16 _V-3 f32 _V3 f16. EP-4,-2,0,1,1 a+8. EPX _V-3 a+16 _V3 a+16 EP-4,-2,0,3,3 > c16 _V-3 c32 _V3 EPX c16. < g8 _V-3 g16 _V3 g16 f16 d+4 _V-3 d+16 _V3 d+32 _V-3 d+32 _V3 d+16 d16 d+8 _V-3 d+16 _V3 d+16 f8 g8 V8 D0 r16 [ YLR f32 _V-4 Y.R f32 _V4 ]7 EP-4,-2,0,4,3 YLR f+16. _V-4 YL. EPX f+32 YLR _V4 f+16 g16 Y.R _V-4 g16 _V4 YLR a8 _V-2 Y.R a16 
!2  [ [ V8 @@3,2,1 O3 YLR g16 @@3,1,2 E100,60,20,1,0 V4 YL. g64 _V-2 g64 V6 YLR g64 _V-4 g64 _V2 Y.R g32 _V-2 g32 _V4 YLR g32 _V-4 g32 _V2 YL. g64 _V-2 g64 _V4 YLR g64 _V-4 g64 ) Y.R g32 _V-2 g32 _V6 YLR [ g32 _V-4 g32 _V2 ]2 EX H-1 ]2 H0 ]2 L @@3,2,1 O3 YLR V8 P15,12,3 E100,100,80,1,5 a+16 a16 g16 > c8 < a+16 a16 g32 _V-4 g32 _V4 f16 g16 a16 d8 d+16 f32 _V-5 f32 _V5 f16 g16 _V-5 g16 _V5 g32 _V-4 g32 _V4 g32 f+32~ f+8 _V-5 f+16 _V5 f+32 f+32 f+16 > c16 < a16 a+16 _V-5 a+16 _V5 > c8. < a+16 a16 g16 > c8 < a+16 a16 g32 _V-4 g32 _V4 f16 g16 a16 d8 d+16 f32 _V-5 f32 _V5 f16 [ g32 _V-4 g32 _V4 ]3 g32 a32~ a8 _V-4 a16 _V4 g16~ g32 _V-4 g32 _V4 [ g32 _V-4 g32 _V4 ]2 g32 a32~ a4 _V-4 a16 _V4 [ g32 _V-4 g32 _V4 ]2 g16 EX EP-10,-5,0,3,1 > c16. < EPX E100,100,80,1,5 a+16 _V-4 a+32 _V4 a32 ) g32~ g16~ g8.~ g8 _V-3 g16 _V-2 g16 @@2,0,2 E95,100,60,1,4 P6,12,2 O3 V7 EP-4,-2,0,3,3 YL. f16 _V-2 f16 _V2 c16 f16 Y.R _V-2 f12 YL. f12 Y.R f12 YL. f16 _V2 YL. < a+16 > c16 f16 Y.R _V-2 f12 YL. f12 Y.R f12 YL. f16 _V2 YL. c16 g16 > c16 < d16 a8. @2 YLR V9 O3 E100,80,60,10,6 P15,12,3 EP-4,-2,0,3,3 r8 d16 _V-5 d16 _V5 d16 < EPX a+16 _V-4 a+16 _V4 B1 a+16 >~ [ d24 _V-3 d24 _V3 ]3 d16 d+8 f16~ a8 f16 _V-5 f16 _V5 f16 d8 f16~ f32 d32 c16~ c8 _V-5 c16 _V5 c16 d16 c16 < a+32 _V-3 a+32 _V3 a+16~ a+8 _V-5 a+16 _V5 a+16~ > d16 c32 _V-2 d32 _V2 c8 _V-4 c16 _V4 c16 d16 f16 a+16 a16 g16 _V-4 g32 _V4 g16 _V-4 g32 _V4 EP-15,-7,0,4,4 E100,80,65,12,6 g16~ g4 EPX O3 V9 @1 E85,100,80,1,1 YL. [ d64 a+64 ]4 _V-3 YLR [ d64 a+64 ]4 Y.R _V4 [ d64 a+64 ]2 @@2,1,2 YLR V8 O3 E100,90,70,1,4 P15,12,2 g16 f16 g16 a16 _V-4 a16 _V4 a8. EP-4,-2,0,3,3 a+16 EPX a16 _V-3 g32 _V3 a32 g4 _V-4 g16 _V4 g16 f16 g16 a16 _V-4 a16 _V4 a8 EPX > c16 < a8 g32 _V-2 a32 _V2 g4 _V-4 g8 _V4 g32 _V-4 g32 _V4 g16 f16 _V-4 f32 _V4 f16. EP-4,-2,0,1,1 a+8. EPX _V-4 a+16 _V4 a+16 EP-4,-2,0,3,3 > c16 _V-4 c32 _V4 EPX c16. < g8 _V-4 g16 _V4 g16 f16 d+4 _V-4 d+16 _V4 d+32 _V-4 d+32 _V4 d+16 d16 d+8 _V-4 d+16 _V4 d+16 f8 g8 r16 [ YLR a32 _V-4 YL. a32 _V4 ]7 EP-4,-2,0,4,3 YLR a16. _V-4 YL. EPX a32 _V4 YLR a16 a+16 _V-4 Y.R a+16 _V4 > YLR c8 YL. _V-2 c16 
!3  `9F00 `AE00 @A3 V3 YLR O1 E100,100,80,3,4 P12,10,13 d16 r16 r4. d16 r32 ( d32 ) r4. d16 r16 r4. d16 r32 d32~ d4. L @~X E100,100,80,3,4 @A3 O1 V3 d+16 d+16 V2 d+16 V3 f8 c16 f16 V2 c16 V3 d16 V2 d16 V3 f16 g8 d16 g16 V2 d16 V3 c16 c16 c16 V2 c16 V3 d32 V2 d32 V3 d16 f+16 f+16 g16 g16 g16 V2 g16 r16 V3 f8. V3 d+16 d+16 V2 d+16 V3 f8 c16 f16 V2 c16 V3 d16 V2 d16 V3 f16 g8 d16 g16 V2 d16 [ V3 c16 V2 c16 V3 c16 c32 d16 V2 d32 d16 V3 d16 V2 d16 ]2 V3 d+16. d+16 r32 V2 d+16 V3 f16. f16 r32 V2 f16 [ V3 g16 V3 g16 V3 g16 V3 g16 ]2 [ V3 a16 V3 a16 V3 a16 V3 a16 ]2 [ V3 a+16 V3 a+16 V3 a+16 V3 a+16 ]2 > V3 c16 V3 c16 V3 c16 c32 d16 V2 d32 < V3 a16 f+16 d16 E100,100,60,3,3 [ g16. g32 r16 g16 r16 g16 r32 d16. g16. g32 r16 g16 r16 d16 g16 d16 H-2 ]2 H0 [ d+16. d+32 r16 d+16 r16 d+16 g16 d+16 H2 ]2 H0 g16. g32 r16 g16~ g4 c4 r32 c32 < g16 > c16 < g16 > d+16 g16 a+16 > d+16 ( d+16 ) < a+16 g16 d+16~ d+16 r32 d+32 r16 d+16 ( d+16 ) g16 a+16 > d+16 < d+16 g16 a+16 > d+16 ( d+16 ) < a+16 g16 a+16 d+16 r32 d+32 r16 d+16 ( d+32 ) > d+32 < a+32 r32 g16 d+16 a+16. a+32 r16 a+16 r32 a+32 f16 d16 a+16 > c16. c32 r16 c16 r32 c32 < g16 e16 c16 d+16 a+16 g16 d+16 r32 < a+32 > g16 d+16 < a+16 > c16 g16 d+16 c16 r32 c32 g16 d+16 c16 f16 f16 a16 > c16 < f32 f32 a16 f16 c16 d8 d16 e16 ( > e16 < ) f+16 < f+16 > f+16 
!4  @3 x8 [ @5 x32 x32 @7 x16 ]3 @3 x16. x32 [ @5 x32 x32 @7 x16 ]3 @8 x8 [ @5 x32 x32 @7 x16 ]3 @3 x16. x32 [ @5 x32 x32 @7 x16 ]3 L @8 x8 [ @6 x32 x32 @7 x16 ]15 @8 x8 [ @6 x32 x32 @7 x16 ]15 @8 x8 [ @6 x32 x32 @7 x16 ]3 @8 x8 [ @6 x32 x32 @7 x16 ]11 [ @8 x8 @6 x32 x32 @7 x16 ]2 @8 x16 @2 x16 @6 x32 x32 @7 x16 @6 x32 x32 @2 x16 @6 x32 x32 @7 x16 [ @6 x32 x32 @2 x16 @6 x32 x32 @7 x16 ]10 @8 x8 @6 x32 x32 @7 x16 @6 x32 x32 @2 x16 @6 x32 x32 @7 x16 @6 x32 x32 @2 x16 @8 x8 @6 x32 x32 @2 x16 @6 x32 x32 @7 x16 [ @8 x8 [ @6 x32 x32 @7 x16 ]15 ]2 @8 x8 [ @6 x32 x32 @7 x16 ]3 @8 x8 x16 x8 x8. 
!5  O2 V1 YLR @8 g8 @41 [ c8 ]3 @8 f+8 @41 [ c8 ]2 c16 c16 @8 g8 @41 [ c8 ]3 @8 f+8 @41 c8 c16. @24 c64 ( c64 ) c16 < a+48 a48 g48 L O2 [ @41 c8 @24 c8 ]7 r8 c16 < a+48 a48 g48 O2 [ @41 c8 @24 c8 ]17 @41 c8 @24 c16 < g16 O2 [ @41 c8 @24 c16. @41 c32 @41 c8 @24 c8 ]7 @41 c8 @24 c8 @41 c8 @24 c16 c32 c32 [ @41 c8 @24 c8 ]7 @41 c8 @24 c16 < g16 O2 [ @41 c8 @24 c8 ]9 @41 c8 @24 c32 < a+32 g16 O2 @24 c8 c16 c8 c16 r16 < a+48 a48 g48 
!6  O2 YLR @3 V0 g8~ g4. V1 f+16. ( f+32~ f+8~ f+4 ) g8~ g4. f+16. ( f+32 ) O1 @40 YL. [ d48 > d48 < ]3 YLR [ d48 > d48 < ]3 Y.R [ d48 > d48 < ]3 L @40 W0,95,1 O2 V1 YL. d+8. f8. g8 f8. d16~ d4 Y.R d+8. f+8. a8 g4~ g16 f8. YL. d+8. f8. g8 f8. g16~ g4 Y.R @43 W0,91,11 O1 g4 a4 a+4 > c4 d2 YLR @40 W0,95,1 O1 r8 d8 e8 f8 a8 > c8 < a+8 a8 a+4 > c8 d8 g4 a4 @44 O2 YLR d16 Y.R d32 YL. d32 r16 YLR d32 YL. d32 r16 YLR d32 Y.R d32 r16 YLR d32 YL. d32 Y.R d32 ( YL. d32 Y.R d32 ) YL. d32 YLR @27 O1 V0 a+16 Y.R a+16 YLR a16 YL. a16 YLR f16 Y.R f16 YLR c16 YL. c16 YLR c16 Y.R c16 ) @44 O2 H-2 r16 YLR d32 Y.R d32 r16 YLR d32 YL. d32 Y.R d32 ( YL. d32 Y.R d32 ) YL. d32 r16 YLR d32 YL. d32 r16 YLR d32 Y.R d32 ( YL. d32 Y.R d32 ) YLR d32 ( Y.R d32 H0 YLR d16 Y.R d32 YL. d32 r16 YLR d32 YL. d32 r16 YLR d32 Y.R d32 r16 YLR d32 YL. d32 Y.R c32 ( YL. c32 Y.R c32 ) YL. c32 r16 YLR c32 YL. c32 r16 YLR c32 Y.R c32 ( YL. c32 Y.R c32 ) YLR c32 ( Y.R c32 ) YLR d16 Y.R d32 YL. d32 r16 @27 O0 YLR V0 a+32 a32 a+16 > f16 Y.R f16 YL. f16 ) @43 W0,91,11 O1 V1 YL. [ d32 a+32 ]2 YLR [ d32 a+32 ]2 Y.R [ d32 a+32 ]2 YLR [ d32 a+32 ]2 @40 W0,95,1 O2 YLR [ [ [ c32 f32 c32 f32 ]4 H-2 ]2 H0 ]2 H0 [ O1 a+32 > d32 ]8 O2 [ c32 e32 ]8 O1 [ g32 a+32 g32 a+32 ]4 [ g32 > c32 < g32 > c32 < ]4 O1 [ f32 a32 f32 a32 ]4 @8 O2 d8 d16 e16 YL. e16 YLR f+16 Y.R f+16 YL. f+16 
