;004 0019EAB4
!1  T90 T81 r32 E100,70,70,3,0 @@4,0,3 P21,10,2 V8 O3 a2~ a8. _V-6 a16 _V4 e16 e16 _V-4 e16 _V4 f16~ f2~ f8. _V-6 f16 _V6 g16 g16 _V-4 g16 _V4 g16~ g16 a16 a4.~ a8. _V-6 a16 _V5 e16 e16 _V-4 e16 _V4 f16~ f2~ f8. _V-6 f16 _V6 g16 g16 _V-4 g16 _V4 EP0,0,0,8,15 a16~ a8~ a32 L EX @2 P20,8,6 EPX D-1 V4 O3 e16 e16 e16 e16 e16 d16~ d16 e16 e8 r8 r32 E80,100,70,3,15 @@4,2,3 PX EP0,0,-12,11,15 V4 O3 D0 e16~ e16 _V-2 YL. e16. YLR EX @2 P20,8,6 EPX D-1 V4 O3 e16 e16 d16 g16 _V-2 d16 _V2 a16~ a16 g16 e8 _V-2 e16 _V2 e16 e16 e16 d16 c8 r4 r4 r8 e16 e16 e16 f8 e16 d8 e16 e8 r4 r32 E80,100,70,3,15 @@4,2,3 PX EP0,0,-12,11,15 V4 O3 D0 e16 e16 e16~ e16 Y.R _V-2 e16. YLR EX @2 P20,8,6 EPX D-1 V4 O3 e16 e16 e16 e16 e16 d16~ d16 e16 e8 r8 r32 E80,100,70,3,15 @@4,2,3 PX EP0,0,-12,11,15 V4 O3 D0 e16~ e16 _V-2 YL. e16. YLR EX @2 P20,8,6 EPX D-1 e16 e16 d16 g16 _V-2 d16 _V2 a16~ a16 g16 e8 _V-2 e16 _V2 e16 e16 e16 d16 c16 c8 r4 r4 r16 e16 e16 e16 f8 e16 d8 e16 e32 E100,70,50,4,0 @@4,0,3 P15,8,16 B3 O2 V6 H-5 e16~ e16 _V-2 E100,70,0,4,15 e16 _V2 d16 < _V-2 b16 > _V2 d16 < b16 > d16 e16 H0 YLR E80,100,70,3,15 @@4,2,3 PX EP-4,0,0,3,0 V6 O2 g16 a16 _V-4 g16 _V4 g16 a16 E100,80,70,4,8 @@4,3,2 P20,8,6 EPX V6 O3 d16 d16 d16 e8 d16 < a8 > d8. E80,100,70,3,15 @@4,2,3 PX EP-4,0,0,3,0 V8 O2 a16 b16 _V-4 a16 _V4 a16 b16 E100,80,70,4,8 @@4,3,2 P20,8,6 EPX V6 O3 e16 e16 e16 f+16 f+16 e16 < b16 b16 > e16 e8 E80,100,70,3,15 @@4,2,3 PX EP-4,0,0,3,0 V6 O2 g16 a16 _V-4 g16 _V4 g16 a16 E100,80,70,4,8 @@4,3,2 P20,8,6 EPX V6 O3 d16 d16 d16 e8 d16 < a16 a16 > d8 _V-4 d16 _V4 E80,100,70,3,15 @@4,2,3 PX EP-4,0,0,3,0 V8 O2 a16 b16 _V-4 a16 _V4 a16 b16 E100,80,70,4,8 @@4,3,2 P20,8,6 EPX V6 O3 e16 e16 e16 e16 e16 e16 f+16~ f+16 g+16 _V-2 g+16 _V2 P20,9,3 EP-8,0,0,8,0 a16~ a2~ a8 EPX _V-2 a8 _V-2 a16 _V4 f+16 f+16 f+16 g+8 f+16 g+8 f+16 g+8 _V-4 e16 _V4 < b16 b16 b16 > d16 e16 e16 _V-4 e16 E80,100,70,3,15 @@4,2,3 PX EP-4,0,0,3,0 V6 O3 e16 _V-4 Y.R e16 _V4 YLR EX @@4,3,2 P20,8,6 EPX V4 O3 r32 D-1 a16 a16 g8 e16 g16~ g16 g16 a8 _V-2 a32 E80,100,70,3,15 @@4,2,3 PX EP-4,0,0,3,0 V6 O2 D0 a16 > c16 e16~ e16 _V-4 YL. e16. _V4 YLR EX @@4,3,2 P20,8,6 EPX V4 O3 D-1 a16 a16 g16 g16 a16 >~ d16~ d16 c16 < a8 _V-2 a32 E80,100,70,3,15 @@4,2,3 PX EP-4,0,0,3,0 V6 O2 D0 a16 > c16 e16~ e16 _V-4 Y.R e16. _V4 YLR EX @@4,3,2 P20,8,6 EPX V4 O3 D-1 a16 g16 a16 b8 >~ c16~ c16 < b8 a16 _V-2 a16 _V2 a16 a16 a16~ a16 g16 e4 _V-2 e16. _V2 E80,100,70,3,15 @@4,2,3 PX EP-4,0,0,3,0 V6 O2 D0 a16 a16 _V-6 a16 _V6 b16 _V-6 a16 _V6 b16 _V-6 a16 > _V6 e16~ e16 _V-4 Y.R e16 _V4 YLR EX @@4,3,2 P20,8,6 EPX V4 O3 r32 D-1 a16 a16 g8 e16 g16~ g16 g16 a8 _V-2 a32 E80,100,70,3,15 @@4,2,3 PX EP-4,0,0,3,0 V6 O2 D0 a16 > c16 e16~ e16 _V-4 YL. e16. _V4 YLR EX @@4,3,2 P20,8,6 EPX V4 O3 D-1 a16 a16 g16 g16 a16 >~ d16~ d16 c16 < a8 _V-2 a32 E80,100,70,3,15 @@4,2,3 PX EP-4,0,0,3,0 V6 O2 D0 a16 > c16 e16~ e16 _V-4 YL. e16. _V4 YLR E100,80,70,4,8 @@4,3,2 P20,8,6 EPX V4 O3 D-1 a16 g16 a16 b8 >~ c8 < b16 b4 _V-2 b32 E80,100,70,3,15 @@4,2,3 PX EP-4,0,0,3,0 D0 V6 O2 b16~ b16 _V-4 b32 E100,80,70,4,8 @@4,3,2 P20,8,6 EPX V4 O3 D-1 e16 e16 _V-2 e16 _V2 > c16 < g8 D0 E100,70,70,4,0 @@4,0,3 P15,10,6 B3 O1 V10 a64 > e64 EP2,0,0,1,0 > c8. < b8. g8~ g8 _V-2 @3 P0,6,12 g4 _V-2 @3 PX E100,70,20,4,20 EP0,0,-24,5,22 g8 E100,70,70,4,0 EP2,0,0,1,0 P15,5,8 @@4,0,3 _V2 d8. g8. e8~ e8 @3 P0,6,16 _V-2 e4 r16 E80,100,70,3,15 @@4,2,3 PX EP0,0,-12,11,15 V6 O3 D0 e16~ e16 _V-2 e16. 
!2  E100,70,70,4,0 @@4,0,3 P15,10,8 B3 O1 V6 c64 g64 > EP-24,0,0,15,0 a4. _V-2 EP-4,0,-18,3,6 e16 ( < EP0,0,-12,5,3~ a16 _V3 EP2,0,0,1,0 a16~ > EP0,0,100,10,1 e8 EP2,0,0,3,0 _V-2 e32. b64 _V2~ EP-4,0,-24,6,3 > c8 EP2,0,0,1,0 _V-2 < g16 _V2 EP2,0,0,1,0 g8 a16~ EP0,0,-20,10,10 a8 _V-4 a16 V6 E100,70,70,4,0 @@4,0,3 EP2,0,0,1,0~ e8 EP0,0,24,15,5 f8 EP2,0,0,1,0 d16~ d8.~ _V-4 b16 > _V4 EP0,0,24,10,5 c8 _V-2 EP2,0,0,1,0 c16 _V2 EP0,0,22,10,5 d8 EP2,0,0,1,0 e8 _V-2 e16 e12 e12 e12~ _V2 EP0,0,-22,10,5 d8 EP2,0,0,1,0 c16 d16 c48 < a48 > d48 e48 g48 a48 >~ c12 < b12 g12 a12 e12 f12 d8. @3 EX EP0,0,-90,5,4 _V-2 d16 _V2 EP2,0,0,1,0 E100,70,70,4,0 @@4,0,3 c16 <~ b16 >~ c16 < a16~ a8 L E100,80,70,4,8 @@4,3,2 P20,8,6 EPX V8 O3 e16 e16 e16 e16 e16 d16~ d16 e16 e8 r8. E80,100,70,3,15 @@4,2,3 PX EP0,0,-12,11,15 V6 O3 a16~ a16 _V-4 YL. a16 _V4 YLR E100,80,70,4,8 @@4,3,2 P20,8,6 EPX V8 O3 e16 e16 d16 g16 _V-6 d16 _V6 a16~ a16 g16 e8 _V-6 e16 _V6 e16 e16 e16 d16 c8 r4 r4 r8 e16 e16 e16 f8 e16 d8 e16 e8 r4 r16 E80,100,70,3,15 @@4,2,3 PX EP0,0,-12,11,15 V6 O3 a16 a16 a16~ a16 _V-4 Y.R a16 YLR E100,80,70,4,8 @@4,3,2 P20,8,6 EPX V8 O3 e16 e16 e16 e16 e16 d16~ d16 e16 e8 r8. E80,100,70,3,15 @@4,2,3 PX EP0,0,-12,11,15 V6 O3 a16~ a16 _V-4 YL. a16 _V4 YLR E100,80,70,4,8 @@4,3,2 P20,8,6 EPX V8 O3 e16 e16 d16 g16 _V-6 d16 _V6 a16~ a16 g16 e8 _V-6 e16 _V6 e16 e16 e16 d16 _V-2 c16 _V2 c8 r4 r4 r16 e16 e16 e16 f8 e16 d8 e16 e16 E100,70,50,4,0 @@4,0,3 P15,8,16 B3 O2 V8 e16~ e16 _V-2 E100,70,0,4,15 e16 _V2 d16 < _V-2 b16 > _V2 d16 < b16 > d16 e16 E80,100,70,3,15 @@4,2,3 PX EP-4,0,0,3,0 V8 O3 c16 d16 _V-6 c16 _V6 c16 d16 E100,80,70,4,8 @@4,3,2 P20,8,6 EPX V6 O3 f+16 _V2 f+16 _V-2 f+16 _V2~ g8 f+16 d8 f+8. E80,100,70,3,15 @@4,2,3 PX EP-4,0,0,3,0 V8 O3 d16 e16 _V-6 d16 _V6 d16 e16 E100,80,70,4,8 @@4,3,2 P20,8,6 EPX V6 O3 g+16 _V2 g+16 _V-2 g+16 _V2~ a16 a16 g+16 e16 e16 g+16 g+8 E80,100,70,3,15 @@4,2,3 PX EP-4,0,0,3,0 V8 O3 c16 d16 _V-6 c16 _V6 c16 d16 E100,80,70,4,8 @@4,3,2 P20,8,6 EPX V6 O3 f+16 _V2 f+16 _V-2 f+16 _V2~ g8 f+16 d16 d16 f+8 _V-4 f+16 _V4 E80,100,70,3,15 @@4,2,3 PX EP-4,0,0,3,0 V8 O3 d16 e16 _V-6 d16 _V6 d16 e16 E100,80,70,4,8 @@4,3,2 P20,8,6 EPX V6 O3 g+16 _V2 g+16 _V-2 g+16 _V2 g+16 g+16 g+16 a16~ a16~ b16 _V-2 b16 _V2 > P20,9,3 EP-8,0,0,8,0 c16~ c2~ c8 EPX _V-4 c8 _V-2 c16 _V4 < a16 _V2 a16 a16 b8 a16 b8 a16 b8 _V-6 b16 _V4 e16 _V2 e16 _V-2 e16 _V2~ g16~ a16 EP-8,0,0,8,0 a8 E80,100,70,3,15 @@4,2,3 PX EP-4,0,0,3,0 V8 O3 a16 _V-6 Y.R a16 _V6 YLR E100,80,70,4,8 @@4,3,2 P20,8,6 EPX V8 O3 a16 a16 g8 e16 g16~ g16 a16 EP-12,0,0,8,0 a8 _V-6 EPX a16 E80,100,70,3,15 @@4,2,3 PX EP-4,0,0,3,0 V8 O3 c16 e16 a16~ a16 _V-6 YL. a16 _V6 YLR E100,80,70,4,8 @@4,3,2 P20,8,6 EPX V8 O3 a16 a16 g16 g16 a16 >~ d16~ d16 c16 < a8 _V-6 a16 E80,100,70,3,15 @@4,2,3 PX EP-4,0,0,3,0 V8 O3 c16 e16 a16~ a16 _V-6 Y.R a16 _V6 YLR E100,80,70,4,8 @@4,3,2 P20,8,6 EPX V8 O3 a16 g16 a16 b8 >~ c16~ c16 < b8 a16 _V-6 a16 _V4 a16 a16 _V2 a16~ a16 g16 e4 _V-4 e8 _V4 E80,100,70,3,15 @@4,2,3 PX EP-4,0,0,3,0 V8 O3 d16 d16 _V-6 d16 _V6 e16 _V-6 d16 _V6 e16 _V-6 d16 _V6 a16~ a16 _V-6 Y.R a16 _V6 YLR E100,80,70,4,8 @@4,3,2 P20,8,6 EPX V8 O3 a16 a16 g8 e16 g16~ g16 a16 EP-12,0,0,8,0 a8 _V-6 EPX a16 E80,100,70,3,15 @@4,2,3 PX EP-4,0,0,3,0 V8 O3 c16 e16 a16~ a16 _V-6 YL. a16 _V6 YLR E100,80,70,4,8 @@4,3,2 P20,8,6 EPX V8 O3 a16 a16 g16 g16 a16 >~ d16~ d16 c16 < a8 _V-6 a16 E80,100,70,3,15 @@4,2,3 PX EP-4,0,0,3,0 V8 O3 c16 e16 a16~ a16 _V-6 YL. a16 _V6 YLR E100,80,70,4,8 @@4,3,2 P20,8,6 EPX V8 O3 a16 g16 a16 b8 >~ c8 < b16 b4 _V-6 b16 E80,100,70,3,15 @@4,2,3 PX EP-4,0,0,3,0 V8 O3 e16~ e32 _V-6 e32 E100,80,70,4,8 @@4,3,2 P20,8,6 EPX V8 O3 e16 e16 _V-6 e16 _V6 > c16 < g16~ a8~ a4 EX @@4,0,3 P15,10,6 B3 EP2,0,0,1,0 O3 V4 Y.R D1 < b8. g8~ g4. ( @3 PX EP0,0,-24,5,22 g8 EP2,0,0,1,0 @@4,0,3 P15,5,6 ) d8. g8. e8~ e4~ e16 r16 YLR E80,100,70,3,15 @@4,2,3 PX EP0,0,-12,11,15 V8 O3 D0 a16~ a16 _V-4 a16 
!3  `9F00 `AE00 @A3 r32 O0 E100,70,70,4,0 [ V3 a16 V2 a16 ]6 V3 e16 V2 e16 V3 e16 f16~ f16 V2 f16 [ V3 f16 V2 f16 ]5 V3 g16 V2 g16 V1 g16 V3 g8 V2 a16 [ V3 a16 V2 a16 ]5 V3 e16 V2 e16 V3 e16 f16~ f16 V2 f16 [ V3 f16 V2 f16 ]5 V3 g16 V2 g16 V1 g16 V3 a16~ a16 V2 a16 [ V3 a16 V2 a16 ]4 V3 b16 V2 b16 > V3 c16 V2 c16 < V3 b16 g16~ L g16 V2 g16 [ V3 g16 V2 g16 ]7 [ V3 f16 V2 f16 ]3 V3 f16 f16~ f16 V2 f16 V3 g16 V2 g16 V3 a16 f16 g16 f16 [ V3 e16 V2 e16 ]3 V3 e16 > e16~ e16 e16 d16 < b16 > d16 e16 < b16 a16~ a16 V2 a16 [ V3 a16 V2 a16 ]4 V3 b16 V2 b16 > V3 c16 V2 c16 < V3 b16 g16~ g16 V2 g16 [ V3 g16 V2 g16 ]7 [ V3 f16 V2 f16 ]3 V3 f16 f16~ f16 V2 f16 V3 g16 V2 g16 V3 a16 f16 g16 f16 [ V3 e16 V2 e16 ]3 V3 e16 > e16~ e16 e16 d16 < b16 > d16 < b16 > d16 e16 O1 V3 c16 d16 V1 d16 V3 c16 E100,70,20,4,26 EP0,0,-90,15,15 d4 EPX E100,70,70,4,0 r4. r16 V2 c32 c32 O1 V3 d16 e16 V1 e16 V3 d16 E100,70,20,4,26 EP0,0,-90,15,15 e4 EPX E100,70,70,4,0 r4. r16 V2 d32 d32 O1 V3 c16 d16 V1 d16 V3 c16 E100,70,20,4,26 EP0,0,-90,15,15 d4 EPX E100,70,70,4,0 r4. r16 V2 c32 c32 O1 V3 d16 e16 V1 e16 V3 d16 E100,70,20,4,26 EP0,0,-90,15,15 e4 EPX E100,70,70,4,0 r4 < e16 a16 g16 f16~ f16 V2 f16 V3 f16 V2 f16 V3 f16 >~ f16 e16 d16~ d16 V2 d16 [ V3 d16 V2 d16 ]3 [ V3 e16 V2 e16 V1 e16 ]2 V3 e16 V1 e16 @A6 V3 O4 EP0,0,-70,15,20 EX B1 c4~ c16 V2 EPX < e16 @A3 YLR O2 EP0,0,-120,5,15 E100,70,70,4,0 V3 c8 EPX O0 [ V3 a16 V2 a16 ]7 V3 g16 f16~ f16 V2 f16 [ V3 f16 V2 f16 ]2 V2 f16 >~ V3 f8 V2 f16 V3 f16 V2 f16 V3 f16 V2 f16 V3 e16 d16~ d16 V2 d16 [ V3 d16 V2 d16 ]2 V3 d16 e16~ e16 V2 e16 V3 e16 V2 e16 V3 EP-24,0,0,5,0 e16 EPX g16 V2 e16 V3 a16~ a16 V2 a16 [ V3 a16 V2 a16 ]2 V3 a16 V1 a32 V2 a32 V3 d16 e16 f16 e16 d16 c16 < b16 a16~ a16 V2 a16 V3 a16 V2 a16 > V3 c16 < a16 V2 a16 V3 a16~ a16 V2 a16 [ V3 a16 V2 a16 ]2 V3 g16 f16~ f16 V2 f16 [ V3 f16 V2 f16 ]2 V2 f16 >~ V3 f8 V2 f16 V3 f16 V2 f16 V3 f16 V2 f16 V3 e16 d16~ d16 V2 d16 V3 d16 V2 d16 EP0,0,-80,5,15 d8 EPX d16 V3 e16~ e16 V2 e16 V3 e16 V2 e16 V3 e16 f16~ < V2 b16~ V3 e16~ e8 r4. [ V3 a16 V2 a16 ]6 > V3 c16 < V2 a16 V3 a16 V2 a16 [ V3 a16 V2 a16 ]2 > V3 c16 < V2 a16 V3 a16 V2 a16 [ V3 a16 V2 a16 ]2 > V3 c16 V2 < a16 V3 g16 V2 a16~ a16 V2 a16 [ V3 a16 V2 a16 ]4 V3 b16 V2 b16 > V3 c16 V2 c16 < V3 b16 g16~ 
!4  @6 x32 @8 x8 @7 x8 x8 x8 x8 x8 x8 @5 x16 @8 x16~ x8 @7 x8 x8 x8 x8 x8 @5 x16 @7 x16 @6 x16 x16 @7 x8 @7 x8 x8 x8 x8 x8 x8 @5 x16 @8 x16~ x8 @7 x8 x8 x8 x8 x8 @5 x16 @8 x8 x16~ x16 @6 x16 [ @5 x16 @6 x16 ]3 L [ [ @5 x16 @6 x16 ]4 ]5 [ @5 x16 @6 x16 ]3 @5 x16 @8 x16~ x8. @6 x8 x8 @7 x16~ x16 @6 x16 [ @5 x16 @6 x16 ]3 [ [ @5 x16 @6 x16 ]4 ]5 [ @5 x16 @6 x16 ]3 @5 x16 @7 x16~ x8. @6 x8 x8 @8 x16~ x8 [ @7 x8 ]6 x16 @8 x16 [ [ @7 x8 ]7 x16 @8 x16 ]2 [ @7 x8 ]7 @5 x16 @8 x16~ x8 [ @7 x8 ]3 [ @7 x8 ]4 Y.R [ @8 x8 YLR @6 x16 YL. ]2 YLR @8 x8~ x16 @6 x8 x8 x8 x16 @8 x8 @7 [ x8 ]6 @5 x16 @8 x16~ x8 @7 [ x8 ]6 @5 x16 @7 x16~ x16 @5 x16 @7 [ x8 ]2 @5 x16 @7 x16~ x16 @5 x16 @7 [ x8 ]2 @5 x16 @7 x16~ x16 @5 x16 @7 [ x8 ]5 @5 x16 @7 x8 @8 x16~ x8 @7 [ x8 ]6 @5 x16 @7 x16~ x8 @7 [ x8 ]6 @5 x16 @7 x16~ x16 @5 x16 @7 [ x8 ]2 @5 x16 @7 x16~ x16 @5 x16 @7 [ x8 ]2 @5 x16 @8 x16~ x8. @6 x8 x8 x16 @8 x8 [ @7 x16 @6 x16 ]7 [ @7 x16 @6 x16 ]4 [ @7 x16 @6 x16 x16 ]2 @5 x16 @8 x16~ x16 @6 x16 [ @5 x16 @6 x16 ]3 
!5  @1 O2 V0 c64 c64 YLR V1 @0 c8 @1 c8 @0 c16 V0 c16 V1 @1 c8 [ @0 c8 @1 c8 @0 c16 V0 c16 V1 @1 c16 @0 c16~ c16 V0 c16 V1 @1 c8 @0 c8 @1 c8 ]3 @0 c16 @1 c16 @0 V0 c16 V1 c16 @1 V0 c16 V1 c8 @0 c16~ c8 @1 c8 @0 c16 V0 c16 V1 @1 c8 L [ V1 @0 c8 @1 c8 @0 c16 V0 c16 V1 @1 c8 ]5 V1 @0 c8 @1 c8 @0 c16 V0 c16 V1 @1 c16 @0 c16~ c16 @1 V0 c16 V1 c16 V0 c16 V1 c16 c16 c16 @0 c16~ c8 @1 c8 @0 c16 V0 c16 V1 @1 c8 [ V1 @0 c8 @1 c8 @0 c16 V0 c16 V1 @1 c8 ]5 V1 @0 c8 @1 c8 @0 c16 V0 c16 V1 @1 c16 c64 c128~ c128~ c32 c16 @1 V0 c16 V1 c16 V0 c16 V1 c16 V0 c16 c16 V1 c16~ [ @0 c16 c16 @1 c16 V0 @0 c16 [ V1 c8 @1 c8 @0 ]2 V1 c16 V0 c16 @1 c8 V1 ]3 @0 c16 c16 @1 c16 V0 @0 c16 [ V1 c8 @1 c8 @0 ]2 V1 @1 c64 c128~ c128~ c32~ c16 c16 @0 c16~ c16 V0 c16 @1 V1 c8 @0 c16 V0 c16 @1 V1 c16 @0 V0 c16 @0 V1 c16 c16 @1 c8 @0 c16 V0 c16 V1 @1 c16 @0 c16 c8 @1 c16 @0 c8 V0 c32 V1 c32 @1 c8 [ @1 V1 c64 c128~ c128~ c32 @0 c16 c16 ]2 @1 c16. V0 c32 V1 [ V1 @0 c8 @1 c8 ]3 @0 c16 c16 @1 c16 @0 c16~ c16 V0 c16 V1 @1 c8 [ @0 c8 @1 c8 ]2 @0 c16 c16 @1 c16 @0 c16~ c16 V0 c16 V1 @1 c8 @0 c8 @1 c16 @0 c16~ c16 V0 c16 V1 @1 c8 @0 c8 @1 c16 @0 c16~ c16 V0 c16 V1 @1 c8 @0 c16 c16 @1 c8 [ @1 c16 @0 c16 ]3 @1 c64 c128~ c128~ c32 @0 c16~ c16 V0 c16 V1 @1 c8 [ @0 c8 @1 c8 ]2 @0 c16 c16 @1 c16 @0 c16~ c16 V0 c16 V1 @1 c8 [ @0 c8 @1 c8 ]2 @0 c16 c16 @1 c16 @0 c16~ c16 V0 c16 V1 @1 c8 @0 c8 @1 c16 @0 c16~ c16 V0 c16 V1 @1 c8 @0 c16 V0 c16 V1 @1 c16 @0 c16~ c16 @0 c16 @1 c16 @0 c16 @1 c64 c128~ c128~ c32 @0 c16 @1 c64 c128~ c128~ c32 c16 [ @0 c8 @1 c8 ]3 @0 c8 @1 c16 @0 V0 c16 V1 @0 c8 @1 c8 @0 c8 @1 c16 @0 V0 c16 V1 c16 @1 c16 @0 c8 @1 c64 c128~ c128~ c32 @0 c16 @1 c16 @0 c16~ c8 @1 c8 @0 c16 V0 c16 V1 @1 c8 
!6  @47 V0 O1 g64 g+64 V1 a8 @40 W0,96,0 O2 V0 e2~ e8 O1 V1 @47 e16 e16 V0 e16~ V1 f16~ f8 @40 W0,96,0 V0 O2 c2~ c8 O1 V1 @47 g16 g16 V0 g16 V1 g16 V0 g16 V1 a16 a8 @40 W0,96,0 O2 V0 e2 O1 V1 @47 e16 e16 V0 e16 V1 f16~ f8 @40 W0,96,0 V0 O2 c2~ c8 O1 V1 @47 g16 g16 V0 g16 V1 EP0,0,-127,15,4 V1 @14 O2 a8. EPX @21 O1 [ V1 a16 V0 a16 ]4 V1 b16 V0 b16 > V1 c16 V0 c16 < V1 b16 @14 O2 V1 L EP0,0,-127,15,4 a8. EPX O1 @21 [ V1 g16 V0 g16 ]7 [ V1 f16 V0 f16 ]3 V1 f16 V1 f16~ f16 V0 f16 V1 g16 V0 g16 V1 a16 V0 f16 g16 f16 [ V1 e16 V0 e16 ]3 V1 e16 > W0,32,27 P15,9,2 V0 e16~ e16 e16 d16 < b16 > d16 @14 V1 O2 a16 a16 EP0,0,-127,15,5 a8. PX EPX @21 O1 [ V1 a16 V0 a16 ]4 V1 b16 V0 b16 > V1 c16 V0 c16 < V1 b16 @14 O2 V1 EP0,0,-127,15,4 a8. EPX O1 @21 [ V1 g16 V0 g16 ]7 [ V1 f16 V0 f16 ]3 V1 f16 V1 f16~ f16 V0 f16 V1 g16 V0 g16 V1 a16 V0 f16 g16 f16 [ V1 e16 V0 e16 ]3 V1 e16 > W0,32,27 P15,9,2 V0 e16~ e16 e16 d16 < b16 > d16 < b16 > d16 e16 @14 V1 YLR c16 d16 Y.R V0 c16 V1 YLR c16 d8~ d128 @1 V0 Y.R D-1 c8 @0 c8 @1 YLR c8 @0 c16 V0 c16 YL. @1 c32~ c64. D0 V1 YLR @21 O1 c32 c32 > @14 V1 YLR d16 e16 YL. V0 d16 V1 YLR d16 e8~ e128 @1 V0 YL. D-1 c8 @0 c8 @1 YLR c8 @0 c16 V0 c16 Y.R @1 c32~ c64. D0 V1 YLR @21 O1 d32 d32 > @14 V1 YLR c16 d16 Y.R V0 c16 V1 YLR c16 d8~ d128 @1 V0 Y.R D-1 c8 @0 c8 @1 YLR c8 @0 c16 V0 c16 YL. @1 c32~ c64. D0 V1 YLR @21 O1 c32 c32 > @14 V1 YLR d16 e16 YL. V0 d16 V1 YLR d16 e8~ e128 @1 V0 YL. D-1 c8 @0 c8 @1 YLR c8 @0 c32. r128 D0 @21 O1 V0 a16 V1 g16 V1 f16~ f16 V0 f16 V1 f16 V0 f16 W0,32,27 f16 >~ f16 @21 e16 W0,32,27 d16~ d16 @21 V0 d16 [ V1 d16 V0 d16 ]3 [ W0,32,27 V0 e8 @21 V0 r16 ]2 W0,32,27 EP0,0,-50,15,20 V0 e4 r4. @14 V1 O2 a8 @21 O1 [ V1 a16 V0 a16 ]5 V1 a16 @14 O2 c16 e16 a16~ a8 @21 O1 [ V1 f16 V0 f16 ]5 V1 f16 @14 O2 c16 e16 a16~ a8 @21 O1 [ V1 d16 V0 d16 ]2 d16 V1 e16~ e16 V0 e16 [ V1 e16 V0 e16 ]2 e16 a16~ a16 V0 a16 [ V1 a16 V0 a16 ]2 V1 a16 V0 a32 a32 > @14 V1 O2 YLR d16 d16 V0 Y.R d16 YLR V1 e16 V0 YL. d16 YLR V1 e16 V0 Y.R d16 YLR V1 a16 a8 @21 O1 V1 a16 V0 a16 V1 > c16 < a16 V0 a16 V1 a16~ a16 V0 a16 V1 a16 V0 a16 V1 a16 @14 O2 c16 e16 a16~ a8 @21 O1 [ V1 f16 V0 f16 ]5 V1 f16 @14 O2 c16 e16 a16~ a8 @21 O1 [ V1 d16 V0 d16 ]2 d16 V1 e16~ e16 V0 e16 V1 e16 V0 e16 V1 e16 f16~ < b16 @14 O2 e16~ e8 r4. @21 O1 [ V1 a16 V0 a16 ]6 V1 > c16 < V0 a16 V1 a16 V0 a16 [ V1 a16 V0 a16 ]6 V1 > c16 < a16 g16 V1 @14 O2 EP0,0,-127,15,4 a8. EPX @21 O1 [ V1 a16 V0 a16 ]4 V1 b16 V0 b16 > V1 c16 V0 c16 < V1 b16 @14 O2 V1 
