;005 001A0328
!1  T90 T75 L @@3,2,1 O4 V7 E80,100,20,1,19 YLR P0,12,2 f+8 D1 e16 < D0 b8 g8 > d8 c8 < a16 e4 > c8 < b16 f+8 g8 f+16~ f+16 e8 d+16 e8 _V-4 Y.R e16 YL. e16 @@2,1,2 O3 Y.R V3 EX PX r64. D2 e32 _V-2 e32 _V2 e16 g16 f+8 _V-2 f+16 _V2 d16 e8. _V-2 e16 _V2 g16 f+16 e16 d32 _V-2 d32 _V2 d8 c4 _V-2 Y.R c16 YL. c16 Y.R _V2 d16 c16 < b16~ b4 _V-2 Y.R b16 YL. b16 Y.R _V2 > O3 e8 g16 f+8 g16 f+16 e16~ e8 _V-2 e16 _V2 g16 f+16 e16 d32 _V-2 d32 _V2 d8 c4 _V-2 Y.R c16 YL. c16 _V2 Y.R e32 _V-2 e32 _V2 e16 d+16 _V-2 Y.R d+16 YL. d+32~ d+128 V4 D0 E100,100,80,37,6 YLR < d+8 f+8 P12,11,5 g4. _V-4 Y.R g16 _V4 YLR e16 a16 b16 a16 g16 _V-4 Y.R g16 _V4 YLR e16 f+16 g16~ g16 f+16 g4 _V-4 Y.R g16 _V4 YLR f+16 a16 b16 a16 g16 _V-4 Y.R g16 _V4 r8. @@2,2,3 > [ YLR c16 _V-4 YL. c16 _V4 ]4 < [ YLR a16 _V-4 Y.R a16 _V4 ]4 > [ YLR e16 _V-4 YL. e16 _V4 ]4 YLR d+16 V9 < b16 > d16 e16 f+16 a16 b16 E100,60,90,4,6 a16~ a8 _V-4 Y.R a16 YL. a16 O2 @@2,0,1 V7 E100,100,70,12,1 YLR P40,10,4 g8 a8 f+16 e16 _V-4 e16 _V4 d16 e16 g16 a16 b16~ b4. _V-4 b16 _V4 b16 > c16 < b16 a16 g16 e16 g16 f+16 g8 f+16 _V-4 Y.R f+16 YL. f+16 _V4 YLR [ b16 _V-4 b16 _V4 ]2 b24 a24 g24 _V-4 Y.R g16 YL. g16 _V4 YLR g16 e16 > ) d16 ( < a16 b4. _V-4 b16 _V4 e16 > c16 < b16 a16 g16 e16 g16 _V-4 g16 _V4 g16 f+8 _V-4 f+16 _V4 f+16 g16 _V-4 g16 _V4 a16 _V-4 a16 _V4 g24 f+24 e24 @@2,1,2 V8 g16 f+8 _V-4 Y.R f+16 _V4 YLR f+16 e16 _V-4 Y.R e16 _V4 YLR e16 _V-4 YL. e16 _V4 YLR g8 _V-4 Y.R g16 _V4 YLR O2 @@3,1,2 P25,12,3 E100,100,90,1,1 V5 a8 b4 _V-3 YL. b16 _V3 YLR b16 > c16 d16~ d16 c16 < b8. _V-3 YL. b16 _V3 YLR b16 > c16~ c16 _V-3 YL. c16 _V3 YLR c32 < b32 > c16~ c8 _V-3 Y.R c16 _V3 YLR g16~ g32 _V-3 Y.R g32 _V3 YLR g16 [ f+32 _V-3 YL. f+32 _V3 YLR ]2 f+16 e16 c32 _V-3 YL. c32 _V3 YLR c16~ c16 < b8. _V-3 YL. b16 _V3 YLR b16 > c16 d16~ d16 c16 < b8. _V-3 Y.R b16 _V3 YLR b16 > c16~ c16 _V-3 YL. c16 _V3 YLR c32 < b32 > c16~ c8 _V-3 Y.R c16 _V3 D2 YLR b16~ b32 _V-3 Y.R b32 _V3 YLR b16 a32 _V-3 Y.R a32 _V3 YLR _V-2 a16 b16 a16 b16 a16 D0 @@3,2,1 O4 V7 E80,100,20,1,19 YLR P0,12,2 f+8 D1 e16 < D0 b8 g8 > d8 c8 < a16 e4 > c8 < b16 f+8 g8 f+16~ f+16 g16 f+16 e16~ e8 _V-4 Y.R e16 YL. e16 
!2  L @@2,0,1 O3 V7 E90,100,70,1,12 YLR P0,19,4 f+16 _V-4 f+16 Y.R _V4 YLR e16 < b16 _V-4 YL. b16 _V4 YLR g16 _V-4 Y.R g16 > _V4 YLR D-1 d16 _V-4 YL. d16 _V4 YLR c16 _V-4 Y.R c16 < D0 _V4 YLR a16 e8 _V-4 Y.R e16 YL. e16 _V4 YLR > c16 _V-4 c16 Y.R _V4 YLR < b16 f+16 _V-4 YL. f+16 _V4 YLR g16 _V-4 Y.R g16 _V4 YLR f+16 _V-4 YL. f+16 _V4 YLR e16 _V-4 Y.R e16 _V4 YLR d+16 e8 _V-4 Y.R e16 YL. e16 @@2,1,2 O3 YLR V7 E100,100,80,6,6 PX e32 _V-4 e32 _V4 e16 g16 f+8 _V-4 f+16 _V4 d16 e8. _V-4 e16 _V4 g16 f+16 e16 d32 _V-4 d32 _V4 d8 c4 _V-4 Y.R c16 YL. c16 YLR _V4 d16 c16 < b16~ b4 _V-4 Y.R b16 YL. b16 YLR _V4 > e8 g16 f+8 g16 f+16 e16~ e8 _V-4 e16 _V4 g16 f+16 e16 d32 _V-4 d32 _V4 d8 c4 _V-4 Y.R c16 YL. c16 _V4 YLR e32 _V-4 e32 _V4 e16 d+16 _V-4 Y.R d+16 YL. d+16 _V4 YLR < V7 E100,100,80,37,6 b8 > d+8 P41,11,4 e4. _V-4 Y.R e16 _V4 YLR c16 f+16 g16 f+16 e16 _V-4 Y.R e16 _V4 YLR c16 d16 e16~ e16 d+16 e4 _V-4 Y.R e16 _V4 YLR d16 f+16 g16 f+16 e16 _V-4 Y.R e16 _V4 YLR d16 < b32 _V-4 YL. b32 _V4 YLR b16~ b16 a32 _V-4 YL. a32 _V4 YLR a8 r8 a32 _V-4 YL. a32 _V4 YLR a16 b16 > e8 d8 _V-4 YL. d16 _V4 < YLR b16 > c16~ c16 e8 g16 _V-4 YL. g16 _V4 YLR a16 g32 _V-4 YL. g32 _V4 YLR g16 f+32 _V-4 YL. f+32 _V4 YLR f+16~ f+4~ f+16 @@2,0,1 < E100,60,90,4,6 V9 d+16~ d+8 _V-4 Y.R d+16 YL. d+16 O3 E100,100,80,12,1 V7 YLR P6,12,3 g8 a8 f+16 e16 _V-4 e16 _V4 d16 e16 g16 a16 b16~ b4. _V-4 b16 _V4 b16 > c16 < b16 a16 g16 e16 g16 f+16 g8 f+16 _V-4 Y.R f+16 YL. f+16 _V4 YLR [ b16 _V-4 b16 _V4 ]2 b24 a24 g24 _V-4 Y.R g16 YL. g16 _V4 YLR g16 e16 > ) d16 ( < a16 b4. _V-4 b16 _V4 e16 > c16 < b16 a16 g16 e16 g16 _V-4 g16 _V4 g16 f+8 _V-4 f+16 _V4 f+16 g16 _V-4 g16 _V4 a16 _V-4 a16 _V4 g24 f+24 e24~ e4 _V-4 Y.R e16 YL. e16 _V4 YLR r4. O3 @@3,1,2 P25,12,2 E100,100,90,1,1 V7 d8 D1 g4 _V-4 YL. g16 _V4 YLR g16 D0 a16 b16~ b16 a16 D1 g8. _V-4 YL. g16 _V4 YLR D0 d16 D1 g16~ g4. _V-4 Y.R g16 _V4 YLR D0 b16~ b32 _V-4 Y.R b32 _V4 YLR b16 [ a32 _V-4 YL. a32 _V4 YLR ]2 a16 g16 e16 a16~ a16 D1 g8. _V-4 YL. g16 _V4 YLR D0 g16 a16 b16~ b16 a16 D1 g8. _V-4 Y.R g16 _V4 YLR d16 g16~ g4. _V-4 YL. g16 _V3 YLR D0 b16~ b32 _V-4 Y.R b32 _V4 YLR b16 a32 _V-4 Y.R a32 _V4 YLR a16 b16 a16 b16 a16~ a16 g16 e4 _V-4 Y.R e16 YL. e16 _V4 YLR @@2,0,1 O3 V7 E90,100,70,1,12 YLR P0,19,4 _V-4 YL. d16 _V4 YLR c16 _V-4 Y.R c16 < D0 _V4 YLR a16 e8 _V-4 Y.R e16 YL. e16 _V4 YLR > c16 _V-4 c16 Y.R _V4 YLR < b16 f+16 _V-4 YL. f+16 _V4 YLR g16 _V-4 Y.R g16 _V4 YLR f+16 _V-4 YL. f+16 _V4 YLR g16 f+16 e16~ e8 _V-4 Y.R e16 YL. e16 
!3  L `AE00 `9F00 @A3 O1 [ V3 e32 r32 e16 r16 V2 e32 r32 ]2 [ [ V3 a32 r32 a16 r16 V2 a32 r32 ]2 H2 ]2 H0 [ V3 e32 r32 e16 r16 V2 e32 r32 ]2 [ [ V3 e32 r32 e16 r16 V2 e32 r32 ]2 H3 ]2 H0 [ [ V3 a32 r32 a16 r16 V2 a32 r32 ]2 H2 ]2 H0 [ [ V3 e32 r32 e16 r16 V2 e32 r32 ]2 H3 ]2 H0 [ V3 a32 r32 a16 r16 V2 a32 r32 ]2 V3 b32 r32 b16 r16 V2 b32 r32 V3 b16. r32 b8 E100,100,70,6,1 V3 c2~ c4 r16 c16 < b16 a16~ a2~ a4. r8 V3 E100,100,70,3,1 a16 r16 r16 g+16 a16 r16 r16 a16 b16 r16 r16 a+16 b16 f+16 < b16 r16 > c16 r16 r16 b16 > c16 r16 r16 < c16 < [ b16 ]7 b16~ b8. r16 b16 r16 b8 EX > [ [ V3 e32 r32 e16 r16 V2 e32 r32 ]2 H3 ]2 H0 [ [ V3 a32 r32 a16 r16 V2 a32 r32 ]2 H2 ]2 H0 [ [ V3 e32 r32 e16 r16 V2 e32 r32 ]2 H3 ]2 H0 [ V3 a32 r32 a16 r16 V2 a32 r32 ]2 E100,100,70,6,1 V3 b32 r32 V2 b16 r16 V3 b32 r32 [ b16 f+16 ]2 V3 e16 e16 r8 e16 e16 r16 < a16 r16 a16 r16 > B3 d16~ d8~ > d16 < d16 V3 g32 r32 V2 g16 r8 V3 g32 r32 g16 d16 e16~ e32 r32 e16 r16 d16 e8 < g16 a16~ a32 r32 a16 r16 g16 a8 r16 a16 > d32 r32 d16 r16 c16 d16 c16 < a16 > d16 g32 r32 V2 g16 r8 V3 g32 r32 g16 d16 e16~ e32 r32 e16 r16 d16 e8 < g16 a16~ a32 r32 a16 r16 g16 a8 r16 a16 b32 r32 b16 r16 a16 b16 f+16 < b8 O1 [ V3 e32 r32 e16 r16 V2 e32 r32 ]2 [ [ V3 a32 r32 a16 r16 V2 a32 r32 ]2 H2 ]2 H0 [ V3 e32 r32 e16 r16 V2 e32 r32 ]2 
!4  L [ @5 x16 x16 r16 x16 x16 x16 r16 x16 ]3 x16 x16 r16 x16 x16 r16 r16 @7 x16 [ @5 x16 x16 r16 x16 x16 x16 r16 x16 ]7 x16 x16 r16 x16 @7 x8 r16 @5 x16 @5 x16 x16 r16 x16 x16 x16 r16 x16 x16 x16 r16 x16 x16 x16 r16 @8 x8 @5 x16 r16 x16 x16 x16 r16 x16 @5 x16 x16 r16 x16 x16 x16 r16 x16 @8 x8 @5 r16 x16 x16 x16 r16 x16 [ x16 x16 r16 x16 x16 x16 r16 x16 ]2 @1 x16 @2 x16 x16 x16 @1 x16 x16 x16 @8 x4 r16 x4 x8 @5 r16 x16 x16 x16 r16 x16 [ @5 x16 x16 r16 x16 x16 x16 r16 x16 ]6 x16 x16 r16 x16 x16 x16 @7 x16 @5 x16 r8 x16 x16 x16 x16 r16 @7 x16 r16 x16 r16 @8 x8. r8 @8 x8 @5 x16 x16 x16 x16 r16 @7 x16 @5 x16 x16 @7 x16 @5 x16 x16 x16 r16 @7 x16 [ @5 x16 x16 @7 x16 @5 x16 x16 x16 r16 @7 x16 ]5 @5 x16 x16 @7 x16 @5 x16 r4 [ @5 x16 x16 r16 x16 x16 x16 r16 x16 ]3 x16 x16 r16 x16 x16 r16 r16 @7 x16 
!5  L YLR V1 O2 [ @0 c8 @24 c8 @0 c8 @24 c8 ]3 @0 c8 @24 c8 @0 c16 @2 c16 < a+16 g16 O2 [ @0 c8 @24 c8 @0 c8 @24 c8 ]8 [ r8 @24 c8 r8 c8 ]3 r8 c8 r16 @0 c16 @24 c16 @0 c16 [ @24 c8 c16 @0 c16 @24 c8 c16 @0 c16 ]3 @24 c16 c16 c16 c16 c16 c16 c16 c16 r8. @0 c16 @24 c8 c8 O2 [ @0 c8 @24 c8 @0 c8 @24 c8 ]8 @0 c8 @24 c8 @0 c8 @24 c16 @0 c16 r16 c16 r16 @24 c16 r8 @2 < g8 O2 [ @0 c8 @24 c8 @0 c8 @24 c16 c16 ]7 @0 c8 @24 c8 @0 c16 @24 c16 c16 c16 YLR V1 O2 [ @0 c8 @24 c8 @0 c8 @24 c8 ]4 
!6  L @40 YLR V1 O2 f+16 ( f+16 Y.R ) YLR < b16 g16 ( YL. g16 ) YLR e16 ( Y.R e16 ) YLR b16 ( YL. b16 ) YLR a16 ( Y.R a16 ) YLR e16 c8 ( Y.R c16 YL. c16 ) YLR a16 ( a16 Y.R ) YLR d+16 d+16 ( YL. d+16 ) YLR < b16 ( Y.R b16 ) YLR a16 ( YL. a16 ) YLR g16 ( Y.R g16 ) YLR f+16 g8 ( Y.R g16 YL. g16 O1 [ [ V0 @18 x16 x16 V1 @17 Y.R x16 V0 @18 YL. x16 ]2 ]3 @40 W0,95,0 O1 YLR V1 b4 f+4 O1 [ [ YL. V0 @18 x16 x16 V1 Y.R @17 x16 V0 YL. @18 x16 ]2 ]3 V0 YL. @18 x16 x16 V1 Y.R @17 x16 V0 YL. @18 x16 V0 @18 x8 V1 Y.R @17 x8 @43 O1 V1 YLR r16 c16 d16 g16 Y.R g16 YLR > c16 d16 g16 Y.R V0 g12 YL. g12 Y.R g12 YL. g12 Y.R g12 YL. g12 O0 YLR V1 a16 > e16 a16 b16 Y.R b16 YLR > c+16 e16 a16 Y.R V0 a12 YL. a12 Y.R a12 r8 O1 YLR V1 c32 d32 e32 f+32 [ YLR g16 V0 YL. g16 V1 ]4 [ YLR g16 V0 Y.R g16 V1 ]4 [ YLR g16 V0 YL. g16 V1 ]4 YLR f+16 < < b16 > d16 e16 f+16 a16 b16 @43 W0,91,11 > d16~ d8 V0 Y.R d16 YL. d16 V1 r4 YLR r2 r8 @40 W0,95,0 O1 YLR V1 e8 g8 > d8 c2 < b2 e4. f+8 g16 r16 e8 g8 > d8 [ [ c32 < e32 > ]8 H-1 ]2 H0 < r8 e16 d8 V0 Y.R d16 V1 YLR d16 c+16 V0 Y.R c+16 V1 YLR c+16 V0 YL. c+16 V1 YLR e16 a32 > c32 e32 g32 d32 e32 g32 > c32 @40 W0,95,0 O2 d2~ d8 g8 f+8 < b16 > d16~ d4. e8 d4~ d16 < d16 g16 b16 > d2~ d8 g8 f+8 < b16 > d16~ d4. e8 d+2 @40 YLR V1 O2 f+16 ( f+16 Y.R ) YLR < b16 g16 ( YL. g16 ) YLR e16 ( Y.R e16 ) YLR b16 ( YL. b16 ) YLR a16 ( Y.R a16 ) YLR e16 c8 ( Y.R c16 YL. c16 ) YLR a16 ( a16 Y.R ) YLR d+16 d+16 ( YL. d+16 ) YLR < b16 ( Y.R b16 ) YLR a16 ( YL. a16 ) YLR @40 W0,95,1 b16 a16 g8 ( @40 Y.R g16 YL. g16 Y.R g16 
