;006 001A1152
!1  T90 T86 @@4,2,0 EP-4,0,0,1,0 E100,80,80,4,0 O3 V6 d+16 d+16 d+16 d+16 d+16 d16 _V-2 Y.R d+16 d16 _V-2 YL. d+16 d16 YLR _V4 r4. d+16 d+16 d+16 d+16 d+16 d16 _V-2 YL. d+16 d16 _V-2 Y.R d+16 d16 YLR _V4 r4. c8 c16 c16 EP0,0,-12,8,15 < b8 EP-4,0,0,1,0 _V-2 f16 _V2 _V2 > c4 @2 EPX EX D-1 YL. V4 r48 O2 d+16 > > d+16 < a+16 f16 < < f8 > a+16 > d+16 g+16 g16 < g16 g16 O1 > Y.R c8 < f16 a+16 > d+16 > > d+16 < a+16 f16 < < f8 > a+16 > d+16 g+24 D0 YLR @@4,3,1 EP-4,0,0,3,0 E100,70,40,1,15 V6 d16 d16 _V-4 d16 d16 L @2 EP-4,0,0,1,0 B5 PX O3 V4 D-1 r32 YL. c8 c16 c16 c16 c16 c16 d16 ( d+16 ) d16 d16 c16 c16 d16 c16 d16 c16 c16 c16 c16 c16 c16 c16 d16 d+16 d16 d16 c16 c16 c16 c16 < b32 > @@4,2,0 EP-4,0,0,1,0 E100,50,50,4,0 O3 V8 YLR P15,10,8 D0 d16 d8~ f4 _V-4 f16 _V4 c16 c8~ d+4 _V-4 d+16 _V4 g16 < b16 b16 b16 _V-4 b16 ( > g16 < b16 ( b16 b16 r16 > g16 < b16 b16 r8. > @2 EP-4,0,0,1,0 O3 V4 D-1 r32 YL. PX c16 c16 c16 c16 c16 c16 c16 d16 d+16 d16 d16 c16 c16 d16 c16 d16 c16 c16 c16 c16 c16 c16 c16 d16 d+16 d16 d16 c16 c16 c16 c16 < b32 > @@4,2,0 EP-4,0,0,1,0 E100,50,50,4,0 O3 V6 YLR P15,10,8 D0 d16 d8~ f4 _V-4 f16 _V4 c16 c8~ d+4 _V-4 d+16 _V4 < b16 ( b16 ) b16 ( b16 ) b16 > f16 _V-4 f16 _V3 g16 ) f16 d+16 @@4,3,1 EPX E100,70,40,1,15 V8 O3 f16 g16 _V-4 f16 _V4 g16 f16 g16 _V-4 f16 _V4 c8. d16 _V-4 e16 _V4 e8 @@4,2,0 EP-4,0,0,1,0 E100,50,50,4,0 P15,10,8 D0 O2 V8 g+8 g+16 g+16 g+8 g+8 a+8 > c8 < a+8 g+8 g4 @@4,3,1 EPX E100,70,40,1,15 V6 P15,12,6 O2 d+4 d4 c4 @@4,2,0 EP-4,0,0,1,0 E100,50,50,4,0 P15,10,8 D0 O2 V8 f8 f8 f8 g+16 g8. g+8 g8 f8 d+4 @@4,3,1 EPX E100,70,40,1,15 V8 P15,12,6 O2 d+4 d4 c8 @@4,2,0 EP-4,0,0,1,0 E100,50,50,4,0 P15,10,8 D0 O2 V8 d+16 d+16 f16 f16 r16 _V-2 f16 _V2 f16 f16 g+16 g4. _V-4 g16 _V4 d+16 f16 g8. g16 g8 a+16 g+4 _V-4 g+16 _V4 r8 g+16 g+16 a2 r8 a16 a16 a12 > d12 c12 E100,50,65,4,30 < b4~ b16 E100,50,50,4,0 @@4,3,1 EPX E100,70,40,1,15 V6 PX H-5 O3 _V-2 a+32 > c32 d24 d+24 f24 _V2 EP-2,0,0,3,0 g+12 g+12 g+12 EP0,0,-30,5,9 g16 _V-2 g16 _V-2 g16 EPX H0 B10 @@4,2,0 EP-2,0,0,1,0 E100,50,50,4,0 P8,10,4 D0 O4 V8 d+8 ( d+16 ) d+16 ( d+16 ) d16 c16 _V-3 c16 _V3 d+8 ( d+16 ) d+16 ( d+16 ) d16 c16 _V-5 d+16 _V5 r16 < c2 <~ g+4 _V3~ > c8. EPX > d8 ( d16 ) d16 ( d16 ) c16 < a+16 _V-3 a+16 _V3 > d8 ( d16 ) d16 ( d16 ) c16 < a+16 _V-5 a+16 _V4 r16 < g16 ( g16 ) g16 ( g16 ) g16 a16 _V-3 a16 _V3 b4 _V-3 b8 _V-2 b8 _V5 > > d+8 ( d+16 ) d+16 ( d+16 ) d16 c16 _V-3 c16 _V3 d+8 ( d+16 ) d+16 ( d+16 ) d16 c16 _V-5 c16 _V5 r16 < c2~ < g+4~ > c8. r16 EPX @@4,2,0 EP-4,0,0,1,0 E100,80,80,4,0 O3 V6 d+16 d+16 d+16 d+16 d+16 d16 _V-2 Y.R d+16 d16 _V-2 YL. d+16 d16 YLR _V4 r4. d+16 d+16 d+16 d+16 d+16 d16 _V-2 YL. d+16 d16 _V-2 Y.R d+16 d16 YLR _V4 r4. c8 c16 c16 EP0,0,-12,8,15 < b8 EP-4,0,0,1,0 _V-2 < f16 _V2 d+4 _V-2 d+8 _V-2 d+8 r16 @2 V3 D-1 E100,80,70,3,8 EPX O1 PX r32 Y.R [ d+32 g32 a+32 > d+32 g32 a+32 > d+32 g32 > d+32 < a+32 g32 d+32 < a+32 g32 d+32 < a+32 d+32 g32 a+32 > d+32 g32 a+32 > d+32 g32 > d+32 < a+32 g32 d+32 < a+32 g32 d+32 < a+32 H3 YL. ]2 H6 Y.R d+32 g32 a+32 > d+32 g32 a+32 > d+32 g32 > d+32 < a+32 g32 d+32 < a+32 g32 d+32 < a+32 d+32 g32 a+32 > d+32 g32 a+32 > d+32 g32 > d+32 < a+32 g32 d+32 < a+32 g32 d+32 < a+32 H9 YL. d+32 g32 a+32 > d+32 g32 a+32 > d+32 g32 > d+32 < a+32 g32 d+32 < a+32 g32 d+32 < a+32 d+32 g32 a+32 > d+32 g32 a+32 > d+32 H0 D0 YLR @@4,3,1 EPX E100,70,40,1,15 V6 P15,12,6 O2 g16 g16 _V-6 g16 g16 
!2  @@4,2,0 EP-4,0,0,1,0 E100,80,80,4,0 O3 V8 g+16 g+16 g+16 g+16 g+16 g16 _V-4 Y.R g+16 g16 _V-2 YL. g+16 g16 YLR _V6 r4. g+16 g+16 g+16 g+16 g+16 g16 _V-4 YL. g+16 g16 _V-2 Y.R g+16 g16 YLR _V6 r4. g+8 g+16 _V-2 g+16 _V2 EP0,0,-12,8,15 g8 EP-4,0,0,1,0 _V-2 < b16 _V-2 d+8 @@4,3,1 EPX E100,70,40,1,15 V8 O1 f16 a+16 > d+16 > > d+16 < a+16 _V-2 f16 _V2 < < f8 > a+16 > d+16 g+16 g16 < g16 _V-3 g16 _V4 O1 > c8 < f16 a+16 > d+16 > > d+16 < a+16 _V-2 f16 _V2 < < f8 > a+16 > d+16 g+16 EP-4,0,0,3,0 g16 g16 _V-4 YL. g16 Y.R _V-2 g16 YLR _V6 L @@4,2,0 EP-4,0,0,1,0 E100,50,50,4,0 P15,10,4 D0 B5 O3 V10 c8 c16 ( c16 ) c16 ( c16 ) c16 ( d16 _V-4 d+16 _V4 d16 ) d16 ( c16 ) c16 _V-4 d16 _V-2 c16 d16 _V6 c16 ( c16 ) c16 ( c16 ) c16 ( c16 ) c16 ( d16 ) d+16 ( d16 ) d16 c16 _V-4 c16 _V3 c16 ) c16 < ( b16 ) a+16 a+8 >~ d4 _V-4 < a+16 _V4 g+16 g+8 >~ c4 _V-4 < g+16 _V4 b16 g16 g16 g16 _V-6 g16 ( b16 g16 ( g16 g16 r16 b16 g16 g16 r8. _V8 > c16 ( c16 ) c16 ( c16 ) c16 ( c16 ) c16 ( d16 ) d+16 ( d16 ) d16 ( c16 ) c16 _V-4 d16 _V-2 c16 d16 _V6 c16 ( c16 ) c16 ( c16 ) c16 ( c16 ) c16 ( d16 ) d+16 ( d16 ) d16 ( c16 ) c16 ( c16 ) c16 < ( b16 ) a+16 a+8 >~ d4 _V-6 < a+16 _V6 g+16 g+8 >~ c4 _V-6 < g+16 _V6 g16 ( g16 ) g16 ( g16 ) g16 > d16 _V-6 d16 _V5 d+16 ) d16 c16 @@4,3,1 EPX E100,70,40,1,15 V8 PX O2 a+16 > c16 _V-4 < a+16 > _V4 c16 < a+16 > c16 _V-4 < a+16 _V4 e8. f16 _V-4 f16 _V4 g8 @@4,2,0 EP-4,0,0,1,0 E100,50,50,4,0 P15,10,6 D0 O3 V10 c8 c16 c16 c8 c8 d8 d+8 d8 c8 < a+4 @@4,3,1 EPX E100,70,40,1,15 V8 P15,12,6 O2 g4 f4 g4 @@4,2,0 EP-4,0,0,1,0 E100,50,50,4,0 P15,10,6 D0 O2 V10 g+8 g+8 g+8 > c16 < a+8. > c8 < a+8 g+8 g4 @@4,3,1 EPX E100,70,40,1,15 V8 P15,12,6 O2 g4 f4 g8 @@4,2,0 EP-4,0,0,1,0 E100,50,50,4,0 P15,10,6 D0 g16 g16 g+16 g+16 r16 _V-2 g+16 _V2 g+16 g+16 > c16 < a+4. _V-5 a+16 _V5 g16 g+16 a+8. a+16 a+8 > d16 c4 _V-4 c16 _V4 r8 c16 c16 d2 r8 d16 d16 d12 f12 d+12 E100,50,65,4,30 d4~ d16 E100,50,50,4,0 @@4,3,1 EPX E100,70,40,1,15 V8 PX O3 _V-3 a+32 > c32 _V2 d24 ( d+24 ) f24 ) EP-2,0,0,3,0 g+12 g+12 g+12 EP0,0,-30,5,9 g16 _V-4 g16 _V-2 g16 EPX @@4,2,0 EP-4,0,0,1,0 E100,50,50,4,0 P15,10,6 D0 O3 V10 g8 ( g16 ) g16 ( g16 ) f16 d+16 _V-5 d+16 _V5 g8 ( g16 ) g16 ( g16 ) f16 d+16 _V-5 d+16 _V5 f8 f16 ( f16 ) f16 f16 g16 _V-5 g16 _V5 c4 _V-5 c4 _V5 f8 ( f16 ) f16 ( f16 ) d+16 d16 _V-5 d16 _V5 f8 ( f16 ) f16 ( f16 ) d+16 d16 _V-5 d16 _V4 r16 d+16 ( d+16 ) d+16 ( d+16 ) d+16 f16 _V-5 f16 _V5 g4 _V-5 g8 _V-2 g8 _V7 g8 ( g16 ) g16 ( g16 ) f16 d+16 _V-5 d+16 _V5 g8 ( g16 ) g16 ( g16 ) f16 d+16 _V-5 d+16 _V5 f8 f16 ( f16 ) f16 f16 g16 _V-5 g16 _V5 c4 _V-5 c4 _V5 r16 @@4,2,0 EP-4,0,0,1,0 E100,80,80,4,0 O3 V8 g+16 g+16 g+16 g+16 g+16 g16 _V-4 Y.R g+16 g16 _V-2 YL. g+16 g16 YLR _V6 r4. g+16 g+16 g+16 g+16 g+16 g16 _V-4 YL. g+16 g16 _V-2 Y.R g+16 g16 YLR _V6 r4. g+8 g+16 _V-2 g+16 _V2 EP0,0,-12,8,15 g8 EP-4,0,0,1,0 _V-2 < b16 _V2 > c4 _V-4 c8 _V-2 c8 r16 @2 V6 E100,50,20,3,8 EPX O1 PX [ d+32 g32 a+32 > d+32 g32 a+32 > d+32 g32 > d+32 < a+32 g32 d+32 < a+32 g32 d+32 < a+32 d+32 g32 a+32 > d+32 g32 a+32 > d+32 g32 > d+32 < a+32 g32 d+32 < a+32 g32 d+32 < a+32 H3 ]2 H6 d+32 g32 a+32 > d+32 g32 a+32 > d+32 g32 > d+32 < a+32 g32 d+32 < a+32 g32 d+32 < a+32 d+32 g32 a+32 > d+32 g32 a+32 > d+32 g32 > d+32 < a+32 g32 d+32 < a+32 g32 d+32 < a+32 H9 d+32 g32 a+32 > d+32 g32 a+32 > d+32 g32 > d+32 < a+32 g32 d+32 < a+32 g32 d+32 < a+32 d+32 g32 a+32 > d+32 g32 a+32 > d+32 g32 > H0 @@4,3,1 EPX E100,70,40,1,15 V8 P15,12,6 O2 b16 b16 _V-6 b16 b16 
!3  V3 O1 `9F00 `2E09 @A3 `AE00 B1 O0 V3 E100,100,80,3,4 [ O1 g+16 g+16 g+16 g+16 g+16 g16 V1 g+16 g16 r2 V3 ]2 g+16 _V-2 g+16 r8 EP-40,0,0,8,0 _V2 g8 EPX g16 c8 ( c16 ) c16 _V-2 c16 _V2 d+8 _V-2 d+16 _V2 f8 ( f16 ) f16 _V-2 f16 _V2 g8 ( g16 ) c8 ( c16 ) c16 _V-2 c16 _V2 d+8 _V-2 d+16 _V2 f8 ( f16 ) f16 _V-2 f16 _V2 g16 g16 _V-2 EX g16 g16 E100,100,80,3,4 L V3 c16 V2 c16 c16 V3 c16 V2 c16 c16 V3 c16 V2 c16 V2 c16 V3 c16 V2 c16 V3 c16 V2 c16 c16 V3 c16 V2 c16 V3 c16 V2 c16 c16 V3 c16 V2 c16 c16 V3 c16 V2 c16 V2 c16 V3 c16 V2 c16 V3 c16 V2 c16 c16 V3 c16 V2 < b16 V3 a+16 V2 a+16 a+16 V3 a+16 V2 a+16 a+16 V3 a+16 V2 a16 V2 g+16 V3 g+16 V2 g+16 V3 g+16 V2 g+16 g+16 V3 g+16 V2 g+16 V3 g16 g16 g16 g16 r4 r8 V3 EP-120,120,120,74,0 O0 g4. EPX O1 V3 c16 V2 c16 c16 V3 c16 V2 c16 c16 V3 c16 V2 c16 V2 c16 V3 c16 V2 c16 V3 c16 V2 c16 c16 V3 c16 V2 c16 V2 c16 V3 c16 V2 c16 V3 c16 V2 c16 c16 V3 c16 V2 c16 V3 c16 V2 c16 c16 V3 c16 V2 c16 c16 V3 c16 V2 < b16 V3 a+16 V2 a+16 a+16 V3 a+16 V2 a+16 a+16 V3 a+16 V2 a16 V3 g+16 V2 g+16 g+16 V3 g+16 V2 g+16 g+16 V3 g+16 V2 g+16 V3 g16 V2 g16 g16 V3 g16 V2 g16 g16 V3 g16 V2 b16 > V3 c16 c16 < a+16 > c16 V1 c16 V3 c16 < a+16 > c16 V1 c16 V3 < e8. f8 g8 `2E63 @A8 V3 E100,50,50,4,0 O2 [ c32 d+32 g+32 > c32 d+32 g+32 > c32 d+32 g+32 d+32 c32 < g+32 d+32 c32 < g+32 d+32 d32 f32 a+32 > d32 f32 a+32 > d32 f32 a+32 f32 d32 < a+32 f32 d32 < a+32 f32 d32 d+32 g32 a+32 > d32 d+32 g32 a+32 > g32 d+32 d32 < a+32 g32 d+32 d32 < a+32 d32 f32 a+32 > c32 d32 f32 a+32 > c32 g32 e32 d32 c32 < g32 e32 d32 c32 < ]2 c32 d+32 g+32 > c32 d+32 g+32 > c32 d+32 g+32 d+32 c32 < g+32 d+32 c32 < g+32 d+32 d32 f32 a+32 > d32 f32 a+32 > d32 f32 a+32 f32 d32 < a+32 f32 d32 < a+32 f32 d32 d+32 g32 a+32 > d32 d+32 g32 a+32 > g32 d+32 d32 < a+32 g32 d+32 d32 < a+32 d+32 g32 > c32 d+32 g32 > c32 d+32 g32 > c32 g32 d+32 d32 c32 < g32 d+32 V1 d32 `2E09 @A3 O1 V3 d16 V2 d16 d16 V3 d16 V2 d16 d16 V1 d16 V3 d16 d16 V2 d16 d16 V3 d16 V2 d16 d16 V1 d16 V3 d16 < V3 g16 V2 g16 g16 V3 g16 V2 g16 g16 V1 g16 V3 g16 g+12 g+12 g+12 g8 r16 > [ V3 c8 V2 c16 V3 c16 V2 c16 < V2 a+32 V1 b32 V3 > c16 V2 c16 ]2 c16 < V3 f16 V2 f16 V3 f16 V2 f16 V3 f16 V2 f16 V3 f16 V2 f16 V3 f16 V2 f16 V3 f16 V2 f16 V3 f32 f+32 V2 g32 g+32 V3 a16 [ V3 a+8 V2 a+16 V3 a+16 V2 a+16 < V2 g+32 V1 a32 V3 a+16 V2 a+16 ]2 a+16 d+16 d+16 d+16 d+16 d+16 d+16 d+16 d+16 r16 g16 g16 g16 g+16 g16 r16 > [ V3 c8 V2 c16 V3 c16 V2 c16 < V2 a+32 V1 b32 V3 > c16 V2 c16 ]2 c16 < [ V3 f16 V2 f16 ]8 [ O1 g+16 g+16 g+16 g+16 g+16 g16 V1 g+16 g16 r2 V3 ]2 g+16 _V-2 g+16 r8 EP-40,0,0,8,0 _V2 g8 EPX g16 > c8 < V2 b32 a+32 V3 a24 V2 g+24 g24 V3 f+12 V2 f12 e12 V3 d+16 d+16 c+16 d+16 r16 d+16 c+16 d+16 r16 d+16 c+16 d+16 r16 e16 f16 [ f+8 f+16 e16 f+16 r16 f+16 e16 f+16 r16 f+16 e16 f+16 r16 g16 g+16 H3 ]2 H6 f+8 f+16 e16 f+16 r16 f+16 e16 f+16 r16 f+16 e16 f+16 H0 b16 b16 V1 b16 b16 
!4  r2 r2 r2 r2 r4. r16 @8 @8 x8 @6 x16 [ @5 x16 @6 x16 ]6 @5 x16 @8 x8 @6 x16 [ @5 x16 @6 x16 ]5 @8 x16 x8. L @8 x8 @6 x8 x8 x8 x8 x8 x8 x8 [ x8 x8 x8 x8 ]4 @5 x16 x16 x16 x16 @6 [ x16 ]4 @13 x2 @8 x8 @6 x8 x8 x8 x8 x8 x8 x8 [ x8 x8 x8 x8 ]5 [ @5 x16 @6 x16 ]4 @5 x16 @8 x8. @6 x8 x8 [ @5 x16 @6 x16 @5 x16 @6 x16 @5 x16 @6 x16 @5 x16 @6 x16 ]11 [ @5 x16 @6 x16 ]2 @6 x8 x8 @7 x8 @5 x16 @6 x32 x32 @5 x16 @6 x32 x32 @5 x16 @6 x32 x32 [ @5 x16 @6 x32 x32 @5 x16 @6 x32 x32 @5 x16 @6 x32 x32 @5 x16 @6 x32 x32 ]2 @7 x12 x12 x12 @8 x8 @5 x16 @8 x8. [ @5 x16 @6 x16 ]7 [ @5 x16 @6 x16 ]7 @5 x16 @8 x8. [ @5 x16 @6 x16 ]7 [ @5 x16 @6 x16 ]4 @7 x8 @6 x8 x8 x16 @8 x8. [ @5 x16 @6 x16 ]7 [ @5 x16 @6 x16 ]6 x8 x8 r2 r2 r2 r2 r4. r16 @8 @7 x8 @6 x32 x32 @5 x24 @6 x24 x24 @5 x12 @6 x12 x12 @8 x8 [ @5 x16 @6 x16 ]3 [ [ @5 x16 @6 x16 ]4 ]6 @5 x16 @6 x16 @5 x16 @6 x16 @7 x16 x8. 
!5  YLR @0 O2 [ V1 c16 V0 c16 c16 c16 c16 c16 c16 c16 @20 V1 c2 @0 ]2 @14 d+16 r8. d8. O1 V0 c8 c16 c16 r16 d+16 d+16 r16 f8 f16 f16 r16 g16 g16 r16 O1 V0 c8 c16 c16 r16 d+16 d+16 r16 f8 f16 f16 r16 > V1 g16 g16 r8 L [ V1 @0 c8 @24 c16 @0 c8. @24 c16 @0 V0 c16 ]5 V1 @0 c8 @24 c16 @0 c8. @24 c16 c32 V0 c32 V1 c16 c16 c16 c16 @24 O3 V0 Y.R c16 YL. c16 Y.R c16 YL. c16 Y.R c16 YL. c16 Y.R c16 YL. c16 O2 YLR @24 c32 c32 c32 c32 V1 c32 c32 @0 c16 [ V1 @0 c8 @24 c16 @0 c8. @24 c16 @0 V0 c16 ]7 V1 @0 c16 c16 @24 c16 @0 c8 V0 c16 V1 @24 c16 c8 @24 c8. V0 c32 V1 c32 @0 c16 @24 c16 c32 V0 c32 V1 [ @0 c4 @24 c4 r16 @0 V0 c8 V1 c16 @24 c4 @0 c4 @24 c4 r16 @0 V0 c8 V0 c32 V0 c32 V1 @24 c4 ]2 @0 c4 @24 c4 r16 @0 V0 c8 V1 c16 @24 c4 @0 c4 @24 c4 r16 @0 V0 c8 V0 c32 V0 c32 @24 c32 c32 c32 c32 c32 c32 c32 c32 [ V1 @0 c8 @24 c16 @0 c8. @24 c16 V0 @0 c16 ]3 @24 V1 c12 V0 c12 c12 V1 c8. @0 V1 c8 c16 @24 c8 @0 c8 @24 c16 @0 c8 c16 @24 c8 @0 c8 @24 c8 @0 c8 @24 c16 @0 V0 c16 V1 c8 @24 c16 @0 V0 c16 V1 c8 @24 c16 @0 V0 c16 V1 c8 @24 c16 @0 c8 c16 @24 c8 @0 c8 @24 c16 @0 c8 c16 @24 c8 @0 c8 @24 c8 @0 c8 @24 c16 @0 V0 c16 V1 c8 @24 c16 @0 V0 c16 V1 c16 @24 V0 c16 V1 c16 V0 c16 V1 c16 c16 r16 @0 V1 c8 c16 @24 c8 @0 c8 @24 c16 @0 c8 c16 @24 c8 @0 c8 @24 c8 @0 c8 @24 c16 @0 V0 c16 V1 c8 @24 c16 @0 V0 c16 V1 c8 @24 c16 @0 V0 c16 V1 c32 @24 c32 V1 c16 c16 V0 c32 V1 c32 O2 @24 V1 c16 V0 c16 c16 c16 V1 c16 c8. r8 @24 O3 c8 V0 YL. c16 YLR @22 O2 c48 c48 c48 V1 c8 @24 V1 c16 V0 c16 c16 c16 V1 c16 c8. r8 @24 O3 c8 V0 YL. c16 YLR @22 O2 c48 c48 c48 V1 c16 V0 @0 c16 @24 V1 c4 c8 @0 V0 c16 @24 c8 c32 c32 c24 c24 c24 c12 c12 c12 @0 c8 @24 c8 @0 c8 @24 c8 @0 c8 @24 c8 @0 c8 @24 c16 @0 c8. @24 c8 @0 c8 @24 c8 @0 c8 @24 c8 @0 c8 @24 c16 @0 c8. @24 c8 @0 c8 @24 c8 @0 c8 @24 c8 @0 c8 @24 c16 @0 c8. @24 c8 @0 c8 @24 c8 @0 c8 @24 c8 c16 c16 r8 
!6  O2 @24 V1 c16 V0 c16 c16 c16 V1 c16 c8. r8 @24 O3 V0 c8 YL. c16 YLR @22 O2 c48 c48 c48 V1 c8 @24 V1 c16 V0 c16 c16 c16 V1 c16 c8. r8 @24 O3 V0 c8 YL. c16 YLR @22 O2 c48 c48 c48 V1 c16 V0 @0 c16 @24 V1 c4 c8 @0 V0 c16 @0 V1 c8 V0 c16 V1 @24 c16 V0 @0 c16 V1 c8 @24 c16 @0 V1 c8 V0 c16 V1 @24 c16 V0 @0 c16 V1 c16 @24 V0 c32 V1 c32 V0 @0 c16 @0 V1 c8 V0 c16 V1 @24 c16 V0 @0 c16 V1 c8 @24 c16 @0 V0 c16 @0 V1 c16 V0 c16 V1 @24 c16 V0 @0 c32 V1 c32 V1 @24 c16 c8. L @21 O2 V1 c16 V0 c16 c16 V1 c16 V0 c16 c16 c16 c16 V0 c16 V1 c16 V0 c16 V1 c16 V0 c16 @8 V1 a16 f+16 d16 @21 V1 c16 V0 c16 c16 V1 c16 V0 c16 c16 c16 c16 V0 c16 V1 c16 V0 c16 V1 c16 V0 c16 V1 c16 c16 V0 < b16 V1 a+16 V0 a+16 a+16 V1 a+16 V0 a+16 a+16 V1 a+16 V0 a16 V1 g+16 V0 g+16 g+16 V1 g+16 V0 g+16 g+16 V1 g+16 V0 g+16 @14 > V1 b16 g16 g16 g16 r4 r2 @21 O2 V1 c16 V0 c16 c16 V1 c16 V0 c16 c16 c16 c16 V0 c16 V1 c16 V0 c16 V1 c16 @15 W0,98,57 V1 a+16 V0 a16 g+16 @21 O2 c16 V1 c16 V0 c16 c16 V1 c16 V0 c16 c16 c16 c16 V0 c16 V1 c16 V0 c16 V1 c16 V0 c16 V1 c16 @14 c16 V0 < b16 V1 a+16 O1 @21 V0 a+16 a+16 V1 a+16 V0 a+16 a+16 V1 @14 a+16 a16 V1 g+16 O1 @21 V0 g+16 g+16 V1 g+16 V0 g+16 g+16 V1 g+16 g+16 V1 g16 V0 g16 g16 V1 g16 V0 g16 g16 g16 g16 @14 O3 V1 c16 c16 < a+16 > c16 V0 < a+16 > V1 c16 < a+16 > c16 V0 < a+16 @15 W0,98,57 V1 O2 e8 V0 e16 V1 f16 V0 f16 V1 g8 @48 W0,96,56 O0 [ V1 g+8 V0 Y.R g+8 YL. g+8 Y.R r16 V0 YLR f16 V1 a+8 Y.R a+8 YL. a+8 r16 V0 YLR a+16 V1 d+8 Y.R d+8 YL. d+8 r16 V0 YLR d+16 V1 > c8 V0 c8 V1 c8 V0 c8 < ]3 @15 W0,98,57 O2 V0 d16 r8 d16 r16 V1 < a16 > d16 g16 f+8. d8 f8 d+16 d8 V0 d8 r16 O1 @14 a+32 > c32 d24 d+24 f24 V1 g+12 g+12 g+12 g8. V0 c8 c16 < a+16 > c16 < a+16 > c16 r8 @13 < r16 g16 r16 g16 f16 g16 r8 @14 r16 f16 r16 f16 r16 f16 r16 f16 r16 f16 r16 f16 @8 V0 f32 f+32 g32 g+32 V1 a16 @14 V0 a+8 a+16 a+16 a+16 g+16 a+16 r8 @13 r16 d+16 r16 d+16 r16 @3 d16 V0 d+16 f16 @13 g16 g16 r4 g16 g16 r16 @8 O1 g16 g16 g16 g+16 g16 r16 > @14 V0 c8 c16 < a+16 > c16 < a+16 > c16 r8 @13 < r16 g16 r16 g16 f16 g16 r16 r16 @14 r16 f16 r16 f16 r16 f16 r16 f16 r16 f16 r16 f16 V0 f32 f+32 g32 g+32 V1 a8 YLR @0 O2 [ V1 c16 V0 c16 c16 c16 c16 c16 c16 c16 @20 V1 c2 @0 ]2 @14 d+16 r8. d8. c8 < b32 a+32 a24 g+24 g24 f+12 f12 e12 d+16 d+16 c+16 d+16 r16 d+16 c+16 d+16 r16 d+16 c+16 d+16 r16 e16 f16 [ f+8 f+16 e16 f+16 r16 f+16 e16 f+16 r16 f+16 e16 f+16 r16 g16 g+16 H3 ]2 H6 f+8 f+16 e16 f+16 r16 f+16 e16 f+16 r16 f+16 e16 f+16 @8 H0 b16 b16 V0 b16 b16 
