;007 001A26D8
!1  T90 T75 E90,100,70,1,6 @0 EP-8,0,0,1,3 P15,11,2 V4 O1 D-2 r32 YL. d16 _V-6 d16 _V6 > d8 a8 d8 > d8. < _V-2 a16 _V2 a32 YLR @3 V6 YLR D0 d16 a16 d16 > d16. < a32 a4 r32 E90,100,70,1,6 @0 EP-4,0,0,1,3 Y.R V4 > D-1 > d16 < a16 a16 > d32 D0 YLR V8 < e8 d4. _V-2 d16. d32 _V2 c+4 _V-6 c+8 L O2 V8 E90,100,50,1,6 @@4,2,0 EP-8,0,0,1,3 P15,11,2 V8 e8 a4~ a16 _V-4 a16 _V2 > c16. d32 _V2 c4 < e16 _V-6 e16 _V4 e8 _V2 a+8. _V-4 a+16 _V4 a8 d16. _V-2 g32 _V2 f16 _V-2 @3 PX Y.R d16 f16. ( g32 )~ a8 _V2 YLR P15,11,2 @@4,2,0 f8 e8. _V-4 e16 _V4 f8 c16. _V-2 e32 _V2 d4 _V-4 d16 _V4 f16 _V2 a16 _V-2 > c16 _V2 d8 d8 e8. _V-2 d16 c+16 @3 PX YL. < < a16 >~ e16. ( a32 > )~ c+8 _V2 YLR < P15,11,2 @@4,2,0 e8 a4~ a16 _V-4 a16 _V2 > c16. d32 _V2 c16 _V-2 @3 PX < Y.R f16 e16. d32~ a8 YLR P15,11,2 @@4,2,0 _V2 e8 a+8. _V-6 a+16 _V6 a8 d16. _V-2 g32 _V2 f16 _V-2 @3 PX YL. d16 f16. ( g32 )~ a8 _V2 YLR P15,11,2 @@4,2,0 f8 e8. _V-4 e16 _V4 f8. _V-2 > c16 _V2 d16 _V-2 @3 PX < Y.R f16 e16. d32~ a16 YLR P15,11,2 @@4,2,0 _V2 f16 _V2 a16 _V-2 > c16 _V2 d8 d8 e8. _V-2 d16 c+16 _V-2 @3 PX YL. < < a16 >~ e16. ( a32 > )~ c+8 _V2 YLR < @3 g8 a8 _V-4 a8 _V4 > c16 < a+16 a16 g16 f16 < _V-2 Y.R a16 > d16 e16 f16 g16 a16 YLR _V2 e16 e8 f16 g16 f8 e8 d16 _V-2 YL. d16 e16 f16. g32 a16 _V-2 a16 YLR _V4 d16 a16 _V-4 a16 _V4 d16. e32 f16 a8 _V-2 > c16 _V2 d16 _V-4 d16 _V4 e8 _V-4 e16 _V-2 e16 _V4 d8 _V2 c+4 _V-4 c+8 _V-2 c+8 _V6 E90,100,50,1,6 @3 EP-8,0,0,1,3 P15,11,2 V5 d16 _V-2 d16 V5 d16 _V-3 d16 r8 _V3 V5 c16 _V-3 c16 _V3 d16 Y.R D-2 @2 E80,100,70,4,8 V2 r32 O2 d16 e16 f16 g16 a16 a+16 > c16 d16. < YLR D0 E90,100,50,1,6 @3 EP-8,0,0,1,3 P15,11,2 V5 d16 _V-3 d16 _V3 e16 _V-3 e16 _V3 e16 _V-3 e16 _V3 f16 YL. D-2 @2 E80,100,50,4,8 V2 r32 O2 c16 f16 > c16 < a+16 a16 g16 f16 e16. YLR D0 E90,100,50,1,6 @3 EP-8,0,0,1,3 P15,11,2 V5 e16 _V-3 e16 _V3 c+16 _V-3 c+16 _V3 c+16 _V-3 c+16 _V3 d16 Y.R D-2 @2 E80,100,50,4,8 V2 r32 O2 a16 b16 > c+16 d16 e16 f16. YLR D0 E90,100,50,1,6 @3 EP-8,0,0,1,3 P15,11,2 V5 O2 d16 _V-3 d16 _V3 d16 _V-3 d16 _V3 f16 _V-3 f16 _V3 f16 _V-3 f16 _V3 c+16 YL. D-2 @2 E80,100,50,4,8 V2 r32 O3 e16 d16 e16 a16. YLR D0 
!2  E90,100,70,1,6 @@4,2,0 EP-8,0,0,1,3 P15,11,2 V8 O1 d16 _V-6 d16 _V6 > d8 a8 d8 > d8. < _V-2 a16 _V2 a8 _V-4 a8 @3 EX Y.R D-1 V3 d32 > d16. < a32 a32 D0 E90,100,70,1,6 @@4,2,0 EP-4,0,0,1,3 YLR > V8 d16 a16 d16 > d16 < a16 a16 > d16 c8 < b4. _V-2 b16. b32 _V2 a4 _V-6 a8 L O2 V8 E90,100,50,1,6 @@4,2,0 EP-8,0,0,1,3 P15,11,2 V10 a8 > d4~ d16 _V-4 d16 _V2 e16. f32 _V2 e4 < a16 _V-6 a16 _V4 a8 > _V2 d8. _V-6 d16 _V6 c8 < g16. > _V-2 c32 _V2 < a4 _V-8 a8 _V6 a8 _V2 g8. _V-6 g16 _V6 a8 e16. _V-2 g32 _V2 f4 _V-6 f16 _V4 a16 _V2 > d16 _V-2 e16 _V2 f8 f8 g8. _V-2 f16 _V2 e4~ e16 _V-6 e16 _V6 < a8 > d4~ d16 _V-4 d16 _V2 e16. f32 _V2 e4 < a16 _V-6 a16 _V4 a8 > _V2 d8. _V-6 d16 _V6 c8 < g16. > _V-2 c32 _V2 < a4 _V-8 a8 _V6 a8 _V2 g8. _V-4 g16 _V4 a8. _V-2 > e16 _V2 f4 _V-6 f16 _V4 < a16 _V2 > d16 _V-2 e16 _V2 f8 f8 g8. _V-2 f16 _V2 e4 _V-6 e16 _V6 r16 @3 e8 f4 e16 d16 c16 < a+16 a4~ a16 _V-6 a16 _V6 a8 g8 a16 a+16 a8 g8 f4 _V-6 f16 _V4 f16 _V2 a16 _V-2 f16 _V2 > d16 _V-4 d16 _V4 < f16. g32 a16 > d8 _V-2 e16 _V2 f16 _V-4 f16 _V4 g8 _V-4 g16 _V-2 g16 _V4 f8 _V2 e4 _V-4 e8 _V-2 e8 _V6 < E90,100,50,1,6 @3 EP-8,0,0,1,3 P15,11,2 V4 f16 _V-2 f16 V6 f16 _V-4 f16 r8 _V4 V5 f16 _V-4 f16 _V4 f16 @2 E80,100,50,4,8 V5 O2 d16 e16 f16 g16 a16 a+16 > c16 d8 < E90,100,50,1,6 @3 EP-8,0,0,1,3 P15,11,2 V6 f16 _V-4 f16 _V4 g16 _V-4 g16 _V4 g16 _V-4 g16 _V4 a16 @2 E80,100,50,4,8 V5 O2 c16 f16 > c16 < a+16 a16 g16 f16 e8 E90,100,70,1,6 @3 EP-8,0,0,1,3 P15,11,2 V6 g16 _V-4 g16 _V4 e16 _V-4 e16 _V4 e16 _V-4 e16 _V4 f16 @2 E80,100,50,4,8 V5 O2 a16 b16 > c+16 d16 e16 f8 E90,100,50,1,6 @3 EP-8,0,0,1,3 P15,11,2 V6 O2 f16 _V-4 f16 _V4 f16 _V-4 f16 _V4 g+16 _V-4 g+16 _V4 g+16 _V-4 g+16 _V4 a16 @2 E80,100,50,4,8 V5 O3 e16 d16 e16 a8 
!3  @A3 `AE00 `9F00 E100,70,70,4,0 O0 V3 B5 P20,8,24 d2~ d2~ d4~ d4.~ f8~ g4. g8~ a4. L V2 a8 [ O1 [ [ V3 d8 V1 d16 V2 d16 ]2 H-2 ]2 H0 V3 < a+8 V1 a+16 V2 a+16 V3 f16 V2 f16 V3 g16 V2 g16 [ V3 a8 V1 a16 V2 a16 ]2 > [ V3 c+8 V1 c+16 V2 c+16 ]2 [ V3 d16 V2 d16 ]2 V3 c16 V2 c16 r16 c16 < V3 b8 r16 V2 b16 > V3 e16 V2 e16 r16 e16 < [ V3 a8 V1 a16 V2 a16 ]2 ]2 [ V3 a+8 V1 a+16 V2 a+16 ]2 [ V3 a8 V1 a16 V2 a16 ]2 V3 a+8 g8 e8 c8 [ V3 f8 V1 f16 V2 f16 ]2 V3 d8 V1 d16 V2 d16 V3 d16 a16 > d16 < V2 a16 > V3 d8 e4 d8 c+4 e4 V3 d8 V1 d8 V3 c8 V1 c8 < V3 a+8 V1 a+8 V3 a8 V1 a8 V3 g8 V1 g8 > V3 c8 V1 c8 < V3 f8 V1 f8 > f4 < V3 e8 V1 e8 V3 a8 V1 a8 > V3 d4 V1 d8 r8 < V3 b8 V1 b8 > V3 e8 V1 e8 V3 < a4 V1 a8 
!4  @8 x8 [ @5 x32 @6 x32 x32 x32 ]12 @8 Y.R x8 YL. x8 YLR @6 x8 @7 x8 @8 x8. @6 x8 x16 @7 x8 L @1 x8 [ @8 x8 [ @5 x16 @6 x32 x32 ]30 r16 @6 x16 ]2 @8 x8 [ @5 x16 @6 x16 ]25 @5 x16 @7 x16 x8 [ @2 x16 @6 x16 @7 x8 @5 x16 @6 x16 @7 x8 ]7 @2 x8 @7 x8 @5 x16 @6 x32 x32 
!5  V1 @0 c8 r2 r2 r16 V0 @28 W0,77,45 d16 a16 d16 > d16 < a16 a16 > d16 O2 V1 @0 c8 c4 @1 c128 c64.~ c32~ c16 @1 V1 c16. V0 c32 V1 @0 c4. L O2 V1 @45 c8 V1 @0 c24 YLR V0 @4 O1 d24 Y.R d24 YLR V1 O2 @45 c16 @0 V0 c16 V1 @0 c16 V0 c16 V1 @45 c16 @0 V0 c16 [ V1 @0 c8 @45 c16 @0 V0 c16 V1 @0 c16 V0 c16 V1 @45 c16 @0 V0 c16 ]14 V1 @0 c8 @45 c16 @0 V0 c16 V1 @0 c16 V0 @45 c16 V1 c16 V1 < @2 YL. g+16 > YLR [ V1 @0 c8 @45 c16 @0 V0 c16 V1 @0 c16 V0 c16 V1 @45 c16 @0 V0 c16 ]6 V1 @0 c8 @45 c16 @0 V0 c16 V1 @0 c16 @45 V0 c16 V1 c8 H0 @15 W0,77,45 H12 r8 O1 V0 YLR f16 V0 Y.R f16 r8 V0 YLR f16 V0 YL. f16 [ V0 YLR f16 V0 Y.R r16 V0 YLR f16 V0 YL. r16 ]3 V0 YLR g16 V0 Y.R r16 V0 YLR g16 V0 YL. r16 [ V0 YLR a16 V0 Y.R r16 V0 YLR a16 V0 YL. r16 ]2 V0 YLR g16 V0 Y.R r16 V0 YLR g16 V0 YL. r16 V0 YLR e16 V0 Y.R r16 V0 YLR e16 V0 YL. r16 [ V0 YLR f16 V0 Y.R r16 V0 YLR f16 V0 YL. r16 ]3 V0 YLR g+16 V0 Y.R r16 V0 YLR g+16 V0 YL. r16 V0 YLR a16 V0 Y.R r16 V0 YLR a16 V0 YL. r16 V0 YLR a16 V0 Y.R r16 YLR H0 
!6  @47 O1 V1 d12 V0 Y.R d12 YL. d12 YLR @15 W0,77,45 O1 d4~ d2~ d4~ d4. @47 O2 V1 c8 < b4. b16. b32 a12 Y.R V0 a12 YL. a12 r8 L Y.R O1 @4 V1 a8 YL. d16 YLR O2 @43 W0,97,0 V0 d32 c+32 @43 W0,99,0 V1 d16 V0 d16 r16 e16 f16 V0 g16 V1 f16 < a32 g32 a16 V0 [ a16 ]3 r16 a16 > V1 d32 V0 e32 f32 g32 V1 a16 V0 a16 r16 V1 g16 > c16 < g16 V1 g32 f32 e32 V0 e32 V1 c16 V0 c16 r16 < V1 a16 g16 a16 V1 e32 V0 e32 V1 a32 g32 a16 V0 a16 > r16 V1 e16 a16 g16 f16 < d32 e32 f32 V0 f32 V1 a32 V0 a32 > V1 d16 V0 [ d16 ]3 d32 V1 e32 V0 f32 g32 V1 f32 e32 d32 c+32 c32 < b32 a32 g+32 g32 g+32 a32 b32 > e16 V0 e16 d16 e16 < V1 a16 [ V0 a16 ]3 @40 W0,99,0 O1 V1 [ a32 a+32 > c32 d32 e32 f32 g32 g+32 a32 g+32 g32 f32 e32 d32 c32 < a+32 ]2 a32 a+32 > c32 d32 e32 f32 g32 g+32 a32 a+32 b32 > c32 < b32 a+32 a32 g+32 g32 f32 e32 d32 V0 c32 < a+32 a32 g+32 a32 a+32 b32 > c32 c+32 d32 d+32 e32 V1 f32 f+32 g32 g+32 a32 a+32 b32 > c32 c+32 c32 < b32 a+32 a32 g+32 g32 f+32 H1 f32 f+32 g32 g+32 a32 a+32 b32 > c32 c+32 c32 < b32 a+32 a32 g+32 g32 f+32 H2 f32 f+32 g32 g+32 a32 a+32 b32 > c32 c+32 c32 < b32 a+32 V0 a32 g+32 g32 f+32 f32 e32 d+32 d32 c+32 c32 < b32 a+32 a32 a+32 b32 > c32 c+32 d32 d+32 e32 H0 V1 e32 f32 f+32 g32 g+32 g32 f+32 f32 e32 d+32 d32 c+32 c32 < b32 a+32 a32 g+32 g32 g+32 a32 a+32 b32 > c32 c+32 d32 c+32 c32 < b32 a+32 a32 g+32 g32 V0 a32 a+32 b32 > c32 c+32 d32 V0 d32 r32 < a32 a+32 b32 V1 > c32 c+32 d32 d+32 e32 [ f+32 g32 V1 g+32 a32 a+32 b32 > c32 c+32 d32 c+32 c32 < b32 V0 a+32 a32 g+32 g32 ]2 V0 f+16 f16 V1 @15 W0,97,57 O1 e16. a+32 > d4 V0 g16 < V1 a16 > e16. d32 c+8 V0 V1 P17,8,1 @40 W0,99,0 O1 a8 > f4 e8 f16. e32 d4 V0 d8 V1 d8 a+4 a16 g16 f16 g16 a4 V0 c4 V1 g4 f16 e16 d16 e16 f4 V0 f8 V1 f8 e4 V0 e16 V1 d16 c+16 d16 e4 V0 e8 V1 PX 
