;008 001A32FE
!1  T90 T75 r32 E100,50,10,8,22 @@2,0,3 PX YLR O2 V4 a+16 _V-2 a+16 a+16 _V2 g+16 _V-2 g+16 _V2 a+16 _V-2 a+16 _V2 a+16 _V-2 a+16 a+16 a+16 _V2 g+16 _V-2 g+16 _V2 a+16 _V-2 a+16 f+16 _V2 [ f+16 _V-2 f+16 _V2 f+16 _V-2 f+16 _V2 f+16 _V-2 f+16 _V2 f+16 _V-2 f+16 _V2 ]2 E100,80,80,15,0 @@4,2,3 P15,8,6 EP-2,0,0,1,0 YLR O3 V6 f8. f+16 f+8. V3 D-1 r32 Y.R @3 EX f+16~ f+16 f16 f+16 f16 f+16 f16 c+8 ( c+16 ) c+16 c+16 f+16 f+16. f+16. f16 d+16. d+16. c+16 EP-2,0,-4,4,11 d+8 ( d+16. ) EP-2,0,0,1,0 D0 E100,80,80,15,0 @@4,2,3 YLR V6 f16. f16. f+16 f+8 _V-4 f+16 _V4 V3 D-1 r32 Y.R @3 EX f16~ f+16 f16 f+16 f16 f+16 f16 c+16 ( c+32 ) D0 E100,90,90,15,0 @@4,2,3 YLR V6 [ g+16 _V-2 g+16 _V2 ]5 f+16 e16 e8 _V-4 e8 L E80,100,70,4,15 @@4,2,0 P20,8,6 EP-4,0,0,3,0 V6 O3 r8 c+16 _V-4 c+16 _V4 d+8 _V-4 d+16 _V4 c16 _V-4 c16 _V4 c16 _V-4 c16 _V2 c+16 _V2 c+8 _V-4 c+16 r16 _V4 r8 c+16 _V-4 c+16 _V4 d+8 _V-4 d+16 _V4 c16 _V-4 c16 _V4 c16 _V-4 c16 < _V2 g+16 _V2 g+8 _V-4 g+16 r16 _V4 > r8 c+16 _V-4 c+16 _V4 d+8 _V-4 d+16 _V4 c16 _V-4 c16 _V4 c16 _V-4 c16 _V2 c+16 _V2 c+8 _V-4 c+16 r16 _V4 r8 c+16 _V-4 c+16 _V4 d+8 _V-4 d+16 _V4 < b16~ b4. _V-4 b16 @3 P15,8,6 EP-2,0,0,1,0 Y.R O2 V3 EX D-1 r32 c+16 f12 f12 f+12 g+12 g+6 ( g+8 ) r4. f12 f+12 g+12 f12 c+6 ( c+8 ) r4. f16. f+16. g+8 g+8. _V-2 g+8 > E100,90,90,15,0 V6 D0 YLR @@4,2,3 r16. r16 _V2 f+8 _V-2 g+16 _V2 EP-6,0,0,8,0 a+12 EP-2,0,0,1,0 g+12 f+12 f+4~ _V-2 f+4 YL. E100,80,60,4,8 @@4,1,3 P8,10,2 EP-8,0,0,8,0 O3 V8 f+16. EP2,0,0,1,0 f16. < _V-2 b16 > _V2 E100,80,30,4,15 EPX c+12~ c+32 YLR @3 P15,8,6 EP-2,0,0,1,0 Y.R O2 V3 EX D-1 f12 f+12 g+12 g+6 ( g+8 ) r4. f12 f+12 g+12 f12 c+6 ( c+8 ) r4 r16 V4 > c+16 c+16. c+16. c+16 c+16. < g+16. g+16 > d+16. f16. f16 _V-2 f16 _V2 f+8 g+16 g+8. f+16 f+4 _V-2 f+16. @@2,2,3 E100,70,70,15,0 V6 D0 YLR O1 @@4,2,0 f+8 b8 > _V2 f+8 V6 @@4,2,3 f+16. f+16. f+16 f+16. g+16. a+16 g+16. g+16. g+32 f+32 g+32 f+32 d+16. r32 _V-2 g+16 _V2 a+16. a+16. a+16 a+16. > c16. c+16 c+16. c+16. c16 c8 r16 _V-2 < a+16 _V2 b8 b16 b8 b16 > c+16 d+16 d+16 < a+8 a+8 a16 b16 > c+16 < b16 a16~ a8 _V-6 a16 _V6 a16 b16 > c+16~ c+4~ c+16 r32 @2 E100,20,20,4,0 PX EPX D-2 c+32 e32 c+32 e32 a32 D0 E100,70,70,15,0 @@4,2,3 P15,8,6 EP-2,0,0,1,0 YLR O3 V6 f8. f+16 f+8. V3 D-1 r32 Y.R @3 EX f+16~ f+16 f16 f+16 f16 f+16 f16 c+8 ( c+16 ) c+16 c+16 f+16 f+16. f+16. f16 d+16. d+16. c+16 EP-2,0,-2,4,11 d+8 ( d+16. ) EP-2,0,0,1,0 D0 E100,70,70,15,0 @@4,2,3 YLR V6 f16. f16. f+16 f+8. V3 D-1 r32 Y.R @3 EX f+16 f+16 f16 f+16 f16 f+16 f16 c+16 ( c+32 ) D0 E100,70,70,15,0 @@4,2,3 YLR V6 [ g+16 _V-2 g+16 _V2 ]5 f+16 e16 e8 _V-4 e8 D0 E100,70,70,15,0 @@4,2,3 P15,8,6 EP-2,0,0,1,0 YLR O3 V6 f8. f+16 f+8. V3 D-1 r32 Y.R @3 EX f+16~ f+16 f16 f+16 f16 f+16 f16 c+8 ( c+16 ) c+16 c+16 f+16 f+16. f+16. f16 d+16. d+16. c+16 EP-2,0,-2,4,11 d+8 ( d+16. ) EP-2,0,0,1,0 D0 E100,70,70,15,0 @@4,2,3 YLR V6 f16. f16. f+16 f+8. V3 D-1 r32 Y.R @3 EX f+16 f+16 f16 f+16 f16 f+16 f16 c+16 ( c+32 ) D0 E100,70,70,15,0 @@4,2,3 YLR V6 [ g+16 _V-2 g+16 _V2 ]5 f+16 e16 e8 _V-4 e8 
!2  r32 E100,50,10,8,22 @@2,0,3 PX YLR O3 V6 c+16 _V-2 c+16 c+16 _V2 c16 _V-2 c16 _V2 c+16 _V-2 c+16 _V2 c+16 _V-2 c+16 c+16 c+16 _V2 c16 _V-2 c16 _V2 c+16 _V-2 c+16 c+16 _V2 [ c+16 _V-2 c+16 _V2 c+16 _V-2 c+16 _V2 c+16 _V-2 c+16 _V2 c+16 _V-2 c+16 _V2 ]2 E100,80,80,15,0 @@4,2,3 P15,8,6 EP-2,0,0,1,0 YLR O3 V8 g+8. a+16 a+8. f+16~ f+16 f16 f+16 f16 f+16 f16 c+8 _V-6 c+16 _V6 c+16 c+16 f+16 f+16. f+16. f16 d+16. d+16. c+16 EP-2,0,-2,4,11 d+8 _V-4 d+8 _V4 EP-2,0,0,1,0 g+16. g+16. a+16 a+8. f16~ f+16 f16 f+16 f16 f+16 f16 c+16 _V-2 c+16 _V2 [ e16 _V-2 e16 _V2 ]5 d+16 c+16 c+8 _V-6 c+8 L E80,100,70,4,15 @@4,2,0 P20,8,6 EP-4,0,0,3,0 V8 O3 r8 f16 _V-6 f16 _V6 f+8 _V-6 f+16 _V6 d+16 _V-6 d+16 _V6 d+16 _V-6 d+16 _V3 f16 _V3 f8 _V-4 f16 r16 _V4 r8 f16 _V-6 f16 _V6 f+8 _V-6 f+16 _V6 d+16 _V-6 d+16 _V6 d+16 _V-6 d+16 _V3 c+16 _V3 c+8 _V-4 c+16 r16 _V4 r8 f16 _V-6 f16 _V6 f+8 _V-6 f+16 _V6 d+16 _V-6 d+16 _V6 d+16 _V-6 d+16 _V3 f16 _V3 f8 _V-4 f16 r16 _V4 r8 f16 _V-6 f16 _V6 f+8 _V-6 f+16 _V6 d+16~ d+4. _V-6 d+16 E100,70,70,15,0 @@4,2,3 P15,8,6 EP-2,0,0,1,0 YLR O2 V8 _V-2 c+16 _V2 f12 f12 f+12 g+12 g+6 _V-4 g+8 _V4 r4. f12 f+12 g+12 f12 c+6 _V-4 c+8 _V4 r4. f16. f+16. g+8 g+8. _V-4 g+8 _V2 > _V2 r8 r16 _V2 d+8 _V-2 f16 _V2 EP-8,0,0,8,0 f+12 EP-2,0,0,1,0 f12 d+12 c+4~ c+4 _V-6 c+8 r16 _V2 < c+16 _V2 f12 f12 f+12 g+12 g+6 _V-4 g+8 _V4 r4. f12 f+12 g+12 f12 c+6 _V-4 c+8 _V2 r4 r16 > c+16 _V2 c+16. c+16. c+16 c+16. < g+16. g+16 > d+16. f16. f16 _V-6 f16 _V6 f+8 g+16 g+8. f+16 f+4~ f+8 V8 O1 @@4,2,0 b8 > d+8 _V-2 d+16 V6 @@4,2,3 b16 _V2 a+16. a+16. a+16 a+16. > c16. c+16 c16. c16. c32 < a+32 > c32 < a+32 g+16. r32 > _V-2 c16 _V2 c+16. c+16. c+16 c+16. d+16. f16 f16. f16. d+16 d+8 r16 _V-2 d+16 _V2 d+8 d+16 d+8 d+16 f16 f+16 f+16 c+8 c+8 c+16 d+16 e16 d+16 c+16~ c+8 _V-6 c+16 _V6 c+16 d+16 e16~ e4. _V-6 e16 r16 E100,80,80,15,0 @@4,2,3 P15,8,6 EP-2,0,0,1,0 YLR O3 V8 g+8. a+16 a+8. f+16~ f+16 f16 f+16 f16 f+16 f16 c+8 _V-6 c+16 _V6 c+16 c+16 f+16 f+16. f+16. f16 d+16. d+16. c+16 EP-2,0,-2,8,11 d+8 _V-4 d+8 _V4 EP-2,0,0,1,0 g+16. g+16. a+16 a+8. f+16 f+16 f16 f+16 f16 f+16 f16 c+16 _V-2 c+16 _V2 [ e16 _V-2 e16 _V2 ]5 d+16 c+16 c+8 _V-6 c+8 YLR O3 V8 g+8. a+16 a+8. f+16~ f+16 f16 f+16 f16 f+16 f16 c+8. c+16 c+16 f+16 f+16. f+16. f16 d+16. d+16. c+16 d+8 _V-4 d+8 _V4 EP-2,0,0,1,0 g+16. g+16. a+16 a+8. f+16~ f+16 f16 f+16 f16 f+16 f16 c+16 c+16 [ e16 _V-2 e16 _V2 ]5 d+16 c+16 c+8 _V-6 c+8 
!3  r32 `9F00 `AE00 @A3 @B0 O1 V3 EP-20,0,0,8,0 P15,8,12 E100,70,70,15,0 a+8 V1 a+16 r8. r16 EPX V3 f16~ f16~ f+8~ g+8.~ f16~ f+16~ f+4~ f+8~ f+16 B8 P15,9,4~ V3 > f+4.~ f+16~ B15 V2 O0 f+8 L B1 O1 E100,70,70,15,0 V3 c+8 V2 c+16 < V2 f+16 V3 f+8 V2 f+16 V3 b8 V2 b16 [ V3 b16 V2 b16 ]2 V3 a+16 V2 g+16 [ V3 f+16 V2 f+16 ]4 [ V3 g+16 V2 g+16 ]2 V3 g+16~ > d+16~ g+16~ d+16 V3 c+8 V2 c+16 < V2 f+16 V3 f+8 V2 f+16 V3 b8 V2 b16 [ V3 b16 V2 b16 ]2 V3 a+16 V2 g+16 [ V3 f+16 V2 f+16 ]4 V2 f+16 V1 f+16 r4 V2~ g+32~ a+32~ > c+32 <~ a+32 O1 [ V3 c+16 V2 c+16 ]7 V3 c+16 V2~ < g+32~ a+32 O1 [ V3 c+16 V2 c+16 ]7 V2 <~ g+32~ a+32~ > c+32 <~ a+32 > O1 [ V3 c+16 V2 c+16 ]7 V3 c+16 V2~ < g+32~ a+32 O1 [ V3 c+16 V2 c+16 ]3 B15 V3 c+16~ b16~ b4. V1 b16 r16 [ [ V3 c+8 V1 c+16 r32 V2 d32 ]2 V3 c+8 V1 c+16 r32 V2 d32 r32 c+32 V3 c+8 V1 c+16 ]3 < V3 b8 V1 c+16 r32 V1 b32 V3 b16 b16 V1 b16 r32 V2 b32 [ V3 b16 V2 b16 ]2 V3 b16. V2 b16. V3 b16 > [ [ V3 c+8 V1 c+16 r32 V2 d32 ]2 V3 c+8 V1 c+16 r32 V2 d32 r32 c+32 V3 c+8 V1 c+16 ]3 < [ V3 b16 V2 b16 ]8 [ [ [ V3 f+16 V2 f+16 ]3 V3 f+16 V2 f+32 f+32 H2 ]2 H0 ]2 [ [ V3 b16 V2 b16 ]3 V3 b16 V2 b32 b32 H-1 ]2 H0 [ V3 a16 V2 a16 ]3 V3 a16 V2 a32 a32 [ V3 a16 V2 a16 ]3~ e8 B1 O1 E100,70,70,15,0 V3 c+8 V2 c+16 < V2 f+16 V3 f+8 V2 f+16 V3 b8 V2 b16 [ V3 b16 V2 b16 ]2 V3 a+16 V2 g+16 [ V3 f+16 V2 f+16 ]4 [ V3 g+16 V2 g+16 ]2 V3 g+16~ > d+16~ g+16~ d+16 V3 c+8 V2 c+16 < V2 f+16 V3 f+8 V2 f+16 V3 b8 V2 b16 [ V3 b16 V2 b16 ]2 V3 a+16 V2 g+16 [ V3 f+16 V2 f+16 ]6 EX V3 a16 V2 a16 V3 b16 V2 b16 
!4  r32 YLR @8 x8 YLR [ @5 x16 @6 x16 ]2 @5 x16 YL. @8 x8 x8 Y.R x8. YLR @5 x16 @8 x8. [ @5 x16 @6 x16 ]7 L @8 x8 [ @5 x16 @6 x16 ]2 @5 x16 Y.R @8 x8 YLR @6 x16 [ @5 x16 @6 x16 ]2 @5 x16 @7 x16 [ @5 x16 @6 x16 ]5 @7 x16 @6 x16 @7 x8 r16 @6 x16 @8 x8 [ @5 x16 @6 x16 ]2 @5 x16 Y.R @8 x8 YLR @6 x16 [ @5 x16 @6 x16 ]2 @5 x16 @7 x16 [ @5 x16 @6 x16 ]2 @7 x8 x8 @8 x8. @6 x8 x8 @7 x16 [ @5 x16 @6 x32 x32 ]25 Y.R @8 x8 YLR x8 @6 x16 @8 x16~ x8 [ @5 x16 @6 x32 x32 ]3 @8 x8 [ @5 x16 @6 x32 x32 ]22 @5 x16 @7 x16 @8 x8 @5 x16 @6 x32 x32 @7 x8 x8 @8 x8 r16 @6 x8 x8 x16 @8 x8 [ @5 x16 @6 x32 x32 ]22 @5 x16 @7 x16 @8 x8 @5 x16 @6 x32 x32 @7 x8 x8 @8 x8 r16 @6 x8 x16 @8 x8 @8 YL. x8 YLR [ @5 x16 @6 x16 ]14 Y.R @8 x8 YLR @8 YL. x8 YLR [ @5 x16 @6 x16 ]11 [ @7 x16 @6 x16 ]2 @7 x8 @8 x8 @8 x8 [ @5 x16 @6 x16 ]2 @5 x16 Y.R @8 x8 YLR @6 x16 [ @5 x16 @6 x16 ]2 @5 x16 @7 x16 [ @5 x16 @6 x16 ]5 @7 x16 @6 x16 @7 x8 r16 @6 x16 @8 x8 [ @5 x16 @6 x16 ]2 @5 x16 Y.R @8 x8 YLR @6 x16 [ @5 x16 @6 x16 ]2 @5 x16 @7 x16 [ @5 x16 @6 x16 ]4 [ @7 x16 @6 x16 ]2 @7 x8 YL. @8 x8 YLR 
!5  PX @1 V0 c64 c64 V1 YLR @0 c4. @24 V0 c128 V1 c64.~ c32 @0 c8 c8 c8. @24 V0 c128 V1 c64.~ c32 @0 c16~ c16 V1 O1 @43 W0,97,0 V1 O0 f+32 a+32 > c+32 f+32 c+32 f+32 a+32~ a+32~ a+4 YLR @24 V1 O2 c16 c32 V0 c32 V1 @2 YL. < f16 YLR @24 > c32 V0 c32 < V1 @2 YLR g+32 g+32 > Y.R V0 c48 V1 c48 YLR V0 YLR < g+48 V1 g+48 YL. f48 f48 YLR O2 V1 V1 @0 c8 @24 c16 @0 V0 c16 V1 c8 @24 c16 @0 c8 V0 c16 V1 @24 c8 @0 c16 V0 c16 V1 @24 c16 @0 V0 c32 c32 [ V1 @0 c8 @24 c8 ]3 @0 c16 c16 @2 Y.R c48 d+48 YLR c48 < YL. g+16 > YLR @0 c8 @24 c16 @0 V0 c16 V1 c8 @24 c16 @0 c8 V0 c16 V1 @24 c8 @0 c16 V0 c16 V1 @24 c16 @0 V0 c32 c32 V1 @0 c8 @24 c8 @0 c8 @24 c16. @0 V0 c64 V1 c64 @24 c4. V0 @0 c16 @24 c32 c32 L [ V1 @0 c16 @21 V0 c+16 V1 @24 c16 @21 V0 c+16 ]7 V1 @0 c16 @21 V0 c+16 V1 @24 c32 @2 Y.R V0 c32 YLR V1 < g+32 YL. V0 f32 > YLR [ V1 @0 c16 @21 V0 c+16 V1 @24 c16 @21 V0 c+16 ]5 V1 @0 c16 @21 V0 c+16 V1 @24 c16 @0 c16~ c4 r16 V0 c32 V1 c32 @24 V0 c128 @2 V1 O1 g+64.~ g+32~ g+16 YLR O2 V1 [ @0 c8 @24 c16. @0 V0 c32 V1 c8 @24 c16. @0 V0 c32 V1 c8 @24 c16. V0 @0 c16 c32 V1 c16 @24 c8 ]2 @0 c8 @24 c16. @0 V0 c32 V1 c8 @24 c16. @0 V0 c32 V1 c8 @24 c16. V0 @0 c16 c32 V1 c16 @2 Y.R c32 YLR < g+32 YL. f32 YLR > @0 V0 c32 V1 @0 c8 @24 c16 @0 V0 c16 V1 c16 c16 V1 @24 c16. @0 V0 c32 V1 c16 @24 c16 c32 V0 c32 V1 < YLR @2 g+32 V0 g+32 V1 YL. f32 f16 Y.R > c128 c64.~ c32 < YLR V0 g+32 YL. V1 f128 f64. YLR V0 O2 @0 c32 YLR O2 V1 [ @0 c8 @24 c16. @0 V0 c32 V1 c8 @24 c16. @0 V0 c32 V1 c8 @24 c16. V0 @0 c16 c32 V1 c16 @24 c8 ]2 @0 c8 @24 c16. @0 V0 c32 V1 c8 @24 c16. @0 V0 c32 V1 c8 @24 c16. V0 @0 c16 c32 V1 c16 @2 Y.R c32 YLR < g+32 YL. f32 YLR > @0 V0 c32 V1 @0 c8 @24 c16 @0 V0 c16 V1 c16 c16 V1 @24 c16. @0 V0 c32 V1 c16 @24 c16 c32 V0 c32 V1 < YLR @2 g+32 V0 g+32 V1 Y.R > c32 c32 YLR < a32 > V0 c32 V1 @24 c8 [ V1 @0 c16 @32 V0 c32 c32 V1 @24 c16 @32 V0 c32 c32 ]3 V1 @0 c16 c32 @32 V0 c32 V1 @24 c16 @32 V0 c32 c32 V1 @0 c16 @32 V0 c32 c32 V1 @24 c16 @32 V0 c32 c32 V1 @0 c16 @32 V0 c32 c32 V1 @24 c16 @0 c32 @32 V0 c32 V1 @0 c16 @32 V0 c32 c32 V1 @24 c16 @32 V0 c32 c32 V1 @0 c16 c32 @32 V0 c32 V1 @24 c16 @32 V0 c32 c32 [ V1 @0 c16 @32 V0 c32 c32 V1 @24 c16 @32 V0 c32 c32 ]3 V1 @0 c16 c32 @32 V0 c32 V1 @24 c16 @2 YL. < f32 f32 > YLR [ V1 @0 c16 V0 c16 V1 @24 c16 V0 @0 c16 ]2 V1 @0 c32 V0 c32 c32 c32 @24 V1 c32 @0 V0 c32 c32 c32 V1 @0 c32 V0 c32 c32 c32 @24 V1 c32 @0 V0 c32 V1 @24 c32 V0 @0 c32 @0 c8 @24 c16 @0 V0 c16 V1 c8 @24 c16 @0 c8 V0 c16 V1 @24 c8 @0 c16 V0 c16 V1 @24 c16 @0 V0 c32 c32 [ V1 @0 c8 @24 c8 ]3 @0 c16 c16 @2 Y.R c48 d+48 YLR c48 < YL. g+16 > YLR @0 c8 @24 c16 @0 V0 c16 V1 c8 @24 c16 @0 c8 V0 c16 V1 @24 c8 @0 c16 V0 c16 V1 @24 c16 @0 V0 c32 c32 V1 @0 c8 @24 c8 @0 c8 @24 c8 @0 c8 @24 c16 @0 c16 @24 c16 V0 @0 c32 V1 c32 @24 c32 @0 V0 c32 c32 c32 V1 @0 c8 @24 c16 @0 V0 c16 V1 c8 @24 c16 @0 c8 V0 c16 V1 @24 c8 @0 c16 V0 c16 V1 @24 c16 @0 V0 c32 c32 [ V1 @0 c8 @24 c8 ]3 @0 c16 c16 @2 Y.R c48 d+48 YLR c48 < YL. g+16 > YLR @0 c8 @24 c16 @0 V0 c16 V1 c8 @24 c16 @0 c8 V0 c16 V1 @24 c8 @0 c16 V0 c16 V1 @24 c16 @0 V0 c32 c32 V1 @0 c8 @24 c8 @0 c8 @24 c16. @0 V0 c64 V1 c64 @24 c4. V0 @0 c32 @24 V0 c32 V1 c32 c32 
!6  r32 PX @8 V1 O1 YLR a+8 V0 Y.R a+8 YL. a+8 r16 V1 YLR O1 @21 W0,65,55 f16~ f16 f+8 g+8. f16 f+8 @40 W0,97,0 V1 O0 f+32 a+32 > c+32 f+32 c+32 f+32 a+32~ a+32~ a+8. YLR~ a+4 V0 a+8 r8 V1 @8 O1 g+16 Y.R V0 g+16 H0 YLR @21 O2 c+16 < V0 f+16 V1 f+16 V0 f+16 f+16 V1 b8 V0 b16 [ V1 b16 V0 b16 ]2 V1 a+16 V0 g+16 @8 V1 c+8 @21 [ V1 f+16 V0 f+16 ]2 @8 V0 c+8 V1 d+8 @21 V1 g+16 V0 @8 O1 g+32 a+32 > V1 c32 c+32 d+32 f32 f+16 O2 @21 < V0 g+16 V1 @8 O1 g+16 Y.R V0 g+16 YLR @21 O2 V0 c+16 < f+16 V1 f+16 V0 f+16 f+16 V1 b8 V0 b16 [ V1 b16 V0 b16 ]2 V1 a+16 V0 g+16 V0 c+16 Y.R c+16 YLR r16 V1 @40 W0,97,0 O1 b32 > c+32 e16 e32 f+32 g+16 a32 a+32 > c+8 r4 L @43 W0,97,0 O1 V0 g+32 a+32 > c+32 < a+32 > c+2~ c+4.~ c+16 < g+32 a+32 > c+2~ c+4. O1 V0 g+32 a+32 > c+32 < a+32 > c+2~ c+4.~ c+16 < g+32 a+32 > c+4.~ c+16 < b16~ b4.~ b16 r16 @21 O2 V0 [ c+16 c+32 c+32 ]4 @43 W0,97,0 O1 b8. a+8. g+8 @21 O2 V0 [ c+16 c+32 c+32 ]4 @43 W0,97,0 O1 b8. a+8. > c+8 @21 O2 V0 [ c+16 c+32 c+32 ]4 @43 W0,97,0 O1 b8. a+8. g+8 @21 O1 V0 [ V1 b8 V0 b16 b16 ]3 V0 b16. b16. b16 @21 O2 V0 [ c+16 c+32 c+32 ]4 @43 W0,97,0 O2 d+8. c+8. < b8 @21 O2 V0 [ c+16 c+32 c+32 ]4 @43 W0,97,0 O2 d+8. c+8. f+8 f2 d+4 c+4 d+4. V1 @28 W0,99,45 O1 b32 > c+32 d+32 f32 f+4 @21 O1 [ V1 b16 V0 b32 b32 ]2 @28 W0,99,45 O2 [ V1 f+16. f+16 V0 Y.R f+32 YLR V1 c+32 d+32 f+8 V0 YL. f+16 r16 YLR V1 g+16. g+16 V0 YL. g+32 YLR V1 d+32 f32 g+8 V0 Y.R g+16 r16 YLR ]2 O2 V1 b8. a+16 f+8 g+16 V0 g+16 V1 a+8. g+16 f+8 f+16 V0 f+16 V1 e8. @28 W0,99,45 V0 e32 e32 V1 e4 @7 V1 O1 YLR e64 YL. e64 YLR a64 Y.R a64 YLR b64 YL. b64 YLR > c+64 Y.R c+64 YLR e64 YL. e64 < YLR a64 Y.R a64 YLR b64 YL. b64 > YLR c+64 Y.R c+64 < YLR a64 YL. a64 YLR b64 Y.R b64 > YLR c+64 YL. c+64 YLR e64 Y.R e64 YLR c+64 YL. c+64 YLR e64 Y.R e64 YLR a64 YL. a64 YLR b64 Y.R b64 YLR V1 @8 O1 g+16 Y.R V0 g+16 YLR @21 O2 V0 c+16 < V0 f+16 V1 f+16 V0 f+16 f+16 V1 b8 V0 b16 [ V1 b16 V0 b16 ]2 V1 a+16 V0 g+16 @8 V1 c+8 @21 [ V1 f+16 V0 f+16 ]2 @8 V0 c+8 V1 d+8 @21 V1 g+16 V0 @8 O1 g+32 a+32 > V1 c32 c+32 d+32 f32 f+16 O2 @21 V0 < g+16 V1 @8 O1 g+16 Y.R V0 g+16 YLR @21 O2 V0 c+16 < f+16 V1 f+16 V0 f+16 f+16 V1 b8 V0 b16 [ V1 b16 V0 b16 ]2 V1 a+16 V0 g+16 V0 c+16 Y.R c+16 YLR r16 V1 @40 W0,97,0 O1 b32 > c+32 e16 e32 f+32 g+16 a32 a+32 > c+8 r8 @8 O1 YLR V1 a16 V0 Y.R a16 YLR V1 b16 YL. V0 b16 YLR V1 @8 O2 c+16 Y.R V0 c+16 H0 YLR @21 O2 c+16 < V0 f+16 V1 f+16 V0 f+16 f+16 V1 b8 V0 b16 [ V1 b16 V0 b16 ]2 V1 a+16 V0 g+16 @8 V1 c+8 @21 [ V1 f+16 V0 f+16 ]2 @8 V0 c+8 V1 d+8 @21 V1 g+16 V0 @8 O1 g+32 a+32 > V1 c32 c+32 d+32 f32 f+16 O2 @21 < V0 g+16 V1 @8 O1 g+16 Y.R V0 g+16 YLR @21 O2 V0 c+16 < f+16 V1 f+16 V0 f+16 f+16 V1 b8 V0 b16 [ V1 b16 V0 b16 ]2 V1 a+16 V0 g+16 V0 c+16 Y.R c+16 YLR r16 V1 @40 W0,97,0 O1 b32 > c+32 e16 e32 f+32 g+16 a32 a+32 @8 c+8 r4 
