;009 001A4960
!1  T90 T81 @3 E90,100,80,3,8 P20,8,4 EPX V4 O3 e32 f+32 g32 a32 e4. _V-2 e8 _V2 d8 c8 c8 < b8 b4. _V-2 b8 _V2 a8 g8 g8 f+8 @0 E80,100,70,4,15 EP-4,0,0,3,0 P20,9,3 V4 D-1 r32 Y.R O3 V4 > c8 < b16 a16 _V-2 b16 a16 _V2 g16 f+8 _V-2 f+16 _V2 e8 d+8 e8 EX f+16 ( f+16 ( f+16 ( f+8 ) f+16 _V2 f+16 _V-2 f+16 _V2 b16 _V-2 b16 ( b8. ) b16 _V2 b16 _V-2 b32 _V2 L @3 EPX E80,100,70,3,8 V4 O1 YLR [ r16 _V-2 b16 _V2 b16 _V-2 b16 _V2 b16 > d16 _V-2 < b16 > d16 _V2 < ]4 > [ r16 _V-2 c16 _V2 c16 _V-2 c16 _V2 c16 d16 _V-2 c16 d16 _V2 ]2 < r16 _V-2 a16 _V2 a16 _V-2 a16 _V2 a16 > c16 _V-2 < a16 > c16 _V2 < r16 _V-2 b16 _V2 b16 _V-2 b16 _V2 b16 > d+16 _V-2 < b16 > d+16 _V2 < [ r16 _V-2 b16 _V2 b16 _V-2 b16 _V2 b16 > d16 _V-2 < b16 > d16 _V2 < ]4 > [ r16 _V-2 c16 _V2 c16 _V-2 c16 _V2 c16 d16 _V-2 c16 d16 _V2 ]2 < r16 _V-2 a16 _V2 a16 _V-2 a16 _V2 a16 > c16 _V-2 < a16 > c16 _V4 r16 _V-2 d+16 _V2 d+16 _V-2 d+16 _V2 d+16 f+16 _V-2 < d+16 @@4,3,0 EX EP-4,0,0,3,0 P20,9,3 O2 V4 YL. B1 D-1 r32. > d4 EP-6,0,-24,3,15 d8. EP-4,0,0,3,0 < f16 e16 _V-2 f16 _V2 EP0,0,20,10,0 e8 EP-4,0,0,3,0 _V-2 b16 _V2 > f8 g16 e16~ e8. _V-2 e16 _V2 e8 d16 c16~ c4 _V-2 c16 _V2 e16 f+16 g16~ g8. g8~ _V-2 @0 f48 e48 d48 _V2 @@4,3,0 < EP0,0,-18,9,0 b8 EP0,0,20,10,0 _V-2 b16 _V2 a8 EP-4,0,0,3,0 _V-2 > c+16 _V2 g8 _V-2 e16 _V2 f+16~ f+4.~ f+16 _V-2 f+16 _V2 EP0,0,-12,6,15 E90,100,20,3,20 f+12 _V-2 f+12 ( f+12 ( f+16 r64 D0 @3 EPX E80,100,70,3,8 YLR V4 O3 a16 b16 _V2 > c4. _V-2 d16 e16 f+8 e8 d+8 c8 < b4 b16 > c16 _V-4 < b16 _V4 g16~ g8. _V-4 g8 < _V2 e16 _V-2 e16 _V2 < b16~ b16. _V-2 b32 Y.R @@4,3,0 E80,100,70,4,15 EP-1,0,0,1,0 P20,9,2 O3 V8 e32 f+32 g32 f+32 g8 _V-4 g16 @3 EPX E80,100,70,3,8 YLR V4 O2 c16~ c16. _V-2 c32 YL. @@4,3,0 E80,100,70,4,15 EP-1,0,0,1,0 P20,9,2 O3 V8 e32 f+32 g32 f+32 g8. _V-4 g16 Y.R _V2 < [ b16~ a+16 b16 b8 > c16 < b16 > _V-2~ c16~ _V2 YL. ]2 
!2  @@4,2,0 E80,100,70,4,15 EP-8,0,0,3,0 P20,9,8 V6 r8 O2 r8 g8 f+16. g16. e16 < b2 _V-4 b8 _V4 > g8 f+16. g16. e16 < b8 O3 @@4,2,0 E80,100,70,4,15 EP-4,0,0,3,0 P20,9,3 V8 c8 e8 _V-2 b8 _V2 > c8 < b16 a16 _V-4 b16 _V-2 a16 _V6 g16 f+8 _V-4 f+16 _V4 e8 d+8 e8 EX f+16 V6 @0 f+16 V4 f+16 V2 f+8 V4 f+16 V6 f+16 _V-4 f+16 _V6 b16 _V-4 b16 _V-2 b8. _V4 b16 _V2 b16 _V-6 b16 _V6 L @3 EPX E80,100,70,3,8 V6 O2 [ r16 _V-2 e16 _V2 e16 _V-2 e16 _V2 e16 f+16 _V-4 e16 f+16 _V4 ]2 [ r16 _V-2 d16 _V2 d16 _V-2 d16 _V2 d16 f+16 _V-4 d16 f+16 _V4 ]2 [ r16 _V-2 e16 _V2 e16 _V-2 e16 _V2 e16 f+16 _V-4 e16 f+16 _V4 ]2 r16 _V-2 c16 _V2 c16 _V-2 c16 _V2 c16 e16 _V-4 c16 e16 _V4 @@4,2,0 E80,100,70,4,15 EP-4,0,0,3,0 P20,9,3 V6 O3 b16 _V-2 EPX EX PX @0 b16 _V-2 b8. _V2 b16 _V2 b16 _V-4 b16 _V4 @@4,2,0 E80,100,70,4,15 EP-8,0,0,3,0 P20,9,8 [ V8 O2 r8 b8 f+16. g16. e16 < b4. _V-6 b8 _V4 ]2 a4. _V-4 EPX P0,9,8 @0 EX a8 _V2 a16 _V2 a16 @@4,2,0 E80,100,70,4,15 EP-4,0,0,3,0 P20,9,3 V6 O3 b8 a8 g8 f+4 e4 _V-2 b4~ b16 _V-2 @@4,3,0 E80,100,50,4,15 EP-4,0,0,3,0 P20,9,3 O2 V8 B1 b16 >~ @0 c16 @@4,3,0 EP-4,0,0,8,0 d4 E80,100,30,4,26 EP-6,0,-4,3,15 d8. EP-4,0,0,3,0 < f16 e16 _V-6 f16 _V6 EP0,0,20,10,0 e8 EP-4,0,0,3,0 _V-2 b16 _V2 > f8 g16 e16~ e8. _V-6 e16 _V6 e8 d16 c16~ c4 _V-6 c16 _V6 e16 f+16 g16~ g8. g8~ _V-2 @0 f48 e48 d48 @@4,3,0 _V2 < EP0,0,-14,10,0 b8 _V-6 b16 _V6 EP0,0,14,10,0 a8 EP-4,0,0,3,0 _V-2 > c+16 _V2 g8 _V-2 e16 _V2 f+16~ f+4.~ f+16 _V-6 f+16 _V6 EP0,0,-12,6,15 E90,100,20,3,20 f+12 _V-4 f+12 ( f+12 ( f+12 r24 @3 EPX E80,100,70,3,8 V6 O3 f+16 g16 _V2 a4. _V-2 b16 > c16 d8 c8 < b8 a8 g4 g16 a16 _V-4 g16 _V4 b16~ b8. _V-4 b8. _V-2 b16 @3 EPX E80,100,70,3,8 YLR V4 O2 g16~ g16. _V-2 g32 @@4,3,0 E80,100,50,4,15 P20,9,3 O3 V6 r16 EP0,0,-14,5,1 b16 b16 EP-4,0,0,3,0 _V-2 b32 _V-2 a32 EP0,0,-1,5,1 _V4 b16 EP-2,0,0,3,0 b16~ b8 EP-4,0,-2,1,3 a8. > EP-2,0,0,3,0 c16 EP-2,0,0,3,0 d16 _V-4 d16 @3 EPX E80,100,70,3,8 YLR V4 O2 b16 _V-2 Y.R b16 _V2 YLR b16 _V-2 YL. b16 _V2 YLR b16 _V-2 Y.R b16 _V2 YLR b24 @@4,3,0 E80,100,50,4,15 P20,9,3 O3 V6 EP0,0,-2,8,0 g12 EP-3,0,0,3,0 b16 _V-4 f+16 _V4 g8 EPX @0 EX P0,9,3 V4 g8 V2 g16 f+16 
!3  `9F00 `AE00 @A3 E100,70,70,4,0 P20,8,12 r8 O1 V3 e2~ e4. e8~ V3 c2 <~ c4. V2 c8 V3 > [ V3 f16 V2 f16 ]4 [ V3 f+16 V2 f+16 ]4 [ V3 b16 V2 b16 ]4 < > V3 b4. V2 b8 L O1 [ V3 e16 e16 V1 e16 V2 e16 V3 e16 < b16 > e16 V1 e16 ]2 V3 d16 d16 V1 d16 V2 d16 V3 d16 < b16 > d16 V1 d16 V3 d16 d16 V1 d16 V3 d16 V2 d16 < V3 b16 > d16 V1 d16 V3 c16 c16 V1 c16 V3 c16 V2 c16 < V3 g16 > c16 V1 c16 < V3 a16 a16 V1 a16 V3 a16 V2 a16 V3 e16 a16 V1 a16 V3 f16 f16 V1 f16 V3 f16 V2 f16 V3 a16 > c16 V1 c16 < V3 b16 b16 V1 b16 V3 b16 V2 b16 V3 f+16 b16 V1 b16 > [ V3 e16 e16 V1 e16 V3 e16 V2 e16 < b16 > e16 V1 e16 ]2 V3 d16 d16 V1 d16 V3 d16 V2 d16 < b16 > d16 V1 d16 V3 d16 d16 V1 d16 V3 d16 V2 d16 < V3 b16 > d16 V1 d16 V3 c16 c16 V1 c16 V3 c16 V2 c16 < V3 g16 > c16 V1 c16 < V3 a16 a16 V1 a16 V3 a16 V2 a16 V3 e16 a16 V1 g16 V3 f+16 f+16 V1 f+16 V3 f+16 V2 f+16 V2 > c16 f+16 V1 f+16 < < V3 b16 b16 V1 b16 V3 b16 V2 b16 V3 f+16 b16 V1 b16 [ V3 b16 V2 b16 V1 b16 ]2 > V3 f16 V2 f16 [ V3 e16 V2 e16 V1 e16 ]2 < V3 b16 V2 b16 [ V3 a16 V2 a16 V1 a16 ]2 V3 e16 V2 e16 V3 g16 V2 g16 V1 g16 V3 g16 V2 g16 V3 > e16 g16 V2 g16 [ V3 c+16 V2 c+16 V1 c+16 ]2 < V3 g16 V2 g16 V3 f+16 V2 f+16 V1 f+16 V3 f+16 V2 f+16 V3 > c+16 g16 V2 g16 < V3 b16 V2 b16 V1 b16 V3 b16 V2 b16 V3 b16 f+16 V2 f+16 V3 b16 V2 b16 V1 b16 V3 b16 V2 b16 V3 f+16 b16 V2 b16 [ V3 f+16 V2 f+16 V1 f+16 ]2 > V3 c16 V2 c16 < V3 b16 V2 b16 V1 b16 V3 b16 V2 b16 V3 > f+16 > c16 V2 c16 < [ V3 e16 V2 e16 V1 e16 H-1 ]2 H0 V3 d16 V2 d16 V3 c+16 V2 c+16 V1 c+16 V3 c+16 V2 c+16 V3 < g16 > V2 c+16 V3 c16~ c8 V2 c16 V3 < f16 > c16 < e16 g16 f16~ f8 V2 f16 V3 a16 > c16 f16 c16 < V2 g16 [ V3 b16 V2 b16 V1 b16 ]2 V3 f+16 V2 f+16 [ V3 b16 V2 b16 V1 b16 ]2 V3 b16 V2 b16 
!4  r8 [ @8 x8. @6 x8 x8~ x8 x8~ x8 x8~ x16 ]2 @8 x8 [ @5 x16 @6 x16 ]3 [ @5 x16 @6 x16 ]7 @5 x16 @7 x16 @8 x8 @6 x8 x8 x16 @7 x16 L @8 x8. @6 x8 x8 x16 [ [ x16 x32 x32 ]2 x32 x32 x16 x16 x32 x32 ]6 [ x16 x32 x32 ]2 x32 x32 x16 @7 x8 @8 x8. @6 x8 x8 x16 [ [ x16 x32 x32 ]2 x32 x32 x16 x16 x32 x32 ]6 @5 x16 @6 x16 @7 x8 @8 x8~ x16 @6 x16 @8 x8 [ @5 x16 @6 x16 ]3 [ [ @5 x16 @6 x16 ]4 ]6 @5 x16 @6 x16 @7 x8. x8 x16 @8 x8 [ @5 x16 @6 x16 ]3 [ @5 x16 @6 x16 ]11 @7 x16 @8 x16~ x8. @6 x8 x16 @5 x16 @8 x16~ x8. @6 x8 x8 x16 @8 x8 [ @5 x16 @6 x16 ]5 @7 x8. @6 x16 
!5  r8 V1 @0 c8 @9 W0,41,34 V0 O1 g8 f+16. g16. e16 < V0 b8. O2 @2 V1 Y.R c128 c64.~ c16. YLR < g+16 V1 YL. @2 V1 f128 f64.~ f16. O2 YLR @0 V1 c8 @9 W0,41,34 V0 O1 g8 f+16. g16. e16 < V0 b16 O2 @2 V1 Y.R c128 c64.~ c16.~ c16 YLR < g+128 g+64.~ g+16 > Y.R @2 V1 Y.R c16. V1 YL. @2 V1 < f128 f64.~ f32 [ YLR O2 @0 V1 c8 @1 c8 @0 c16 c16 @1 c8 ]3 @0 c4 @1 V0 c32 V1 c32 @2 YL. < f16 > YLR @1 c16 c16 L [ V1 @0 c8 @1 c8 [ @0 c16 c16 @1 c8 ]2 @0 c8 @1 c8 ]3 V1 @0 c8 @1 c8 [ @0 c16 c16 @1 c8 ]2 @0 c16 c16 @1 c16 c32 c32 [ V1 @0 c8 @1 c8 [ @0 c16 c16 @1 c8 ]2 @0 c8 @1 c8 ]3 V1 @0 c8 @1 c8 @0 c16 c16 @1 c8 @0 c8 @1 c8 @0 c16. @1 V0 c32 V1 c16 < YL. @2 g+16 > YLR V1 [ @0 c8 @1 c16 @0 c8. @1 c8 ]7 @0 c8 @1 c16 @0 V0 c16 V1 c16. @1 V0 c32 V1 c16 @2 < YL. f16 > YLR [ @0 c8 @1 c16 @0 c8. @1 c8 ]3 @0 c8 @1 c16 @0 c8. @1 c16 @0 c16~ c8 @1 c16 @0 V0 c16 V1 c8 @1 c16 @0 c16~ c8 @1 c16 @0 V0 c16 V1 c8 @1 c8 @0 c8 @1 c16 @0 V0 c16 V1 c8 @1 c16 @0 V0 c16 c16 V0 c16 V1 @1 c8 @0 c16. @1 V0 c32 V1 c32 c32 @2 < YL. f16 YLR > 
!6  @43 V1 O1 W0,99,0 e32 f+32 g32 a32 b16 V0~ b16~ b4. V1 b16 a16 a16 g16 g16 V0 f+16 V1 e32 f+32 g32 a32 b16 V0~ b16~ b4. V1 > d16 c16 c16 < b16 b16 a16 a16 g16 V1 a4 V0 a8 f+32 g32 g+32 a32 V1 a+4 V0 a+8 V1 a+16 r16 @40 W0,99,0 O2 b16 a16 g16 f+16 f+16 e16 d+16 d32 V0 c32 V1 < b4. > g16 f+16 L V0 r16 < e16 e16 e16 e16 f+16 V1 b16 > e16 V0 r16 < e16 e16 e16 e16 f+16 V1 > g16 f+16 V0 r16 < d16 d16 d16 d16 f+16 V1 b16 > b16 V0 r16 < d16 d16 d16 d16 f+16 V1 > a16 g16 V0 r16 < e16 e16 e16 e16 f+16 V1 > f+16 e16 V0 r16 < e16 e16 e16 e16 f+16 V1 > > d16 c16 < V0 r16 < c16 c16 c16 c16 e16 V1 > f+16 g16 V0 r16 < d+16 d+16 d+16 d+16 f+16 V1 > g16 f+16 V0 r16 < e16 e16 e16 e16 f+16 V1 b16 > e16 V0 r16 < e16 e16 e16 e16 f+16 V1 > g16 f+16 V0 r16 < d16 d16 d16 d16 f+16 V1 b16 > b16 V0 r16 < d16 d16 d16 d16 f+16 V1 > a16 g16 V0 r16 < e16 e16 e16 e16 f+16 V1 > > f+16 e16 < V0 r16 < e16 e16 e16 e16 f+16 V1 > f+16 > c16 < V0 r16 < c16 c16 c16 c16 e16 V1 > a16 a+16 V1 b8 V0 b4~ b16 r16 O1 V0 a2 g+2 b2 a2 b2 a+2 b16 < V1 b16 a16 a+16 b16 > c16 d16 e16 V1 f+16 V0 f+16 e16 f16 V1 f+16 g16 a16 b16 > c8 V0 c16 < V1 g16 f+8 e8 d+4. V0 e16 f+16 V1 f+8 e8 < b16 V0 b16 V1 a16 V1 g16~ g4 V0 g16 V1 > V1 g16 V0 g16 V1 e16~ e4. V0 e16 V1 e16~ e4. V0 e8 V1 [ f+16 V0 Y.R f+16 YLR V1 f+16 YL. V0 f+16 YLR V1 ]3 f+16 V0 Y.R f+16 V1 @40 W0,99,0 O2 YLR g16 f+16 
