;010 001A571C
!1  T90 T60 L @1 O2 V5 E90,100,90,1,1 [ YLR c64 _V-3 Y.R c64 YLR _V3 c64 _V-3 YL. c64 _V3 YLR d64 _V-3 Y.R c64 _V3 YLR c64 _V-3 YL. c64 _V3 d+64 _V-3 Y.R c64 _V3 YLR c64 _V-3 YL. d+64 _V3 YLR f64 _V-3 Y.R c64 _V3 YLR c64 _V-3 Y.R c64 _V3 ]4 [ YLR d64 _V-4 Y.R d64 YLR _V4 d64 _V-4 YL. d64 _V4 YLR d+64 _V-4 Y.R d64 _V4 YLR d64 _V-4 YL. d+64 _V4 f64 _V-4 Y.R d64 _V4 YLR d64 _V-4 YL. f64 _V4 YLR g64 _V-4 Y.R d64 _V4 YLR d64 _V-4 Y.R d64 _V4 ]2 Y.R @1 O2 E100,100,60,1,1 V5 D3 r64 g32 f+32 f32 e32 d+32 d32 c+32 c64 < YLR b32 a+32 a32 g+32 g32 f+32 f32 e32 YLR D0 @@0,2,1 O2 V6 E100,40,80,1,1 c16. Y.R c16. YL. c16 YLR c16. Y.R c16. YL. c16 YLR d+16. Y.R d+16. YL. d+16 YLR f16. Y.R f16. YL. f16 EX @@2,1,3 O2 V5 YL. D2 r32. g16. f16. d+32 _V-3 d+32 _V3 Y.R d16. d+16. c32 _V-3 c32 _V3 YL. d16. d+16. a+32 _V-3 a+32 _V3 Y.R g16. f16. d+64 D0 @@0,2,1 O2 V6 E100,40,80,1,1 YLR c16. Y.R c16. YL. c16 YLR c16. Y.R c16. YL. c16 YLR d+16. Y.R d+16. YL. d+16 YLR f16. Y.R f16. YL. f16 EX @@2,1,3 O2 V5 YL. D2 r32. g16. f16. d+32 _V-3 d+32 _V3 Y.R d16. d+16. c32 _V-3 c32 _V3 YL. d16. d+16. a+32 _V-3 a+32 _V3 Y.R f16. g16.~ g64 @1 V5 D0 [ YLR g+64 > c64 < Y.R g+64 > c64 < YL. g+64 > c64 < Y.R g+64 > c64 < ]4 YLR V6 @@2,2,1 O2 c16. < a+16. g+32 _V-4 YL. g+32 _V2 YLR g16. g+16.~ g+32 YL. _V-2 g+32 _V2 YLR @1 V5 O2 [ YLR g+64 b64 Y.R g+64 b64 YL. g+64 b64 Y.R g+64 b64 ]4 YLR V6 @@2,2,1 O2 d16. c16. < a+32 _V-4 YL. a+32 _V2 YLR a16. g16. f32 YL. _V-2 f32 _V2 YLR @1 V5 D0 [ YLR g+64 > c64 < Y.R g+64 > c64 < YL. g+64 > c64 < Y.R g+64 > c64 < ]4 P19,5,17 V7 [ YLR g+32 Y.R g+32 ]4 [ YLR g32 Y.R g32 ]2 P19,12,3 V5 @1 O2 Y.R EP-2,0,0,1,1 a48 b48 > c48 d48 d+48 f48 YLR < V6 @0 E100,100,70,12,1 g4 a4 g+4 a4 > c4 < g+4 @@4,3,2 E100,100,80,1,1 [ a+32 ]4 YL. [ a32 ]4 Y.R [ g+32 ]4 YL. [ g32 ]4 @3 YLR V6 O1 r8 a+48 > c48 c+48 d+48 f48 f+48 g+8. a+16 < a+4 > c+16 c16 < a16 a+16 V6 E100,100,70,12,1 EPX P27,11,5 @@2,2,1 O2 d+4 c+16. d+16. e32 _V-4 e32 _V4 f4 d16. e16. f32 _V-4 f32 _V4 f+4 d+16. f16. f+32 _V-4 f+32 _V4 D2 > d16. _V-4 d32 _V4 d32 c32 < b32 g32~ g4 
!2  L @@2,2,0 O4 V7 YLR P8,12,3 c16 r16 _V-4 Y.R c16 _V-2 c16 YL. _V2 c16 _V-2 c16 _V2 Y.R c16 _V-2 c16 _V6 YLR [ c64 _V-4 c64 _V4 ]2 r16 _V-4 Y.R c16 _V-2 c16 YL. _V2 c16 _V-2 c16 _V2 Y.R c16 _V-2 c16 _V6 < YLR f16 r16 _V-4 Y.R f16 _V-2 f16 _V6 YLR O3 P15,12,5 EP-20,-10,0,1,1 f+16. g32~ g8 EPX @1 O1 E100,100,60,1,1 V4 g32 f+32 f32 e32 d+32 d32 c+32 c32 < _V2 b32 a+32 a32 g+32 g32 f+32 f32 e32 @@2,2,1 O3 V7 P43,9,10 E100,100,80,12,3 g16. f16. d+32 _V-5 d+32 _V5 d16. d+16. c32 _V-5 c32 _V5 d16. d+16. f32 _V-5 f32 _V5 d+16. d16. < a+32 _V-5 a+32 _V5 @@2,1,3 O2 YLR V6 g16. f16. d+32 _V-4 d+32 _V4 d16. d+16. c32 _V-4 c32 _V4 d16. d+16. a+32 _V-4 a+32 _V4 g16. f16. @@2,2,1 V7 O3 c64 d64 d+64 f64 P43,9,10 g16. f16. d+32 _V-5 d+32 _V5 d16. d+16. c32 _V-5 c32 _V5 d16. d+16. f32 _V-5 f32 _V5 d+16. d16. < a+32 _V-5 a+32 _V5 @@2,1,3 O2 YLR V6 g16. f16. d+32 _V-4 d+32 _V4 d16. d+16. c32 _V-4 c32 _V4 d16. d+16. a+32 _V-4 a+32 _V4 f16. g16. @@2,2,1 V6 O3 d64 d+64 f64 g64 YL. r8. g+32 > c32 f32. g64 g+8. YLR O2 V6 g+16. g16. f32 _V-4 YL. f32 _V4 YLR e16. f16.~ f32 YL. _V-4 f32 _V4 V6 O1 YL. r8 r32 g+32 b32 > e32 g+32 b32 > e32 g+32~ g+8 YLR O2 V6 a+16. a16. g32 _V-4 YL. g32 _V4 YLR f16. d+16. d32 YL. _V-4 d32 _V4 YLR @1 c8 _V-4 c32 _V3 < d+32 g+32 > c32 d+16.~ d+64 g64 g+8 > P19,6,6 [ YLR c32 YL. c32 ]4 < [ YLR b32 YL. b32 ]2 V8 P25,12,3 @1 EP-2,0,0,1,1 O2 YLR a48 b48 > c48 d48 d+48 f48 E100,100,80,1,1 g16. f16. d+32 _V-4 YLR d+32 _V4 YLR d16. d+16. c32 _V-4 YLR c32 _V4 YLR a+16. g+16. g32 _V-4 YLR g32 _V4 YLR f+16. > d16. < f+32 _V-4 YLR f+32 _V4 YLR g+16. g16. f32 _V-4 YLR f32 _V4 YLR e16. f16. g32 _V-4 YLR g32 _V4 YLR E100,100,60,56,6 f4.~ f16 V8 O3 P15,12,3 E100,100,80,1,1 r64 c64 c+64 d+64 f4 d+16. c+16~ c+64. _V-2 d+128 _V2 g+16 f+16. f16. d+16 c+8 < V8 E100,100,80,25,6 EPX P21,12,5 @@2,2,1 B1 c+16~ > c32 _V-4 c32 _V4 c4 < a+16. > c16. c+32 _V-4 c+32 _V4 d4 < b16. > c+16. d32 _V-4 d32 _V4 d+4 c16. c+16. d+32 _V-4 d+32 _V4 f16. _V-4 f32 _V4 f32 d+32 d32 P31,12,5 g32~ g4 
!3  L `9F00 `AE00 @A3 V3 O1 YLR c16 O2 @A0 @B1 V2 @~1 d32 c32 d+32 c32 f32 c64 V1 c64 V2 [ c64 V1 c64 V2 ]2 d32 c32 d+32 c32 f32 c64 V1 c64 O1 @A3 [ V3 c64 V1 c64 ]2 O2 @A0 @B1 V2 @~1 d32 c32 d+32 c32 f32 c64 V1 c64 [ c64 V3 c64 V1 ]2 V2 d32 c32 d+32 c32 f32 c64 V1 c64 @~X O1 @A3 V2 d16 O2 @A0 @B1 @~1 d+32 d32 f32 d32 g32 d64 V1 d64 @~X O1 @A0 V3 f+16. g32~ g8 < r4. [ g64 r64 ]4 O1 @A3 E100,100,60,1,4 [ [ c32 ]2 c32 > [ c32 ]2 c32 < [ c32 ]2 ]8 [ [ c32 ]2 c32 > [ c32 ]2 c32 < [ c32 ]2 ]8 [ c+16. c+16. c+16 ]2 [ f16. f16. f16 ]2 [ e16. e16. e16 ]2 [ g16. g16. g16 ]2 [ g+16. g+16. g+16 ]2 a16. a16. a16 g16. g16. g16 [ c16. c32 r32 c32 r32 c32 c32 c32 r32 c32 r32 c32 r32 c32 ]2 f16. f32 r32 f32 r32 f32 c+32 c+32 r32 c+32 r32 c+32 r32 c+32 < a+16. a+32 r32 a+32 r32 a+32 a+32 a+32 r32 a+32 r32 a+32 r32 a+32 > [ d+32 d+32 [ r32 d+32 ]3 ]2 < [ a+32 a+32 [ r32 a+32 ]3 ]2 [ f+32 f+32 [ r32 f+32 ]3 ]2 [ g+32 g+32 [ r32 g+32 ]3 ]2 [ a32 a32 [ r32 a32 ]3 ]2 b32 b32 [ r32 b32 ]3 g32 g32 [ r32 g32 ]3 EX 
!4  L @8 x16 r16 @5 x8 x8 x8 @8 x32 x32 r16 @5 x8 x8 x8 @8 x16 r16 @5 x8 @8 x16 r32 x32 r8 @6 x8 r4 x16 @5 x16 [ @8 x16 @5 x16 [ @6 x16 @5 x16 ]15 ]2 @8 x16 @5 x16 [ @6 x16 @5 x16 ]23 @8 x16 @5 x16 [ @6 x16 @5 x16 ]15 [ @6 x16 @5 x16 ]21 @6 x16 @7 x16 r4 
!5  L V1 O2 @8 c8 ( Y.R c8 YL. c8 r8 ) YLR c32 c16. ( Y.R c8 YL. c8 r8 ) YLR < a+8 ( Y.R a+8 ) YLR O2 @14 W0,45,10 g+16. a+32~ a+8 V1 @26 O2 Y.R g32 f+32 f32 e32 d+32 d32 c+32 c32 YLR @15 g+32 g32 f+32 f32 e32 d+32 d32 c+32 [ @0 c16 @1 c32 @0 c32 r32 ( c32 ) @1 c16 ]8 [ @0 c16 @1 c32 @0 c32 r32 ( c32 ) @1 c16 ]7 @0 c32 @1 ( c32 ) c32. ( c64 ) c32. ( c64 ) c16 [ [ @0 c16. c16. @1 c16 ]3 @0 c16. c16 c32 @1 c16 ]2 @0 c16. c16. @1 c16 @0 c16. c16 c32 @1 c16 @0 c32 @2 d32 d32 c32 < a+32 a32 g32 f32 @4 O1 [ g32 ]8 O2 [ @0 c16 @1 c32 @0 c32 r32 ( c32 ) @1 c16 ]4 [ @0 c16 @1 c32 @0 c32 r32 ( c32 ) @1 c16 ]4 [ @0 c16 @1 c32 @0 c32 r32 ( c32 ) @1 c16 ]11 @0 c32 @2 d32 d32 c32 < a+32 a32 g32 f32 
!6  L V1 O2 @4 c16 V0 YL. c16 Y.R c16 YLR V1 c32 V0 c32 V1 c32 V0 c32 c32 c32 YL. c16 Y.R c16 YLR V1 c32 c32 YL. V0 c16 Y.R c16 YLR V1 c32 c32 c32 V0 c32 c32 c32 c32 c32 YL. c32 Y.R c32 YLR V1 c16 @2 d48 c48 < a+48 g16 g16 @0 O2 c16. c32 r8 @26 O2 YL. r128 D3 g32 f+32 f32 e32 d+32 d32 c+32 c64. D0 YLR @2 O2 r32 d32 c32 < a+32 @4 O1 g32 V0 g32 g32 g32 @3 O1 V0 g16. Y.R g16. YL. g16 YLR a16. Y.R a16. YL. a16 YLR g+16. Y.R g+16. YL. g+16 YLR a+16. Y.R a+16. YL. a+16 YLR g16. Y.R g16. YL. g16 YLR a16. Y.R a16. YL. a16 YLR g+16. Y.R g+16. YL. g+16 YLR a+32 @4 O2 V0 c32 V1 c32 c32 c32 V0 c32 c32 c32 V1 c16. @3 O1 V0 Y.R g16. YL. g16 YLR a16. Y.R a16. YL. a16 YLR g+16. Y.R g+16. YL. g+16 YLR a+16. Y.R a+16. YL. a+16 YLR g16. Y.R g16. YL. g16 YLR a16. Y.R a16. YL. a16 YLR g+16. Y.R g+16. YL. g+16 YLR a+16. Y.R a+16. @3 W0,33,6 O2 YLR V1 d64 d+64 f64 g64 g+16. g16. f32 ( f32 ) e16. f32~ f8 @43 W0,91,11 g+8. Y.R c48 < a+48 > c48 < g+4 YLR @3 W0,33,6 O2 g+16. f+16. e32 ( e32 ) d+16. c+16. < b32 ( b32 ) a+4 @43 W0,91,11 O2 Y.R d4 YLR @3 W0,33,6 O2 c8 ( c32 ) < d+32 g+32 > c32 d+16.~ d+64 g64 g+8 a4 a+8 @40 W0,95,1 O1 Y.R a48 b48 > c48 d48 d+48 f48 YLR g16. f16. d+32 ( YL. d+32 ) YLR d16. d+16. c32 ( YL. c32 ) YLR a+16. g+16. g32 ( YL. g32 ) YLR f+16. > d16. O2 @4 YLR V0 c64 c64 V1 c64 c64 O2 @40 W0,95,1 YLR g+16. g16. f32 ( YL. f32 ) YLR e16. f16. g32 ( YL. g32 ) @27 O1 YLR f32 V0 f32 f32 f32 YL. [ f32 ]4 Y.R [ f32 ]4 YL. f32 f32 YLR O2 @3 ( r64 c64 c+64 d+64 ) f16. ( YL. f16. Y.R f16 YLR ) d+16. c+16~ c+64. ( d+128 ) g+16 f+16 ( YL. f+32 YLR ) f16 ( Y.R f32 YLR ) d+16 c+16 ( YL. c+16 r8 YLR V1 d+16 d+32 c+32 r32 d+32 d+32 c+32 @43 W0,91,11 O1 a+16. > c16. c+16 @3 O2 f16 f32 e32 r32 f32 f32 e32 @43 W0,91,11 O1 b16. > c+16. d16 @3 O2 f+16 f+32 f32 r32 f+32 f+32 f32 @43 W0,91,11 O2 c16. c+16. d+16 @3 O2 f32 f32 r32 f32 r32 f32 r32 g32~ g16 @4 O1 g32 g32 g32 V0 g32 g32 V1 g32 
