;011 001A6400
!1  T90 T75 L @0 E80,100,70,1,3 O2 V5 [ r2 ]4 YLR e32 f+32 g32 a32 e32 YL. ( a32 ) YLR b32 e32 Y.R ( b32 ) YLR e32 > c32 YL. ( < e32 ) YLR b32 Y.R ( e32 YLR ) g32 ( YL. b32 ) YLR d32 e32 f+32 g32 d32 YL. ( g32 ) YLR a32 d32 Y.R ( a32 ) YLR d32 > c32 YL. ( < d32 ) YLR b32 Y.R ( d32 YLR ) a32 ( YL. b32 ) YLR e32 f+32 g32 a32 e32 YL. ( a32 ) YLR b32 e32 Y.R ( b32 ) YLR e32 > c32 YL. ( < e32 ) YLR b32 Y.R ( e32 YLR ) g32 ( YL. b32 ) YLR > V5 @@2,2,1 [ B3 d8~ > d16 _V-3 d16 _V3 < ]2 r2 r4. @@2,1,2 YLR V6 E80,100,70,1,4 O3 P37,12,3 d32 e32 f+32 g32 a4. _V-4 Y.R a16 YL. a16 _V4 YLR r16 g32 r32 Y.R r32 g32 _V-5 g32 _V5 YL. g32 r16 YLR f+32 r32 Y.R r32 f+32 _V-5 f+32 _V5 YL. f+32 < @2 E80,100,60,1,4 P27,12,3 YLR g4 a4 > d+4 e4 c4. _V-2 c16 e16 _V2 d4 YLR c32 d32 e32 f+32 g32 a32 b32 > c32 O3 @@2,1,2 E90,100,80,1,4 YLR g2 f+4 r16. f+16 _V-4 f+32 _V4 f+32 _V-4 f+32 _V4 e2 c8. O3 @1 E90,100,90,1,4 E80,100,60,1,4 P25,9,5 YLR V9 [ e64 _V-3 e64 _V3 ]2 e8 Y.R _V-3 e16 YL. e16 _V3 @@2,2,1 O1 V6 P0,9,3 YLR E100,100,80,3,1 e16. f+16. g16 a8 _V-3 a16 _V3 a64 _V-3 a64 _V3 a32 [ b16 _V-3 b32 _V3 ]2 b16 > e8 _V-3 e16 _V3 c32 d32 e8 _V-3 e16 _V3 d16 e16. d16. e16 f+8. f+32 _V-3 f+32 O2 V7 YLR @@2,1,2 E90,100,90,1,4 b32 > c+32 d+32 e32 f+32 g32 a32 b32 @@2,1,2 O2 EX V4 YLR P19,11,3 b16 YL. _V-2 b32 _V2 YLR > c16 YL. _V-2 c32 YLR _V2 d16 e16 _V-2 YL. e16 Y.R e16 YLR _V2 e32 d32 c16 YL. _V-2 c32 _V2 YLR < a16 _V-2 YL. a32 _V2 YLR > c16 d16 YL. _V-2 d16 Y.R d16 _V2 YLR d32 c32 < b16 YL. _V-2 b32 _V2 YLR g16 _V-2 YL. g32 _V2 YLR b16 > c+16 < a32 _V-2 YL. a32 _V2 YLR a16 > c+32 _V-2 YL. c+32 _V2 YLR d8. < a32 _V-2 YL. a32 YLR _V2 a16 _V-2 YL. a16 Y.R a16 _V2 YLR f+64 _V-2 YL. f+64 _V2 YLR f+32 g16 _V-2 YL. g32 _V2 YLR f+16 _V-2 YL. f+32 _V2 YLR g16 a16 _V-2 YL. a16 Y.R a16 _V2 [ YLR a64 _V-2 YL. a64 _V2 ]2 YLR a16 _V-2 YL. a32 _V2 YLR b16 _V-2 YL. b32 _V2 YLR > c16 d8 _V-2 Y.R d16 YL. d16 _V2 [ YLR c16 _V-2 YL. c32 _V2 ]2 YLR c32 _V-2 YL. c32 _V2 YLR c16. d16. c32 _V-2 YL. c32 _V2 YLR c8. < a32 _V-2 YL. a32 _V2 YLR b8 _V-2 Y.R b16 YL. b16 _V2 YLR @@2,2,1 O3 EX V4 YLR P19,12,3 b16 YL. _V-2 b32 _V2 YLR > c16 YL. _V-2 c32 YLR _V2 d16 D1 e16 _V-2 YL. e16 Y.R e16 YLR _V2 e32 D0 d32 c16 YL. _V-2 c32 _V2 YLR < a16 _V-2 YL. a32 _V2 YLR > c16 d16 YL. _V-2 d16 Y.R d16 _V2 YLR d32 c32 < b16 YL. _V-2 b32 _V2 YLR g16 _V-2 YL. g32 _V2 YLR b16 > c+16 < a32 _V-2 YL. a32 _V2 YLR a16 > c+32 _V-2 YL. c+32 _V2 YLR d8. < a32 _V-2 YL. a32 YLR _V2 a16 _V-2 YL. a16 Y.R a16 _V2 YLR f+64 _V-2 YL. f+64 _V2 YLR f+32 g16 _V-2 YL. g32 _V2 YLR f+16 _V-2 YL. f+32 _V2 YLR g16 a16 _V-2 YL. a16 Y.R a16 _V2 [ YLR a64 _V-2 YL. a64 _V2 ]2 YLR a16 _V-2 YL. a32 _V2 YLR b16 _V-2 YL. b32 _V2 YLR > c16 d8 _V-2 Y.R d16 YL. d16 _V2 [ D1 YLR e16 YL. _V-2 e32 _V2 ]2 YLR e32 _V-2 YL. e32 _V2 YLR e16 YL. _V-2 e32 _V2 YLR D0 d16 YL. _V-2 d32 _V2 YLR < b16 > d8 YL. _V-2 d16 _V2 YLR d32 _V-2 YL. d32 _V2 YLR [ d+16 YL. _V-2 d+32 _V2 YLR ]2 D1 e16~ e2~ e4 _V-2 e8 _V-2 YL. e16 Y.R e16 
!2  L @1 E80,100,70,1,3 O3 V6 [ YLR e32 f+32 g32 a32 e32 YL. ( a32 ) YLR b32 e32 Y.R ( b32 ) YLR e32 > c32 YL. ( < e32 ) YLR b32 Y.R ( e32 YLR ) g32 ( YL. b32 ) YLR d32 e32 f+32 g32 d32 YL. ( g32 ) YLR a32 d32 Y.R ( a32 ) YLR d32 > c32 YL. ( < d32 ) YLR b32 Y.R ( d32 YLR ) a32 ( YL. b32 ) ]4 @@2,2,1 O2 V8 P0,11,3 YLR EX e8 _V-2 Y.R e16 _V2 YLR e32 _V-2 YL. e32 _V2 YLR e8 f+16 g16 f+8. d32 _V-2 Y.R d32 _V2 YLR d8 _V-2 YL. d16 _V2 YLR [ d64 r64 ]2 [ YLR e16 _V-2 Y.R e32 _V2 ]2 YLR e32 _V-2 YL. e32 _V2 YLR e8 f+16 g16 b8. a32 _V-2 Y.R a32 _V2 YLR a8 _V-2 YL. a16 _V2 YLR [ d64 r64 ]2 e16. f+16. g16 f+8 _V-2 Y.R f+16 _V2 YLR [ f+64 r64 ]2 f+16. a16. f+16 g8 _V-2 YL. g16 _V2 YLR [ g64 r64 ]2 [ YLR a16 _V-3 Y.R a32 _V3 ]2 YLR a32 _V-2 YL. a32 _V2 YLR a16. b16. a16 g8. f+32 _V-2 Y.R f+32 _V2 YLR f+8 _V-2 Y.R f+16 YL. f+16 @@2,2,1 YLR V9 O1 E100,90,70,6,6 b16 > d16 [ g32 _V-3 g32 _V3 ]2 g16. a16. b16 a8 _V-3 a16 _V3 [ d64 _V-3 d64 _V3 ]2 > c16. < b16. a16 [ g16. a16. f+16 ]2 e8.~ e4 _V-4 e16 _V4 @@2,2,1 O2 V9 P0,6,3 YLR E100,100,90,3,1 c16. d16. e16 f+8 _V-3 f+16 _V3 f+64 _V-3 f+64 _V3 f+32 [ d16 _V-3 d32 _V3 ]2 d16 g8 _V-3 g16 _V3 a32 b32 > c8 _V-3 c16 _V3 < b16 > c16. < b16. g16 a8. b32 _V-3 b32 _V3 b8. _V-3 b16 @@2,2,1 O2 EX V9 P31,10,3 g16 YL. _V-2 g32 _V2 YLR a16 YL. _V-2 a32 YLR _V2 b16 > c16 _V-2 YL. c16 Y.R c16 YLR _V2 c32 < b32 a16 YL. _V-2 a32 _V2 YLR f+16 _V-2 YL. f+32 _V2 YLR a16 b16 YL. _V-2 b16 Y.R b16 _V2 YLR b32 a32 g16 YL. _V-2 g32 _V2 YLR e16 _V-2 YL. e32 _V2 YLR g16 a16 e32 _V-2 YL. e32 _V2 YLR e16 g32 _V-2 YL. g32 _V2 YLR g8. f+32 _V-2 YL. f+32 YLR _V2 f+16 _V-2 YL. f+16 Y.R f+16 _V2 YLR d64 _V-2 YL. d64 _V2 YLR d32 e16 _V-2 YL. e32 _V2 YLR d+16 _V-2 YL. d+32 _V2 YLR e16 f+16 _V-2 YL. f+16 Y.R f+16 _V2 [ YLR f+64 _V-2 YL. f+64 _V2 ]2 YLR f+16 _V-2 YL. f+32 _V2 YLR g16 _V-2 YL. g32 _V2 YLR a16 b8 _V-2 Y.R b16 YL. b16 _V2 [ YLR a16 _V-2 YL. a32 _V2 ]2 YLR a32 _V-2 YL. a32 _V2 YLR a16. b16. a32 _V-2 YL. a32 _V2 YLR g8. f+32 _V-2 YL. f+32 _V2 YLR f+8 _V-2 Y.R f+16 YL. f+16 _V2 YLR @@2,2,1 O3 EX V8 g16 YL. _V-2 g32 _V2 YLR a16 YL. _V-2 a32 YLR _V2 b16 > c16 _V-2 YL. c16 Y.R c16 YLR _V2 c32 < b32 a16 YL. _V-2 a32 _V2 YLR f+16 _V-2 YL. f+32 _V2 YLR a16 b16 YL. _V-2 b16 Y.R b16 _V2 YLR b32 a32 g16 YL. _V-2 g32 _V2 YLR e16 _V-2 YL. e32 _V2 YLR g16 a16 e32 _V-2 YL. e32 _V2 YLR e16 g32 _V-2 YL. g32 _V2 YLR g8. f+32 _V-2 YL. f+32 YLR _V2 f+16 _V-2 YL. f+16 Y.R f+16 _V2 YLR d64 _V-2 YL. d64 _V2 YLR d32 e16 _V-2 YL. e32 _V2 YLR d+16 _V-2 YL. d+32 _V2 YLR e16 f+16 _V-2 YL. f+16 Y.R f+16 _V2 [ YLR f+64 _V-2 YL. f+64 _V2 ]2 YLR f+16 _V-2 YL. f+32 _V2 YLR g16 _V-2 YL. g32 _V2 YLR a16 b8 _V-2 Y.R b16 YL. b16 _V2 > [ YLR c16 YL. _V-2 c32 _V2 ]2 YLR c32 _V-2 YL. c32 _V2 YLR c16 YL. _V-2 c32 _V2 YLR < b16 YL. _V-2 b32 _V2 YLR g16 a8 YL. _V-2 a16 _V2 YLR a32 _V-2 YL. a32 _V2 YLR [ a16 YL. _V-2 a32 _V2 YLR ]2 b16~ b2~ b4 _V-2 b8 _V-2 YL. b16 Y.R b16 
!3  L `9F00 `AE00 @A1 V2 O1 YLR [ [ e16 V1 e16 V2 ]2 e16 e16 V1 e16 V2 e16 d32 V1 d32 V2 d16 V1 d16 V2 d16 r16 d16 V1 d16 V2 d16 ]2 @A3 O0 V3 [ e16 V2 e16 V3 ]2 e16 e16 V2 e16 V3 e16 d32 V2 d32 V3 d16 V2 d16 V3 d16 r16 d16 V2 d16 V3 d16 [ e16 V2 e16 V3 ]2 e16 e16 V2 e16 V3 e16 [ B1 d8~ > d16 V2 < d16 V3 ]2 E100,100,80,3,4 O1 [ [ e16. V2 e32 V3 ]4 H-2 ]2 H0 [ c+16. V2 c+32 V3 ]4 [ [ c16. V2 c32 V3 ]2 H2 ]2 H0 [ [ c16. V2 c32 V3 ]2 H2 ]2 H0 [ [ d+16. V2 d+32 V3 ]2 H1 ]2 H0 [ c16. V2 c32 V3 ]6 [ d16. V2 d32 V3 ]2 [ g16. V2 g32 V3 ]4 [ [ d16. V2 d32 V3 ]2 H1 ]2 H0 [ e16. V2 e32 V3 ]4 [ c16. V2 c32 V3 ]4 [ [ c16. V2 c32 V3 ]2 H2 ]2 H0 [ [ d16. V2 d32 V3 ]2 H2 ]2 H0 < [ a16. V2 a32 V3 ]4 > [ [ d16. V2 d32 V3 ]2 H1 ]2 H0 e16 e16 e16 e16 c16 c16 c16 c16 d16 d16 d16 d16 g16 g16 g16 g16 e16 e16 e16 e16 < a16 a16 a16 a16 > d16 d16 d16 d16 d16 d16 d16 d16 c16 c16 c16 c16 d16 d16 d16 d16 d+16 d+16 d+16 d+16 e16 e16 e16 e16 c16 c16 c16 c16 c16 c16 c16 c16 c16 c16 c16 c16 < b16 b16 b16 b16 > e16 e16 e16 e16 c16 c16 c16 c16 d16 d16 d16 d16 g16 g16 g16 g16 e16 e16 e16 e16 < a16 a16 a16 a16 > d16 d16 d16 d16 d16 d16 d16 d16 c16 c16 c16 c16 d16 d16 d16 d16 d+16 d+16 d+16 d+16 e16 e16 e16 e16 c16 c16 c16 c16 c16 c16 c16 c16 d16 d16 d16 d16 d+16 d+16 d+16 e16~ e16 e16 e16 e16 e16 e16 e16 e16 e16 e16 e16 e16 e16 e16 e16 e16 EX 
!4  L [ YLR @3 x32 @4 x32 x32 x32 YL. @3 x32 @4 r32 x32 @3 x32 Y.R r32 @4 x32 @3 x32 r32 YLR x32 r32 x32 r32 ]7 YLR @3 x32 @4 x32 x32 x32 YL. @3 x32 @4 r32 x32 @3 x32 Y.R r32 @4 x32 @3 x32 r32 YL. x32 Y.R x32 YL. x32 Y.R x32 YLR YLR @8 x8 [ @5 x32 @6 x32 @7 x16 ]3 [ [ @5 x32 @6 x32 @7 x16 ]4 ]7 @8 x8 [ @5 x32 @6 x32 @7 x16 ]3 [ [ @5 x32 @6 x32 @7 x16 ]4 ]6 [ @5 x32 @6 x32 @7 x16 ]2 YL. @3 x32 @4 x32 x32 x32 Y.R x32 x32 x32 @3 x32 YLR @8 x8 [ @5 x32 @6 x32 @7 x16 ]3 [ [ @5 x32 @6 x32 @7 x16 ]4 ]6 @5 x32 @6 x32 [ @3 x32 @7 x32 ]3 YL. @3 x32 @4 x32 x32 x32 Y.R x32 x32 x32 @3 x32 YLR @8 x8 [ @5 x32 @6 x32 @7 x16 ]3 [ [ @5 x32 @6 x32 @7 x16 ]4 ]6 @5 x32 @6 x32 [ @3 x32 @7 x32 ]3 @3 x32 @4 x32 x32 x32 @3 x32 @4 x32 @7 x16 [ @5 x32 @6 x32 @7 x16 ]4 YLR @3 x32 @4 x32 x32 x32 YL. @3 x32 @4 r32 x32 @3 x32 Y.R r32 @4 x32 @3 x32 r32 YL. x32 Y.R x32 YL. x32 Y.R x32 
!5  L V1 O2 [ YLR @8 e32 @47 f+32 g32 a32 @8 e32 YL. ( @47 a32 ) YLR b32 e32 Y.R ( b32 ) YLR e32 > @8 c32 YL. ( < @47 e32 ) YLR @8 b32 Y.R ( @47 e32 YLR ) @8 g32 ( YL. @47 b32 ) YLR @8 d32 @47 e32 f+32 g32 @8 d32 YL. ( @47 g32 ) YLR a32 d32 Y.R ( a32 ) YLR d32 > @8 c32 YL. ( < @47 d32 ) YLR @8 b32 ( Y.R ( @47 d32 YLR ) @8 a32 ( YL. @47 b32 ) ]4 V1 YLR O2 @8 < e8 > @24 O1 a8 @41 O2 c16 @24 O1 a32 a32 a16 @41 O2 c16 [ @41 c8 @24 O1 a8 @41 O2 c16 @24 O1 a32 a32 a16 @41 O2 c16 ]6 @41 O2 c16 @24 O1 a16 a16 a16 @41 O2 c32 @24 O1 a32 a32 a32 a32 a32 a32 a32 [ @41 O2 c8 @24 O1 a8 @41 O2 c16 @24 O1 a32 a32 a16 @41 O2 c16 ]7 @41 O2 c16 @24 O1 a16 a16 a16 @41 O2 c32 @24 c32 c32 c32 c32 c32 c32 c32 [ [ @41 O2 c8 @24 O1 a8 @41 O2 c16 @24 O1 a32 a32 a16 @41 O2 c16 ]8 ]2 [ @41 O2 c8 @24 O1 a8 @41 O2 c16 @24 O1 a32 a32 a16 @41 O2 c16 ]2 
!6  L [ r2 ]4 V1 YLR @41 c8 c8 c32 c32 c32 c32 @24 O1 a16 @41 O2 c16 c16 c16 r16 c16 c32 c32 c32 c32 @24 O1 a16 @41 O2 c16 @41 c8 c8 c32 c32 c32 c32 @24 O1 a16 @41 O2 c16 c32 @24 V0 O1 a32 a32 a32 V1 @41 O2 a32 @24 V0 O1 a32 a32 a32 [ V1 @41 O2 a32 @24 O1 a32 a32 a32 ]2 @41 O2 c32 @44 O0 e32 g32 b32 > e32 g32 b32 > e32 g32 e32 < b32 g32 e32 < b32 g32 e32 d32 f+32 a32 > d32 f+32 a32 > d32 f+32 a32 f+32 d32 < a32 f+32 d32 < a32 f+32 c+32 e32 a32 > c+32 e32 a32 > c+32 e32 a32 e32 c+32 < a32 e32 c+32 < a32 e32 @3 O2 V0 r16 b32 r32 Y.R r32 b32 r32 YL. b32 r16 YLR a32 r32 r32 Y.R a32 r32 YL. a32 @44 O0 V1 YLR c32 e32 g32 > c32 e32 g32 > c32 < g32 < d32 f+32 a32 > d32 f+32 a32 > d32 < a32 < < d+32 f+32 b32 > d+32 f+32 b32 > d+32 f+32 g32 f+32 e32 < b32 g32 f+32 e32 < b32 a32 > c32 e32 a32 > c32 e32 a32 > c32 e32 c32 < a32 e32 c32 < a32 e32 c32 c32 g32 > c32 e32 g32 > c32 e32 ( YL. e32 YLR ) < < d32 f+32 a32 > d32 f+32 a32 > d32 ( YL. d32 YLR ) O0 V1 d32 g32 b32 > d32 g32 b32 > d32 g32 b32 g32 d32 < b32 g32 d32 < b32 g32 d32 a32 > d32 f+32 a32 > d32 f+32 a32 < < d+32 b32 > d+32 f+32 b32 > d+32 f+32 b32 < < e32 g32 b32 > e32 g32 b32 > e32 g32 b32 g32 e32 < b32 g32 e32 < b32 g32 e32 g32 > c32 e32 g32 > c32 e32 g32 > c32 < g32 e32 c32 < g32 e32 c32 < g32 > c32 e32 g32 > c32 e32 g32 > c32 e32 d32 < a32 f+32 d32 < a32 f+32 d32 < a32 g32 b32 > d32 g32 d32 g32 b32 > d32 g32 b32 g32 e32 < b32 g32 e32 < b32 a32 > c32 @3 O2 V1 a32 V0 a32 @44 O2 V1 c32 @3 O2 V1 Y.R a32 V0 a32 V0 YL. a32 YLR @44 O2 V1 a32 e32 @3 O2 V1 a32 V0 a32 @44 O3 V1 e32 @3 O2 V1 Y.R a32 V0 a32 V0 YL. a32 YLR @44 O1 V1 a32 > d32 @3 O2 V1 a32 V0 a32 @44 O2 V1 d32 @3 O2 V1 Y.R a32 V0 a32 V1 YL. a32 YLR O1 @47 V1 b32 > c+32 d+32 e32 f+32 g32 a32 b32 @40 W0,95,0 O1 [ e32 b32 ]4 [ c32 g32 ]4 [ d32 a32 ]4 [ g32 b32 ]4 [ e32 b32 ]4 [ c+32 a32 ]4 [ d32 a32 ]4 @27 O2 V0 d32 < a32 f+32 d32 < a16 Y.R a16 YLR @40 W0,95,0 O1 V1 [ e32 g32 ]4 [ f+32 a32 ]8 [ g32 b32 ]4 [ e32 a32 ]8 > [ c32 e32 ]4 [ < b32 > d+32 ]4 [ e32 g32 ]4 [ c32 e32 ]4 [ d32 f+32 ]4 [ g32 b32 ]4 [ e32 g32 ]4 [ c+32 e32 ]4 [ d32 a32 ]8 [ c32 e32 ]4 [ d32 f+32 ]4 [ d+32 b32 ]4 [ g32 b32 ]4 [ c32 g32 ]8 [ d32 a32 ]4 [ d+32 a32 ]4 [ e32 g+32 ]12 < [ e32 g+32 ]4 
