;012 001A765E
!1  T90 r8. r8 L O3 V8 YLR @@2,1,2 E100,85,65,4,1 d16 c16 O2 Y.R c16 YL. c16 Y.R c16 YL. c16 Y.R _V-3 c16 YL. _V-2 c16 _V5 YLR O3 V7 @@2,2,1 EP-10,-5,0,5,5 c4 _V-4 c16 _V4 d16~ d8. _V-4 Y.R EPX d16 SD6 SR1 O2 @2 YLR EX PX V13 V8 H-26 Y.R c128 YL. g+128 H-26 H-25 Y.R c128 YL. g+128 H-24 H-23 Y.R c128 YL. g+128 H-22 H-21 Y.R c128 YL. g+128 H-20 H-19 Y.R c128 YL. g+128 H-18 H-17 Y.R c128 YL. g+128 H-16 H-15 Y.R c128 YL. g+128 H-14 H-13 Y.R c128 YL. g+128 H-12 V8 H-11 Y.R c128 YL. g+128 H-10 H-9 Y.R c128 YL. g+128 V7 H-8 H-7 Y.R c128 YL. g+128 H-6 H-5 Y.R c128 YL. g+128 H-4 H-3 Y.R c128 YL. g+128 H-2 H-1 Y.R c128 YL. g+128 H0 V5 Y.R c128 YL. g+128 H-2 H-1 Y.R c128 YL. g+128 SD0 SR0 H0 O2 V8 YLR @@2,1,2 E100,85,65,4,1 a+16 Y.R _V-3 a+16 YL. _V-2 a+16 _V5 YLR > P21,10,6 c16~ c4 < EPX PX r8 O3 V8 YLR @@2,1,2 E100,85,65,4,1 d16 c16 O2 Y.R c16 YL. c16 Y.R c16 YL. c16 Y.R _V-3 c16 YL. _V-2 c16 _V5 YLR O3 V7 @@2,2,1 EP-10,-5,0,5,5 c4 _V-4 c16 _V4 d16~ d8. _V-4 Y.R EPX d16 SD6 SR1 O2 @2 EPX YLR EX PX V13 V8 H-26 Y.R c128 YL. g+128 H-26 H-25 Y.R c128 YL. g+128 H-24 H-23 Y.R c128 YL. g+128 H-22 H-21 Y.R c128 YL. g+128 H-20 H-19 Y.R c128 YL. g+128 H-18 H-17 Y.R c128 YL. g+128 H-16 H-15 Y.R c128 YL. g+128 H-14 H-13 Y.R c128 YL. g+128 H-12 V8 H-11 Y.R c128 YL. g+128 H-10 H-9 Y.R c128 YL. g+128 V7 H-8 H-7 Y.R c128 YL. g+128 H-6 H-5 Y.R c128 YL. g+128 H-4 H-3 Y.R c128 YL. g+128 H-2 H-1 Y.R c128 YL. g+128 H0 V5 Y.R c128 YL. g+128 H-2 H-1 Y.R c128 YL. g+128 SD0 SR0 H0 O2 V8 YLR @@2,1,2 E100,85,65,4,1 a+16 Y.R _V-3 a+16 YL. _V-2 a+16 _V5 YLR > P21,10,6 c16~ c4 < EPX PX D2 Y.R O1 V6 @@2,0,1 E100,100,80,1,4 EP-5,-3,0,1,1 r32 a32 _V-4 a32 _V4 a16 _V-4 a16 _V4 a32 _V-4 a32 _V4 a32 _V-4 a32 _V4 P25,11,17 a8 > d16 c32 _V-4 c32 _V4 c16 _V-4 c16 _V4 c32 _V-4 c32 _V4 B1 c8~ < EPX g16 EP-15,-7,0,3,3 a32 @@2,2,3 O1 V5 E90,100,50,1,3 YLR EX D0 r16 a32 _V-4 a32 _V4 > d32 _V-4 d32 _V4 B1~ e32 _V-4 e32 _V4 f16~ g16 e16 [ YLR a16 _V-3 YL. a16 _V3 ]2 a16 [ YLR a16 _V-3 YL. a16 _V3 ]2 D2 O1 V6 Y.R @@2,0,1 E100,100,80,1,4 EP-5,-3,0,1,1 a32 _V-4 a32 _V4 a16 _V-4 a16 _V4 a32 _V-4 a32 _V4 [ a32 _V-4 a32 _V4 ]2 a16 > d16 [ c32 _V-4 c32 _V4 ]4 B3 c8~ < EPX g16 EP-15,-7,0,3,3 a16 EPX @@2,2,3 O1 V5 E90,100,50,1,3 YLR EX D0 r16 a32 _V-4 a32 _V4 > d32 _V-4 d32 _V4 B1~ e32 _V-4 e32 _V4 f16~ g16 e16 [ YLR a16 _V-3 YL. a16 _V3 ]2 a16 [ YLR a16 _V-3 YL. a16 _V3 ]2 O2 V6 YLR @@2,0,1 E100,100,80,1,4 EP-15,-7,0,1,1 [ EP-15,-7,0,1,1 d16 _V-4 EPX d16 _V4 ]3 f16 EP-30,-15,0,6,6 P12,8,8 e16~ e8. EPX _V-4 e16 _V4 a32 _V-4 EPX a32 _V5 a8 EP-15,-7,0,1,1 f8 PX EPX Y.R _V-4 f16 O2 V6 YLR @@2,1,2 E80,100,75,6,1 a16 g8 _V-3 Y.R g16 _V-2 YL. g16 _V5 YLR a16 _V-4 Y.R a16 YL. a16 YLR V7 > d16 c12 _V-4 c16 _V4 < EP-30,-15,0,1,1 @@2,0,1 E100,90,50,6,1 g12 a12 a+16 EPX D2 O3 V4 Y.R @@2,1,2 E95,100,70,6,1 r64 [ f32 _V-2 f32 _V2 ]4 f16 _V-2 f16 _V2 f32 _V-2 f32 _V2 f16 P31,12,3 e4 PX @@2,1,0 V7 O2 YLR g16 _V-5 g16 _V5 c8 O3 V4 Y.R @@2,1,2 [ g32 _V-2 g32 _V2 ]4 g16 _V-2 g16 _V2 a32 _V-2 a32 _V2 g16 P31,12,3 f8. PX D0 V7 EP-30,-15,0,1,1 @@2,1,0 E100,100,50,5,1 O3 V8 YLR d8 e8 EPX f16 D2 O3 V4 YL. @@2,1,2 E95,100,70,6,1 [ f32 _V-2 f32 _V2 ]4 f16 _V-2 f16 _V2 f32 _V-2 f32 _V2 f16 P31,12,3 e4 PX @@2,1,0 V7 YLR O3 c16 _V-5 c16 _V5 < g8 O3 YL. V4 @@2,1,2 [ g32 _V-2 g32 _V2 ]5 g16 a16 g16 P31,12,3 f8.~ f32. PX @@2,1,0 V7 O3 YLR e16 f16 e16 d16 _V-4 d16 _V-3 d16 D0 E95,100,70,3,4 O2 V6 EP-6,-3,0,3,3 Y.R a16~ a4~ a8 _V-4 a16 _V4 g8 _V-3 Y.R g16 YL. g16 _V-2 Y.R g16 V7 YLR @@2,2,1 E100,100,90,1,4 O3 V6 YLR r16 d16 e16 f16 _V-4 f16 _V4 d16 e16 f16 e16 _V-5 e16 _V5 e8 EP-20,-10,0,4,4 g+8 EPX e16 V8 EX a16 _V-4 a16 _V4 a+16 a16 g16 _V-4 g16 _V4 a16 g16 f16 _V-3 f16 _V3 g16 f16 e16 _V-4 e16 _V4 O2 V6 P25,12,3 YLR E100,100,80,30,6 a16 > g16 f16~ f8. YLR @@3,3,0 EP-6,-3,0,1,1 a16 Y.R _V-3 a16 _V3 EPX YLR @@2,2,1 O2 a16 > g16 f16~ f8 _V-3 Y.R f16 YL. f16 YLR _V3 f8 a16 _V-4 a16 _V4 a8 g16 YL. @@3,2,1 d16~ d32 f32 g32 f32 g16 _V-4 g16 _V4 r16 _V-3 g32 f32 _V3 [ g32 f32 ]2 g16 YLR O2 @@2,2,1 g16 > f16 e16~ e4 r16 < g16 > f16 e16~ e8 _V-3 Y.R e16 YL. e16 YLR _V3 e8 g16 _V-4 g16 _V4 g8 f16 _V-3 f16 _V3 P56,12,3 f4 @@3,2,1 YL. e32 g32 a32 g32 [ a32 g32 ]2 a16 YLR O2 @@2,2,1 a16 > g16 f16~ f8. YLR @@3,3,0 EP-6,-3,0,1,1 a16 Y.R _V-3 a16 _V3 EPX YLR @@2,2,1 P25,12,3 O2 a16 > g16 f16~ f8 _V-3 Y.R f16 YL. f16 YLR _V3 f8 a16 _V-4 a16 _V4 a8 g16 YL. @@3,2,1 d16~ d32 f32 g32 f32 g16 _V-4 g16 _V4 r16 _V-3 g32 f32 _V3 [ g32 f32 ]2 g16 YLR r8. O3 @@2,2,1 [ c+16 _V-4 YL. c+16 _V4 YLR ]2 < b4 > c+32 _V-4 c+32 _V4 c+16 r16 < b8. Y.R _V-3 b16 YL. b16 _V3 YLR > r16 e16 r16 e16 f8. e16~ e8 _V-3 Y.R e16 YL. e16 Y.R D1 _V3 a16 > c16 _V-4 Y.R c16 _V4 YLR d8. D0 
!2  r8. r8 L O3 V8 YLR @@2,1,2 E100,85,65,4,1 f16 e16 O2 Y.R e16 YL. e16 Y.R e16 YL. e16 Y.R _V-3 e16 YL. _V-2 e16 _V5 > YLR EP-10,-5,0,5,5 @@2,2,1 e4 _V-4 e16 _V4 f16~ f4. _V-4 Y.R EPX f16 _V4 YLR r16 d16 Y.R _V-3 d16 YL. _V-2 d16 _V5 YLR P21,10,6 e16~ e4 < PX r8 O3 V8 YLR @@2,1,2 E100,85,65,4,1 f16 e16 O2 Y.R e16 YL. e16 Y.R e16 YL. e16 Y.R _V-3 e16 YL. _V-2 e16 _V5 > YLR EP-10,-5,0,5,5 @@2,2,1 e4 _V-4 e16 _V4 f16~ f4. _V-4 Y.R EPX f16 _V4 YLR r16 d16 Y.R _V-3 d16 YL. _V-2 d16 _V5 YLR P21,10,6 e16~ e4 < PX O1 V8 YLR @@2,0,1 E100,100,80,1,4 EP-5,-3,0,1,1 a32 _V-4 a32 _V4 a16 _V-4 a16 _V4 a32 _V-4 a32 _V4 a32 _V-4 a32 _V4 P19,9,17 a8 > d16 c32 _V-4 c32 _V4 c16 _V-4 c16 _V4 c32 _V-4 c32 _V4 B1 c8~ < EPX g16 EP-15,-7,0,3,3 a16 EPX @@2,3,2 O2 V6 E90,100,50,1,3 YL. EX r16 a32 _V-4 a32 _V4 > d32 _V-4 d32 _V4 B1~ e32 _V-4 e32 _V4 f16~ g16 e16 YLR f16 _V-4 f16 _V4 d16 _V-4 d16 _V4 e16 f16~ g16 e16 f32 _V-4 f32 O1 V8 YLR @@2,0,1 E100,100,80,1,4 EP-5,-3,0,1,1 a32 _V-4 a32 _V4 a16 _V-4 a16 _V4 a32 _V-4 a32 _V4 [ a32 _V-4 a32 _V4 ]2 a16 > d16 [ c32 _V-4 c32 _V4 ]4 B3 c8~ < EPX g16 EP-15,-7,0,3,3 a16 EPX @@2,3,2 O2 V6 E90,100,50,1,3 YL. EX r16 a32 _V-4 a32 _V4 > d32 _V-4 d32 _V4 B1~ e32 _V-4 e32 _V4 f16~ g16 e16 YLR f16 _V-4 f16 _V4 d16 _V-4 d16 _V4 e16 f16~ g16 e16 f32 _V-4 f32 O1 V9 YLR @@2,0,1 E100,100,90,1,4 EP-15,-7,0,1,1 [ EP-15,-7,0,1,1 a+16 _V-4 EPX a+16 _V4 ]3 > d16 EP-30,-15,0,6,6 P12,8,8 c+16~ c+8. _V-4 EPX c+16 _V4 f32 _V-4 EPX f32 _V5 f8 EP-15,-7,0,1,1 d8 PX EPX Y.R _V-4 d16 O3 V6 YLR @@2,1,2 E80,100,75,6,1 d16 c8 _V-3 Y.R c16 _V-2 YL. c16 _V5 YLR d16 _V-4 Y.R d16 YL. d16 YLR V7 f16 e12 _V-4 e16 _V4 EP-30,-15,0,1,1 @@2,0,1 E100,90,50,6,1 g12 a12 a+16 EPX O3 V8 YLR @@2,1,2 E95,100,70,6,1 [ f32 _V-4 f32 _V4 ]4 f16 _V-4 f16 _V4 f32 _V-4 f32 _V4 f16 P31,12,3 e4 PX @@2,1,0 O2 g16 _V-5 g16 _V5 c8 O3 YLR @@2,1,2 [ g32 _V-4 g32 _V4 ]4 g16 _V-4 g16 _V4 a32 _V-4 a32 _V4 g16 P31,12,3 f8. PX EP-30,-15,0,1,1 @@2,1,0 E100,100,50,5,1 O2 V8 YLR d8 e8 EPX f16 O3 V8 YLR @@2,1,2 E95,100,70,6,1 [ f32 _V-4 f32 _V4 ]4 f16 _V-4 f16 _V4 f32 _V-4 f32 _V4 f16 P27,10,6 e4 PX @@2,1,0 O3 c16 _V-5 c16 _V5 < g8 O3 YLR @@2,1,2 [ g32 _V-4 g32 _V4 ]5 g16 a16 g16 P31,12,3 f4 PX @@2,1,0 O2 e16 f16 e16 d16 @@2,2,1 E100,100,90,1,4 O2 V8 YLR [ d16 e16 f16 _V-4 f16 _V4 ]2 [ e16 f16 g16 _V-4 g16 _V4 ]2 f16 g16 a16 _V-4 a16 _V4 f16 g16 a16 g+16 _V-5 g+16 _V5 g+8 EP-20,-10,0,4,4 > d8 < EPX g+16 P86,11,4 a16~ a2~ a4 r16 PX O3 V9 P25,11,4 E100,100,80,30,6 d16 a+16 a16~ a8. YLR > @@3,3,0 EP-6,-3,0,1,1 d16 YL. _V-3 d16 _V3 EPX < YLR @@2,2,1 d16 a+16 a16~ a8 _V-3 Y.R a16 YL. a16 _V3 YLR a8 > c16 _V-4 c16 _V4 c8 < a+16 _V-3 a16 _V3 P52,11,4 a+4~ a+4 r16 P25,11,4 c16 a16 g16~ g4 r16 c16 a16 g16~ g8 _V-3 Y.R g16 YL. g16 YLR _V3 g8 a+16 _V-4 a+16 _V4 a+8 a16 _V-3 g+16 _V3 P56,11,3 a4~ a4 r16 d16 a+16 a16~ a8. YLR @@3,3,0 EP-6,-3,0,1,1 > d16 YL. _V-3 d16 _V3 < EPX YLR @@2,2,1 P25,11,4 d16 a+16 a16~ a8 _V-3 Y.R a16 YL. a16 YLR _V3 a8 > c16 _V-4 c16 _V4 c8 < a+16 _V-3 a16 _V3 P56,11,4 a+4~ a+4. r8 [ a16 _V-4 YL. a16 _V4 YLR ]2 e4 a32 _V-4 a32 _V4 a16 r16 e8. Y.R _V-3 e16 YL. e16 _V3 YLR r16 a16 r16 a16 > c16 < a16 g16 a16~ a8 _V-3 Y.R a16 YL. a16 YLR _V3 a16 > c16 _V-4 Y.R c16 _V4 YLR d8. 
!3  r8. r8 L @A3 `9F00 E100,100,80,3,4 P12,10,13 V3 O1 EP-4,-2,0,1,1 [ d32. r64 ]12 c16 < a+16. r32 [ a+32. r64 ]5 g16 a+16 [ g32. r64 ]3 a16 r16 a16 > c16 < a16 > r8 [ d32. r64 ]12 c16 < a+16. r32 [ a+32. r64 ]7 [ g32. r64 ]3 a16 r16 a16 > c16 < a16 O1 V2 [ d32. r64 ]16 V3 [ d32. r64 ]16 V2 [ d32. r64 ]16 V3 [ d32. r64 ]14 [ c32. r64 ]2 < [ a+32. r64 ]8 [ a32. r64 ]8 > [ d32. r64 ]8 [ d32. r64 ]3 d12 r16 e12 f12 [ g32. r64 ]8 [ c32. r64 ]4 < [ a+32. r64 ]4 [ a32. r64 ]8 > [ d32. r64 ]8 [ g32. r64 ]4 [ f32. r64 ]4 [ e32. r64 ]4 < [ c32. r64 ]4 [ a32. r64 ]8 > [ d32. r64 ]4 d32. r64 c16 d16 c16 < [ a+32. r64 ]16 [ b32. r64 ]8 [ g+32. r64 ]4 [ e32. r64 ]2 g+16 a8 a+16 a16 g8 a16 g16 f8 g16 f16 e8 r16 > d+16 d8 [ d32. r64 ]7 [ d32. r64 ]8 [ g32. r64 ]14 f16 e8 [ e32. r64 ]6 c8 [ c32. r64 ]7 [ f32. r64 ]8 e16 f16 g16 a16 r16 a16 e16 d8 [ d32. r64 ]15 [ g32. r64 ]11 g8 f16 e16 d16 [ c+16 r16 ]2 < g+4 [ a32. r64 ]2 r16 e4 r16 r16 a16 r8 a+8 r16 a4 r8 > c16 r16 d16 r8 
!4  r8. r8 L @8 x8 @5 [ x8 ]5 x16 @7 x16 [ @6 x8 @5 x8 ]2 @6 x8 x16 @7 x16 @5 x16 r8. r8 @8 x8 @5 [ x8 ]5 x16 @7 x16 [ @6 x8 @5 x8 ]2 @6 x8 x16 @7 x16 @5 x16 r8. [ @5 x16 @6 x16 ]7 @5 x16 @7 x16 [ @5 x16 @6 x16 ]8 [ @5 x16 @6 x16 ]15 @7 x8 @5 x8 @7 x8 [ @5 x16 @6 x16 ]2 [ @5 x16 x16 ]7 @7 x16 @5 x16 [ @5 x16 x16 ]2 r12 @8 x12 x12 x8 [ @5 x16 x16 ]3 [ [ @6 x16 x16 @5 x16 @6 x16 ]2 ]3 @8 x8 [ @5 x16 x16 ]3 [ @6 x16 x16 @5 x16 @6 x16 ]5 r16 @7 x16 x16 x16 [ @5 x16 r8 x16 r8 @7 x8 ]3 @8 x8 @5 x16 @6 [ x16 ]4 @8 x8 r8 @8 x8 r8 x16 r8 x8 r4 [ @6 [ x16 ]3 @7 x16 ]2 [ @6 x16 x16 @5 x16 @6 x16 ]4 [ @5 x16 @6 x16 ]3 x16 @7 x16 [ @6 [ x16 ]3 @7 x16 ]2 [ @6 x16 x16 @5 x16 @6 x16 ]5 @6 [ x16 ]2 r8 r8 @5 x16 @7 x16 @5 [ x16 ]2 @7 x16 @5 x16 [ @6 x16 x16 @5 x16 @6 x16 ]5 r4 @8 x8 r4. r8. x8 r8. r4. r16 x16 r4 [ r16 @5 x16 ]2 r8 
!5  V1 Y.R r64 @3 O1 a32 r32 > c16 < a32. V0 YL. V1 O2 YLR @0 c8 L @1 c8 [ @0 c8 @1 c8 ]6 @0 c16 @1 c16 c16 c16 [ @0 c8 @1 c8 ]7 @0 c16 @1 c16 c16 c16 [ V0 @0 c8 ]8 [ V1 @0 c8 @1 c8 ]4 [ V0 @0 c8 ]8 [ V1 @0 c8 @1 c8 ]4 [ V1 @0 c8 @1 c8 ]7 @0 c12 c12 c12 [ V1 @0 c8 @1 c8 ]15 @0 c16 @1 c16 c16 c16 [ @1 c8 @0 c16 @1 c16 @0 c8 @1 c8 ]3 @0 c8 @1 c8 @0 c8 @1 c16 @0 c16 r16 @0 c16 @1 c16 @0 c16 r16 c16 @1 c16 r16 r16 @1 c16 c16 V0 c64 V1 c32. r8 c16 @0 x16 r8 @1 c8 [ @0 c8 @1 c8 ]14 @0 c8 @1 c16 @0 c16 r8 @1 c8 [ @0 c8 @1 c8 ]6 @0 c16 @1 c16 c16 c16 @0 [ c8 ]4 @1 V0 c64 V1 c32. c16 @0 c16 @1 c16 @0 [ c8 ]2 c16 @1 c16 @0 c8 @1 c8 r16 c16 @0 [ c8 ]2 r4 r8 
!6  V1 YL. @3 O1 a32 r32 > c16 < a32. V0 YL. a64 V1 YLR > d16 V0 YLR d16 L @3 O2 V1 YLR d8 r16 d32 r32 ( c16 ) < a16 > d16 c16 d16 e8 V0 YL. e8 V1 YLR r16 r8 f16 V0 YL. f16 YLR V1 r16 f32 r32 c32 d32 f32 r32 g16 f16 g16 a16 V0 YL. a16 V1 YLR < @3 O1 a32. V0 a64 V1 > c16 < a32. V0 a64 V1 > d16 V0 YLR d16 V1 YLR d8 r16 d32 r32 ( c16 ) < a16 > d16 c16 d16 e8 V0 YL. e8 V1 YLR r16 r8 f16 V0 YL. f16 YLR V1 r16 f32 r32 c32 d32 f32 r32 g16 f16 g16 a16 V0 YL. a16 V1 YLR g16 e16 c16 V0 Y.R c16 YL. c16 r4. r2 V1 @40 YLR O2 r4. r16 c16 V1 YL. c16 YLR V1 d16 V1 YL. d16 V1 YLR c16 d16 V1 YL. d16 V1 YLR c16 V1 YL. c16 @40 YLR V1 O2 [ [ f32 < a32 > ]2 ]4 [ e32 < g32 > ]7 f32 < a32 > V1 @40 YLR O2 r4. r16 c16 V0 YL. c16 YLR V1 d16 V0 YL. d16 V1 YLR c16 d16 V0 YL. d16 V1 YLR c16 V0 YL. c16 V1 @40 YLR O2 r2 r2 r8 f16 e16 e16 Y.R e16 YL. e16 YLR f16 r8 f16 e16 e12 < g12 a12 V1 @43 W0,91,11 YLR O1 a+4 d4 e2 > c4 < e4 f2 a+4 > d4 c4 e4 c2~ c2 @40 [ [ < a+64 > d64 ]2 r16 r16 ]2 [ < a+64 > d64 ]4 [ [ c64 e64 ]2 r16 r16 ]2 [ c64 e64 ]4 [ [ d64 f64 ]2 r16 r16 ]2 [ d64 f64 ]4 @3 O1 V1 g+8 g+8 > d8 < g+16 V1 a8 a+16 a16 g8 a16 g16 f16 ( Y.R f16 ) YLR b16 > c16 c+8. ( Y.R c+8 ) V1 @43 W0,91,11 YLR O2 r8. d8 r8. r8 @3 O1 a+16 a16 ( Y.R a+16 a16 ) YLR @43 W0,91,11 r8 r2 @3 r16 f16 ( YL. f16 YLR ) f16 Y.R ( f16 YLR ) f16 YL. ( f16 YLR ) c16~ c16 c16 ( Y.R c16 ) YLR c16~ c8. c16~ c8 f16 e16 ( Y.R f16 e16 ) r8 YLR r16 a+16 ( Y.R a+16 YLR ) a16 Y.R ( a16 YLR ) f8 Y.R ( f16 ) O1 YLR @40 W0,95,0 e16 f16 g16 a16 r16 a16 e16 d16 O2 YLR @43 W0,91,11 r8. r8. r8 < d16 r16 @3 O1 a+16 a16 ( Y.R a+16 a16 ) O1 YLR @43 W0,91,11 f8 d2 r16 @3 O1 YLR f16 g16 > c16 ( Y.R c16 ) YLR < a+8 ( YL. a+16 ) O2 YLR @40 W0,95,0 e8 e8 < g+4 > e16 e16 r16 < g+8 @14 O2 g32 a32 b32 > c32 d32 e32 < @40 W0,95,0 r16 c+16 r16 c+16 d8. c+16~ c+8 V0 Y.R c+16 YL. c+16 YLR V1 < a16 > c16 V0 Y.R c16 V1 YLR d8. 
