;013 001A8A9C
!1  T90 T81 @@4,2,0 EP-12,0,0,1,0 E100,80,80,4,0 O2 V4 D-4 r64 Y.R d16 d16 _V-2 d16 _V2 d8 < a16 > c16 _V-2 < a32. _V2 > L r64 YL. d16 d16 _V-2 d16 _V2 d8 < a16 > c16 _V-2 < a16 _V2 > Y.R d16 d16 _V-2 d16 _V2 d8 < a16 > c16 _V-2 < a16 _V2 > YLR O3 V6 D-1 d16 d16 _V-4 d16 _V4 d8 < a16 > c16 _V-4 < a32. _V4 > EPX E80,100,80,1,12 @@2,3,2 P19,9,10 V6 [ d16 d16 _V-2 d16 _V2 EP0,0,-10,5,12 a8 _V-2 a8 EPX < a16 _V2 > ]3 d16 d16 _V-2 d16 EP0,0,-10,5,12 a8 @@4,2,0 EP-12,0,0,1,0 E100,80,80,4,0 O3 V2 D0 _V2 e16 _V2 g8 _V-2 g8 @@4,0,2 E100,70,25,4,15 V4 O2 D-1 EPX r64 f32 _V-2 f32 f32 f32 _V2 f32 _V-2 f32 f32 f32 _V2 a+32 _V-2 > c32 d32 e32 _V2 f32 _V-2 f32 f32 ( f32 ) f32 f64 @@4,2,0 EP-12,0,0,1,0 E100,80,80,4,0 P15,9,6 O3 V6 D0 d8 e16 g8 _V-3 a16 EPX E80,100,80,1,12 @@2,3,2 P19,9,10 V4 D-2 O2 r64 d16 d16 e16 f8 e16 d16 e16 g8 f16 e8 d8 a16 a16 a16 a8 g16 f16 d16 e16 e16 e16 f16 e8 _V-2 e8 _V2 r16 f16 f16 e16 d8 c+16 d16 > c8. < a+8 r16 a16 a+16 > c+16 c+8 r32. @1 EPX EX P8,9,6 O3 V2 D0 a16 _V2 P0,9,6 a16 _V2 a16 _V2 a16 _V-6 a16 EPX E80,100,80,1,12 @@2,3,2 P19,9,10 D-2 V4 O2 r64 a16 _V-4 a16 _V4 a16 a+16 a16 g16 f16 e16 e16 e16 d16 c+8 e16 _V-4 e16 _V4 d4. _V-4 d16. r64 _V4 @@4,2,0 EP-12,0,0,1,0 E100,80,80,4,0 P15,9,6 O3 V8 d16 EX EPX @0 PX _V-2 c32 < b32 @@4,2,0 EP-12,0,0,1,0 E100,80,80,4,0 P15,9,6 _V2 a+8 _V-4 a+16 _V2 > c16 _V2 c+8 _V-6 c+8 EPX E80,100,80,1,12 @@2,3,2 P19,9,10 V4 D-2 O2 r64 f+8 f+8 g8 a8 a8 f+8 d8 g16 g8 _V-2 f+16 _V2 g16 a16 _V-4 a16 _V4 a+32. E100,70,70,4,0 P15,10,12 EP4,0,0,3,0 @@4,1,0 D0 O2 V8 _V-2 d16 _V2 a+16 > d16 f16 EP0,0,-24,8,4 g8 EP4,0,0,3,0 _V-2 d8 _V2 e8. _V-4 e16 r8 EPX E80,100,80,1,12 @@2,3,2 P19,9,10 V4 D-2 O2 r64 g16 g16 > c16 c8 _V-2 c16 _V2 c8 < a+32. E100,70,70,4,0 P15,10,6 EP4,0,0,3,0 @@4,1,0 D0 O3 V8 c16 d16 f16 EP0,0,-24,8,4 a8 EP4,0,0,3,0 f8 EP0,0,-24,8,4 g8 > EP4,0,0,3,0 d8 EP0,0,-12,8,4 d8 < EP4,0,0,3,0 a8 EPX E80,100,80,1,12 @@2,3,2 P19,9,10 V4 D-2 O2 r64 a+16 > c+16 d32. @@4,2,0 EP-1,0,0,1,0 E100,80,80,4,0 P15,9,6 O3 V6 D0 f64 a32. f64 a32. f64 a32. f64 a32. EPX E80,100,80,1,12 @@2,3,2 P19,9,10 V4 D-2 O3 r64 d16 c16 < a16 a+32. @@4,2,0 EP-1,0,0,1,0 E100,80,80,4,0 P15,9,6 O3 V6 D0 g64 a+32. g64 a+32. g64 a+32. g64 a+32. EPX E80,100,80,1,12 @@2,3,2 P19,9,10 V4 D-2 O2 r64 ) g16 _V2 f+16 _V-2 g32. _V2 > @0 EX P15,9,6 O3 V6 D0 e64 c64 _V-2 e64 c64 _V-2 e64 c64 ( [ e64 c64 ]9 [ _V2 e64 c64 ]2 ) [ e64 c64 ]2 V8 f64 c64 _V-2 f64 c64 _V-2 f64 c64 ( f64 c64 [ _V2 f64 c64 ]2 ) [ f64 c64 ]2 V8 [ e64 c+64 _V-2 ]2 _V-2 [ e64 c+64 ]2 r8 E100,80,80,4,0 P15,10,6 @@4,1,0 D0 O4 V8 EP0,0,-24,15,8 d8 EP4,0,0,3,0 c16 d8. _V-4 d8 r16 _V4 EP0,0,-24,8,4 d8 EP4,0,0,3,0 < a16 r16 g16 f8 EP-24,0,0,8,0 a8. _V-4 a16 EPX E80,100,80,1,12 @@2,3,2 P19,9,10 V4 D-2 O3 r64 c+8 < _V-2 b16 > c+16 _V2 d8. _V-4 d16 @@4,2,0 EP-12,0,0,1,0 E100,80,80,4,0 O2 V4 D-4 Y.R r16 < a16 > c16 _V-2 < a32. _V2 > 
!2  @@4,2,0 EP-12,0,0,1,0 E100,80,80,4,0 O2 V6 d16 d16 _V-4 d16 _V4 d8 < a16 > c16 < _V-4 a16 _V4 > L [ d16 d16 _V-4 d16 _V4 d8 < a16 > c16 < _V-4 a16 _V4 > ]2 O3 V8 d16 d16 r16 d8 < a16 > c16 _V-4 c16 _V4 @@4,2,0 EP-12,0,0,1,0 E100,80,80,4,0 O2 V6 [ d16 d16 _V-4 d16 _V4 d8 < a16 > c16 < _V-4 a16 _V4 > ]3 d16 d16 > r16 d8 a16 > c8 _V-4 c8 @@4,0,2 E100,70,30,4,15 V8 O3 EPX f32 _V-2 f32 f32 f32 _V2 f32 _V-2 f32 f32 f32 _V2 a+32 _V-2 > c32 d32 e32 _V2 f32 _V-2 f32 f32 ( f32 _V2 f32 f32 @@4,2,0 EP-12,0,0,1,0 E100,80,80,4,0 P15,9,6 O3 V8 g8 a16 > c8 _V-3 d16 EPX E80,100,80,1,12 @@2,3,2 P19,9,10 V6 O2 d16 d16 e16 f8 e16 d16 e16 g8 f16 e8 d8 a16 a16 a16 a8 g16 f16 d16 e16 e16 e16 f16 e8 _V-4 e8 _V4 r16 f16 f16 e16 d8 c+16 d16 > c8. < a+8 r16 a16 a+16 > c+16 c+8~ c+8. @2 EPX EX P15,9,6 O4 V2 _V2 P0,9,6 _V2 e16 _V2 e16 _V-6 e16 EPX E80,100,80,1,12 @@2,3,2 P19,9,10 V6 O2 a16 _V-4 a16 _V4 a16 a+16 a16 g16 f16 e16 e16 e16 d16 c+8 e16 _V-4 e16 _V4 d4. _V-4 d8 _V4 @@4,2,0 EP-12,0,0,1,0 E100,80,80,4,0 P15,9,6 O3 V8 f16 EX EPX @0 PX _V-4 e32 d+32 @@4,2,0 EP-12,0,0,1,0 E100,80,80,4,0 P15,9,6 _V4 d8 _V-6 d16 _V4 g16 _V2 a8 _V-6 a8 EPX E80,100,80,1,12 @@2,3,2 P19,9,10 V8 O2 f+8 f+8 g8 a8 a8 f+8 d8 g16 g8 _V-2 f+16 _V2 g16 a16 _V-6 a16 _V6 a+8. _V-4 a+8 _V-2 a+8 _V4 g16 g16 _V2 > c16 c8. _V-4 c8 _V2 < g16 g16 _V2 > c16 c8 _V-6 c16 _V6 c8 < _V-2 a+16 _V-4 a+16 _V6 a4. _V-4 a8 E100,80,80,4,0 P15,10,6 EP4,0,0,3,0 @@4,1,0 D0 O3 V4 Y.R r64 > EP4,0,0,3,0 d8 EP0,0,-12,8,4 d8 < EP4,0,0,3,0 a32. YLR EPX E80,100,80,1,12 @@2,3,2 P19,9,10 V8 O2 a16 a+16 > c+16 d4 _V-4 d16 EPX E80,100,80,1,12 @@2,3,2 P19,9,10 V8 O3 d16 _V2 c16 < _V-2 a16 _V2 a+4 _V-4 a+16 EPX E80,100,80,1,12 @@2,3,2 P19,9,10 V8 O2 ) g16 _V2 f+16 _V-2 g16 _V2 > c8. _V-6 c16 _V6 d16. c16. < _V-2 a+16 _V2 a8. _V-6 a8 r16 _V4 g16 a16 _V2 a+8. _V-6 a+8 _V4 a+16 a16 g16 _V2 > d8. _V-6 d8 r16 _V4 < a16 a16 b8 b8 > c+8 < _V-2 b16 > c+16 _V2 d8. _V-4 d8 @@4,2,0 EP-12,0,0,1,0 E100,80,80,4,0 O1 V6 a16 > c16 < _V-4 a16 > 
!3  `9F00 `2E09 @A3 `AE00 B1 O0 V3 E100,100,80,3,4 L [ V3 O1 d8 V1 d16 V3 d8 V1 d8 r16 ]3 V2 O1 d16 V3 d16 V1 d16 V3 d8 V1 d8 r16 [ V3 O1 d8 V1 d16 V2 d16 V3 d16 a8 < V2 a16 V3 > ]3 V2 O1 d16 V3 d16 V1 d16 V3 d8 < V2 a16 > V2 c8 r8 @A8 EX O3 f32 ( f32 f32 f32 ) f32 ( f32 f32 f32 ) a+32 ( > c32 d32 e32 ) f32 f32 f32 f32 f32 f32 f32 f32 f32 ( f32 f32 f32 f32 f32 f32 f32 @A3 `AE00 B1 O1 V3 E100,100,80,3,4 [ V3 d8 V2 d16 V3 d16 d16 V1 d8 V2 d16 < V3 a8 V2 a16 V3 a16 a16 V1 a8 V2 a16 > ]2 V3 d8 V1 d16 V2 d16 V3 d8 V1 d16 V2 d16 V3 g8 V1 g16 V2 g16 V3 g8 V1 g16 V2 g16 V3 a8 V1 a16 V2 a16 V3 a16 a16 V1 a16 V2 a16 V3 a16 r8. r8 r8 V3 e8 V1 e16 V2 e16 V3 a8 V1 a16 V2 a16 V3 d8 V1 d16 V2 d16 V3 d8 V1 d16 V2 d16 V3 f16 V1 e32 d+32 V3 d8 V1 d16 V3 g16 e8 V3 d16 d16 V1 d16 V2 a16 V3 > d8 d16 < V2 d16 r16 V3 d16 V1 d16 V2 a16 V3 d8 V3 e16 V2 f+16 V3 g16 g16 V1 g16 V2 d16 V3 g8 V1 g16 V3 g16 V1 g16 V3 g16 V1 g16 V2 d16 V3 g16 d16 g8 c16 c16 r16 V2 g16 > V3 c8 V2 c16 < g16 V3 > c16 c16 r16 < c8 d16 e16 V1 e16 V3 f16 f16 V1 f16 V3 c16 V3 f8 V1 f16 V3 f16 < a16 a16 r16 V2 a16 V3 a16 > d16 < a8 > [ [ V3 d16 V1 d16 ]4 H5 ]2 H0 [ V3 c16 V1 c16 ]4 [ [ V3 f16 V1 f16 ]2 H-8 ]2 H0 [ [ V3 g8 V1 g16 V2 g16 ]2 H-5 ]2 H0 V3 e8 V1 e16 V2 e16 V3 a8 V1 a8 
!4  L [ Y.R @6 x16 x16 @9 x8 @6 x16 @10 x8 r16 YL. @6 x16 x16 @9 x8 @6 x16 @10 x8 r16 ]3 Y.R @6 x16 x16 @9 x8 @6 x16 @10 x8 r16 YLR @6 x16 x16 @9 x8 @6 x16 x16 @8 x8 @6 x8 r8 r8 r8 r8 r16 @8 x8. r16 @6 x16 @7 x8 [ @5 x16 @6 x16 ]3 [ @5 x16 @6 x16 ]22 @5 x16 @11 x8. @12 x8. r16 r8 r8 @7 x8 [ @5 x16 @6 x16 ]3 [ @5 x16 @6 x16 ]4 @8 x8 @5 x16 @6 x16 @5 x16 r16 @7 x8 @8 x8 [ @5 x16 @6 x16 ]2 @5 x16 @7 x8 @6 x16 [ @5 x16 @6 x16 ]2 @7 x8 [ [ @5 x16 @6 x16 ]3 @5 x16 @7 x8 @6 x16 [ @5 x16 @6 x16 ]2 @7 x8 ]3 [ @1 x16 @6 x16 ]16 @8 x8 [ @5 x16 @6 x16 ]9 @8 x8. @6 x16 
!5  O2 L @15 W0,90,54 [ V1 d16 d16 r16 d8 < a16 > c16 r16 ]4 [ @36 c8. @37 c8. r8 ]3 @36 c8. @37 c8. @38 c8 V1 @4 O1 g8 O2 @0 [ c8 ]4 V0 c32 V1 c32 @1 c8 @4 c16 < g+8 > V1 [ @0 c8 @1 c16 @0 V1 c8 V0 c16 V1 @1 c8 ]7 @1 V1 c8 r8. @4 Y.R e16 < YL. a16 V0 a+64 b64 > c32 YLR [ @0 c8 @1 c16 @0 V1 c8 V0 c16 V1 @1 c8 ]2 @1 c8 @0 c8 V0 c16 V1 @1 c16 r8 [ YLR V1 @0 c16 @18 V0 YL. c16 V1 c16 YLR @0 c16 @1 c16 @18 YL. < a+16 > c16 YLR r8 @0 c16 V0 c16 V1 YLR @0 c16 @1 c16 YL. V0 @18 < a+8 a+16 > ]4 YLR [ @1 V1 c16 c16 c64 V0 [ c64 ]7 V1 c32 V0 c32 c32 c32 V0 c64 V0 [ c64 ]7 V1 c16 c16 c32 V0 c32 c32 c32 V1 c16 c32 V0 c32 V0 c64 V0 [ c64 ]7 ]2 [ V1 @0 c8 @1 c16 @0 V1 c8 V0 c16 V1 @1 c8 ]2 @0 c8 @1 c16 @0 V0 c16 V1 c8 r8 
!6  L O2 [ @0 V1 c16 @32 V0 c16 V1 c16 @0 c16 @32 c16 V0 c16 V1 c16 V0 c16 ]3 @2 V1 Y.R c16 < YLR g+16 > @32 V1 c16 YL. @2 < f16 > YLR @32 c16 < YL. @2 V0 d+16 V1 d+16 YLR > @32 V0 c16 [ @0 V1 c32 @32 V0 c32 V1 c32 V0 c32 V1 @1 c16 @0 V1 c32 @32 V0 c32 V1 c32 V0 c32 V1 @0 c32 @32 V0 c32 V1 @1 c16 @32 c32 V0 c32 ]3 @2 V1 Y.R c16 < YLR g+16 > @32 V1 c16 YL. @2 < f16 > YLR @32 c16 < YL. @2 V0 d+16 V1 YLR @0 O2 c32 @4 < V0 [ g64 ]6 @38 > Y.R r8 YL. r8 [ r8 ]3 YLR @28 O1 r16 V1 g8 V0 a16 V1 > c8 V0 @3 d8 r8 r8 r8 [ r8 ]10 @15 W0,90,54 O2 V1 a16 V0 a16 V1 g16 V0 g16 V1 f4.~ f16 V0 f16 V1 g4.~ g16 V0 g16 V1 a4.~ a16 V0 a16 V1 f16 V0 f16 r8 r8 r8 [ r8 ]8 @14 O2 V1 f16 V0 e32 d+32 @13 V1 d8 r16 @14 g16 a8 [ r8 ]28 @3 O1 r16 V0 c+16 e16 V1 a8. V0 a8 @13 O1 V1 a16 V0 [ a16 ]7 @14 V1 g16 V0 [ g16 ]7 @13 V1 g16 V0 [ g16 ]7 @14 V1 f16 V0 [ f16 ]3 V1 @13 e8 V0 Y.R e8 YLR [ r8 ]12 
