;014 001A9816
!1  T90 T75 r32 E80,100,70,3,15 @@4,2,0 P20,8,8 EP-2,0,0,3,0 r32 YLR O3 V4 d16 e16 _V-2 d16 _V2 g16 _V-2 e16 _V2 a16 _V-2 g16 _V2 > c16 _V-2 < a16 > c32 _V2 YLR V6 < f16. < V2 d32 V8 YLR PX D0 B31 E60,100,0,25,37 > >~ d4 < E80,100,70,3,15 @@4,2,0 P20,8,4 EP-2,0,0,3,0 f+16 _V-4 f+16 _V-2 f+16 r16 r16 L EX @2 P20,8,4 EPX r32 D-1 O1 V4 YLR b16 > d16 b16 a8 _V-2 a16 _V2 g16 g16 < b16 > d16 g16 f+8 _V-2 f+16 _V2 e16 e8 < b16 b16 > c16 c8 _V-2 c16 _V2 c16 c16 d16 e32 @@4,3,1 E100,50,20,5,15 D0 V8 YLR O2 d8 d8 e8 f+8 EP-12,0,0,15,0 g4 EX @2 P20,8,4 EPX r32 D-1 O2 V4 YLR _V-2 b16. _V2 a16 b16 > c+4 _V-2 c+16 r16 _V2 < a16 a16 > d8.~ d32 YLR V6 PX D0 B37 E60,100,0,25,37 > >~ d4.~ d32 B1 EX @2 P20,8,4 EPX D-1 O3 V4 YLR _V-2 d8. E80,100,70,3,15 @@4,2,0 P20,8,8 EP-2,0,0,3,0 D0 YLR V4 O2 d8. EX @2 P20,8,4 EPX r32 D-1 O3 V4 YLR c16 c16 c16 c16 c16 < a16 a16 > c16 < b16 g16 E100,0,0,8,0 @2 PX YL. O4 V6 d32 c32 < b32 g32 d8 EX @2 P20,8,4 EPX V4 O2 YLR g16 b16 a8. _V-4 a16 _V4 e8 a8 a8. _V-4 a16 _V4 r16 _V-2 d16 _V2 d16 _V-2 d16 _V2 e16 e8 e16 f+16 _V-2 f+16 _V2 f+16 _V-2 f+16 _V2 g16 g8 a16 b16 _V-6 b16 _V6 > c16 < b16 a8. _V-4 a16 _V4 e8 f+8 g4 _V-4 g16 _V4 b16 b16 b16 > c4 _V-4 c16 _V4 < a16 a16 > c16 < b8. _V-4 b8 r16 _V4 g16 b16 a16 _V-4 a16 _V4 a16 _V-4 a16 _V4 a16 a16 _V-4 a16 _V4 a16 a16 _V-4 a16 _V4 a8 b16 _V-4 b16 _V4 a16 _V-4 a16 _V4 > d24 _V-2 E100,50,0,5,15 @@2,0,1 EPX PX O3 D0 YLR e24 f+24 a24 > d24 V2 Y.R < a24 V4 YLR YLR c24 d24 f+24 a24 > d24 V2 YL. < a24 V4 YLR YLR < b24 > d24 g24 b24 > d24 V2 Y.R < b24 V4 YLR EX @2 P20,8,4 EPX V4 O3 YLR D-1 _V-2 d8 _V2 e32 r32 e16 d8 _V-2 d16 _V2 < b16 > c16 < b16 a16 g16 e16 e16 e16 b16 a16 _V-3 b16 _V3 e16 e16 g8. g16 g32 g32~ g8 _V-3 g16 _V3 > c8 < b16 _V-2 b16 _V2 a8 a16 _V-2 a32 _V2 E80,100,70,3,15 @@4,2,0 P20,8,8 EP-2,0,0,3,0 O3 V8 d16 e16 _V-6 d16 _V6 g16 _V-6 e16 _V6 a16 _V-6 g16 _V6 > c16 EX @2 P20,8,4 EPX V4 O3 YLR D-1 r32 d8 _V-4 d16 _V4 d16 e16 d16 c16 < b16 > c4 _V-4 c16 _V-2 c16 _V6 c16 c16 < b8 a16 _V-4 a16 _V4 e8 f+16 _V-4 f+16 _V4 g2~ g8 _V-4 g8 _V-2 g16 r16 _V6 g16 EP-2,0,0,3,0 > d16~ d16 V2 d32 V6 YLR @1 PX D0 B56 E60,100,0,37,25 > >~ d4. < < V4 YLR @1 PX D0 B37 E60,100,0,37,25~ d4 _V-2 d16 
!2  r32 E80,100,70,3,15 @@4,2,0 P20,8,8 EP-2,0,0,3,0 O3 V8 d16 e16 _V-6 d16 _V6 g16 _V-6 e16 _V6 a16 _V-6 g16 _V6 > c16 _V-4 < a16 _V-2 > c16 _V6 d8 EX EPX P0,8,4 @0 _V-2 d16 _V-2 d16 _V2 d16 _V2 d16 E80,100,70,3,15 @@4,2,0 P20,8,4 EP-2,0,0,3,0 d16 _V-4 d16 _V-2 d16 r16 r16 L E100,80,80,5,0 @2 P20,8,4 EPX O1 V8 b16 > d16 b16 a8 _V-4 a16 _V4 g16 g16 < b16 > d16 g16 f+8 _V-4 f+16 _V4 e16 e8 < b16 b16 > c16 c8 _V-4 c16 _V4 c16 c16 d16 e16 _V2 g16 _V-4 g16 _V4 f+16 _V-4 f+16 _V4 e16 _V-4 e16 _V4 f+16 _V-4 f+16 _V4 b16. _V-2 b32 _V2 b8. _V-4 b16 _V4 a16 b16 > c+4 _V-4 c+16 r16 _V2 < a16 a16 > d2~ d8 _V-4 d8 _V-2 d16 E80,100,70,3,15 @@4,2,0 P20,8,8 EP-2,0,0,3,0 V6 O2 f8. E100,70,70,5,0 @2 P20,8,4 EPX O3 V8 c16 c16 c16 c16 c16 < a16 a16 > c16 < b16 g16~ g8 _V-4 g8 _V4 g16 b16 a8. _V-4 a16 _V4 e8 a8 a8. _V-4 a16 _V4 r16 _V-2 d16 _V2 d16 _V-2 d16 _V2 e16 e8 e16 f+16 _V-2 f+16 _V2 f+16 _V-2 f+16 _V2 g16 g8 a16 b16 _V-6 b16 _V6 > c16 < b16 a8. _V-4 a16 _V4 e8 f+8 g4 _V-6 g16 _V6 b16 b16 b16 > c4 _V-6 c16 _V6 < a16 a16 > c16 < b8. _V-4 b8 r16 _V4 g16 b16 a16 _V-4 a16 _V4 a16 _V-6 a16 _V4 a16 _V2 a16 _V-4 a16 _V4 a16 a16 _V-4 a16 _V4 a8 b16 _V-4 b16 _V4 a8 _V2 > EP-2,0,0,3,0 d2 _V-4 d8 _V-2 d8 r8 _V4 EPX e32 r32 e16 _V-2 d8 _V-4 d16 _V4 < b16 > c16 < b16 a16 g16 e16 e16 e16 b16 a16 _V-6 b16 _V6 e16 e16 g8. _V-2 g16 g32 _V2 g32~ g8 _V-6 g16 _V6 > c8 < b16 _V-4 b16 _V4 a8 a16 _V-4 a16 _V4 g8. _V-4 g16 _V4 r16 b16 b16 > _V-2 c16 _V2 d8 _V-4 d16 _V4 d16 e16 d16 c16 < b16 > c4 _V-4 c16 _V-2 c16 _V6 c16 c16 < b8 a16 _V-4 a16 _V4 e8 f+16 _V-4 f+16 _V4 g2~ g8 _V-4 g8 _V-2 g16 r16 _V6 g16 EP-2,0,0,3,0 _V3 > d16~ d2 V1 Y.R @1 PX D0 B1 EX > >~ d32 < < V2 Y.R B37~ d4~ d32 YLR 
!3  r32 `9F00 `AE00 @A3 E100,70,70,4,0 O0 V3 d16 e16 r16 g16 r16 a16 r16 > c16 V2 < d16 r16 V3 a+4 V2 d8 V3 d16 r16 r4. L O1 V3 g16 V1 g16 V3 d16 V1 d16 V3 g16 V1 g16 V3 d16 V2 d+16 V3 e16 V1 e16 < V3 b16 V1 b16 > V3 e16 V1 e16 V3 g16 V2 g+16 [ V3 a16 V1 a16 V3 e16 V1 e16 ]2 V3 d8 d8 e8 f+8 V3 g16 V1 g16 V3 d16 V1 d16 V3 g16 f+16 e16 V2 d16 V3 a16 V1 a16 V3 e16 V1 e16 V3 a16 g16 f+16 V2 e16 [ V3 d8 V1 d16 H2 ]2 H0 V3 f4 V1 d8 r16 V3 d8 V2 d16 V3 c16 c16 V1 c16 < V2 g16 > V3 c16 < e16 V1 e16 V2 f16 V3 g16 g16 V1 g16 V2 > d16 V3 g8 V1 g16 V2 d16 V3 < a16 a16 V1 a16 > V2 e16 V3 a8 V1 a16 V2 a16 V2 d16 V3 d16 V1 d16 V2 d16 V1 d16 V2 d16 < V3 a16 V1 a16 > V3 c16 c16 V1 c16 V2 c16 V3 d16 d16 V1 d16 V3 d16 < V3 g16 g16 V1 g16 > V2 d16 V3 e16 g16 < V2 g16 V1 g16 > V3 d8. V1 d16 V3 d16 V2 d16 V3 d16 r16 < V3 g16 g16 V1 g16 > V2 d16 V3 g8 V2 g16 V1 g16 [ V3 f16. V2 f32 V3 c32 V1 c32 V3 f16~ f8 V1 f16 V2 f16 H2 ]2 H0 < V3 a16 a16 V1 a16 > V2 e16 V3 a16 a16 V1 a16 V2 e16 < V3 a16 a16 V1 a16 > V3 a16 V1 a16 V2 e16 V3 a16 V1 a16 V3 d8 V2 d8 V3 c8 V2 c8 < V3 b8 V2 b8 V3 a16 r16 > d8 V3 g16 V2 g16 V1 g16 V2 d16 V3 g16 g16 V1 g16 V2 g16 V3 a16 a16 V1 a16 V3 a16 V1 a16 V2 e16 < V3 a16 V1 a16 > V3 c8 V1 c16 < V2 g16 > V3 c8 V1 c16 V2 c16 V3 d8 V2 d16 V1 d16 V3 d16 V2 d16 V1 d16 r16 O0 V3 d16 e16 r16 g16 r16 a16 r16 > c16 V2 V3 g16 V1 g16 V3 d16 V1 d16 V3 e16 V1 e16 V3 g+16 V1 g+16 V3 a16 V1 a16 V3 e16 V1 e16 V3 a16 V1 a16 V3 e16 V2 d+16 V3 d16 V1 d16 V3 a16 V1 a16 V3 d16 V1 d16 V3 e16 V2 f+16 [ [ V3 g16 V1 g32 ]2 < V3 g16~ g4 > ]2 V3 g16 V1 g16 V3 d16 V1 d16 V3 g16 V1 g16 V3 d16 V2 d16 < V3 g16 r16 r4. 
!4  r32 @3 x16 @6 x8 r8 r8 r16 r8 @8 x4 @6 r16 x16 @5 x8. @6 x8 x8 x16 L @8 x8 @3 x16 @6 x16 @1 x16 @7 x16 @3 x16 @2 x16 [ @1 x16 @7 x16 @3 x16 @6 x16 @1 x16 @7 x16 @3 x16 @2 x16 ]5 [ @8 x8 @3 x16 ]3 @6 r16 x8 x16 @8 x8. @8 x8 @5 x16 @6 x16 @3 x16 @6 x16 @5 x16 @7 x16 @6 x16 @1 x16 @6 x16 @8 x16 @3 x16 @6 x16 @5 x16 @7 x16 [ @1 x16 @6 x16 @5 x16 @6 x16 @3 x16 @6 x16 @5 x16 @7 x16 @6 x16 @1 x16 @6 x16 @8 x16 @3 x16 @6 x16 @5 x16 @7 x16 ]2 @1 x16 @6 x16 @5 x16 @6 x16 @3 x16 @6 x16 @5 x16 @7 x16 @6 x16 @1 x16 @6 x16 @8 x16 @3 x16 @6 x16 @7 x8 [ @8 x16. @4 x32 @3 x16 @8 x16~ x8. @6 x16 ]2 @1 x16 @6 x16 @5 x16 @6 x16 @3 x16 @6 x16 @5 x16 @7 x16 @6 x16 @1 x16 @6 x16 @8 x16 @3 x16 @6 x16 @7 x8 [ @7 x12 @4 x12 x12 ]3 @1 x8 @8 x8 @8 x8 @5 x16 @6 x16 @3 x16 @6 x16 @5 x16 @7 x16 @6 x16 @1 x16 @6 x16 @8 x16 @3 x16 @6 x16 @5 x16 @7 x16 @1 x16 @6 x16 @5 x16 @6 x16 @3 x16 @6 x16 @5 x16 @7 x16 @6 x16 @1 x16 @6 x16 @8 x16 @3 x16 @6 x16 @7 x8 @3 x16 @6 x8 r8 r8 r16 @8 x8 @3 x16 @6 x16 @1 x16 @7 x16 @3 x16 @6 x16 [ @1 x16 @7 x16 @3 x16 @6 x16 @1 x16 @7 x16 @3 x16 @6 x16 ]2 [ @8 x8 @3 x16 @8 x8 @4 x16 @6 x8 ]2 @8 x8. @6 x8 x8 x16 @1 x8 r4 @3 x16 @7 x16 
!5  @1 V0 c64 c64 V1 @2 r16 Y.R e8 c8 YLR < g+8 YL. f48 YLR > @4 V0 c48 c48 V1 c8 @0 c4 r16 @4 V0 d48 d48 d48 V1 d16 @2 YLR O2 c8 < YL. g+8. r8 L @40 W0,95,0 V0 YLR O2 b2 b2 > c2 r32 Y.R @19 O0 V0 d8 d8 e8 f+16. @40 W0,95,0 V0 YLR O3 d4 @15 YL. V1 O1 g32 V0 g32 V1 f+32 V0 f+32 V1 e32 V0 e32 V1 d32 V0 f32 YLR @40 W0,95,0 V0 YLR O3 e4 @15 Y.R V1 O1 a32 V0 a32 V1 g32 V0 g32 V1 f+32 V0 f+32 V1 e32 V0 e32 @40 W0,95,0 V0 YLR O2 d8. e8. f8. @2 O1 g+16 g+8 YL. f16 @43 W0,95,0 V0 YLR O1 V0 d48 < a48 > d48 < V1 a48 > d48 < a48 > d48 < V0 a48 > d48 r16 @18 O2 V1 c8. @17 c4 @18 r16 c16 @27 O2 V0 d32 c32 < b32 g32 d4 r16 @18 O2 V1 c8. @17 c4 @18 r16 c8 c16 @17 c4 r16 @18 O2 V1 c8 @15 Y.R V1 O1 g32 V0 g32 V1 g32 V0 g32 YLR O2 @17 c8. @18 r16 c8 @15 Y.R V1 O1 g32 V0 g32 V1 g32 V0 g32 @17 YLR O2 c8. r16 @18 O2 V1 c8. @17 c4 r16. @25 O1 V0 Y.R d32 YLR a32 YL. a32 YLR g32 Y.R g32 > YLR c32 YL. c32 < YLR b32 YL. b32 > YLR e32 Y.R e32 YLR d32 YL. d32 YLR f16 @28 W0,95,45 YLR V0 O2 c8 V1 c8. @17 V0 r16 @28 W0,95,45 V1 c16 @28 W0,95,45 YLR V1 O2 d8 V0 d8 @17 V1 r16 @15 W0,96,57 O1 YLR V1 b8 d16 @40 W0,95,0 V0 YLR O2 e16 a8. e4 e4 g4 @40 W0,95,0 V1 Y.R O1 D-1 d24 e24 f+24 a24 > d24 V0 < a24 V1 c24 d24 f+24 a24 > d24 V0 < a24 V1 < b24 > d24 g24 b24 > d24 V0 < b24 V1 < a16 r16 D0 > YLR d8 @40 W0,95,0 V0 YLR O2 d8. V1 @18 O2 c16 @17 c16 @40 W0,95,0 V0 d8. c+16 V1 @18 O2 c8 c16 @17 c16 @40 W0,95,0 V0 c+8. c8. V1 @18 O2 c16 @17 c16 @40 W0,95,0 V0 c8. d16 V1 @18 O2 c8 c16 @17 c16 @40 W0,95,0 V0 d8 V0 @4 d48 d48 d48 V1 d16 @2 Y.R e8 c8 YLR < g+8 YL. f16 @40 W0,95,0 V0 YLR O2 g8. d16 e4 c4 e8 < a8 > c4. r8 [ @39 O1 V1 b16. b16. > c16~ c16 @3 W0,33,6 V0 < g32 g32 > d32 g16 r32 < ]2 @39 O1 V1 b8 r4 r16 @4 O2 V0 d48 d48 d48 V1 d16 @2 YLR c8 < YL. g+8. r16 > YLR @0 V0 c16 
!6  r32 @15 W0,95,58 P22,8,2 O1 V1 d16 e16 YL. ( d16 ) YLR g16 Y.R ( d16 ) YLR a16 ( YL. g16 YLR ) > c16 ( < Y.R a16 > YL. c16 ) YLR d4. d16. r32 r4. L @40 W0,95,0 V0 YLR O3 d2 e2~ e2 f+2 @40 W0,95,0 g2 a2 V1 d8. e8. f4. V0 f16 d8. @40 W0,95,0 V0 YLR V0 g2~ g2 a2~ a2 e4 d4 d4 e4 f+2 @40 O0 V1 r16 d32 d32 a32 a32 g32 g32 > c32 c32 < b32 b32 > e32 e32 d32 d32 @28 W0,95,45 YLR V1 O2 f8 V0 f16 V1 f8 @2 Y.R c16 < YLR g+16 @28 W0,95,45 V1 O2 f16 @28 W0,95,45 YLR V1 O2 g8 V0 g16 V1 g8 < @2 YLR g+16 YL. f16 YLR @28 W0,95,45 V1 O2 g16 @40 W0,95,0 V0 YLR O3 e2 c+4 e4 @40 W0,95,0 V1 YL. O1 d24 e24 f+24 a24 > d24 V0 < a24 V1 c24 d24 f+24 a24 > d24 V0 < a24 V1 < b24 > d24 g24 b24 > d24 V0 < b24 V1 a16 r16 YLR > f+8 @40 W0,95,0 V0 YLR O2 [ g2 a2 ]2 @3 P22,8,2 O1 V0 d16 e16 r16 g16 r16 a16 r16 > c16 V1 d8. @40 W0,95,0 V0 YLR O2 g16 g+4 a8 b8 > c8 < e8 f+4. r8 [ @39 YLR O2 V1 d16. d16. e16~ e16 @2 Y.R V1 c32 c32 < YLR g+32 g+32 YL. f32 f32 ]2 @39 YLR O2 V1 d8 V1 [ @2 Y.R c16 < YL. f16 > ]2 < YLR g+16 YL. f16 Y.R > c8 r4. YLR 
