;015 001AA7B6
!1  T180 L D0 YLR SD6 SR1 O5 @3 EPX YLR EX PX V8 [ [ Y.R c64 YL. g+64 ]2 H-1 ]2 H-2 [ [ Y.R c64 YL. g+64 ]2 H-3 ]2 H-4 [ [ Y.R c64 YL. g+64 ]2 H-5 ]2 H-6 [ [ Y.R c64 YL. g+64 ]2 H-7 ]2 H-8 [ [ Y.R c64 YL. g+64 ]2 H-9 ]2 H-10 V5 [ [ Y.R c64 YL. g+64 ]2 H-11 ]2 H-12 [ [ Y.R c64 YL. g+64 ]2 H-13 ]2 H-14 [ [ Y.R c64 YL. g+64 ]2 H-15 ]2 H-16 [ [ Y.R c64 YL. g+64 ]2 H-17 ]2 H-18 V3 [ [ Y.R c64 YL. g+64 ]2 H-19 ]2 H-20 [ [ Y.R c64 YL. g+64 ]2 H-21 ]2 H-22 [ [ Y.R c64 YL. g+64 ]2 H-23 ]2 H-22 [ [ Y.R c64 YL. g+64 ]2 H-23 ]2 H-24 [ [ Y.R c64 YL. g+64 ]2 H-25 ]2 H-26 [ [ Y.R c64 YL. g+64 ]2 H-26 ]2 H-25 [ [ Y.R c64 YL. g+64 ]2 H-24 ]2 H-23 [ [ Y.R c64 YL. g+64 ]2 H-22 ]2 H-21 [ [ Y.R c64 YL. g+64 ]2 H-20 ]2 H-19 [ [ Y.R c64 YL. g+64 ]2 H-18 ]2 H-17 [ [ Y.R c64 YL. g+64 ]2 H-16 ]2 H-15 [ [ Y.R c64 YL. g+64 ]2 H-14 ]2 H-13 [ [ Y.R c64 YL. g+64 ]2 H-12 ]2 V5 H-11 [ [ Y.R c64 YL. g+64 ]2 H-10 ]2 H-9 [ [ Y.R c64 YL. g+64 ]2 V7 H-8 ]2 H-7 [ [ Y.R c64 YL. g+64 ]2 H-6 ]2 H-5 [ [ Y.R c64 YL. g+64 ]2 H-4 ]2 H-3 [ [ Y.R c64 YL. g+64 ]2 H-2 ]2 V3 H-1 [ [ Y.R c64 YL. g+64 ]2 H0 ]2 [ [ Y.R c64 YL. g+64 ]2 V2 ]4 V1 [ [ Y.R c64 YL. g+64 ]2 ]3 r16 YLR SD0 SR0 H0 r24 @@1,2,0 E90,100,70,1,6 EP-8,0,0,1,3 P20,11,5 V4 O3 g8 > c8 _V-6 c8 _V6 < a+8 _V-6 a+8 _V6 g8 _V-6 g12 _V6 d+16. O2 D0 d+32 _V2 f+4. _V-6 f+8 _V4 f8 _V2 f4 r32 _V-6 f32 _V4 c16 EP0,0,-24,4,10 d+6 _V-2 d+12 SD6 SR1 O5 @3 EPX YLR EX PX V8 [ [ Y.R c64 YL. g+64 ]2 H< ]6 [ [ Y.R c64 YL. g+64 ]2 H< H< ( ]6 [ [ Y.R c64 YL. g+64 ]2 H< ]2 [ [ Y.R c64 YL. g+64 ]2 H< ) ]4 [ [ Y.R c64 YL. g+64 ]2 H> ]5 [ [ Y.R c64 YL. g+64 ]2 H> H> ( ]4 r16 YLR SD0 SR0 H0 O2 V5 r32 D2 EP-8,0,0,2,0 E80,100,70,2,5 @@2,3,1 P12,9,13 c4 d+8 g4. _V-3 Y.R g4 YLR _V3 c8 c8 d+8 g4. _V-3 YL. g8 YLR _V3 f8~ f8 f8 f8 f8 d4 < a+8 > c8~ c2. _V-3 Y.R c8 r8 YLR _V3 O2 V5 r32 D2 EP-8,0,0,2,0 E80,100,70,2,5 @@2,3,1 P12,9,13 c4.~ c2 P0,8,13 YL. _V-4 c8 _V4 YLR P12,9,13 c8 g8 r8 d+2 P0,9,13 _V-4 Y.R d+8 _V4 YLR P12,9,13 f8 f8 P0,9,13 _V-2 f8 _V2 P12,9,13 f4 _V-2 P0,9,13 f8 _V2 P12,9,13 g+8 r8 g2 _V-4 P0,9,13 YL. g4 ( Y.R g8. r32 _V5 YLR O2 V5 D2 YL. EP-8,0,0,2,0 E80,100,70,2,5 @1 @@2,3,1 P12,9,13 g8 g8 g8 f8 g8 g8 g8 f8 g8 g8 g8 g8 a+8 > c4 P0,9,13 EPX EX @1 _V-2 c8 < EP-20,0,0,2,0 E80,100,70,2,5 @@2,3,1 P12,9,13 _V2 g4 _V-2 P0,9,13 EPX EX @1 g4 _V-2 g4 ( g8. r32 @@1,3,0 PX E100,60,30,4,5 EPX D0 YLR O2 V6 [ YLR c4 _V-2 Y.R c8 ) YL. c8 ) ]2 O2 V5 r32 D2 YL. EP-8,0,0,2,0 E80,100,70,2,5 @1 @@2,3,1 P12,9,13 f8 f8 f8 f8 f8 f8 d+8 c8 _V-3 r8 _V3 f8 f8 f8 f6 g+6 > c6 PX EP0,0,-40,5,8 _V2 d4 SD6 SR1 O5 @3 EPX YLR EX PX V8 [ [ Y.R c64 YL. g+64 ]2 H-1 ]2 H-2 [ [ Y.R c64 YL. g+64 ]2 H-3 ]2 H-4 [ [ Y.R c64 YL. g+64 ]2 H-5 ]2 H-6 [ [ Y.R c64 YL. g+64 ]2 H-7 ]2 H-8 [ [ Y.R c64 YL. g+64 ]2 H-9 ]2 H-10 [ [ Y.R c64 YL. g+64 ]2 H-11 ]2 H-12 V5 [ [ Y.R c64 YL. g+64 ]2 H-13 ]2 H-14 [ [ Y.R c64 YL. g+64 ]2 H-15 ]2 V3 H-16 [ [ Y.R c64 YL. g+64 ]2 H-17 ]2 V1 H-18 [ c64 g+64 ]2 r32 SD0 SR0 H0 YLR `2E63 EX V2 D1 O3 @@1,3,0 r24 O3 Y.R g24~ YL. g+24~ Y.R a24~ YL. a+24~ Y.R b24~ YL. O4 ) c24~ Y.R c+24~ YL. d24~ Y.R d+24~ YL. e24~ Y.R f24 D0 O2 V8 YLR EP-8,0,0,2,0 E80,100,70,2,5 @@2,3,1 P12,9,13 g8 > c8 _V-2 Y.R c8 _V2 YLR < g4. YL. _V-2 g8 r8 _V2 YLR f4. g4. YL. _V-2 g8 _V2 YLR a+8~ a+8 a+8 YL. _V-2 a+8 _V2 YLR a+8 a+8 f4 d2 _V-2 Y.R d8 _V2 @@1,3,0 PX E100,60,30,4,5 EPX D0 O2 V5 PX YLR a+4 _V-2 Y.R a+8 ) YL. a+8 ) O2 V8 YLR YLR EP-8,0,0,2,0 E80,100,70,2,5 @@2,3,1 P12,9,13 f8 f8 _V-6 f8 _V5 f8~ f4 _V-4 f8 r8 _V4 f8 f8 f8 f8~ f4 _V-4 f8 r8 _V4 O2 V8 YLR EP-8,0,0,2,0 E80,100,70,2,5 @@2,3,1 P12,9,13 f8 f8 f8 f8 g+8 g+4 EP-50,0,0,10,0 g2~ g4. _V-6 EPX g8 @@1,2,0 E90,100,70,1,6 EP-4,0,0,1,3 P20,11,2 V4 O2 > d4 f8 _V-2 f8 ) f8 _V-2 f8 ) f8 ) f4 O2 V5 @1 EP-8,0,0,2,0 E80,100,70,2,5 @@2,3,1 P12,9,13 r32 YLR [ c8 d+8 _V-4 d+8 _V4 g4 _V-4 g4 _V-2 g8 _V6 ]2 r8. r32 YLR < b8 _V-2 b8 _V2 b8 _V-2 b8 _V2 b8 _V-2 b16. r32 _V2 EP-30,0,0,12,0 P23,9,11 b4 _V-3 b4 EPX @1 P0,9,13 ) b4 ) b4 ) D-2 r16 _V2 > > @@1,3,1 PX E80,100,50,5,15 g16 B31 EPX~ c16~ c4. r4 r8. D0 B1 
!2  L YLR @@1,2,0 E90,100,70,1,6 EP-8,0,0,1,3 P20,11,5 V6 [ O2 c8 d+8 _V-4 d+8 _V4 EP0,0,-12,5,11 E90,100,0,1,15 g2 r8 E90,100,70,1,6 EP-8,0,0,1,3 _V4 YLR ]2 c8 d+8 _V-4 d+8 _V4 EP0,0,-12,5,11 E90,100,0,1,15 g2 r8 E90,100,70,1,6 EP-8,0,0,1,3 _V6 YLR V10 O3 O3 c8 d+8 _V-6 d+8 _V6 EP0,0,-8,5,11 E90,100,20,1,15 g4 YL. _V-6 g4 r8 E90,100,70,1,6 EP-8,0,0,1,3 _V6 YLR @@1,2,0 E90,100,70,1,6 EP-8,0,0,1,3 P20,11,5 V10 O3 g8 > c8 _V-6 c8 _V6 < a+8 _V-6 a+8 _V6 g8 _V-6 g8 _V6 d+8 f8~ d+8~ f8~ d+8 < g8 a+4 _V-6 a+8 _V6 > EP0,0,-24,4,10 c6 _V-4 c6 ( c6 ( c6 ( c6 r6 _V7 @@1,3,0 E100,60,30,4,5 EPX O2 V6 [ YLR d+4 _V-2 Y.R d+8 ) YL. d+8 ) ]2 YLR O2 V8 YLR EP-8,0,0,2,0 E80,100,70,2,5 @@2,3,1 P12,9,13 c4 d+8 g4. _V-6 Y.R g4 YLR _V6 c8 c8 d+8 g4. _V-6 YL. g8 YLR _V6 f8~ f8 f8 f8 f8 d4 < a+8 > c8~ c2. _V-6 Y.R c8 r8 YLR O2 V8 YLR EP-8,0,0,2,0 E80,100,70,2,5 @@2,3,1 P12,9,13 YLR c4. c2 P0,9,13 _V-6 c8 _V6 P12,9,13 c8 g8 r8 d+2 P0,9,13 _V-6 d+8 _V6 P12,9,13 f8 f8 P0,9,13 _V-4 Y.R f8 _V4 P12,9,13 YLR f4 _V-4 P0,9,13 YL. f8 _V4 P12,9,13 YLR g+8 r8 g2 _V-4 P0,9,13 g4 _V-2 g4 _V6 O2 V8 YLR EP-8,0,0,2,0 E80,100,70,2,5 @1 @@2,3,1 P12,9,13 g8 g8 g8 f8 g8 g8 g8 f8 g8 g8 g8 g8 a+8 > c4 P0,9,13 EPX @@X EX _V-4 YL. c8 < _V4 EP-20,0,0,2,0 E80,100,70,2,5 @@2,3,1 P12,9,13 YLR g4 _V-4 P0,9,13 EPX @@X EX Y.R g4 _V-2 YL. g4 _V-2 Y.R g4 O2 V6 EPX PX YL. @@1,3,0 E100,60,30,4,5 EPX O2 V6 [ YLR d+4 _V-2 Y.R d+8 ) YL. d+8 ) ]2 O2 V8 YLR EP-8,0,0,2,0 E80,100,70,2,5 @@2,3,1 P12,9,13 f8 f8 f8 _V-2 f8 _V2 f8 _V-2 f8 _V2 d+8 c8 _V-6 r8 _V4 f8 f8 _V-2 f8 _V2 f6 g+6 > _V-2 c6 PX EP0,0,-40,5,8 _V2 d4 _V-2 Y.R d4 YL. ( d4 Y.R ( d4 _V4 `2E63 EX V4 YLR D0 @@1,3,0 r2 g24~ g+24~ a24~ a+24~ b24~ ) O4~ c24~ c+24~ d24~ d+24~ e24~ f24~ f+24 O2 V8 YLR EP-8,0,0,2,0 E80,100,70,2,5 @@2,3,1 P12,9,13 g8 > d+8 _V-4 Y.R d+8 _V4 YLR c4. YL. _V-4 c8 r8 _V4 < YLR a+4. > c4. YL. _V-4 c8 _V4 YLR d8~ d8 d8 YL. _V-4 d8 _V4 YLR d8 d8 c4 < a+2 _V-4 Y.R a+8 _V4 O2 V6 EPX PX YL. @@1,3,0 E100,60,30,4,5 EPX O2 V6 > YLR d4 _V-2 Y.R d8 ) YL. d8 ) O2 V8 YLR EP-8,0,0,2,0 E80,100,70,2,5 @@2,3,1 P12,9,13 g+8 g+8 _V-6 g+8 _V6 g+8~ g+4 _V-6 g+8 r8 _V6 g+8 g+8 g+8 g+8~ g+4 _V-6 g+8 r8 O2 V8 YLR EP-8,0,0,2,0 E80,100,70,2,5 @@2,3,1 P12,9,13 g+8 g+8 g+8 g+8 > d+8 c4 EP-50,0,0,10,0 d2~ d2 EPX _V-4 d4 @@1,2,0 E90,100,70,1,6 EP-8,0,0,1,3 P20,11,5 V6 O3 g8 _V-4 g8 _V4 g8 _V-4 g8 _V2 f8 _V2 EP-8,0,-34,1,11 E90,100,20,1,12 g4 O2 V8 YLR @1 EP-8,0,0,2,0 E80,100,70,2,5 @@2,3,1 P12,9,13 [ c8 d+8 _V-4 d+8 _V4 g4 _V-4 g4 _V-2 g8 _V6 ]2 _V2 r4 g8 _V-2 g8 _V2 g8 _V-2 g8 _V2 g8 _V-2 g8 _V2 EP-30,0,0,12,0 P23,9,11 g4 _V-3 g4 EPX @1 P0,9,13 ) g4 ) g4 ) _V2 > @@2,3,1 PX E80,100,50,5,15 g16 V8 B31 EPX~ c16~ c4. r2 B1 
!3  L V3 O1 `9F00 `2E63 @A3 `AE00 E100,95,90,12,0 EP-12,0,0,3,0 O1 [ c4 _V-2 c8 ) c8 ) ]4 c4 ( c8 ) c4 ( c4 r8 ) c8 c8 ( c8 ) c4 ( c4 r8 ) EX c8 c8 ( c8 ) g8 _V-2 g8 > _V2 c8 _V-2 c8 < ) a+8 V3 g+4 V2 g+8 V1 g+8 V3 g4 V2 g8 V1 g8 E100,95,90,12,0 V3 c4 _V-2 c8 ) c8 ) g4 ( g8 ) g8 ) V3 c8 c8 _V-2 c8 ) c8 ) g4 ( g8 ) g8 ) [ V3 c4 _V-2 c8 ) c8 ) c4 _V-2 c8 ) c8 ) ]2 < V3 a+4 _V-2 a+8 ) a+8 ) a+4 _V-2 a+8 ) a+8 ) > V3 c4 _V-2 c8 ) c8 c8 ) g8 _V-2 g8 ) g8 ) [ V3 c4 _V-2 c8 ) c8 ) c4 _V-2 c8 ) c8 ) ]2 < V3 f4 _V-2 f8 ) f8 ) f8 _V-2 f8 _V2 d+8 _V-2 d+8 V3 d4 _V-2 d8 ) d8 ) g8 _V-2 g8 _V2 f8 _V-2 f8 _V2 > V2 d+4 r8 d+8 < a+4 r8 a+8 d+4 r8 d+8 d+4 r8 d+8 c4 r8 c8 g4 r8 g8 c4 r8 c8 g4 r8 g8 f4 r8 f8 c4 r8 c8 f4 r8 f8 f4 r8 f8 g4 r8 g8 g4 r8 g8 < g8 f8 ( f8 ) g+8 ( g+8 ) b8 ( b8 > ) d8 E100,95,90,12,0 [ V3 c4 _V-2 c8 ) c8 ) c4 _V-2 c8 ) c8 ) ]2 < [ V3 a+4 _V-2 a+8 ) a+8 ) a+4 _V-2 a+8 ) a+8 ) ]2 [ V3 g+4 _V-2 g+8 ) g+8 ) g+4 _V-2 g+8 ) g+8 ) ]2 V3 g+4 _V-2 g+8 ) g+8 ) g+8 g+8 _V-2 g+8 ) g+8 ) g8 _V-2 r8 _V2 g8 _V-2 g8 _V2 g8 _V-2 r8 _V2 g8 _V-2 g8 _V2 g8 g8 _V-2 g8 _V2 g8 _V-2 g8 _V2 f8 EP-100,0,0,12,0 g4 EPX @A3 E100,95,90,12,0 EP-30,0,0,3,0 O1 V2 [ c4 r8 c8 ]4 [ g8 ( g8 ) ]3 d8 d8 g4 g8 d8 g8 g8 g8 g8 c4 r8 c8 g4 r8 g8 
!4  L @1 x8 @6 x8 @5 x8 @1 x8 @5 x8 @1 x8 @5 x8 @6 x8 @1 x8 @1 x8 @5 x8 @1 x8 @6 x8 @1 x8 @5 x8 @6 x8 @1 x8 @6 x8 @5 x8 @1 x8 @5 x8 @1 x8 @5 x8 @6 x8 @1 x8 @1 x8 @5 x8 @1 x8 @6 x8 @1 x8 @5 x8 @6 x8 @1 x8 @6 x8 [ @5 x8 @6 x8 ]7 @1 x8 @6 x8 @5 x8 @1 x8 @5 x8 @1 x8 @5 x8 @6 x8 @1 x8 @1 x8 @5 x8 @1 x8 @6 x8 @1 x8 @7 x4 [ @5 x8 @6 x8 @5 x8 @6 x8 @5 x8 @6 x8 @5 x8 @6 x8 ]7 @5 x8 @6 x8 @5 x8 @6 x8 @5 x8 @6 x8 @5 x8 @7 x8 [ @5 x8 @6 x8 @5 x8 @6 x8 @5 x8 @6 x8 @5 x8 @6 x8 ]6 @5 x8 @6 x8 @5 x8 @6 x8 @5 x8 @6 x8 @7 x4. @8 x4 x4 x4. @1 x4 @7 x4 [ @5 x4 @8 x4 ]14 @5 x8 @6 x8 @7 x4 @8 x4 @6 x4 x4 x4 @1 x8 @6 x8 @5 x8 @1 x8 @5 x8 @6 x8 @5 x8 @6 x8 @1 x8 x8 @6 x8 @1 x8 @5 x8 @1 x8 @7 x4 [ @5 x8 @6 x8 ]7 @7 x4 @8 x4. @6 x8 @5 x8 @7 x8 @7 x4 
!5  L O2 YLR V0 [ @9 W0,58,38 c8 d+8 r8 @3 O1 g4. r4 > ]2 V1 @9 W0,58,38 c8 d+8 r8 @3 O1 g4. r4 > @3 V1 c8 d+8 r8 g4 r4. O2 V1 g8 > c8 V0 c8 V1 < a+8 V0 a+8 V1 g8 r8 d+8 V1 f8 d+8 V1 f8 d+8 < g8 a+4 V0 a+8 V1 > c4 r2. @4 V0 Y.R c8 V1 c4. YL. < g8 ( Y.R g8 Y.R V1 g16 V0 g16 g16 g16 > YLR [ @0 V1 c4 @1 c8 @0 c4 V0 c8 V1 @1 c4 @0 V1 c8 V0 c8 V1 @1 c8 @0 c4 c8 @1 V0 c4 ]6 @0 V1 c4 @1 c8 @0 c4 V0 c8 V1 @1 c4 @0 V1 c8 V0 c8 V1 @1 c8 @0 c4 c8 @1 V0 c4 @0 V1 c4 @1 c8 @0 c4 V0 c8 V1 @1 c8 V0 c24 c24 c24 @1 V1 c8 @4 < V1 g4 g4 g4 V0 g8 V1 @4 > c4 V0 @1 c4 [ @0 c4 @1 c4 ]14 @0 c8 @1 c8 V1 c4 c8 @2 Y.R d+4 YLR c4 < YL. g+8 g+4 > @4 Y.R c4 @0 YLR V1 c8 < YL. @4 g4. YLR > @1 c4 @4 Y.R c8 c8 @0 YLR V1 c8 < @4 YL. g4 YLR > @0 c8 @1 c4 @0 c4 @1 c8 @0 c4. @1 c4 @0 c8 c8 @1 c8 @0 c4 @1 c8 @1 c4 @0 c8 c8 @1 c8 @0 c4 @1 V0 c8 V1 c4 
!6  L O2 V1 @4 Y.R c4 YLR @1 c8 @4 < YL. g4. YLR > @1 c4 @4 V0 Y.R c8 V1 c8 YLR @1 c8 @4 < YL. g4. YLR > @1 c4 V1 @4 Y.R c4 @1 YLR c8 @4 < YL. g4. YLR > @1 c4 @4 V0 Y.R c8 V1 c8 YLR @1 c8 @4 < YL. g4. YLR > @1 c8 YL. @4 V0 < g8 @4 > V1 Y.R c4 YLR @1 c8 V0 @0 c4 V1 c8 @1 c4 @0 c4 @1 c8 @0 V0 c8 V1 c4 @1 c4 V1 @4 Y.R c4 YLR @1 c4 @4 < YL. g4 YLR > @1 c4 @0 V1 c8 V0 c8 V1 @1 c8 @0 c4 @1 V0 c8 V1 c4 @4 c6 V0 Y.R c6 YL. c6 r2 r1 r1 r1 @9 W0,58,38 YLR O2 V1 g4. g8 g8 V1 f8 V0 f8 V1 d+8 g4 < d+16 r8. d+8 g8 r8 a+8 > c4 r8 c8 V1 c8 d+8 r8 V1 c8 d4. V1 d8 f8 g4. V1 a+8 a+8 V0 a+8 r8 V1 a+8 a+8 V0 r8 V1 a+8 V0 O1 r2 d+8 g8 r8 c4. r4 O3 V1 c8 c8 V0 c8 r8 V1 c8 c8 r8 O1 V0 c8 c8. d+8. g8 V1 O3 V1 c4 V0 c8 r8 V1 c4 V0 c8 c8 V0 O2 V1 r4 g+8 r8 g+8 @3 W0,33,6 O2 c4 f8 V1 @3 g4 Y.R V0 g4 YL. g4 Y.R g4 V1 YLR @3 O1 g+8 f8 V0 g+8 V1 g8 V0 f8 V1 b8 V0 g8 O2 @3 V1 d8 V1 @13 g6 V0 YL. g12 YLR @43 V0 W0,98,0 g1 r8 V1 @13 g6 Y.R V0 g12 YLR V1 f6 Y.R V0 YL. f12 d+8 YLR V1 f6 Y.R V0 f12 YLR @43 V0 W0,98,0 f1 r8 V1 @13 O1 a+6 YL. a+12 @14 YLR V1 > d6 Y.R V0 d12 V1 YLR f8 V1 d+6 V0 YL. d+12 YLR @43 W0,98,0 V0 d+4 d+8. d8. c8 d+4 r8 @14 V1 O2 d+6 Y.R V0 d+12 V1 YLR d6 YL. V0 d12 YLR V1 c8 @43 W0,98,0 V0 d+4 r8 d+8 d+8 f4 g8 V0 O2 @14 W0,33,6 g2.~ g8 @3 V1 g8 r8 [ g8 r8 ]2 f8 @14 g4 @9 V1 O2 [ c8 d+8 r8 g4 r4. ]2 r4 @3 O1 [ V1 g8 V0 g8 ]4 YLR @3 O2 V1 d8 g8 V0 g8 V1 f8 g8 V0 g8 V1 O3 c6 V0 Y.R c6 YL. c6 YLR < r2 
