;016 001ABB7E
!1  T92 r4 L [ O3 V7 YLR @@4,0,1 `2E1E E100,80,100,1,1 EP-10,-5,0,1,1 d+12 _V-2 Y.R d+12 _V-2 d+12 _V4 YLR d+12 _V-2 YL. d+12 _V-2 d+12 V5 E40,100,80,1,3 P0,5,10 O1 @0 `2E0A YLR c16 _V-2 c16 _V2 c16 _V-2 c16 _V2 d+16 `2E63 f8. PX ]2 O3 V7 YLR @@4,0,1 `2E1E E100,80,100,1,1 EP-10,-5,0,1,1 f12 _V-2 Y.R f12 _V-2 f12 _V4 YLR f12 _V-2 YL. f12 _V-2 f12 V5 E40,100,80,1,3 P0,5,10 O1 @0 `2E0A YLR f16 _V-3 f16 _V3 f16 _V-3 f16 _V3 g+16 `2E63 a+8. PX O3 V8 Y.R @@2,0,1 E100,80,100,1,1 D2 EPX r8 [ c32 _V-5 c32 _V5 ]2 c16 _V-5 c16 _V5 < B1 a+16~ > c16 E50,80,100,12,6 c8 PX E95,100,80,1,3 YLR D0 < e32 _V-5 e32 _V5 [ YLR e16. _V-5 YL. e32 _V5 ]2 YLR e32. _V-5 e64 _V5 e16. r32 r8 @@2,0,1 E100,100,60,3,1 `2E63 YLR EP-10,-5,0,1,1 D2 > a+16 g+16 _V-5 Y.R g+16 _V5 YLR f16~ f16 _V-5 f16 r4. r2 D3 @@4,0,1 EX O2 Y.R V4 f16. _V-2 f32 _V2 f32 _V-2 f32 _V2 f16 _V-2 f16 _V2 D0 E80,40,90,6,6 P18,9,10 EP-30,-10,0,5,5 YLR V7 < a8. EX EPX > c16 _V-4 Y.R c16 _V4 D3 Y.R @@4,0,1 EP-10,-5,0,1,1 EX V5 f16 _V-2 f16 _V2 g+8 f16 c16 [ d+32 _V-2 d+32 _V2 ]3 d+16 f16 O3 V7 YLR @@4,0,1 E100,80,100,1,1 c32 _V-4 c32 _V4 D0 c16. r32 V5 YLR c32 r32 c16 r16 c8. Y.R _V-3 c16 YL. c16 D3 @@4,0,1 EX O2 Y.R V5 f32 _V-2 f32 _V2 f16 _V-2 f16 _V2 [ f32 _V-2 f32 _V2 ]2 D0 E100,100,90,1,1 P18,9,10 EP-30,-10,0,5,5 YLR V7 < a8. EX EPX > c16 _V-4 Y.R c16 _V4 D3 Y.R @@4,0,1 EP-10,-5,0,1,1 EX V5 f16 _V-2 f16 _V2 g+8 f16 c16 d+16 _V-2 d+16 _V2 d+16 f16 _V-2 f16 D0 O3 V5 YLR @@4,0,1 E100,80,100,1,1 c32 _V-3 c32 _V3 d+16. r32 YLR f32 r32 d+16 r16 c8. Y.R _V-3 c16 YL. c16 D3 @@4,0,1 EX O2 Y.R V5 r8 EP-30,-10,0,12,6 P18,9,10 a+4 EPX g+16 f16 g+16 a+16 g+16 a+16. _V-2 a+32 D0 YLR @@4,0,1 E100,80,100,1,1 V6 g+16 _V-4 g+16 _V4 g+32 r32 g+16 _V-4 g+16 D3 @@4,0,1 EX O2 Y.R V5 [ f16 _V-2 f16 _V2 ]3 EP-30,-15,0,6,6 g+16 EPX _V-3 g+16 _V3 g+16 f8 D0 YLR @@4,0,1 E100,80,100,1,1 V6 g+32 _V-4 g+32 _V4 g+8 a+16 _V-4 a+16 D3 @@4,0,1 EX P18,6,6 O2 Y.R V5 [ g16 _V-2 g16 _V2 ]3 > c8. _V-2 c16 _V2 [ c16 _V-2 c16 _V2 ]2 D0 YLR @@4,0,1 E100,80,100,1,1 O3 V6 [ c16 _V-4 c16 _V4 ]2 D3 @@4,0,1 EX O3 Y.R V5 c16 < a+16 _V-2 a+16 _V2 g+16 [ f16 _V-2 f16 _V2 ]2 YLR @@4,0,1 E100,80,100,1,1 O1 V6 r16 a16 D3 Y.R PX @@2,2,1 V6 E100,100,80,3,1 O2 r64. d32 ) e32 ) f32 g32 V7 a16 _V-4 a16 _V4 > c32 _V-5 c32 _V5 c32 _V-5 c32 _V5 d16 < a8 > P45,9,7 c16~ c4. _V-4 YL. c16 Y.R c16 _V4 EP-15,-10,0,3,3 f16 _V-5 EPX f16 _V5 e16 _V-5 e16 _V5 d32 r32 d16 _V-5 d16 _V5 < a16~ a4. _V-4 YL. a16 Y.R a16 _V4 g16. _V-5 g32 _V5 [ g32 _V-5 g32 _V5 ]2 [ d32 _V-5 d32 _V5 ]4 [ g32 _V-5 g32 _V5 ]4 P19,9,7 d8 _V-4 YL. d16 Y.R d16 _V4 [ e16 _V-4 e16 _V4 ]3 f16 _V-4 f16 _V4 g8 > d16 P30,9,7 c16~ c8 _V-4 YL. c16 Y.R c16 _V4 EP-10,-5,0,3,3 d16 EPX c16 d16 c16 < a16 > c8 < f16~ f4. _V-4 YL. f16 _V4 r32 r128 D0 YLR O1 E95,100,100,1,1 a16 _V-4 a16 _V4 > d16 _V-4 d16 _V4 f8 _V-4 Y.R f16 YL. f16 _V4 YLR f16 a16 _V-4 a16 _V3 f32 _V-4 f32 _V4 f8 _V-4 Y.R f16 YL. f16 _V4 YLR g16 _V-4 g16 _V4 g8 d16 _V-4 d16 _V4 d8 e16 r16 P24,9,10 e8~ e16 r16 e16 _V-4 e16 _V2 E100,80,60,39,39 D3 f2~ f4. r8 
!2  r4 L [ O3 V7 YLR @@4,0,1 `2E1E E100,80,100,1,1 EP-10,-5,0,1,1 f12 _V-2 Y.R f12 _V-2 f12 _V4 YLR f12 _V-2 YL. f12 _V-2 f12 V6 E100,80,80,3,0 P0,6,3 O2 @0 `2E0A YLR c16 _V-3 c16 _V3 c16 _V-3 c16 _V3 d+16 `2E63 f8. PX ]2 O3 V7 YLR @@4,0,1 `2E1E E100,80,100,1,1 a+12 _V-2 Y.R a+12 _V-2 a+12 _V4 YLR a+12 _V-2 YL. a+12 _V-2 a+12 V6 E100,80,80,3,0 P0,6,3 O2 @0 `2E0A YLR f16 _V-3 f16 _V3 f16 _V-3 f16 _V3 g+16 `2E63 a+8. PX O3 V8 YL. @@2,0,1 E100,80,100,1,1 P12,9,9 EPX r8 [ c32 _V-5 c32 _V5 ]2 c16 _V-5 c16 _V5 < B1 a+16~ > c16 E50,80,100,12,6 c8 PX E95,100,80,1,3 YLR < a+32 _V-5 a+32 _V5 [ YLR a+16. _V-5 YL. a+32 _V5 ]2 YLR a+32. _V-5 a+64 _V5 a+16. r32 r8 @@2,0,1 E100,100,60,3,1 `2E63 YLR EP-10,-5,0,1,1 a+16 g+16 _V-5 Y.R g+16 _V5 YLR f16~ f16 _V-5 f16 r4. r2 @@4,0,1 E100,100,80,1,1 O2 YLR V8 f16. _V-4 f32 _V4 f32 _V-4 f32 _V4 f16 _V-4 f16 _V4 E80,40,90,6,6 P18,9,10 EP-30,-10,0,5,5 V7 d+8. EX EPX d+16 _V-4 Y.R d+16 _V4 YLR @@4,0,1 EP-10,-5,0,1,1 E100,100,80,1,1 V8 f16 _V-4 f16 _V4 g+8 f16 c16 [ d+32 _V-4 d+32 _V4 ]3 d+16 f16 O3 V7 YLR @@4,0,1 E100,80,100,1,1 c32 _V-4 c32 _V4 d+16. r32 YLR V5 d+32 r32 d+16 r16 d+8. Y.R _V-3 d+16 YL. d+16 @@4,0,1 E100,100,80,1,1 O2 YLR V8 f32 _V-4 f32 _V4 f16 _V-4 f16 _V4 [ f32 _V-4 f32 _V4 ]3 f8 E80,40,90,6,6 P18,9,10 EP-30,-10,0,5,5 V7 d+16 _V-4 Y.R d+16 _V4 YLR @@4,0,1 EP-10,-5,0,1,1 E100,100,80,1,1 V8 f16 _V-4 f16 _V4 g+8 f16 c16 d+16 _V-4 d+16 _V4 d+16 f16 _V-4 f16 O3 V5 YLR @@4,0,1 E100,80,100,1,1 EPX d+32 _V-3 d+32 _V3 f16. r32 YLR g+32 r32 f16 r16 d+8. Y.R _V-3 d+16 YL. d+16 @@4,0,1 E100,100,80,1,1 O2 YLR V8 r8 EP-30,-10,0,12,6 P18,9,10 a+4 EPX g+16 f16 g+16 a+16 g+16 a+16. _V-4 a+32 YLR @@4,0,1 E100,80,100,1,1 V6 a+16 _V-4 a+16 _V4 a+32 r32 a+16 _V-4 a+16 @@4,0,1 E100,100,80,1,1 O2 YLR V8 [ f16 _V-4 f16 _V4 ]3 EP-30,-15,0,6,6 g+16 EPX _V-5 g+16 _V5 g+16 f8 YLR @@4,0,1 E100,80,100,1,1 V6 a+32 _V-4 a+32 _V4 a+8 > c16 _V-4 c16 @@4,0,1 E100,100,80,1,1 P18,6,6 O2 YLR V8 [ g16 _V-4 g16 _V4 ]3 > c8. _V-4 c16 _V4 [ c16 _V-4 c16 _V4 ]2 YLR @@4,0,1 E100,80,100,1,1 O2 V6 [ a+16 _V-4 a+16 _V4 ]2 @@4,0,1 E100,100,80,1,1 O3 YLR V8 c16 < a+16 _V-4 a+16 _V4 g+16 [ f16 _V-4 f16 _V4 ]2 YLR @@4,0,1 E100,80,100,1,1 O2 V6 r16 c16 YLR PX @@2,2,1 V6 E100,100,80,3,1 O2 d32 ) e32 ) f32 g32 V9 a16 _V-4 a16 _V4 > c32 _V-5 c32 _V5 c32 _V-5 c32 _V5 d16 < a8 > P45,9,5 c16~ c4. _V-4 YL. c16 Y.R c16 _V4 EP-15,-10,0,3,3 YLR f16 _V-5 EPX f16 _V5 e16 _V-5 e16 _V5 d32 r32 d16 _V-5 d16 _V5 < a16~ a4. _V-4 YL. a16 Y.R a16 _V4 YLR g16. _V-5 g32 _V5 [ g32 _V-5 g32 _V5 ]2 [ d32 _V-5 d32 _V5 ]4 [ g32 _V-5 g32 _V5 ]4 P19,9,5 d8 _V-4 YL. d16 Y.R d16 _V4 YLR [ e16 _V-4 e16 _V4 ]3 f16 _V-4 f16 _V4 g8 > d16 P30,9,5 c16~ c8 _V-4 YL. c16 Y.R c16 _V4 YLR EP-10,-5,0,3,3 d16 EPX c16 d16 c16 < a16 > c8 < f16~ f4. _V-4 YL. f16 Y.R f16 _V4 YLR O2 V9 E95,100,100,1,1 d16 _V-4 d16 _V4 f16 _V-4 f16 _V4 a8 _V-4 Y.R a16 YL. a16 _V4 YLR a16 > d16 _V-4 d16 _V3 < a32 _V-4 a32 _V4 a8 Y.R a16 YL. a16 YLR a+16 _V-4 a+16 _V4 a+8 a16 _V-4 a16 _V4 a8 g16 r16 > P24,9,8 c8~ c8 < a16 _V-4 a16 _V4 E100,80,60,39,39 f2~ f4. r8 
!3  `9F00 `AE00 @A3 EP-20,-10,0,1,1 r4 L `9F00 `AE00 @A3 EP-20,-10,0,1,1 E100,100,70,3,1 V3 O0 [ f8 r16 f32 r32 f8 r16 f32 r32 ]3 f8 r16 f16 f4 a+8 r16 a+32 r32 a+8 r16 f32 r32 a+8 r16 a+32 r32 a+8 r16 a+32 r32 [ > c8 r16 c32 r32 c8 r16 < g32 r32 ]2 > c8 r16 c32 r32 c8 r16 c32 r32 < f8 r16 f32 r32 f8 r16 f32 r32 f16 r16 f16 g+16. r32 a+16. r32 > c16 < [ [ f8 r16 f32 r32 f8 r16 f32 r32 ]3 f16 f16 r16 f8. r16 f16 ]2 a+8 r16 a+32 r32 a+8 r16 f32 r32 a+8 r16 a+32 r32 r16 a+32 r32 f8 a+8 r16 a+32 r32 a+8 r16 a+32 r32 a+8 r16 a+8 f16 a+16 r16 > [ c8 r16 c32 r32 c8 r16 < g32 r32 > ]2 c8 r16 c32 r32 c8 r16 c32 r32 < f8 r16 f32 r32 f8 r16 > c32 r32 < O1 f8 r16 c32 r32 f8 c8 a8 r16 e8 r16 r16 e16 d8 r16 d32 r32 d8 < a8 > [ d8 r16 d32 r32 ]2 g8 r16 g32 r32 g8 r16 d16 g8 r16 g16~ g16 d16 g8 c8 r16 c32 r32 c4 g8 r16 c16~ c8 r16 c32 r32 g8 r16 g32 r32 c8 r16 c32 r32 f8 r16 f32 r32 c8 f8 d8 r16 d32 r32 d16 r16 < a8 > d8 r16 d8 e16 f8 g8 r16 g32 r32 d8 r16 d32 r32 [ c8 r16 c32 r32 ]2 f8 r16 f32 r32 f8 r16 c32 r32 f32 r32 d8 c16~ c8 f16 r16 
!4  r4 L [ [ @5 x8 @7 x8 ]2 ]10 @5 [ x8 ]2 @7 [ x8 ]2 @8 x8 @5 x16 x16 @5 x16 x16 x16 x16 [ [ @5 x16 x16 x16 x16 ]2 ]7 [ [ @5 x16 x16 x16 x16 ]2 ]7 @5 x16 x16 x16 x16 @7 x16 @5 x16 @7 x16 @5 x16 @8 x8 @5 x16 x16 @5 x16 x16 x16 x16 [ [ @5 x16 x16 x16 x16 ]2 ]9 @8 x8 @5 x16 x16 @5 x16 x16 x16 x16 [ [ @5 x16 x16 x16 x16 ]2 ]4 @5 x16 x16 x16 x16 x16 x16 @7 x8 
!5  @4 V0 c16 ) c16 ( YL. c16 < YLR ) g16 L O1 @4 f8 O2 @1 c8 @0 c16 ( c16 ) @1 c8 @0 c16 ( c16 ) @1 c16 @0 c16 r16 ( c16 ) @1 c16 @4 O1 f16 > c8 O2 @1 c8 @0 c16 ( c16 ) @1 c8 @0 c16 ( c16 ) @1 c16 @0 c16 r16 ( c16 ) @1 c16 @4 O1 f16 a+8 O2 @1 c8 @0 c16 ( c16 ) @1 c8 @0 c16 ( c16 ) @1 c16 @0 c16 r16 ( c16 ) @1 c16 @4 O1 g16 > c8 O2 @1 c16 @0 c16 r16 ( c16 ) @1 c8 @0 c16 ( c16 ) @1 c16 @0 c16 r16 ( c16 ) @1 c8 @0 c16 ( c16 ) @1 c16 @0 c16 r16 ( c16 ) @1 c8 @0 c8 @1 c8 @0 c16 ( c16 ) @1 c8 @0 c16 ( c16 ) @1 c16 @0 c16 r16 ( c16 ) @1 c32 ( c32 ) c16 @0 c8 @1 c8 @0 c16 ( c16 ) @1 c8 @0 c16 ( c16 ) @1 c16 @0 c16 r16 ( c16 ) @1 c8 @0 c8 @1 c8 @0 c16 ( c16 ) @1 c8 @1 c16 ( @1 c16 ) @0 x16 @1 c8 ( @1 c16 ) @1 c32 ( @1 c32 @0 c16 ) @0 c8 @1 c8 @0 c16 ( c16 ) @1 c8 @0 c16 ( c16 ) @1 c16 @0 c16 r16 ( c16 ) @1 c8 @0 c8 @1 c8 @0 c16 ( c16 ) @1 c8 @0 c16 ( c16 ) @1 c16 @0 c16 r16 ( c16 ) @1 c16 ( c16 ) @0 c8 @1 c8 @0 c16 ( c16 ) @1 c8 @0 c16 ( c16 ) @1 c16 @0 c16 r16 ( c16 ) @1 c8 @0 c8 @1 c8 @0 c16 ( c16 ) @1 c8 @0 c16 ( c16 ) @1 c16 @0 c16 r16 ( c16 ) @1 c16 ( c16 ) @0 c8 @1 c8 @0 c16 ( c16 ) @1 c8 @0 c16 ( c16 ) @1 c16 @0 c16 r16 ( c16 ) @1 c8 @1 c16 @0 c16 @1 c16 @0 c16 @0 c16 ( c16 ) @1 c8 @0 c16 ( c16 ) @1 c16 @0 c16 r16 @2 c16 < a32 > r32 @1 c32 ( c32 ) [ @0 c8 @1 c8 @0 c16 ( c16 ) @1 c8 @0 c16 ( c16 ) @1 c16 @0 c16 r16 ( c16 ) @1 c8 @0 c8 @1 c8 @0 c16 ( c16 ) @1 c8 @0 c16 ( c16 ) @1 c16 @0 c16 r16 ( c16 ) @1 c16 ( c16 ) ]2 [ @0 c8 @1 c8 @0 c16 ( c16 ) @1 c8 @0 c16 ( c16 ) @1 c16 @0 c16 r16 ( c16 ) @1 c16 ( c16 ) ]3 @0 c8 @1 c8 @0 c16 ( c16 ) @1 c8 @0 c16 ( c16 ) @1 c16 @0 c16 r16 ( c16 ) @1 c16 @4 O1 c16 
!6  r4 L [ @5 O2 V1 YLR c8 ( YL. c8 ) YLR c8 ( Y.R c8 ) YLR @48 W0,90,10 YL. V1 c16 V0 c16 V1 c16 V0 c16 V1 d+16 f8. ]2 @5 O2 V1 YLR c8 ( YL. c8 ) YLR c8 ( Y.R c8 ) YLR @48 W0,90,10 YL. V1 f16 V0 f16 V1 f16 V0 f16 V1 g+16 a+8. r2 YLR @14 V1 O2 r8 c16 c16 YL. V0 c16 YLR V1 c16 YL. V0 c16 YLR V1 c16 c8 YL. V0 c8 YLR V1 O1 a+16 g+16 YL. V0 g+16 YLR V1 @3 W0,30,5 f16~ f16 r16 O1 @4 f16 > c8 YL. c16 Y.R c16 YLR < f8 f16 f16 V0 YL. f16 V1 YLR f16 > c8 V0 Y.R c32 YL. c32 YLR V1 @14 W0,45,10 O1 r4 r16 g+8. f16 Y.R V0 f16 V1 YLR r4. r4 r16 @3 W0,33,6 O2 c32 r32 d+8 f16 f16 r16 f8. V0 Y.R f16 YL. f16 V1 YLR O1 r4 r16 g+8. f16 Y.R V0 f16 V1 YLR r4. r4 r16 @3 W0,33,6 O2 f32 r32 g+8 a+16 g+16 r16 f8. V0 Y.R f16 YL. f16 @13 YLR O2 V1 r2 r4 r16 f8 f16 f8 r4. r4 r16 f16 f8 g8 r4. r2 @14 O3 c8 c8 r4 < r8 f16 r16 r16 W0,30,10 f8. @40 W0,95,0 O2 V1 c2~ c8 < a8 > c8 e8 d2~ d2 @15 W0,75,42 O1 YL. r8 g8 a+16 > d16~ d8 g8 @3 W0,33,6 O2 Y.R d8 g16 f8 d16 @3 e8 V0 e8 V1 @15 W0,75,42 O1 YL. a+16 > d8. f8. e16 Y.R V0 e16 V1 @14 O2 YLR c16 r16 c16 @40 W0,95,0 O2 a+4 a4 f8 @3 O2 YLR c32 r32 c8 d16 f16 d16 f8 Y.R V1 f8 V1 r16 YLR @13 O1 a16 Y.R V0 a16 YLR V1 a16 a8 r8 r16 a16 Y.R V0 a16 YLR V1 a16 @14 g8 YL. V0 g8 YLR V1 f8 YL. V0 f8 YLR V1 @14 e16 r16 @14 W0,45,10 > c4 < @14 a16 r16 @14 W0,45,10 f8 @3 O2 f32 r32 f16 Y.R V1 f16 YLR V1 d16 YL. V1 d16 YLR V1 c16 d16 < f16 Y.R V1 f16 YLR V1 f8. V1 Y.R f16 YL. f16 
