;017 001ACC5E
!1  T90 T84 E80,100,70,4,15 @@4,2,0 P15,9,4 EP-4,0,0,1,0 YLR V4 O2 g+16 > c4 _V-2 c8 _V2 < g+16. > c32 d+4 _V-2 d+8 _V2 c16 d+16 f16 c8 f16 g16 d+8 g16 e12 _V-2 e12 e12 _V2 g8. L @1 EP-2,0,0,3,0 EX P20,8,6 V4 O2 D-2 Y.R c16. f8 _V-2 f16 _V2 c16 g+8. _V-2 g+16 _V2 a+16 g+16 g16 f16 g8 c16 _V-2 c16 _V2 e8 _V-2 e16 _V2 c16 a+8. _V-2 a+16 _V2 g+8 g16 _V-2 g16 _V2 f16. D0 E80,100,70,4,15 @@4,2,0 P15,9,4 EP-4,0,0,1,0 YLR V6 O3 c16 _V-4 c16 @1 EP-2,0,0,3,0 EX P20,8,6 V4 O2 D-2 r32 Y.R g8 _V-2 g16 _V2 f16 g8 g+16 _V-2 g+16 _V2 a+8 g+8 g8. _V-2 g16 _V2 f8 f8 g+8 a+8 > c4. _V-2 c8 _V2 c+8 _V-2 c+16 _V2 c16 < a+16. E80,100,70,4,15 @@4,2,0 P15,9,4 EP-4,0,0,1,0 YLR V6 O3 D0 c+16 _V-4 c+16 @1 EP-2,0,0,3,0 EX P20,8,6 O2 V4 Y.R D-2 g+16. g+8 f16 > c16. E80,100,70,4,15 @@4,2,0 P15,9,4 EP-4,0,0,1,0 YLR V6 O3 D0 c16 _V-4 c16 @1 EP-2,0,0,3,0 EX P20,8,6 O2 V4 Y.R D-2 a+32~ a+8 g+8 g8 _V-2 g16 _V2 f16 g4. _V-2 g8 _V2 g+8 _V-4 g+16 _V4 g+16 g8 f8 a+8 > c16 _V-2 c16 _V2 c+16. E80,100,70,4,15 @@4,2,0 P15,9,4 EP-4,0,0,1,0 D0 YLR V6 O3 c+8 @1 EP-2,0,0,3,0 E100,60,70,3,15 P20,8,6 D-2 Y.R O3 V8 c32~ c8 < a+8 g8. > c16 < f4 _V-2 f16 r32 E80,100,70,4,15 @@4,2,0 P15,9,4 EP-4,0,0,1,0 D0 YLR V3 O3 a8 @1 EP-2,0,0,3,0 E100,60,70,3,15 P15,8,3 O3 V6 f8 _V-4 f16 _V4 f16 e8 d16 _V-4 d16 _V4 c16 c8 _V-2 c16 _V2 g8 E80,100,70,4,15 @@4,2,0 P15,9,2 EP-2,0,0,1,0 YLR V6 O3 e16 _V-4 e16 @1 EP-2,0,0,3,0 E100,60,70,3,15 P15,8,3 O3 V6 a+8 a+16 a16 f8 g16 g16 e8 E80,100,70,4,15 @@4,2,0 P15,9,2 EP-2,0,0,1,0 YLR V6 O3 e32 _V-4 e32 _V4 f32 _V-4 f32 _V4 g32 g32 _V-4 g32 _V4 a32 a+8 @1 EP-2,0,0,3,0 E100,60,70,3,15 P15,8,3 O3 V6 g8 _V-4 g16 _V4 g16 f8 e16 _V-4 e16 _V4 a+16 a8 f16 c8 _V-2 c16 _V-2 c16 _V4 e16 e16 a+16 a+16 g8 < a+8 a8 E80,100,70,4,15 @@4,2,0 P15,9,2 EP-2,0,0,1,0 YLR V6 O3 c16 f16 g16 a8 _V-4 @0 EPX a16 @1 EP-2,0,0,3,0 E100,60,70,3,15 P15,8,3 O3 V6 e16 _V-4 e16 _V4 e16 < g16 _V-4 g16 _V4 g16 > c16 _V-2 c16 _V2 g16 _V-4 g16 _V4 f16 e16~ e8 _V-2 e16 _V-2 e16 _V4 a8 _V-4 a16 _V4 f16 d8 c16 _V-4 c16 _V4 < a+8. _V-4 a+16 _V4 > d8. _V-4 d16 _V4 c16 _V-4 c16 _V4 c16 c16 e8 c16 _V-4 c16 < _V4 a4 _V-4 a8 r16 r16 E90,100,50,3,10 @@9,3,2 PX EPX O5 V6 [ Y.R c16 YL. c16 ]16 E90,100,80,4,15 @@4,2,0 P15,9,2 EP-2,0,0,1,0 YLR V6 O3 c+24 _V-2 c+24 _V-2 c+24 _V4 f12 _V-2 f24 _V2 f+24 _V-2 f+24 _V-2 f+24 _V4 f12 _V-2 f24 _V4 c+24 _V-2 c+24 _V-2 c+24 _V4 f12 _V-2 f24 _V2 f+24 _V-2 f+24 _V2 g+24 _V-2 g+24 _V2 a+24 _V-2 a+24 _V2 g24 _V-2 g24 _V-2 g24 _V4 e8 EPX @0 P0,9,2 EX _V-2 e16 _V-2 e16 ) e16 ) e16 _V2 E80,100,70,4,15 @@4,2,0 P15,9,2 EP-2,0,0,1,0 e16 _V-4 EPX @0 EX c16 E70,100,70,3,15 @@4,1,3 EPX PX D-2 V4 YL. O3 a+32 Y.R g+32 _V-2 g+32 _V2 YL. g32 _V-2 g32 Y.R _V2 f32 YL. d+32 _V-2 d+32 _V2 Y.R c+32 YL. c32 YLR 
!2  E80,100,70,4,15 @@4,2,0 P15,9,4 EP-4,0,0,1,0 YLR V8 O3 c16 f4 _V-4 f8 _V2 c16. f32 _V2 g4 _V-4 g8 _V2 d+16 g16 _V2 g+16 f8 _V-2 g+16 _V2 a+16 g8 _V-2 a+16 > _V2 c12 _V-2 c12 _V-2 c12 _V4 c8. L @1 EP-2,0,0,3,0 E100,60,70,3,15 P20,8,6 V8 O2 c16 _V2 f8 _V-6 f16 _V4 c16 _V2 g+8. _V-4 g+16 _V4 a+16 g+16 g16 f16 g8 c16 _V-2 c16 _V2 e8 _V-6 e16 _V4 c16 _V2 a+8. _V-4 a+16 _V4 @@2,3,1 g+32 _V-2 g+32 _V2 g+16 g16 _V-2 g16 _V2 f8 E80,100,70,4,15 @@4,2,0 P15,9,4 EP-4,0,0,1,0 YLR V6 O3 f16 _V-4 f16 @1 EP-2,0,0,3,0 E100,60,70,3,15 P20,8,6 O2 V10 g8 _V-4 g16 _V4 f16 g8 g+16 _V-4 g+16 _V4 a+8 g+16 _V-4 g+16 _V3 g8. _V-6 g16 _V6 f8 f8 g+8 a+8~ > c4. _V-6 c8 _V6 c+8 _V-4 c+16 _V4 c16 < a+8 E80,100,70,4,15 @@4,2,0 P15,9,4 EP-4,0,0,1,0 YLR V6 O3 f16 _V-4 f16 @1 EP-2,0,0,3,0 E100,60,70,3,15 P20,8,6 O2 V10 g+16 g+8 f16 > c8 E80,100,70,4,15 @@4,2,0 P15,9,4 EP-4,0,0,1,0 YLR V6 O3 f16 _V-4 f16 @1 EP-2,0,0,3,0 E100,60,70,3,15 P20,8,6 O2 V10 a+8 g+8 g8 _V-4 g16 _V4 f16 g4. _V-6 g8 _V6 g+8 _V-4 g+16 _V4 g+16 g8 f8 a+8 > c16 _V-4 c16 _V4 c+8 E80,100,70,4,15 @@4,2,0 P15,9,4 EP-4,0,0,1,0 YLR V6 O3 f8 @1 EP-2,0,0,3,0 E100,60,70,3,15 P20,8,6 O3 V10 c8 < a+8 g8. > c16 < f4 _V-4 f16 _V-2 f16 _V6 E80,100,70,4,15 @@4,2,0 P15,9,4 EP-4,0,0,1,0 YLR V6 O3 f8 @1 EP-2,0,0,3,0 E100,60,70,3,15 P15,8,3 O3 V10 a8 _V-4 a16 _V4 a16 g8 f16 _V-4 f16 _V4 e16 e8 _V-2 e16 _V2 > c8 E80,100,70,4,15 @@4,2,0 P15,9,4 EP-2,0,0,1,0 YLR V6 O3 g16 _V-4 g16 @1 EP-2,0,0,3,0 E100,60,70,3,15 P15,8,3 O4 V8 d8 d16 c16 < a8 a+16 a+16 g4 E80,100,70,4,15 @@4,2,0 P15,9,4 EP-2,0,0,1,0 YLR V6 O3 e32 e32 _V-4 e32 _V4 f32 g8 @1 EP-2,0,0,3,0 E100,60,70,3,15 P15,8,3 O3 V8 a+8 _V-4 a+16 _V4 a+16 a8 g16 _V-4 g16 _V4 > d16 c8 < a16 f8 _V-4 f16 _V-2 f16 _V6 g16 g16 > d16 d16 c8 < e8 f8. _V-6 f16 E80,100,70,4,15 @@4,2,0 P15,9,2 EP-2,0,0,1,0 YLR V6 O3 c16 f8 _V-4 @0 EPX f16 @1 EP-2,0,0,3,0 E100,60,70,3,15 P15,8,3 O3 V8 g16 _V-4 g16 _V4 g16 c16 _V-6 c16 _V6 c16 f16 g16 a+16 _V-4 a+16 _V4 a16 g16~ g8 _V-4 g16 _V-2 g16 _V6 > c8 _V-4 c16 _V4 < a16 f8 e16 _V-4 e16 _V4 d8. _V-4 d16 _V4 a+8. _V-4 a+16 _V4 a16 _V-4 a16 _V4 a16 a16 a+8 g16 _V-4 g16 _V4 f4 _V-6 f8 r16 E80,100,70,4,15 @@4,2,0 P15,9,2 EP-2,0,0,1,0 YLR V6 O2 c32 _V-4 c32 _V4 f8 d+16 _V-2 c+16 _V2 c32 _V-4 c32 _V4 < a+8 > d+32 _V-4 d+32 _V4 c32 < a+32 > c16~ c8 _V-4 c8 r16 _V4 c32 _V-4 c32 _V4 g+8 g16 _V-2 f16 _V2 d+32 _V-4 d+32 _V4 c+8 d+32 _V-4 d+32 _V4 f32 d+32 f16~ f8 _V-4 f8 _V-4 f16 _V-2 f16 YLR V8 O3 f+24 _V-4 f+24 _V-2 f+24 _V6 g+12 _V-4 g+24 _V4 a+24 _V-4 g+24 _V-2 g+24 _V6 g+12 _V-4 g+24 _V4 f+24 _V-4 f+24 _V-2 f+24 _V6 g+12 _V-4 g+24 _V4 a+24 _V-4 a+24 _V4 > c24 _V-4 c24 _V4 c+24 _V-4 c+24 _V4 c24 _V-4 c24 _V-2 c24 _V6 c8 EPX @0 P0,9,2 EX _V-4 c16 _V-2 c16 _V2 c16 _V2 c16 _V2 E80,100,70,4,15 @@4,2,0 P15,9,2 EP-2,0,0,1,0 c16 _V-6 EPX @0 EX c32 E70,100,70,3,15 @@4,1,3 EPX PX V6 YL. O3 a+32 g+32 _V-4 g+32 _V4 g32 _V-4 g32 _V4 f32 d+32 _V-4 d+32 _V4 c+32 c32 _V-4 c32 YLR 
!3  E100,70,70,3,0 P20,10,2 YLR `9F01 @A3 @B3 O1 V3 V3 c16 < f8 V2 f16 > V3 f32 V2 f32 V3 f8 V2 f16 < V3 a+16 d+8 V2 d+16 > V3 d+32 V2 d+32 V3 d+8 V2 d+16 V3 d+16 [ V3 c+32 V2 c+32 V3 c+16 V2 c+16 V3 c+32 V2 c+32 H2 ]2 H0 V3 c32 V2 c32 V1 c16 r16 V2 c32~ g32 YLR `9F01 @~X @A3 @B3 V3 O2 EP0,0,-120,5,20 E100,100,30,8,20 c4 EPX L E100,70,70,3,0 O1 [ V3 f16 V2 f16 V3 c16 V2 c16 ]2 [ V3 g16 V2 g16 V3 c16 V2 c16 ]4 [ V3 f16 V2 f16 V3 c16 V2 c16 ]2 [ V3 g16 V2 c16 V3 g16 V2 c16 ]4 [ V3 c+16 V2 c+16 V3 < g+16 V2 g+16 > ]2 [ V3 c16 V2 c16 V3 < g16 V2 g16 > ]2 < V3 a+16 V2 a+16 V3 f16 V2 f16 V3 a+16 V2 a+16 > V3 c+16 V2 c+16 [ V3 f16 V2 f16 V3 c16 V2 c16 ]2 V3 d+16 V2 d+16 V3 c+16 V2 c+16 V3 c16 V2 c16 V3 c+16 V2 c+16 [ V3 c16 V2 c16 V3 g16 V2 g16 ]2 V3 c+16 V2 c+16 V3 g+16 V2 g+16 V3 c+16 V2 c+16 V3 c+16 V2 c+16 V3 d+16 V2 d+16 V3 f16 V2 f16 V3 f+16 V2 f+16 V3 f+16 V2 f+16 [ V3 c16 V2 c16 ]2 [ V3 g16 V2 g16 ]2 [ V3 f16 V2 f16 ]2 < V3 f16 V1 f16 V3 > c8 [ f16 c16 ]3 f16 a16 > [ [ c16 < g16 > ]4 H-2 ]2 H0 [ c16 < g16 > ]4 [ c16 < g16 > ]4 < [ f16 c16 ]4 [ g16 d16 ]2 [ V3 c16 V2 g16 ]2 V3 [ f16 c16 ]3 f16 a16 [ > c16 < g16 ]8 [ f16 c16 ]3 f16 a16 [ a+16 f16 ]4 [ > c16 < f16 ]2 [ > c16 < g16 ]2 [ f16 c16 ]2 f16 V2 f16 V3 f16 V1 f16 [ [ V3 f16 V2 f16 ]2 [ V3 d+16 V2 d+16 ]2 V3 f16 V1 f16 V3 c16 V1 c16 V3 f16 V1 f16 V3 c16 V2 c16 ]2 [ V3 f+24 V2 f+24 f+24 V3 f16. V2 f32 ]3 V3 f+24 V2 f+24 V3 f24 V2 f24 V3 f+12 [ V3 c16 V2 c16 > V3 c16 V2 c16 < ]2 EP0,0,-90,5,8 V3 c8 EPX r4 V3 c16 V2 c16 
!4  @3 c16 @8 x8. @4 x32 x32 @3 x8 @4 x16. @3 x32 @8 x8. @4 x32 x32 @3 x8 @3 x16 @4 x16 @3 x16 @7 x8 @1 x16 @3 x16 @7 x8 @1 x16 @3 x8 @6 x16 @2 x32 @1 x32 @8 x4 L @8 x16. @6 x32 [ @2 x32 @6 x32 x32 x32 ]13 @2 x32 @6 x32 @7 x16 @8 x8 [ @2 x32 @6 x32 x32 x32 ]16 [ [ @2 x32 @6 x32 x32 x32 ]3 @7 x16 @6 x32 x32 ]2 [ @2 x32 @6 x32 x32 x32 ]8 [ @2 x32 @6 x32 x32 x32 ]4 [ @1 x32 @6 x32 x32 x32 ]3 @7 x16 @6 x32 x32 @8 x16. @6 x32 [ @2 x32 @6 x32 x32 x32 ]5 @7 x16 @6 x32 x32 @8 x8 @8 x8 [ @5 x16 @6 x16 ]3 [ @5 x16 @6 x16 ]12 [ @5 x16 @6 x16 ]16 [ @5 x16 @6 x16 ]16 [ @5 x16 @6 x16 ]6 @5 x16. @6 x32 @8 x8 @8 x16. @6 x32 [ @2 x32 @6 x32 x32 x32 ]15 @8 x16. @6 x32 [ @2 x32 @6 x32 x32 x32 ]5 @7 x12 x12 x12 @5 x8 @8 x8. @6 x8 x16 @8 x8. @6 x8 x16 @7 x8 
!5  @1 V1 O2 c16 YL. @49 W0,80,53 O3 V1 r8. < @4 O2 V0 < f32 f32 V1 f12 V0 YL. f12 Y.R f12 YLR YL. @49 W0,80,53 O3 V1 r8. < @4 O2 V0 < d+32 d+32 V1 d+12 V0 Y.R d+12 YL. d+12 @49 W0,80,53 O3 V1 r4 V1 r4 @49 W0,80,53 O3 V1 r4 YLR V0 O2 @0 c8. r32 V0 @1 c64 c64 L [ @1 V0 c16 c32 c32 c32 c32 @18 YL. c32 c32 YLR @1 V0 c16 c32 c32 c32 c32 @18 Y.R < g+32 g+32 > YLR ]3 @1 V0 c16 c32 c32 c32 c32 @18 YL. c32 c32 YLR @1 V0 c16 c32 c32 @0 V1 c32 @1 V0 c32 V1 c32 V0 c32 [ @1 V0 c16 c32 c32 c32 c32 @18 YL. c32 c32 YLR @1 V0 c16 c32 c32 c32 c32 @18 Y.R < g+32 g+32 > YLR ]3 @1 V1 c32 c32 V0 c32 V1 c32 @2 Y.R c32 V0 c32 c32 c32 V1 < YLR g+32 V0 g+32 g+32 g+32 YL. V1 f32 V0 f32 f32 f32 > YLR [ @1 V0 c16 c32 c32 c32 c32 @18 YL. c32 c32 YLR @1 V0 c16 c32 c32 c32 c32 @18 Y.R < g+32 g+32 > YLR ]4 [ @1 V0 c16 c32 c32 c32 c32 @18 YL. c32 c32 YLR @1 V0 c16 c32 c32 c32 c32 @18 Y.R < g+32 g+32 > YLR ]2 @1 V0 c16 c32 c32 c32 c32 @18 YL. c32 c32 YLR @4 V1 c32 V0 c32 c32 c32 V1 c32 V0 c32 c32 c32 < V1 f12 V0 Y.R f12 YL. f12 > YLR V1 @0 c16. V0 c64 V1 c64 @1 c8 V0 [ @1 c16 V0 @0 c16 ]16 [ @1 c16 @0 c16 ]16 [ @1 c16 @0 c16 ]16 [ @1 c16 @0 c16 ]6 @1 V1 c16. @0 V0 c64 V1 c64 @1 c8 @1 V0 c16 c32 c32 c32 c32 @18 YL. c32 c32 YLR @1 V0 c16 c32 c32 c32 c32 @18 Y.R < g+32 g+32 > YLR @1 V0 c16 c32 c32 c32 c32 @18 YL. c32 c32 YLR @1 V0 c16 c32 c32 @4 V0 c32 c32 V1 c32 V0 c32 < V1 f8 > @1 V0 c32 c32 @18 YL. c32 c32 YLR @1 V0 c16 c32 c32 c32 c32 @18 Y.R < g+32 g+32 > YLR @1 V0 c16 c32 c32 c32 c32 @18 YL. c32 c32 YLR @1 V0 c16 c32 c32 @4 V0 < f32 f32 V1 f32 V0 f32 > @1 V0 c16 c32 c32 c32 c32 @18 YL. c32 c32 YLR @1 V0 c16 c32 c32 c32 c32 @18 Y.R < g+32 g+32 > YLR @1 V0 c16 c32 c32 c32 c32 @18 YL. c32 c32 YLR [ @0 V0 c24 @1 c24 ]3 V1 c64 c64.~ c128~ c64~ c16 @0 V1 c16 V0 @1 c32 c32 @0 V1 c32 @1 V0 c32 c32 V1 c32 @4 V1 c32 V0 c32 c32 c32 V1 c12 V0 Y.R c12 YL. c12 r16. YLR @0 V0 c64 V1 c64 @1 c8 
!6  YLR @28 W0,95,45 O2 V0 c32 r32 V1 f4 V0 f8 V1 c16. f32 V1 g4 V0 g8 V1 d+16 g16 g+16 f8 g+16 a+16 g8 a+16 > c12 V0 Y.R c12 YL. c12 YLR @3 O2 V1 c8. V0 c16 L @40 W0,90,0 V1 O1 g+2 a+2 > c4 < a+4 @43 W0,90,0 O0 V1 g+8 g8 f8 @14 O2 f16 V0 YL. f16 YLR @43 W0,90,0 O1 [ V1 g32 V0 f32 V1 e32 f32 g32 V0 g32 V1 a+32 V0 a+32 ]3 V1 g32 V0 f32 V1 e32 @14 O2 V1 c32 c32 V0 c32 V1 c32 V0 c32 V1 c+16 V0 YL. c+16 YLR @40 W0,90,0 V1 O1 f4. e8 @14 O2 V1 e32 V0 e32 V1 d32 V0 d32 V1 e32 f32 V0 f32 V1 g32 V0 g32 V1 f32 g16 @40 W0,90,0 V0 O1 f4. @13 O2 V1 f16 YL. V0 f16 YLR @40 W0,90,0 V0 O1 f4. @14 O2 V1 f16 YL. V0 f16 YLR @40 W0,90,0 V1 O1 c+8 c8 < a+8 g+8 > c8 @14 W0,30,29 O2 V1 c16 V0 c16 @3 V1 e32 V0 e32 @3 W0,30,29 O2 V1 f16 V0 f16 V1 @13 g16 g+16 V0 g+16 @15 W0,74,45 V1 f4 V0 f8 V1 g8 g+8 a+8 @13 W0,27,23 O3 V0 c+8 V1 @13 c16 V0 YL. c16 YLR @40 W0,90,0 V0 O2 g4. @2 O2 Y.R V1 c32 V0 c32 c32 c32 < YLR V1 g+32 V0 g+32 g+32 g+32 YL. V1 f8 YLR @14 W0,30,29 O1 V1 f8 @15 W0,77,45 O2 V0 YLR c2 e4. @13 V1 g16 V0 g16 @15 W0,77,45 O2 V0 d2 e8 V1 c32 V0 c32 V1 d32 V0 d32 V1 e32 e32 V0 e32 V1 d32 c8 @40 W0,80,0 V0 O2 g4 @15 W0,77,45 O2 V0 YLR g8 e8 a+16 a8. r8 a+16 a16 g4 e4 f8 O1 @13 c16 @14 f16 @13 g16 @3 a8 r16 O1 [ @40 W0,90,0 V0 g8 @13 W0,80,47 g16 r16 ]3 @3 c16 g16 a16 a+16 > c16 r16 O1 @14 W0,96,57 f16 r16 @40 W0,95,0 V0 O1 f8 @14 W0,96,57 f16 r16 [ @40 W0,95,0 V0 O1 f8 @13 W0,96,57 f16 r16 ]2 @15 W0,96,57 O1 V1 c2 f4 V0 f8 r16 @28 W0,77,45 > c32 r32 V1 f8 d+16 c+16 c32 V0 c32 V1 < a+8 > d+32 V0 d+32 V1 c32 < V0 a+32 > V1 c8 @43 W0,90,0 V1 O2 c32 < a+32 > c8. @28 W0,77,45 V0 c32 r32 V1 V1 g+8 g16 f16 d+32 V0 d+32 V1 c+8 d+32 V0 d+32 V1 f32 V0 d+32 V1 f8 @43 W0,90,0 V1 O1 f32 d+32 f8 f8 @15 W0,77,45 O1 [ V1 f+16 V0 f+16 V1 f8 ]3 f+12 f12 f+12 c24 V0 Y.R c24 YL. c24 YLR V1 c8. V0 c16 @43 W0,90,0 O1 V1 f32 g32 g+32 a+32 V1 O2 c32 V0 c32 r32 < V1 a+32 g+32 V0 g+32 V1 g32 V0 g32 V1 f32 d+32 V0 d+32 V1 c+32 c32 V0 c32 r16 
