;018 001ADF72
!1  T90 T81 E90,100,70,1,6 @@4,2,0 EP-8,0,0,1,3 P15,11,5 V6 O2 V7 YLR g+32 _V-2 g+32 g+32 g+32 ) g+32 _V-5 YL. g+32 YLR _V4 g+32 _V2 g+32 _V-5 Y.R g+32 YLR _V4 g+32 _V2 g+32 _V-5 YL. g+32 YLR _V4 g+32 _V-5 Y.R g+32 YLR _V6 g+32 _V-5 YL. g+32 YLR _V5 g32 _V-2 g32 g32 g32 ) g32 _V-5 Y.R g32 YLR _V4 g32 _V2 g32 _V-5 YL. g32 YLR _V4 g32 _V2 g32 _V-5 Y.R g32 YLR _V4 g32 _V-5 YL. g32 YLR _V6 g32 _V-5 Y.R g32 YLR _V5 O1 g+32 _V-2 g+32 g+32 g+32 ) g+32 _V-5 YL. g+32 YLR _V4 g+32 _V2 g+32 _V-5 Y.R g+32 YLR _V4 g+32 _V2 g+32 _V-5 YL. g+32 YLR _V4 g+32 _V-5 Y.R g+32 YLR _V6 g+32 _V-5 YL. g+32 YLR _V5 g32 _V-2 g32 g32 g32 ) g32 _V-5 Y.R g32 YLR _V4 g32 _V2 g32 _V-5 YL. g32 YLR _V4 g32 _V2 g32 _V-5 Y.R g32 YLR _V4 g32 _V-5 YL. g32 YLR _V6 g32 _V-5 Y.R g32 YLR _V5 L E90,100,70,1,6 @@4,2,0 EP-8,0,0,1,3 P15,11,5 O2 V10 g+32 _V-2 g+32 g+32 g+32 ) g+32 _V-4 YL. g+32 Y.R ( g+32 YL. ( g+32 Y.R ( g+32 YL. ( g+32 YLR _V7 g+32 ) g+32 _V-2 g+32 g+32 g+32 ) g+32 ) a+32 _V-2 a+32 a+32 a+32 ) a+32 _V-4 Y.R a+32 ( YL. a+32 ( Y.R a+32 ( YL. a+32 ( Y.R a+32 YLR _V7 a+32 ) a+32 _V-2 a+32 a+32 a+32 ) a+32 ) > _V-2 c32 _V2 c32 _V-5 Y.R c32 YLR _V3 c32 _V2 c32 _V-5 YL. c32 YLR _V5 c32 _V-5 Y.R c32 YLR _V5 c32 _V-5 YL. c32 YLR _V5 c32 _V-5 YL. c32 YLR _V5 c32 d32 d+32 _V-5 Y.R c32 YLR _V5 EP0,0,-7,4,8 E80,100,30,1,12 PX e8 e8 e8 e8 EPX E80,100,80,1,12 @@4,1,3 P19,9,2 V6 O3 r16 c16 c16 f16 g+16 g+16 g16 f16 d+16 _V-4 d+16 _V4 d+16 c16 < a+16 > c8. < g+8. E90,100,70,1,6 @@4,2,0 EP-8,0,0,1,3 P15,11,5 V4 O2 g+8 a+16 > c24 _V-2 YL. c24 ( Y.R c24 _V3 YLR r8. c8 c+16 d+24 _V-2 Y.R d+24 ( YL. d+24 _V3 YLR EPX E80,100,80,1,12 @@4,1,3 P19,9,2 O3 V6 c+8. _V-6 c+16 _V6 f8. f16 g8. f16 d+8. _V-4 d+16 _V4 e8 e16 _V-4 e16 _V4 e16 f8 _V-4 f16 _V4 _V3 c8 E90,100,70,1,6 @@4,2,0 EP-8,0,0,1,3 P15,11,5 V6 O3 c16 _V-3 Y.R c16 _V3 YLR c32 c32 c32 c32 c32 _V-3 YL. c32 YLR _V3 c32 _V-3 Y.R c32 YLR _V3 EPX E80,100,80,1,12 @@4,1,3 P19,9,2 V6 O3 e8 < g16 > e8 _V-4 E90,100,70,1,6 @@4,2,0 EP-8,0,0,1,3 P15,11,5 V6 O2 < g16 > c16 e16 EPX E80,100,80,1,12 @@4,1,3 P19,9,2 V6 O3 f16 _V-4 YL. f16 YLR _V4 c16 f8 _V-4 E90,100,70,1,6 @@4,2,0 EP-8,0,0,1,3 P15,11,5 V6 O2 < g+16 > c16 f16 EPX E80,100,80,1,12 @@4,1,3 P19,9,2 V6 O3 g8. _V-6 g16 _V6 g8 f8 e8 d8 e4 EPX E80,100,80,1,12 @@4,1,3 P19,9,2 V6 O3 g+8 E90,100,70,1,6 @@4,2,0 EP-8,0,0,1,3 P15,11,5 V8 O2 f16 _V-3 f16 _V3 EPX E80,100,80,1,12 @@4,1,3 P19,9,2 V6 O3 f8 E90,100,70,1,6 @@4,2,0 EP-8,0,0,1,3 P15,11,5 V6 O2 c16 _V-3 c16 _V3 EPX E80,100,80,1,12 @@4,1,3 P19,9,2 V6 O3 f16 _V-4 f16 _V4 g16 _V-4 g16 _V4 g+8 E90,100,70,1,6 @@4,2,0 EP-8,0,0,1,3 P15,11,5 V6 O2 g16 _V-3 g16 _V3 EPX E80,100,80,1,12 @@4,1,3 P19,9,1 V6 O3 a+8. _V-4 a+16 _V4 a+8. f+16 g+8 _V-4 g+16 _V4 g+16 g8 f8 e16 ( e16 e16 f16 ) g16 g8 f16 c8 E90,100,70,1,6 @@4,2,0 EP-8,0,0,1,3 P15,11,5 V4 O3 e32 e32 _V-2 e32 e32 _V2 e32 e32 _V-2 e32 e32 _V2 e32 e32 e32 _V-2 e32 _V2 EPX E80,100,80,1,12 @@4,1,3 P19,9,2 V6 O3 c8. d+16 f8 g+8 g16 g8 f16 d+8 _V-4 Y.R d+16 ( YL. d+16 _V5 YLR e16 e16 e16 e16 g16 c16 _V-4 c16 _V4 < a+16 g+8 E90,100,70,1,6 @@4,2,0 EP-8,0,0,1,3 P15,11,5 V6 O3 f32 _V-2 Y.R f32 YLR _V2 f32 f32 O2 g+32 g+32 g+32 _V-2 YL. g+32 YLR _V2 g+32 _V-2 Y.R g+32 YLR _V2 g+32 _V-2 YL. g+32 YLR EPX E80,100,80,1,12 @@4,1,3 P19,9,2 V6 O3 d+4 d+8 f8 g16 g8 f16 d+8 _V-3 d+16 _V-2 d+16 _V5 c16 _V-4 c16 _V4 c8 f8 g8 g+4. _V-4 g+16 g+16 _V4 a+8 _V-2 a+16 _V-2 a+16 _V4 f+8 _V-2 f+16 _V-2 f+16 _V4 g+16 g8 f16 g+8 _V-3 g+16 ( g+16 _V4 e8 _V-3 e16 ( e16 _V4 g4 g+16 c16 _V-2 Y.R g+16 c16 ( YL. g+16 c16 ( Y.R g+16 c16 _V4 YLR 
!2  E90,100,70,1,6 @@4,2,0 EP-8,0,0,1,3 P15,11,5 V8 O3 V8 YLR f32 _V-2 f32 f32 f32 ) f32 _V-5 YL. f32 YLR _V4 f32 _V2 f32 _V-5 Y.R f32 YLR _V4 f32 _V2 f32 _V-5 YL. f32 YLR _V4 f32 _V-5 Y.R f32 YLR _V6 f32 _V-5 YL. f32 YLR _V5 d+32 _V-2 d+32 d+32 d+32 ) d+32 _V-5 Y.R d+32 YLR _V4 d+32 _V2 d+32 _V-5 YL. d+32 YLR _V4 d+32 _V2 d+32 _V-5 Y.R d+32 YLR _V4 d+32 _V-5 YL. d+32 YLR _V6 d+32 _V-5 Y.R d+32 YLR _V5 O2 f32 _V-2 f32 f32 f32 ) f32 _V-5 YL. f32 YLR _V4 f32 _V2 f32 _V-5 Y.R f32 YLR _V4 f32 _V2 f32 _V-5 YL. f32 YLR _V4 f32 _V-5 Y.R f32 YLR _V6 f32 _V-5 YL. f32 YLR _V5 d+32 _V-2 d+32 d+32 d+32 ) d+32 _V-5 Y.R d+32 YLR _V4 d+32 _V2 d+32 _V-5 YL. d+32 YLR _V4 d+32 _V2 d+32 _V-5 Y.R d+32 YLR _V4 d+32 _V-5 YL. d+32 YLR _V6 d+32 _V-5 Y.R d+32 YLR _V5 L E90,100,70,1,6 @@4,2,0 EP-8,0,0,1,3 P15,11,5 V8 O3 V10 f32 _V-2 f32 f32 f32 ) f32 _V-4 YL. f32 Y.R ( f32 YL. ( f32 Y.R ( f32 YL. ( f32 YLR _V7 f32 ) f32 _V-2 f32 f32 f32 ) f32 ) f+32 _V-2 f+32 f+32 f+32 ) f+32 _V-4 Y.R f+32 ( YL. f+32 ( Y.R f+32 ( YL. f+32 ( Y.R f+32 YLR _V7 f+32 ) f+32 _V-2 f+32 f+32 f+32 ) f+32 ) _V-2 g+32 _V2 g+32 _V-5 Y.R g+32 YLR _V3 g+32 _V2 g+32 _V-5 YL. g+32 YLR _V5 g+32 _V-5 Y.R g+32 YLR _V5 g+32 _V-5 YL. g+32 YLR _V5 g+32 _V-5 YL. g+32 YLR _V5 g+32 a+32 b32 _V-5 Y.R g+32 YLR _V5 > EP0,0,-7,4,8 E80,100,30,1,12 PX c8 c8 c8 c8 EPX E80,100,80,1,12 @@4,1,3 P19,9,2 O3 V8 r16 f16 f16 g+16 > c16 c16 < a+16 g+16 g16 _V-6 g16 _V6 g16 f16 d+16 f8. c4 _V-6 c8 r8 r2 E90,100,70,1,6 @@4,2,0 EP-8,0,0,1,3 P15,11,5 V8 O3 EPX E80,100,80,1,12 @@4,1,3 P19,9,2 O3 V8 f8. _V-8 f16 _V8 g+8. g+16 a+8. g+16 g8. _V-4 g16 _V4 g8 g16 _V-4 g16 _V4 g16 g+8 _V-4 g+16 _V4 f4. E90,100,70,1,6 @@4,2,0 EP-8,0,0,1,3 P15,11,5 V8 O3 f32 _V-5 YL. f32 YLR _V5 f32 _V-5 Y.R f32 YLR _V5 EPX E80,100,80,1,12 @@4,1,3 P19,9,2 O3 V8 g8 c16 g8 _V-4 E90,100,70,1,6 @@4,2,0 EP-8,0,0,1,3 P15,11,5 O2 V8 c16 e16 g16 EPX E80,100,80,1,12 @@4,1,3 P19,9,2 O3 V8 g+16 _V-5 YL. g+16 YLR _V5 f16 g+8 _V-5 E90,100,70,1,6 @@4,2,0 EP-8,0,0,1,3 P15,11,5 V8 O2 c16 f16 g+16 EPX E80,100,80,1,12 @@4,1,3 P19,9,2 O3 V8 a+8. _V-8 a+16 _V8 a+8 g+8 g8 f8 g4 EPX E80,100,80,1,12 @@4,1,3 P19,9,2 > c+8 < E90,100,70,1,6 @@4,2,0 EP-8,0,0,1,3 P15,11,5 V8 O3 < g+16 _V-4 g+16 _V4 > EPX E80,100,80,1,12 @@4,1,3 P19,9,2 O3 V8 g+8 E90,100,70,1,6 @@4,2,0 EP-8,0,0,1,3 P15,11,5 V8 O2 f16 _V-4 f16 _V4 EPX E80,100,80,1,12 @@4,1,3 P19,9,2 O3 V8 g+16 _V-4 g+16 _V4 a+16 _V-4 a+16 _V4 > c8 E90,100,70,1,6 @@4,2,0 EP-8,0,0,1,3 P15,11,5 V8 O3 c16 _V-5 c16 _V5 EPX E80,100,80,1,12 @@4,1,3 P19,9,2 O4 V8 c+8. _V-4 c+16 _V6 c+8. < a+16 > c8 _V-4 c16 _V4 c16 < a+8 g+8 g16 g16 g16 g+16 ) a+16 _V2 a+8 _V-2 g+16 _V2 g4 E90,100,70,1,6 @@4,2,0 EP-8,0,0,1,3 P15,11,5 V6 O3 g32 g32 _V-3 g32 g32 _V3 g32 g32 g32 _V-3 g32 _V3 EPX E80,100,80,1,12 @@4,1,3 P19,9,2 O3 V8 f8. g16 g+8 > c8 < a+16 a+8 g+16 g8 _V-4 Y.R g16 _V-2 YL. g16 _V6 YLR g16 g16 g16 g16 > c16 < e8. f4 E90,100,70,1,6 @@4,2,0 EP-8,0,0,1,3 P15,11,5 V6 O3 _V-2 f32 f32 _V2 f32 _V-5 YL. f32 YLR _V5 f32 _V-5 Y.R f32 YLR _V5 f32 _V-5 YL. f32 YLR _V5 EPX E80,100,80,1,12 @@4,1,3 P19,9,2 O3 V8 g4 g8 g+8 a+16 a+8 g+16 g8 _V-2 g16 _V-2 g16 _V4 f16 _V-4 f16 _V4 f8 g+8 a+8 > c4. _V-2 c16 _V-2 c16 _V4 c+8 _V-2 c+16 _V-2 c+16 _V4 < a+8 _V-2 a+16 _V-2 a+16 _V4 > c16 < a+8 g+16 > c8 _V-2 c16 _V-2 c16 _V4 < g8 _V-2 g16 _V-2 g16 _V4 > c4 c16 < f16 _V-3 > Y.R c16 < f16 > _V-2 YL. c16 < f16 > _V-2 Y.R c16 < f16 _V7 YLR 
!3  V3 O1 `9F00 `2E06 @A3 `AE00 B1 O0 V3 E100,100,80,3,4 [ f16 r8 f16 r4 d+16 r8 d+16 r4 ]2 L f8 r16 f8 r16 f32 _V-2 f32 f32 ) f32 ) f+8 r16 f+8 r16 f+32 _V-2 g32 g32 ) g32 ) g+8 r16 g+8 r16 g+32 a+32 b32 r32 c8 c8 EP0,0,-95,3,10 > c8 c8 < EPX V3 f16 f16 V1 f16 V2 c16 V3 f16 f16 V1 f16 V2 c16 V3 c16 c16 V1 c16 V2 f16 V3 > c16 EP0,0,-18,5,10 c8 EPX < V2 g16 V3 f16 f16 V1 f16 V2 c16 V3 f16 f16 V1 f16 V2 c16 V3 f16 V2 f16 V3 f16 c32 > V2 f16 V3 f16 V2 f32 V3 f16 V2 d+16 V3 c+16 c+16 V1 c+16 V2 g+16 V3 g+16 V2 g+16 > V3 c+16 < V2 g+16 V3 d+16 d+16 V1 d+16 r16 > V3 d+16 d+16 V1 d+16 < V2 a+16 V3 c16 c16 V1 c16 V2 e16 V3 g16 V2 g16 V3 a+16 > V2 c16 < V2 f16 V3 f16 V1 f16 V1 c32 V2 f16 V3 f16 V2 f32 V3 f16 V2 f16 V3 c16 c16 V1 c16 < V3 e8 g16 a+16 > c16 < V3 f16 f16 f16 V1 c32 V3 < f16 f16 V3 f32 V2 f16 c16 V3 d+16 d+16 < a+16 V2 a+16 > > d+16 V3 d+16 < V1 d+16 V3 a+16 V3 c16 V2 c16 V1 e32 V3 e16 V2 g16 V3 g16 V1 g32 V3 a+16 > V2 c16 V3 r8 c+16 r16 r8 < g+16 r16 r4. < V2 f8 < [ f+16 V3 f+8 V2 c+16 ]2 g+16 V3 g+8 V2 d+16 g+16 V3 > d+8 V2 < a+16 [ c16 V3 c8 V2 c16 H-2 ]2 H0 V3 c16 V2 c16 V3 g32 V2 g32 V3 g16 V2 a+32 V3 a+16 V2 a+32 V3 b16 > c16 < [ V3 f16 f16 V1 f16 V2 c16 ]2 V3 d+16 d+16 V1 d+16. V1 < a+32 > V2 a+32 V1 a+32 V2 a+16 V3 > d+16 V2 < a+16 < V3 c16 c16 V1 c16 V2 e16 V3 g16 V2 g16 V3 a+16 V2 > c16 < V3 f16 V2 f16 V3 f16 V1 c32 V3 f16 V2 f16 V1 f32 V3 f16 V2 c16 V3 d+16 d+16 V1 g16 V3 g8 a+16 > c+16 d+16 < d+16 d+16 V1 d+16 > V3 d+8 c+16 < a+16 V1 a+16 V3 V3 g+16 g+16 V1 g+16 V3 > c8 d+16 e16 f16 < f16 f16 V1 f16 > V3 f8 d+16 c16 V1 c16 V3 f+8 f+16 c+16 f+8 f+16 c+16 V3 g+16 g+16 V1 g+16 V3 d+16 < g+16 > d+16 g+16 d+16 c16 c16 V1 c16 V3 e8 g16 a+16 > c16 < f16 f16 c16 V2 c32 V3 f16 f16 V2 f32 V3 f16 V2 c16 V3 < 
!4  [ @4 x8 @5 x16 @4 x16 @5 x8 @6 x8 ]4 L [ @3 x32 x32 x32 x32 x32 r32 @5 x16 x16 @3 x32 x32 x32 x32 x32 @2 x32 ]2 @3 x32 x32 r32 x32 x32 r32 x32 r32 x32 r32 x32 r32 x32 x32 x16 @3 x16 @1 x16 @3 x16 @1 x16 @3 x16 @1 x16 @3 x16 @1 x16 @8 x8 @3 x16 @2 x16 @1 x16 @7 x16 @3 x16 @2 x16 [ @1 x16 @6 x16 @3 x16 @2 x16 @1 x16 @2 x16 @3 x16 @6 x16 @1 x16 @6 x16 @3 x16 @2 x16 @1 x16 @5 x16 @3 x16 @2 x16 ]3 @3 x32 x32 x32 x32 x32 @1 x32 @3 x32 x32 x32 x32 x32 @1 x32 @3 x32 @2 x32 @3 x32 @2 x32 [ @1 x32 @6 x32 @1 x32 @6 x32 @3 x16 @2 x32 @6 x32 @2 x32 @6 x32 @1 x32 @6 x32 @3 x16 @7 x16 ]3 @1 x32 @6 x32 @1 x32 @6 x32 @3 x16 @2 x32 @4 x32 @2 x32 @4 x32 @1 x32 @7 x32 @3 x32 x32 @2 x32 @3 x32 @1 x8 @8 x8 @1 x8 @8 x8 @1 x8 @6 x8 x8 @8 x8 [ @1 x32 @6 x32 @1 x32 @6 x32 @3 x16 @2 x32 @6 x32 @2 x32 @6 x32 @1 x32 @6 x32 @3 x16 @2 x32 @6 x32 ]3 @1 x32 @6 x32 @1 x32 @6 x32 @3 x32 x32 @1 x32 x32 @3 x32 x32 @1 x32 x32 @3 x32 @2 x32 @3 x32 @2 x32 [ @1 x32 @6 x32 @1 x32 @6 x32 @3 x16 @2 x32 @6 x32 @2 x32 @6 x32 @1 x32 @6 x32 @3 x16 @2 x32 @6 x32 ]4 [ @1 x32 @6 x32 @1 x32 @6 x32 @3 x16 @2 x32 @6 x32 @2 x32 @6 x32 @1 x32 @6 x32 @3 x16 @2 x32 @6 x32 ]4 [ @1 x32 @6 x32 @1 x32 @6 x32 @3 x16 @2 x32 @6 x32 @2 x32 @6 x32 @1 x32 @6 x32 @3 x16 @2 x32 @6 x32 ]2 @1 x32 @6 x32 @1 x32 @6 x32 @3 x16 @2 x32 @6 x32 @2 x32 @6 x32 @1 x32 @6 x32 @3 x16 @2 x32 @6 x32 @1 x32 @6 x32 @5 x32 @2 x32 @3 c32 c32 c32 c32 @6 x8 x8 
!5  V1 @3 O2 Y.R [ V1 f32 f32 f32 f32 f32 V0 f32 V1 f32 f32 V0 f32 V1 f32 f32 V0 f32 V1 f32 V0 f32 V1 f32 V0 f32 H-2 ]2 H0 @9 O2 YL. [ V1 f32 f32 f32 f32 f32 V0 f32 V1 f32 f32 V0 f32 V1 f32 f32 V0 f32 V1 f32 V0 f32 V1 f32 V0 f32 H-2 ]2 H0 L YLR O2 V1 @3 f32 f32 f32 f32 f16 @4 < Y.R f32 f32 YL. f32 V0 f32 > V1 YLR @3 f32 f32 f32 f32 f32 V0 f32 V1 f+32 f+32 f+32 f+32 f+32 V0 f+32 V1 @4 < Y.R f32 f32 YL. f32 V0 f32 V1 YLR > @3 f+32 f+32 f+32 f+32 f+16 g+32 g+32 V0 g+32 V1 g+32 g+32 V0 g+32 V1 g+32 V0 g+32 V1 g+32 V0 g+32 V1 g+32 V0 g+32 V1 g+32 a+32 b32 V0 b32 O3 V1 [ c8 ]4 O2 @40 [ V1 f32 g32 g+32 g32 f24 V0 f24 f24 ]2 [ V1 d+32 f32 g32 f32 d+24 V0 d+24 d+24 ]2 [ V1 f32 g32 g+32 g32 f24 V0 f24 f24 ]2 [ c48 > g48 < c48 > V0 g48 < c48 > g48 < ]2 c48 > g48 < c48 r8. [ V1 d+32 f32 g32 f32 d+24 V0 d+24 d+24 ]2 [ V1 g32 g+32 a+32 g+32 g24 V0 g24 g24 ]4 [ V1 f32 f32 f32 f32 f32 V0 f32 ]2 V1 f32 V0 f32 V1 f32 V0 f32 @9 O2 r8 V0 Y.R e16 YLR r8 V1 c16 e16 g16 r8 V0 YL. f16 YLR V1 r8 c16 f16 g+16 V0 r8 Y.R g16 r8. YL. g16 r16 r8 Y.R g16 r8 YLR V1 c16 O2 e8 V1 r8 g+8 r8 f8 @4 V1 YLR c+24 V0 Y.R c+24 YL. c+24 @3 V1 YLR r4 V1 O2 c8 c+8 V1 YLR @6 [ c+48 < g+48 > c+48 < g+48 > c+48 < g+48 > ]3 V1 [ d+48 < g+48 > d+48 < V0 g+48 > d+48 < g+48 > ]4 V1 [ e48 < g48 > e48 < V0 g48 > e48 < g48 > ]2 V1 [ f48 < g+48 > f48 < V0 g+48 > f48 < g+48 > ]2 V1 g48 c48 g48 V0 c48 g48 c48 @3 V1 g32 g32 V0 Y.R g32 g32 V1 g32 g32 V0 YL. g32 g32 V1 g32 g32 g16 @40 O2 [ YLR V1 g+32 V0 Y.R g+32 YLR V1 g32 V0 YL. g32 YLR V1 f32 V0 Y.R f32 YLR V1 g32 V0 YL. g32 ]2 YLR V1 a+32 V0 Y.R a+32 YLR V1 g+32 V0 YL. g+32 YLR V1 g32 V0 Y.R g32 YLR V1 g+32 V0 YL. g+32 YLR V1 a+32 V0 Y.R a+32 YLR V1 g+32 V0 YL. g+32 YLR V1 @3 g8 @40 O2 YLR V1 g32 V0 Y.R g32 YLR V1 f32 V0 YL. f32 YLR V1 e32 V0 Y.R e32 YLR V1 f32 V0 YL. f32 YLR V1 g32 V0 Y.R g32 YLR V1 f32 V0 YL. f32 YLR V1 e32 V0 Y.R e32 YLR V1 g32 V0 YL. g32 @3 V1 YLR [ V1 f32 f32 f32 f32 f32 V0 Y.R f32 YLR ]2 V1 f32 Y.R V0 f32 YL. V1 YLR f32 Y.R V0 f32 YLR @40 O2 [ V1 g32 f32 d+32 f32 g32 V0 YL. g32 YLR V1 a+32 V0 Y.R a+32 YLR ]4 [ V1 g+32 g32 f32 g32 g+32 V0 YL. g+32 YLR > V1 c32 V0 Y.R c32 YLR < ]4 @6 V1 f+48 c+48 f+48 V0 c+48 f+48 c+48 @3 O2 V1 c+16 V0 YL. c+16 YL. V1 @6 O2 YLR V1 f+48 c+48 f+48 V0 c+48 f+48 c+48 @3 O2 V1 c+16 V0 YL. c+16 YL. V1 @6 O2 YLR [ V1 f48 c48 f48 V0 c48 f48 c48 ]2 c48 f48 c48 @3 O2 V1 c16 c8 @6 O2 YLR V1 g48 c48 g48 V0 c48 g48 c48 @3 O2 YLR V1 c16 V0 YL. c16 YL. V1 @6 O3 YLR V1 c48 < e48 > c48 < V0 e48 > c48 < e48 @3 O2 V1 c16 V0 YL. c16 YL. V1 O3 c16 O2 f16 V0 Y.R O3 c16 O2 f16 YL. @2 V1 e32 V0 e32 e32 V1 e32 Y.R O1 V1 a+32 V0 a+32 a+32 a+32 YLR V1 O2 
!6  @1 r2 r2 r2 r2 L @1 [ V1 c32 V0 c32 c32 c32 V1 c32 @4 Y.R f32 f32 YL. f32 V0 f32 V1 YLR @1 r32 c32 c32 V1 c32 V0 c32 V1 c16 ]2 V0 c32 V1 c32 r32 V0 c32 V1 c32 r32 V0 c32 r32 V1 c32 r32 V0 c32 r32 c32 V1 c32 c16 @3 V1 c16 V0 c16 V1 c16 V0 c16 V1 c16 V0 c16 V1 c16 V0 c16 @15 W0,92,52 V1 O3 r2 r2 r8. f8 g16 g+24 YL. V0 g+24 Y.R g+24 V1 YLR r8. g+8 a+16 > c24 Y.R V0 c24 YL. c24 YLR r2 r2 r2 < V1 r8 f16 Y.R V0 f16 YLR V1 f32 f32 f32 f32 f32 V0 YL. f32 V1 YLR f32 Y.R V0 f32 @9 O1 r8 V0 Y.R a+16 YLR r8 V1 g16 a+16 O2 c16 r8 V0 YL. c16 YLR V1 r8 O1 g+16 O2 c16 f16 V0 r8 Y.R c16 r8. YL. c16 r16 r8 Y.R c16 r8 O1 YLR V1 a+16 O2 c8 V1 @35 c8 @9 f8 @35 c8 @9 c8 V1 YLR O2 @33 c8 @34 c8 @35 c8 O1 @3 V1 e8 f+8 r4. r2 r2 @3 r8 V1 g32 g32 V0 Y.R g32 g32 V1 g32 g32 V0 YL. g32 g32 V1 g32 g32 g16 r2 r4. d+8 r2 O1 YLR [ V1 g+32 g+32 g+32 g+32 g+32 V0 Y.R g+32 YLR ]2 V1 g+32 Y.R V0 g+32 YL. V1 YLR g+32 Y.R V0 g+32 YLR V1 r2 r2 r2 O1 @4 r8 YL. f16 f16 V0 f16 Y.R V1 c16 c16 V0 c16 V1 YLR @3 r8 V1 f+16 V0 Y.R f+16 V0 YLR V1 r8 V1 f+16 V0 Y.R f+16 V0 YLR V1 r4 r16 V1 g+16 g+8 r8 e16 V0 YL. e16 YLR V1 r8 g16 V0 Y.R g16 YLR V1 > g+16 c16 V0 Y.R g+16 c16 YL. g+16 c16 YLR r8 
