;019 001AF5F6
!1  T90 T78 O2 V6 YLR @@2,0,1 E100,85,65,4,1 `2E35 b32 b32 r32 b32 > `2E63 e32 r32 d16. r32 d32 r32 < a8 [ a+64 r64 ]4 a+32 r32 b16 r16 `2E63 b8. L D2 O2 V8 @@3,2,1 E100,85,65,4,1 [ YLR e16 _V-3 Y.R e16 _V3 ]2 P31,9,6 Y.R e4 d16 < b16 > d16 E100,85,85,4,1 e4 r16 @@2,0,2 O2 E100,100,80,6,1 P19,11,6 V5 YL. r64 e8. _V-3 e16 _V3 g8. _V-3 g16 _V3 f+16 _V-3 f+16 _V3 d16 _V-3 d16 _V3 e8. r16 a8. _V-3 a16 _V3 B4 a8.~ g16 [ b32 _V-3 b32 _V3 ]4 b8. _V-3 b16 _V3 e16 _V-3 e16 _V3 e16 d16 e32. r64 e16 g32. r64 g16 f+8. _V-3 f+16 _V3 f+16~ g16 f+16~ d32. D0 E100,70,70,4,0 P15,10,6 EP4,0,0,3,0 @@4,1,0 O3 V8 YL. e16 < b16 > e16 g8 a16 b8 a4 r16 c16 e16 g16 a2 b2 b4 r16 d+16 f+16 > c16 < b16 YLR d+8. c+8 _V-4 c+16 _V4 c+16 d+8. _V-4 d+16 _V4 d+16 O3 V8 YL. d+16 f+16 > c16 < b16 YLR d+8. c+8 _V-4 c+16 _V4 c+16 [ d+32 _V-4 d+32 V8 ]3 d+4 _V-4 d+16 _V4 YL. r16 b8. a16 _V-4 a16 _V4 g16 f+16 e8 r4. @@2,0,1 V6 O1 E100,100,80,6,1 P19,11,6 YLR b32 r32 b16 _V-4 b16 _V4 b16 > e16 _V-4 e16 _V4 e32 _V-4 e32 _V4 e16 d16 _V-4 d16 _V4 d16 e16 [ f+32 _V-4 f+32 _V4 ]2 f+16 _V-4 f+16 _V4 [ e32 _V-4 e32 _V4 ]3 e16 [ g32 _V-4 g32 _V4 ]2 g16 _V-4 g16 _V4 [ e32 _V-4 e32 _V4 ]3 e16 a16 _V-4 a16 _V4 a8 f+4. e8 d+4. r8 @@2,0,1 V7 YL. O2 r64 e32 _V-4 e32 _V4 e16 _V-4 e16 _V4 e16 g16.~ g64 @@4,2,1 YLR e8 @@2,0,1 V7 YL. O2 r64 a32 _V-4 a32 _V4 a16 _V-4 a16 _V4 a16 > c16. c64 @@4,2,1 < YLR e8 d+16 @@2,0,1 V7 YL. O2 r64 b16 _V-4 b16 _V4 b16 > d16 < b16 > d8 e8 r4 r16. r64 r2 
!2  O3 V8 YLR @@2,0,1 E100,85,65,4,1 `2E35 e32 e32 r32 e32 `2E63 g32 r32 f+16. r32 f+32 r32 d8 [ e64 r64 ]4 e32 r32 d+16 r16 `2E63 b8. L @@3,2,1 O3 E100,85,65,4,1 V8 [ YLR e16 _V-3 YL. e16 _V3 ]2 P31,9,6 YLR e4 d16 < b16 > d16 E100,85,85,4,1 e4 r16 @@2,0,2 O2 E100,100,80,6,1 P19,11,6 V8 e8. _V-4 e16 _V4 g8. _V-4 g16 _V4 f+16 _V-4 f+16 _V4 d16 _V-4 d16 _V4 e8. r16 a8. _V-4 a16 _V4 B4 a8.~ g16 [ b32 _V-5 b32 V8 ]4 b8. _V-4 b16 _V4 e16 _V-4 e16 _V4 e16 d16 e32. r64 e16 g32. r64 g16 f+8. _V-4 f+16 _V4 f+16~ g16 f+16~ d16 e4. r8 a16 _V-4 a16 _V4 a16 g16 [ a32 _V-5 a32 _V5 ]3 g16 a8. _V-4 a16 _V4 a16 g16 a8 b4 < < V5 b8 r8 b8 r16 b16 r4 > > V8 r16 b8. a8 _V-4 a16 _V4 f+16 b8. _V-4 b16 _V4 b8. _V-4 b16 V8 r16 b8. a8 _V-4 a16 _V4 f+16 [ b32 _V-4 b32 V8 ]3 b4 _V-4 b16 _V4 r16 b8. a16 _V-4 a16 _V4 g16 f+16 e8 r4. @@2,0,1 V9 e32 r32 e16 _V-4 e16 _V4 e16 g16 _V-4 g16 _V4 g32 _V-4 g32 _V4 g16 f+16 _V-4 f+16 _V4 f+16 g16 [ a32 _V-4 a32 _V4 ]2 a16 _V-4 a16 _V4 [ g32 _V-4 g32 _V4 ]3 g16 [ b32 _V-4 b32 _V4 ]2 b16 _V-4 b16 _V4 [ a32 _V-4 a32 _V4 ]3 a16 > c16 _V-4 c16 _V4 c8 < b2 P0,11,6 b4. r8 P19,11,6 @@2,0,1 V9 e32 _V-4 e32 _V4 e16 _V-4 e16 _V4 e16 g4 a32 _V-4 a32 _V4 a16 _V-4 a16 _V4 a16 > c4 < r16 b16 _V-4 b16 _V4 b16 > d16 < b16 > d8 _V2 e8 r4. r2 
!3  `AE00 `9F00 @A3 E100,100,80,3,4 P12,10,13 V3 O1 EP-4,-2,0,1,1 e16. r32 e16 d16. r32 d32 r32 d8 c16. r32 c16 < b16 r4 > L O1 e8 r16 < b16 r16 > e8 < b16 > d16 r16 d16 e8. r8 e8 r16 < b16 r16 > e8 < b16 > d8 r16 d16 e8 r16 e16 < a16 > e16 r16 a16 r16 e8 a16 < b16 > f+16 r16 b16 r16 a16 r16 b16 e32 r32 e8 < b16 r16 > e8 < b16 > d32 r32 d8 < a16 r16 > d8 d16 e8 r16 e8 g16 e8 < a16 > e16 r16 a16 r16 a16 r16 e16 < a16 > e16 r16 a16 r16 e16 r16 a16 [ < [ b32 r32 ]2 r16 > f+16 ]2 < b8 r16 b4 > c16 < b16 b32 r32 r8 a32 r32 a16. r32 a16 b8. r32 > f+32 b32 r32 b8 f+16 < b16 b32 r32 r8 a32 r32 a16. r32 a16 b8 r16 b8 > f+16 a32 f+32 a16 < b8 r4. > e16 g8 a8 a+16 b8 e8 r16 < b16 r16 > e16 r16 < b16 > d8 r16 < a16 r16 > d16 r16 < a16 > e8 r16 < b16 r16 > e16 r16 < b16 a8 r16 < e8 a8 e16 < b64 r64 b32 r32 b64 r64 b32 r32 b16. r32 b32 r32 b16. r32 [ b64 r64 ]4 b32 r32 b16. r32 b32 r32 b8 > e4 g8 r16 g16 a4 > c32 r32 c8 < c16 < b8 r4. > e8 r16 < b16 > e32 r32 e8 < b16 > e8 r16 e8 < b16 > d16 < b16 
!4  V15 r2 r8. @8 x16 r4 L [ @5 x16 @6 x16 ]3 @6 x16 @8 x16 @5 x16 @6 x16 x16 @8 x16 r4 [ @5 x16 @6 x16 ]2 [ @5 x16 @6 x32 x32 ]2 [ @5 x32 @6 x32 @7 x16 ]2 @5 x16 @6 x32 x32 @5 x32 @6 x32 x32 x32 [ @5 x16 @6 x32 x32 ]2 @5 x32 @6 x32 @7 x16 @5 x16 @6 x32 x32 [ @5 x16 @6 x32 x32 ]2 [ @5 x32 @6 x32 @7 x16 ]2 [ @5 x16 @6 x32 x32 ]8 @5 x16 x16 x16 @7 x8 r8. [ [ @5 x16 @6 x16 ]3 @5 x16 @6 x32 x32 ]2 @6 x16 x32 x32 @5 x16 @6 x32 x32 @7 x16 @6 x32 x32 @5 x16 @6 x32 x32 @5 x16 @6 x32 x32 x16 @7 x8 @6 x32 x32 r16 r16 [ @5 x16 @6 x32 x32 ]2 @7 x16 @6 x32 x32 @5 x16 @6 x32 x32 @5 x16 @6 x32 x32 @5 x32 @6 x32 x32 x32 [ @5 x16 @6 x32 x32 ]2 [ @5 x16 @6 x32 x32 ]4 @5 x16 @6 x32 x32 x16 @7 x16 r16 @6 x16 x16 x16 x8 r4. r16 @7 x16 r16 x16 r16 x16 @5 x16 @6 x32 x32 [ @5 x16 @6 x32 x32 ]2 @5 x32 @6 x32 @7 x16 @5 x16 @6 x32 x32 [ @5 x16 @6 x32 x32 ]2 [ @5 x32 @6 x32 @7 x16 ]2 [ @5 x16 @6 x32 x32 ]4 [ @5 x16 @6 x32 x32 ]2 [ @5 x32 @6 x32 @7 x16 ]2 @5 x32 x16 x32 x16 @7 x8 @5 x16 x8 @5 x32 @6 x32 x32 x32 @5 x16 @7 x8 r8. [ @5 x16 @6 x32 x32 ]2 @5 x32 @6 x32 @7 x16 @5 x16 @6 x32 x32 [ @5 x16 @6 x32 x32 ]2 [ @5 x32 @6 x32 @7 x16 ]2 @5 x8 r4. [ @7 x16 @5 x32 @6 x32 ]2 @5 x32 @6 x32 @7 x16 @5 x32 @6 x32 x32 x32 @5 x16 @6 x32 x32 @5 x16 @7 x16 r4 
!5  V1 O2 @1 c32 c16 c32 c16 c16 r16 @2 < a16 a8 > @1 c16. c32 c16 r16 r16 @4 < b32 b32 b32 b32 b16 L V1 O2 @0 c8 @1 c8 @0 c8 r8 @0 c8 @1 c16 @0 c16 r16 @2 < a32 a32 f32 e32 c16 > O2 @0 c8 @1 c8 @0 c8 @1 c8 @0 c8 @1 c8 @0 c16 @1 c32 V0 c32 V1 c32 c32 V0 c16 V1 [ @0 c8 @1 c8 @0 c8 @1 c8 ]4 @1 c16 c16 r16 @0 c16 r16 @2 < a16 e32 e32 e32 e32 > [ @0 c8 @1 c8 @0 c8 @1 c8 ]3 @0 c8 @1 c8 r16 @2 < b32 a32 g32 e32 c16 > [ @0 c8 @1 c8 @0 c8 @1 c8 ]3 @0 c16 @1 c16 c16 c16 @0 c16 @2 < a32 f32 a32 f32 a16 > @0 c8 r4. c16 c8 c8 c16 @2 c32 < a32 f32 e32 > [ @0 c8 @1 c8 @0 c8 @1 c8 ]4 @4 O1 b32 b16 b32 b16 b16 r16 b16 b8 b32 b32 b32 b32 b16 b8 > b32 b32 < b32 b32 > b16 < e8 O2 @1 c8 @0 c8 @1 c8 @0 c8 @1 c8 @0 c8 @1 c8 @4 O1 b8 r4. O2 @0 c8 @1 c8 @0 c8 @1 c8 @0 c8 @1 c16 @0 c16 r16 @2 c32 c32 < a32 f32 e16 > 
!6  V1 YLR O2 @9 g32 g32 r32 g32 b16 a16. r32 a16 f+8 [ g64 r64 ]4 g32 r32 f+16 r16 b8 r32. @30 V1 YLR O2 c8 c8 c4 r64 L r4. r16 @4 O1 b16 > e8 r4. r4 r16 @3 O2 e32 e32 g32 a32 b8 V0 Y.R b8 YL. b8 r8. V1 YLR r4 r16 b32 a32 r32 g32 f+16 V0 Y.R r32 g32 f+16 V1 YLR r4. r2 r2 r2 r2 @4 O2 < r4 b8 V0 YL. b8 V1 YLR b8 r16 b8 b32 V0 b32 V1 b32 b32 b16 r2 r2 r2 r4 r16 @3 O2 f+16 a32 f+32 a16 b8 V0 Y.R b8 YL. b8 r8 V1 YLR e16 g8 a8 a+16 b16 V0 Y.R b16 V1 YLR @40 O1 V1 [ b32 > e32 < ]8 [ a32 > d32 < ]8 [ b32 > e32 < ]8 > [ c32 e32 ]8 < @3 O1 YLR V1 b32 b16 b32 > e16 @3 W0,30,5 f+16. @3 V0 f+32 V1 f+16 @3 W0,30,5 e8 @3 [ f+32 ]4 g16 @3 W0,30,5 f+16. V0 @3 f+32 @3 W0,30,5 V1 b8 @3 V0 b16 V1 YLR @3 r4. g8 r4. @3 W0,30,5 > c8 < @3 b8 r4. @30 V1 YLR O2 c8 @4 O1 YLR r8 e4 e8 r16 e8 r8~ r32. @30 V1 YLR O2 c8 c8 c4 r64 
