;020 001B0002
!1  T90 `2E63 E90,100,70,1,6 @@4,2,0 EP-8,0,0,1,3 P15,10,8 V8 O2 YLR D0 f24 g24 _V-4 g24 _V4 g24 _V-4 g24 _V4 f24 g4 _V-4 g12 _V4 a+12 > c12 E100,80,80,1,8 EPX @@X @2 V5 O5 PX `2E01 r48 Y.R c24 _V-4 YL. c24 _V4 Y.R c24 _V-4 YL. c24 _V4 Y.R c24 YL. c24 _V-4 Y.R c24 _V4 YL. c24 Y.R c24 _V-4 YL. c24 _V4 Y.R c24 YL. c24 _V-4 Y.R c24 _V4 YL. c48 E90,100,70,1,6 @@4,2,0 EP-8,0,0,1,3 P15,10,8 V8 O2 YLR `2E63 a+24 > c24 _V-4 c24 _V4 c24 _V-4 c24 _V4 < a+24 > c4 _V-4 c12 _V4 c12 _V2 g12 E100,80,80,1,8 EPX @@X @2 V4 O5 PX `2E01 r48 _V-4 Y.R c24 _V4 YL. c24 Y.R c24 _V-4 YL. c24 _V4 Y.R c24 YL. c24 _V-4 Y.R c24 _V4 YL. c24 Y.R c24 _V-4 YL. c48 E100,50,20,1,8 EPX @@X @2 V3 O5 PX `2E01 _V2 c24 c24 _V-2 YL. c24 YLR ) c24 c24 c24 _V-4 Y.R c24 _V4 c24 c24 _V-4 YL. c24 _V4 YLR c24 c24 _V-4 Y.R c24 _V4 YLR c24 c24 _V-4 YL. c24 _V4 YLR c24 c24 _V-4 E90,100,70,1,6 @@4,2,0 EP-8,0,0,1,3 `2E63 P15,10,8 V6 O3 YLR < r48 d+24 d24 c6 _V-4 c6 _V-2 c6 r12. r48 L E100,80,80,5,0 @@2,0,1 P15,8,4 V6 O2 EP-2,0,0,3,0 g12 g6 > c12 d+12 d+12 d12 c12 d12 d6 d+12 d12 _V-4 d12 d12 r12 _V4 < b12 b6 > c12 d12 d12 c12 < b12 > c12 c12 c12 d12 d+12 _V-4 d+12 d+12 _V4 < g12 > c12 c12 c12 f12 g+12 g+12 g12 f12 d+6 d+12 c12 d+12 _V-4 d+12 _V4 d12 c12 < b12 b12 _V-2 b12 _V2 b12 > d12 < b12 g12 f12 g12 f12 d+8 _V-4 d+8 r12 _V4 d+12 d+12 d6 f6 a+12 > c12 d12 d12 c12 d12 d+12 _V3 EP-12,0,0,30,0 E100,60,40,3,15 @@4,0,2 g+12 EP-2,0,0,1,0 a+6 _V-5 a+12 E100,80,80,5,0 @@2,0,1 P15,10,4 V6 O3 EP-2,0,0,3,0 d+12 d6 d12 d12 d6 e12 f+12 EP-8,0,0,30,0 E100,60,40,3,15 @@4,0,2 O3 EP-2,0,0,1,0 _V3 g12 f12 d24 c12. < a+6 E100,80,80,5,0 @@2,0,1 P15,10,4 V6 O3 EP-2,0,0,3,0 d12 d12 d+6 d+6 c12 d6 < b4 _V-4 b6 E90,100,70,1,6 @@4,2,0 EP-8,0,0,1,3 `2E63 P15,10,8 V8 O2 YLR g12. a12. b12 E100,80,80,5,0 @@2,0,1 P15,10,4 V8 O3 EP-2,0,0,3,0 D0 YLR g6 g6 g6 f6 g6 f12 d+6 _V-2 E90,100,70,1,6 @@4,2,0 EP-8,0,0,1,3 P15,10,8 V4 O2 `2E63 d+24 _V-2 d+24 _V2 d+24 f24 g24 _V-2 g24 _V2 E100,80,80,5,0 @@2,0,1 P15,10,4 V8 O3 EP-2,0,0,3,0 D0 YLR f12 f12 f12 f12 c12 d6 d+4 _V-4 d+6 _V4 r6 r6 c6 c12 c6. < g12 g+12 a+6 g12 d+6 EP0,0,-60,15,30 E100,60,40,3,15 @@4,0,2 Y.R V6 O2 PX g6. E100,80,80,5,0 @@2,0,1 P15,10,4 V6 O2 EP-2,0,0,3,0 D0 YLR f+6 f+6 a6 > c12 < b4 _V-4 b4 _V4 g12 g12 f12 d+12 V8 > g12 g12 f12 e6 _V-4 e6 _V4 r12 f12 > c12 < a+12 g+6 _V-4 g+6 V6 d6 d6 g12 f6 d+4 _V-2 d+4 _V-2 d+6 r12 E90,100,70,1,6 @@3,1,2 EPX P15,10,8 V6 O3 YLR g24 _V-4 g24 _V4 g24 f+24 g24 a+24 a24 g24 f24 _V-4 f24 _V4 f24 e24 f24 a24 g24 f24 d+24 _V-4 d+24 _V4 d+24 d24 d+24 g24 f24 d+24 d24 _V-4 d24 _V-2 d24 r24 _V6 E90,100,70,1,6 @@4,1,3 EP-2,0,0,1,3 `2E63 P15,10,8 V6 O3 YLR g24 f24 d+24 d24 c6 _V-2 c6 _V-2 c6 < _V4 g24 f24 d+24 d24 c6 _V-2 c6 _V-2 c6 r6 
!2  O2 `2E63 E90,100,70,1,6 @@4,2,0 EP-8,0,0,1,3 P15,10,8 V8 O2 YLR a+24 > c24 _V-4 c24 _V4 c24 _V-4 c24 _V4 < a+24 > c4 _V-4 c12 _V4 d+12 E100,50,20,1,8 EPX @@X @2 V8 O5 PX `2E01 c24 c24 c24 _V-4 c24 _V4 c24 _V-4 c24 _V4 c24 c24 _V-4 c24 _V4 c24 c24 _V-4 c24 _V4 c24 c24 _V-4 c24 _V4 c24 E90,100,70,1,6 @@4,2,0 EP-8,0,0,1,3 P15,10,8 V8 O3 `2E63 d+24 f24 _V-4 f24 _V4 f24 _V-4 f24 _V4 d+24 f4 _V-4 f12 _V4 f12 `2E01 E100,50,20,1,8 EPX @@X @2 V8 O5 PX c24 c24 _V-4 c24 _V4 c24 c24 _V-4 c24 _V4 c24 c24 _V-4 c24 _V4 c24 c24 _V-4 c24 _V4 L `2E63 E90,100,70,1,6 @@4,2,0 EP-8,0,0,1,3 P15,10,8 V4 O3 YLR D-1 g24 f24 d+24 d24 c6 _V-4 c6 _V-2 c6 < _V6 g24 f24 d+24 d24 c6 _V-4 c6 _V-2 c6 r6 E100,80,80,5,0 @@2,0,1 P15,10,4 V8 O3 EP-2,0,0,3,0 D0 c12 c6 d+12 g12 g12 f12 d+12 f12 f6 g12 f12 _V-4 f12 _V-2 f12 r12 _V6 d12 d6 d+12 f12 f12 d+12 d12 d+12 d+12 d+12 f12 g12 _V-4 g12 _V-2 g12 _V6 c12 f12 f12 f12 g+12 > c12 c12 < a+12 g+12 g6 g12 d+12 g12 _V-4 g12 _V4 f12 d+12 d12 d12 _V-2 d12 _V2 d12 g12 f12 d+12 d12 d+12 d12 c8 _V-4 c8 r12 _V4 c12 c12 < a+6 a+6 > d12 d+12 f12 f12 d+12 f12 g6 EP-2,0,0,1,0 E100,60,40,3,15 @@4,0,2 Y.R V6 D-1 r48 a+12. r48 YLR E100,80,80,5,0 @@2,0,1 P15,10,4 V8 O3 EP-2,0,0,3,0 D0 g12 g12 f+6 f+12 f+12 f+6 g12 a12 a+6 EP-2,0,0,1,0 E100,60,40,3,15 @@4,0,2 Y.R V6 O3 D-1 r48 d24 c12. < a+12. r48 E100,80,80,5,0 @@2,0,1 P15,10,4 V8 O3 EP-2,0,0,3,0 D0 YLR a+12 a+12 g+6 g+6 d+12 f6 g4 _V-4 g6 E90,100,70,1,6 @@4,2,0 EP-8,0,0,1,3 P15,8,8 V10 O2 `2E63 b12. > c12. d12 E100,80,80,5,0 @@2,0,1 P15,10,4 V8 O3 EP-2,0,0,3,0 D0 YLR > c6 c6 c6 < a+6 > c6 < a+12 g6 _V-4 E90,100,70,1,6 @@4,2,0 EP-8,0,0,1,3 P15,10,8 V6 O2 `2E63 g24 _V-4 g24 _V4 g24 g+24 a+24 _V-4 a+24 _V4 E100,80,80,5,0 @@2,0,1 P15,10,4 V8 O3 EP-2,0,0,3,0 D0 YLR g+12 _V-2 g+12 _V2 g+12 _V-2 g+12 _V2 d+12 f6 g4 _V-4 g6 _V4 r6 r6 f6 f12 f6. d+12 f12 g6 d+12 c6 EP0,0,-50,15,30 E100,60,40,3,15 @@4,0,2 Y.R V8 O3 PX g6. E100,80,80,5,0 @@2,0,1 P15,10,4 V8 O3 EP-2,0,0,3,0 D0 YLR d6 d6 d6 d+12 d4 _V-4 d4 _V4 d+12 d+12 d12 c6. _V-4 c6 _V4 c12 > c12 < a+12 g+4 _V-4 g+4 _V4 r6 g6 g6 a+12 > d6 c4 _V-4 c4 _V-2 c6 r12 E90,100,70,1,6 @@3,1,2 EPX P15,10,8 V8 O4 YLR c24 _V-6 c24 _V6 c24 < b24 > c24 d+24 d24 _V-2 c24 _V2 < a+24 _V-6 a+24 _V6 a+24 a24 a+24 > d24 c24 < _V-2 a+24 _V2 g+24 _V-6 g+24 _V6 g+24 g24 g+24 > c24 < a+24 g+24 g24 _V-4 g24 _V-2 g24 r24 _V6 
!3  V3 O1 `9F00 `2E09 @A3 `AE00 E100,95,90,12,0 < V2 a+24 > V3 c12 V2 c12 < a+24 > V3 c12. V2 c12. V3 c12 < V2 g24 a+24 > V3 c12 r6. r6 r6 < V2 d+24 V3 f12 V2 f12 d+24 V3 f12. V2 f12. V3 f12 V2 f12 V3 g12 r6. r6 r6 > L [ c12 r12 < g12 r12 > ]4 V3 [ c12 r12 < g12 r12 > ]2 [ f12 r12 c12 r12 ]2 g12 r12 d12 r12 < V3 g12 V2 g12 a12 b12 V3 [ c12 r12 < g12 r12 > ]2 [ f12 r12 c12 r12 ]2 [ c12 r12 < g12 r12 > ]2 [ d12 r12 < g12 r12 > ]2 c12 r12 < g12 r12 > c12 r12 c12 V2 c12 V3 < a+4 V1 a+12 r12 V2 a+12 > V3 c12 d12 d+4 V1 d+12 r12 V2 < a+12 > V3 d12 d+12 d4 V1 d12 r12 V2 d12 V3 e12 f+12 g4 V1 g12 r12 V2 d12 V3 f12 g12 g+6 V1 g+12 V2 d+12 V2 g+12 V3 g+6 g6 V1 g12 V2 g12 V1 g12 V3 g12. g12. V2 g12 V3 [ c12 r12 < g12 r12 > ]4 [ f12 r12 c12 r12 ]2 c12 r12 < g12 r12 > V2 c12 c12 d12 V2 d+12 V3 [ f12 r12 c12 r12 ]2 [ c12 r12 < g12 r12 > ]2 d12 r12 < a12 r12 > d12 r12 a12 V3 < g6 V2 g12 V3 g12 V2 g12 V3 g12 V1 g12 r6 V3 > c12 r12 < g12 r12 > c12 V2 c12 V3 d12 V2 e12 V3 [ f12 r12 c12 r12 ]2 g6 r12 V1 g12 V3 V2 g12 V3 g6 c4 r12 < r12 V2 > c12 V1 c12 < g24 V3 g+24 V2 a+24 b24 > [ V3 c12 V1 c12 < V3 g12 V1 g12 > H-2 ]2 H0 < V3 g+12 V1 g+12 > V3 d+12 V2 g+12 V3 g12 V1 g12 V3 < g12 V1 g12 V3 
!4  @6 x24 @5 x12 x12 @6 x24 @7 x12 @6 x6 x6 r6 r6 r6 r6 @6 x24 @5 x12 x12 @6 x24 @7 x12 @6 x6 x6 r6 r12 x12 x6 @8 x6 L [ r12 @5 x12 ]8 [ r12 @5 x12 ]30 @7 x12 r12 @6 x12 @5 x12 [ @5 x12 @6 x12 ]16 @7 x6 @6 r12 x12 @5 x12 @8 x6 x6 @6 x12 @5 x12 @6 x12 @8 x12. x12. @7 x12 [ r12 @5 x12 ]16 [ r12 @5 x12 ]11 @7 c12 @6 c12 c6 @6 c6 r6 c6 [ r12 @5 x12 ]8 @8 x6 @6 x6 x12 @7 x6 @8 x6 r6 @6 x12 x6 x6 [ r12 @5 x12 ]7 @8 x6 
!5  V1 O2 @0 c6 r6 c24 Y.R @2 V0 d+48 d+48 V1 d+24 V0 d+24 YLR V1 c24 c24 YL. < g+12 YLR > [ @0 c6 ]3 @1 V0 c24 V1 c24 YL. @2 < g+12 YLR > V1 O2 @0 c6 r6 c24 Y.R @2 V0 d+48 d+48 V1 d+24 V0 d+24 YLR V1 c24 c24 YL. < g+12 YLR > @0 c6 c6 @1 c12. V0 c24 V1 c6 L [ V1 @0 c12 V0 @1 c12 ]8 [ V1 @0 c12 V0 @1 c12 ]30 V1 c6 r6 [ @0 c6 @1 c6. @0 c12 @1 c6 ]3 @0 c6 @1 c6. @0 c12 @1 V1 c12 V0 @0 c12 V1 @0 c6 @1 c12 r24 V0 c24 V1 c12 @0 c6 c6 r12 @1 c6 @0 c12. c12. c12 [ V1 @0 c12 V0 @1 c12 ]16 [ V1 @0 c12 V0 @1 c12 ]11 V1 c12 @0 c6 @1 V0 c12 V1 c12 c12 @0 c12 @1 c12 V0 c24 V1 c24 Y.R @2 < g+12 YLR > [ V1 @0 c12 V0 @1 c12 ]8 @0 c6 r6 @1 c12 @0 c6 V0 c6 @2 YL. d+12 V1 d+12 V0 YLR @0 c12 V1 @2 c12 < Y.R V0 g+12 V1 g+24 g+24 YLR O2 @0 V1 c12 [ V1 @0 c12 V0 @1 c12 ]6 @0 c12. @1 V0 c24 V1 c6 
!6  O2 @28 W0,97,47 O1 V1 a+24 > c24 V0 c24 V1 c24 V0 c24 < V1 a+24 > c12~ c6 V0 c12 V1 d+12 c12 r6. r6 r6 @28 W0,97,47 V1 d+24 f24 V0 f24 V1 f24 V0 f24 V1 d+24 f12~ f6 V0 f12 V1 f12 g12 r6. r6 L @28 W0,97,47 O2 V1 g24 V0 f24 d+24 d24 V1 c6 V0 c6. r12 < g24 f24 d+24 d24 V1 c6 V0 r6. r12 r6 @6 r6 r6 r6 r6 r6 r6 r12 O2 V1 g+24 g24 f24 d+24 d24 c24 < [ b24 b24 V0 ]6 r6 > V1 [ c48 g48 c48 g48 V0 ]5 r12 V1 c24 d24 d+24 V0 d+24 V1 [ f48 g+48 f48 g+48 V0 ]6 r6 V1 [ c48 g48 c48 g48 V0 ]6 r6 V1 < [ g24 g24 V0 ]6 r12 V1 b24 V0 b24 V1 [ > c48 < g48 > c48 < g48 V0 ]4 @7 > c6 r6 @15 W0,97,57 [ V1 O1 a+6 V0 Y.R a+6 YL. a+6 r6 YLR H5 ]2 H0 V1 O2 d6 V0 Y.R d6 YL. d6 r6 YLR V1 O2 g6 V0 Y.R g6 YL. g6 @9 V1 YLR a+12 a+12 g+6 g+6 d+12 f6 g6 V0 Y.R g6 YL. g12 YLR V1 @3 O1 b12. > c12. d12 d+6 V0 Y.R d+6 YL. d+6 @15 W0,97,57 Y.R c6 YLR c6 Y.R c6 YL. c6 r6 < YLR V1 f6 Y.R V0 f6 YL. f6 r6 YLR V1 g6 @28 > V1 c24 d24 d+6 V0 d+6 r12 @9 V1 f6 V0 Y.R f6 YLR V1 @6 [ f48 g+48 V0 f48 g+48 ]4 [ g48 c48 g48 c48 V0 ]6 r6 V1 [ f+48 d48 f+48 d48 V0 ]2 V1 @13 < a6. V0 a12 a12 @14 V1 g6 V0 g24 r24 V1 g24 r24 V0 g24 r24 V1 g12 @9 > V0 d+12 d+12 d12 c12 @6 V0 g12 V1 g12 V0 f12 V1 g48 e48 V0 g48 e48 @9 c12 > c12 < a+12 g+12 @6 V0 c12 > V1 c12 < V0 a+12 V1 [ g+48 f48 g+48 f48 V0 ]4 [ V1 g48 d48 g48 d48 V0 g48 d48 r24 ]2 V1 g12 V1 b48 d48 V0 b48 d48 b48 d48 r24 g12 V1 g48 d+48 g48 d+48 V0 @15 W0,95,57 V0 g12 V1 g12 V0 f12 V1 f24 d+12. V0 f24 d+12. V0 YLR @9 O2 V1 c6 r12 V0 c12 < V1 a+6 r12 V0 a+12 V1 g+6 r12 V0 g+12 V1 g12 V0 g12 
