;021 001B0E08
!1  T90 @@4,2,0 E90,100,70,1,6 EP-14,0,0,3,3 P20,11,2 V8 O3 e6 D0 YLR SD6 SR1 O5 @3 EPX YLR EX PX V5 [ [ Y.R c128 YL. g+128 ]2 H-1 ]2 H-2 [ [ Y.R c128 YL. g+128 ]2 H-3 ]2 H-4 [ [ Y.R c128 YL. g+128 ]2 H-5 ]2 H-6 [ [ Y.R c128 YL. g+128 ]2 H-7 ]2 H-8 [ [ Y.R c128 YL. g+128 ]2 H-9 ]2 H-10 V4 [ [ Y.R c128 YL. g+128 ]2 H-11 ]2 H-12 [ [ Y.R c128 YL. g+128 ]2 H-13 ]2 H-14 [ [ Y.R c128 YL. g+128 ]2 H-15 ]2 H-16 [ [ Y.R c128 YL. g+128 ]2 H-17 ]2 H-18 V2 [ [ Y.R c128 YL. g+128 ]2 H-19 ]2 H-20 [ [ Y.R c128 YL. g+128 ]2 H-21 ]2 H-22 [ [ Y.R c128 YL. g+128 ]2 H-23 ]2 H-24 [ [ Y.R c128 YL. g+128 ]2 H-25 ]2 H-26 [ [ Y.R c128 YL. g+128 ]2 H-27 ]2 V1 H-28 [ [ Y.R c128 YL. g+128 ]2 H-29 ]2 H-30 [ [ Y.R c128 YL. g+128 ]2 H-31 ]2 H-32 [ [ Y.R c128 YL. g+128 ]2 H-33 ]2 H-34 [ [ Y.R c128 YL. g+128 ]2 H-35 ]2 H-36 r24 SD0 SR0 H0 YLR @@4,2,0 E90,100,70,1,6 EP-14,0,0,3,3 O3 P20,11,2 V8 [ e24 _V-4 e24 _V-2 e24 r24 _V6 ]2 [ e24 _V-4 e24 _V-2 e24 _V6 ]2 _V-2 e24 _V-4 e24 _V6 e24 _V-6 e24 _V6 f12 _V-6 f12 _V6 e6. _V-6 e6 _V6 L EPX E80,100,80,1,12 @@4,3,2 P19,9,6 O2 V4 r48 D-1 [ f12 g12 g+12 _V-2 g+12 _V2 ]2 g12 _V-2 g12 _V2 a+12 g+12 g12 f12 g12 _V-2 g12 _V2 g+12 g+12 f6 g12 g+12 a+12 g+12 g12 f12 e12 f12 g12 _V-4 g24. _V4 @@4,2,0 E90,100,70,1,6 EP-24,0,0,3,3 P20,11,2 V6 D0 O2 c12 _V-4 c12 _V4 EPX E80,100,80,1,12 @@4,3,2 P19,9,6 D-1 r48 O2 V4 f12 g12 g+12 _V-2 g+12 _V2 g12 g+12 a+12 _V-2 a+12 _V2 g+24 g+24 g+24 g+24 _V2 a+12 > c+12 c12 _V-2 c12 c12 r12 _V2 < a+12 a+12 a+12 g+12 g12 g+12 a+12 a+12 g+12 g12 e12 g12 f12 _V-2 f24. @@4,2,0 E90,100,70,1,6 EP-24,0,0,3,3 P20,11,2 V6 D0 O2 f12 _V-4 f12 EPX E80,100,80,1,12 @@4,3,2 P15,9,3 D-1 r48 O2 V4 c6 _V-2 c6 _V2 f6~ g+6 g6. g12 d+6 _V-2 d+6 _V2 c+6 _V-2 c+6 _V2 f6~ a+6 g12. r48 @@4,2,0 E90,100,70,1,6 EP-24,0,0,3,3 P20,11,2 V6 D0 O2 e6 _V-4 e12 _V4 e24 _V-2 e24 _V2 e24 e24 e24 _V-4 e24 EPX E80,100,80,1,12 @@4,3,2 P15,9,3 D-1 r48 O2 V4 g+12 g+12 g12 f12 > c+24. @@4,2,0 E90,100,70,1,6 EP-24,0,0,3,3 P20,11,2 V6 D0 O2 c+12 c+12 _V-4 c+12 EPX E80,100,80,1,12 @@4,3,2 P15,9,3 O3 V4 r48 D-1 c12 c12 < a+12 g+12 g6 > c12 _V-2 c12 _V2 < f12. r48 @@4,2,0 E90,100,70,1,6 EP-24,0,0,3,3 P20,11,2 V6 O2 D0 c12. _V-4 c24 _V4 [ c12 _V-4 c24 _V4 ]2 c24 _V-4 c24 EPX E80,100,80,1,12 @@4,3,2 P15,9,3 O2 V4 r48 D-1 g12. r48 D0 PX EPX O4 V6 @1 g48 @2 > g48 < g48 _V-2 g48 [ @2 g48 @1 g48 g48 @2 g48 ( ]4 EPX E80,100,80,1,12 @@4,3,2 P15,9,3 O2 V4 r48 D-1 a+12 a+12 a+24. D0 PX EPX O4 V6 @1 g48 @2 > g48 < g48 _V-2 g48 [ @2 g48 @1 g48 g48 @2 g48 ( ]4 EPX E80,100,80,1,12 @@4,3,2 P15,9,3 r48 D-1 O2 V2 a+12 _V3 > c12. r48 D0 PX EPX O4 V6 @1 g48 @2 > g48 < g48 _V-2 g48 [ @2 g48 @1 g48 g48 @2 g48 ]4 @@4,2,0 E90,100,70,1,6 EP-12,0,0,3,3 P20,11,2 V6 O3 _V-4 e12 EPX E80,100,80,1,12 @@4,3,2 P15,9,3 O3 r48 V4 D-1 c+12 c+6 c12 < a+6 _V-2 a+12 _V2 g+12 g12 g+12 a+12 g+12 g6 g+12 _V-2 g+12 _V2 f24. PX EPX O4 V6 [ @1 f48 @2 > f48 < _V-2 f48 _V-2 @2 f48 _V4 ]3 _V-4 @1 f48 @2 > f48 < f48 @2 f48 _V2 @1 f48 @2 > f48 < f48 _V-2 @2 f48 _V2 _V2 @1 f48 @2 > f48 < f48 _V-2 @2 f48 _V-4 @1 f48 @2 > f48 < f48 @2 f48 EPX E80,100,80,1,12 @@4,3,2 P15,9,3 O2 r48 D-1 V4 g12 g12 _V-2 g12 _V2 g+12 a+24. @@4,2,0 E90,100,70,1,6 EP-24,0,0,3,3 P20,11,2 V4 O2 D0 d+24 r24 _V4 d+24 d+24 d+24 _V-6 d+24 EPX E80,100,80,1,12 @@4,3,2 P15,9,3 O2 D-1 V4 r48 g+12 g+12 _V-2 g+12 _V2 a+12 > c24. @@4,2,0 E90,100,70,1,6 EP-24,0,0,3,3 P20,11,2 V4 D0 O2 d+24 r24 _V4 d+24 d+24 d+24 _V-6 d+24 EPX E80,100,80,1,12 @@4,3,2 P15,9,3 O3 D-1 V4 r48 c+12 _V-3 c+12 _V3 c12 < a+12 > c12 _V-3 c12 _V3 < a+12 g+12 g12 _V-3 g12 _V3 a+12 _V-3 a+12 _V3 > c+12. < g+12. a+12 > c12. r48 @@4,2,0 E90,100,70,1,6 EP-24,0,0,3,3 P20,11,2 V6 D0 O2 a+12 > c6 < a+12 g12 _V-4 g12 EPX E80,100,80,1,12 @@4,3,2 P15,9,3 O2 D-1 r48 V4 a+6 _V-2 a+12 _V2 > c12 c+6 _V-2 c+12 _V2 < a+12 g+12 g+6 a+12 > c12. r48 @@4,2,0 E90,100,70,1,6 EP-24,0,0,3,3 P20,11,2 V6 D0 O2 c12 _V-4 c12 EPX E80,100,80,1,12 @@4,3,2 P15,9,3 O2 D-1 V4 r48 g4 _V-2 g12 _V2 > c6 _V-2 c12 _V2 < e12 f4 _V-4 f4 _V-2 f12. r48 
!2  @@4,2,0 E90,100,70,1,6 EP-14,0,0,3,3 P20,11,2 V10 O3 a+6 P0,11,2 @0 EX EPX _V-4 a+6 _V-2 a+6 _V-2 a+6. a+6. E40,60,90,15,15 _V8 a+6. E90,100,70,1,6 _V-8 a+12 @@4,2,0 E90,100,70,1,6 EP-14,0,0,3,3 P20,11,2 V10 [ a+24 _V-6 a+24 _V-2 a+24 r24 _V8 ]2 [ a+24 _V-6 a+24 _V-2 a+24 _V8 ]2 _V-2 a+24 _V-6 a+24 _V8 a+24 _V-6 a+24 _V6 b12 _V-4 b12 _V4 > c6. _V-6 c6 _V6 L EPX E80,100,80,1,12 @@4,3,2 P15,9,3 O2 V8 [ f12 g12 g+12 _V-4 g+12 _V4 ]2 g12 _V-6 g12 _V6 a+12 g+12 g12 f12 g12 _V-4 g12 _V4 g+12 g+12 f6 g12 g+12 a+12 g+12 g12 f12 e12 f12 g12 _V-4 g12 _V4 @@4,2,0 E90,100,70,1,6 EP-24,0,0,3,3 P20,11,2 V8 O2 g12 _V-6 g12 _V6 EPX E80,100,80,1,12 @@4,3,2 P15,9,3 O2 V8 f12 g12 g+12 _V-4 g+12 _V4 g12 g+12 a+12 _V-4 a+12 _V4 g+24 _V-2 g+24 g+24 g+24 _V2 a+12 > c+12 c12 _V-4 c12 _V-2 c12 r12 _V6 < a+12 _V-2 a+12 _V2 a+12 _V-2 g+12 _V2 g12 _V-2 g+12 _V2 a+12 _V-2 a+12 _V2 g+12 _V-2 g12 _V2 e12 _V-2 g12 _V2 f6 @@4,2,0 E90,100,70,1,6 EP-24,0,0,3,3 P20,11,2 V8 O3 c12 _V-6 c12 _V6 EPX E80,100,80,1,12 @@4,3,2 P15,9,3 O2 V8 c6 _V-4 c6 _V4 f6~ g+6 g6. g12 d+6 _V-4 d+6 _V4 c+6 _V-4 c+6 _V4 f6~ a+6 g6 @@4,2,0 E90,100,70,1,6 EP-24,0,0,3,3 P20,11,2 V8 O3 c6 _V-6 c12 _V6 c24 _V-4 c24 _V4 c24 _V-2 c24 c24 _V-4 c24 EPX E80,100,80,1,12 @@4,3,2 P15,9,3 O2 V8 g+12 g+12 g12 f12 > c+12 @@4,2,0 E90,100,70,1,6 EP-24,0,0,3,3 P20,11,2 V8 O2 f12 f12 _V-6 f12 EPX E80,100,80,1,12 @@4,3,2 P15,9,3 O3 V8 c12 c12 < a+12 g+12 g6 > c12 _V-6 c12 _V6 < f6 @@4,2,0 E90,100,70,1,6 EP-24,0,0,3,3 P20,11,2 V8 O2 f12. _V-6 f24 _V6 [ f12 _V-6 f24 _V6 ]2 f24 _V-6 f24 EPX E80,100,80,1,12 @@4,3,2 P15,9,3 O2 V10 g6 _V-2 g12 g+12 _V2 a+12 _V-6 a+12 _V4 r12 a+12 _V2 a+12 _V-2 [ a+12 ]3 _V-6 a+12 _V4 g+12 _V2 a+6 > c12 @@4,2,0 E90,100,70,1,6 EP-12,0,0,3,3 P20,11,2 V8 O3 c12 e12 g12 _V-4 g12 _V4 a+12 > c12 _V-6 c12 EPX E80,100,80,1,12 @@4,3,2 P15,9,3 O3 V8 c+12 _V2 c+6 _V-2 c12 < _V2 a+6 _V-6 a+12 _V4 g+12 _V2 g12 g+12 a+12 g+12 g6 g+12 _V-6 g+12 _V6 f12 @@4,2,0 E90,100,70,1,6 EP-24,0,0,3,3 P20,11,2 V8 O3 f12 f12 f12 _V-4 f12 _V4 f12 f12 _V-6 f12 EPX E80,100,80,1,12 @@4,3,2 P15,9,3 O2 V8 g12 g12 _V-4 g12 _V4 g+12 a+12 @@4,2,0 E90,100,70,1,6 EP-24,0,0,3,3 P20,11,2 V4 O2 g24 r24 _V4 g24 g24 g24 _V-6 g24 EPX E80,100,80,1,12 @@4,3,2 P15,9,3 O2 V8 g+12 g+12 _V-4 g+12 _V4 a+12 > c12 @@4,2,0 E90,100,70,1,6 EP-24,0,0,3,3 P20,11,2 V4 O2 g+24 r24 _V4 g+24 g+24 g+24 _V-6 g+24 EPX E80,100,80,1,12 @@4,3,2 P15,9,3 O3 V8 c+12 _V-3 c+12 _V3 c12 < a+12 > c12 _V-3 c12 _V3 < a+12 g+12 g12 _V-3 g12 _V3 a+12 _V-3 a+12 _V3 > c+12. < g+12. a+12 > c6 @@4,2,0 E90,100,70,1,6 EP-24,0,0,3,3 P20,11,2 V8 O3 e12 g6 e12 c12 _V-6 c12 EPX E80,100,80,1,12 @@4,3,2 P15,9,3 O2 V8 a+6 _V-6 a+12 _V6 > c12 c+6 _V-6 c+12 _V6 < a+12 g+12 g+6 a+12 > c6 @@4,2,0 E90,100,70,1,6 EP-24,0,0,3,3 P20,11,2 V8 O2 f12 _V-6 f12 EPX E80,100,80,1,12 @@4,3,2 P15,9,3 O2 V8 g4 _V-6 g12 _V6 > c6 _V-4 c12 < _V4 e12 f4 _V-4 f4 _V-2 f6 
!3  `2E0E B1 `9F00 `AE00 O1 E100,100,70,3,4 @A3 V3 f+12 V2 f+12 [ f+12 f+12 ]7 [ V3 c24 V1 c24 r12 ]2 [ V3 c24 V1 c24 r24 ]2 V3 c24 V1 c24 V3 c24 V1 c24 V3 c+6 c6 V1 c6 r12 L E100,100,70,4,4 V3 f12 V1 f24 V3 f24 V1 f24 r24 V2 d+24 V3 f12 r24 V3 f24 r24 V2 c24 V3 f12 V1 f24 V3 d+12 V1 d+24 V3 d+24 V1 d+24 r24 V2 < a+24 V3 > c+24 V2 d+24 d+24 V3 d+12 V2 d+24 d+24 V3 d+12 V3 f12 V1 f24 V3 f24 V1 f24 r24 V2 f24 V1 f24 V2 d+24 d+24 V3 d+12 V3 d+12 V2 < g12 > V3 c12 V2 c24 V3 e12 V2 e24 V3 f12 V3 g24 V2 g24 V3 g24 V1 g24 > V3 c12 < V2 c12 V3 c+24 V2 c+24 V3 c+12 c+24 r24 c+24 r24 V3 d+24 V2 d+24 V3 d+12 EP-34,0,0,5,0 d+12 EPX d+12 V3 f12 V2 f12 V3 f+12 V2 f+12 V3 g+12 V2 g+12 V3 a24 V1 a24 V2 f12 V3 a+12 r24 V2 a+24 r12 V3 a+24 V1 a+24 > V3 d+12 V2 d+12 V3 d+24 < V2 g+24 V3 d+12 V3 c12 V1 c24 V2 c24 V2 r12 e12 V3 f12 f12 f24 V2 f24 c12 [ V3 f24 V1 f24 f24 H-2 ]2 H0 V3 e12 r24 V1 f24 V2 f12 V3 f12 c12 [ V3 c24 V1 c24 c24 ]2 V3 < a+12 < V2 a+24 V1 a+24 V2 a+12 > V2 c12 V3 c12 [ V3 c+24 V1 c+24 c+24 H-1 ]2 H0 V3 c+12 < [ V2 a+24 a+24 V3 b12 ]2 > V3 c12. V1 c24 V3 c24 e24 e12 V3 g24 V2 g24 V3 g24 V1 a+24 > V3 c12 < V2 c12 V3 c+12. V1 c+24 V3 c+12 V2 c24 < b24 V2 a+24 a+24 V3 a+12 a+12 V2 a+24 r24 > V2 c24 c24 V3 c24 V1 c24 V3 c12 V1 c24 V3 c12 V1 c24 V3 c12 V2 d12 e12 V3 f12. V1 f24 V2 f24 f24 V3 f12 V3 f24 f24 c12 f24 f24 c12 [ V3 c24 c24 V1 c24 ]2 [ V3 e24 e24 V1 e24 H1 ]2 H0 [ V3 f+24 V1 f+24 H1 ]2 H0 [ V3 c12 V1 c24 V2 c24 V3 c12 EP-34,0,0,8,0 V3 f+12 EPX r24 g24 V3 g12 [ V3 a+24 V1 a+24 H2 ]2 H0 ]2 V3 c+12 V1 c+24 V2 c+24 V3 c+12 V2 f24 f+24 V1 g24 V2 g+24 [ V3 g+24 V1 g+24 ]2 V2 c+12 [ V3 d+12. V1 d+24 H-2 ]2 H0 V3 c24 r24 c24 V1 c24 V3 c24 V2 d+24 V3 e24 V1 e24 O0 V1 f24 f24 > V3 f12 V2 f12 V3 f12 V1 f24 f24 V2 f12 V3 f24 V2 f24 f24 V1 f24 [ V3 d+24 d+24 V1 d+24 ]2 V3 d+24 V1 d+24 V2 d+24 g24 V3 g+12 V2 g+24 a24 V3 a+24 V1 a+24 V3 g+12 V1 g+12 r12 V2 g24 V1 g24 V3 g+12 V2 g+12 V3 d+12 V2 g+12 [ V3 f+24 f+24 V1 f+24 ]2 V3 g24 V2 g24 V3 g+24 V2 g+24 V3 g+12 EP0,0,-30,3,15 g+6 EPX c6 O0 V1 g24 r24 O1 V2 c12 V3 c+12. V2 c+12 r24 V3 c+12 [ V3 c24 c24 V1 c24 H4 ]2 H0 V3 f24 f24 V1 f24 V3 f+24 f+24 V2 f+24 g12 > V3 EP0,0,-40,1,8 c12 EPX < V2 a+24 a+24 V3 a+12 g+12 V2 a24 V3 a+12 V2 a+24 V3 a+12 V2 g+12 V3 a+12 EP-24,0,0,9,0 f12. EPX f12 V1 f24 V3 d+24 V2 e24 V3 f24~ V2 g+24 V3 f24 r24 EP0,0,-34,5,9 f6 EPX c12 V1 c24 [ V2 c24 V3 c24 V1 c24 H4 ]2 H0 V2 g24 V3 EP0,0,34,5,5 g12 EPX c12 V2 g12 V3 f12 V1 f24 V2 f24 V3 EP0,0,24,4,5 g+12 EPX V2 > c24 V3 c12 V2 d+24 V3 c24 V1 c24 EP0,0,-34,4,5 V3 f12 EPX < V2 c12 
!4  @1 x48 @8 x6~ x24. r6. r12 @6 x12 [ @5 x24 @6 x24 x24 x24 ]8 @6 x12 @5 x6 @8 x6. @6 x6 L [ @5 x24 @6 x24 x24 x24 x24 x24 x24 x24 ]14 @5 x24 @6 x24 x24 x12. @7 x12 @6 x12 @6 x12 x12 x12 @8 x12. @6 x24 x24 x24 x24 x24 [ @5 x24 @6 x24 x24 x24 x24 x24 x24 x24 ]5 @5 x24 @6 x24 x24 x24 x24 x24 @7 x12 @6 r12 x6 x12 @8 x12. @6 x24 x24 x24 x24 x24 [ @5 x24 @6 x24 x24 x24 x24 x24 x24 x24 ]3 @5 x24 @6 x24 x24 x24 x24 x24 @7 x12 @6 r12 x6 x12 @8 x12. @6 x24 x24 x24 x24 x24 [ @5 x24 @6 x24 x24 x24 x24 x24 x24 x24 ]3 @5 x24 @6 x24 x24 x24 x24 x24 @7 x12 @6 r12 x6 x12 @8 x12. @6 x24 x24 x24 x24 x24 [ @5 x24 @6 x24 x24 x24 x24 x24 x24 x24 ]3 @5 x24 @6 x24 @7 x12 @5 x24 @6 x24 @7 x12 @6 r12 x6 x12 @8 x12 @7 x24 x24 @5 x24 @6 x24 x24 x24 [ @5 x24 @6 x24 x24 x24 x24 x24 x24 x24 ]3 [ @5 x24 @6 x24 x24 x24 x24 x24 x24 x24 ]2 @5 x24 @6 x24 x24 x24 x24 @5 x24 x24 @6 x24 @7 x12. x12. x12 @8 x12. @6 x24 @5 x24 @6 x24 @7 x12 @6 r12 x6 x12 @8 x12 @7 x24 x24 @5 x24 @6 x24 x24 x24 [ @5 x24 @6 x24 x24 x24 x24 x24 x24 x24 ]4 @8 x12 @7 x24 x24 x24 @5 x24 @7 x12 @8 r6. @6 x6 x6 x24 @7 x24 
!5  @15 W0,95,57 O2 V1 e12~ e12~ e6~ e6~ e6~ e6~ e6~ e6~ e12 r12 @2 < V1 g+6 g+6 g+12. g+12. V0 g+12 V1 g+12 g+12 > V0 @0 c24 V1 c24 @1 c6 r6. L [ V1 @0 c6 @1 c6 V1 @0 c6 @1 c6 ]7 V1 @0 c6 @1 c24 c12. V1 @0 c12 @1 V1 c24 V0 c24 c24 c24 V1 c24 c24 [ V1 @0 c6 @1 c6 V1 @0 c6 @1 c6 ]3 V1 @0 c6 @1 c24 @0 V0 c12. V1 @2 Y.R d+24 [ d+24 ]3 YLR V0 c24 V1 c24 YL. < V1 g+24 V0 g+24 > YLR [ V1 @0 c6 @1 c6 V1 @0 c6 @1 c6 ]2 V1 @0 c6 @1 c6 V1 @2 Y.R d+24 YLR V0 @1 c24 V1 YL. @2 < g+24 YLR V0 @1 > c24 V1 c24 c24 YL. @2 < g+24 > YLR @1 V0 c24 [ V1 @0 c6 @1 c6 V1 @0 c6 @1 c6 ]2 V1 @0 c6 @1 V0 c24 V1 c12. V1 @0 c12 @1 c12 V0 c24 V1 c24 YL. < @2 g+12 > YLR [ V1 @0 c6 @1 c6 V1 @0 c6 @1 c6 ]2 V1 @0 c6 @1 V0 c24 V1 c12. @1 V1 c24 V0 c24 V1 c24 V0 c24 V1 c24 c24 c24 c24 [ V1 @0 c6 @1 c6 V1 @0 c6 @1 c6 ]3 V1 @0 c6 @1 c6 @0 V1 c12. c12. c12 V1 @0 c6 @1 c6 V1 @1 V1 c24 V0 c24 @2 Y.R d+24 d+24 YLR c24 c24 YL. < g+24 g+24 YLR > [ V1 @0 c6 @1 c6 V1 @0 c6 @1 c6 ]2 V1 @0 c6 @1 c6 V1 @0 c6 @1 c24 c12. @0 c12 @2 V0 YL. < g+24 > YLR V1 @1 c24 V0 c24 V1 c24 @2 V1 Y.R d+24 YLR @1 V0 c24 V1 c24 @2 V1 c24 @1 V0 c24 V1 c24 YL. @2 < V1 g+24 V0 g+24 V1 d+24 V0 > YLR @0 c24 
!6  @15 W0,95,57 O2 V1 a+6~ a+6~ a+6~ a+6~ a+6~ a+6~ a+6~ a+12 r12 [ V1 a+12 V0 a+12 ]2 [ V1 a+12 V0 a+24 ]2 V1 a+24 r24 V1 a+12 b6 > V1 c6 V0 c12 r6 L @40 W0,95,0 O2 [ V1 f24 V0 c24 V1 f24 r24 V0 c24 r24 f24 r24 c24 r24 f24 r24 c24 r24 f24 r24 H-2 ]2 H0 [ V1 f24 V0 c24 V1 f24 r24 V0 c24 r24 f24 r24 H-2 ]2 H0 O2 V1 c24 r24 e24 V0 c24 V1 e24 V0 c24 V1 g24 V0 e24 V1 g24 V0 e24 V1 a+24 V0 g24 @14 O1 V1 g12 @40 O3 W0,95,0 c12 O2 V1 c+24 V0 c24 < a+24 > c24 V1 c+24 r24 c+24 r24 V1 d+24 V0 c+24 c24 c+24 V1 d+24 r24 d+24 r24 < V1 a+24 V0 g+24 g24 g+24 V1 > c24 < V0 a+24 g+24 a+24 > V1 c+24 V0 c24 < a+24 > c24 V1 f24 d+24 f24 r24 [ V1 c+24 V0 [ c+24 ]7 H-3 ]2 H0 V1 g+12 g12 e12 g12 f24 V0 [ f24 ]3 @14 O2 V1 c6 O2 @40 W0,95,0 V1 [ g+48 f48 V0 g+48 f48 ]4 [ f48 c48 V0 f48 c48 ]4 [ g48 d+48 V0 g48 d+48 ]4 [ d+48 < a+48 > V0 d+48 < a+48 > ]2 V1 [ g48 d+48 V0 g48 d+48 ]2 [ V1 [ g+48 f48 V0 g+48 f48 ]4 H2 ]2 H0 V1 [ g48 e48 V0 g48 e48 ]2 @14 V1 c6 c24 V0 c24 V1 c24 V0 c24 V1 [ c24 ]3 V0 c24 @40 W0,95,0 O2 V1 [ g+48 f48 V0 g+48 f48 ]4 V1 a+48 g48 V0 a+48 g48 @13 O1 V0 f24 V0 r24 V0 f12. r24 @40 W0,95,0 O3 V1 [ c48 < g48 > V0 c48 < g48 > ]4 < [ g48 e48 V0 g48 e48 ]4 V1 [ f48 c48 V0 f48 c48 ]2 @14 O1 V1 f12 V0 f24 r24 [ V1 f24 V0 f24 r24 ]2 V1 f24 V0 f24 @27 O2 [ r6 V0 [ Y.R g24 YL. g24 ]2 r4 r12 ]2 YLR r12 @3 O1 c12 e12 g6 a+12 > c12 r12 @40 W0,95,0 O2 [ V1 c+24 d+24 c+24 d+24 c+24 d+24 f24 V0 c+24 ]2 [ V1 g48 d+48 V0 [ g48 d+48 ]3 H-2 ]2 H0 V1 e48 c48 V0 [ e48 c48 ]4 r24 V1 c24 V0 c24 V1 f48 < g+48 V0 > f48 < g+48 > @9 V1 f12 f12 f12 r12 f12 f12 r12 @40 O2 W0,95,0 V1 d+48 < a+48 > [ V0 d+48 < a+48 > ]7 V1 c+48 < a+48 > V0 c+48 < a+48 @14 V1 O1 d+24 r24 V1 [ d+24 ]3 V0 d+24 @40 O2 W0,95,0 V1 c48 < g+48 > V0 [ c48 < g+48 > ]7 V1 c48 < g+48 > V0 c48 < g+48 @13 V1 O1 d+24 r24 V1 [ d+24 ]3 V0 d+24 @40 O2 W0,95,0 V1 c+48 < a+48 > V0 [ c+48 < a+48 > ]7 V1 c48 < g+48 > V0 [ c48 < g+48 > ]7 V1 c48 < g48 > V0 [ c48 < g48 > ]7 @15 W0,95,57 V1 O2 c+12. c+12. c+12 c6 e12 g6 e12 c6 @43 W0,95,0 O1 V1 c+24 d+24 f24 g24 g+24 g24 f24 d+24 f24 g24 g+24 a+24 O2 c24 O1 a+24 g+24 g24 g+24 a+24 O2 c24 c+24 c24 c+24 d+24 g24 f24 g24 g+24 a+24 @14 O1 f12 V0 f12 @43 W0,95,0 O1 V1 g+24 a+24 O2 c24 O1 a+24 g+24 a+24 g+24 g24 e24 f24 g24 g+24 a+24 g+24 g24 g+24 V1 O1 f6~ f6~ f6 r6 
