;022 001B23D2
!1  T90 T75 B3 O2 V8 @2 E80,100,70,3,8 EP-4,0,0,3,0 O2 V3 r64. Y.R d48 @0 d+48 e48 f48 f+48 g48 YLR ) g+48 a48 a+48 b48 > c48 c+48 ) YL. d48 d+48 e48 f48 g48 g48 @@4,2,0 O3 E80,100,30,3,15 EP-4,0,-24,5,15 V8 Y.R a16. _V-2 YL. a16. _V-2 Y.R a16. r32 r8 r8. @@4,2,0 E80,100,70,3,8 EP-4,0,0,3,0 P25,10,6 YLR V6 r16 a16 g16 _V-3 Y.R a16 YL. g8. P0,10,6 Y.R g16 YL. g8 r16 _V2 P25,10,6 YLR f32 e32 ) d16. c16. < b16 > d32 _V-2 @0 c32 < b32 @@4,2,0 _V2 g32~ g8. a8 _V-2 a8. _V2 r16 a16~ b16 >~ c16~ d16~ e16~ f16~ g16~ a16~ b16 > _V2~ c16~ d16 EP-4,0,4,3,15 P17,12,4 e8~ e8 EPX e16. r64. @2 E100,60,20,3,8 O2 Y.R V6 a32 > d32 e32 g32 YL. a32 > d32 e32 g32 < YLR _V-5 EX a32 > d32 e32 g64 @@4,2,0 E80,100,70,3,8 _V6 EP-4,0,0,15,15 P17,12,1 O3 e4~ e16 _V-4 e16 _V4 E80,100,70,3,8 EP-4,0,0,3,0 @@4,0,3 O2 [ d32 d32 _V-4 d32 _V4 d32 _V-4 d32 _V4 d32 _V-4 d32 _V-2 d32 _V6 H2 ]2 H0 [ r8 ]4 L E100,80,60,3,15 @@4,2,1 P15,10,4 V4 O3 EP0,0,0,3,0 D-1 r32 r16 e16 d16 c32 d16. < a16 a16 b32 > c16. d16 e16 _V-2 g32 _V2 f+16. g16 _V-2 f+16 d16 _V2 d16 c32 V6 @2 E80,100,80,4,8 EPX O2 @@4,1,3 D0~ f+8~ d16~ a8~ e16~ > c8 <~ a16 >~ e8~ d16~ a8 E100,80,60,3,15 @@4,2,1 P15,10,4 V4 O3 EP0,0,0,3,0 D-1 r32 r16 e16 d16 c32 d16. < a16 a16 g16 b16 _V-2 b16 _V2 b16 > c32 < b16. > c16 < _V-2 b16 g16 _V2 g16 a32 V6 @2 E80,100,80,4,8 EPX O2 @@4,1,3 D0~ f+8~ < _V-3 a16 _V3~ > > e8~ < _V-3 g16 _V3~ > g8 <~ _V-3 a16 _V3 >~ b8~ > d16~ e8 E100,80,60,3,15 @@4,2,1 P15,10,4 V4 O3 EP0,0,0,3,0 D-1 r32 r16 e16 d16 c32 d16. < a16 a16 b32 > c16. d16 e16 _V-2 g32 _V2 f+16. g16 _V-2 f+16 d16 _V2 d16 c32 V6 @2 E80,100,80,4,8 EPX O2 @@4,1,3 D0~ f+8~ d16~ a8~ e16~ > c8 <~ a16 >~ e8~ d16~ a8 E100,80,60,3,15 @@4,2,1 P15,10,4 V4 O3 EP0,0,0,3,0 D-1 r32 r16 e16 d16 c32 d16. < a16 a16 g16 b16 _V-2 b16 _V2 b16 > c32 < b16. > c16 < _V-2 b16 g16 _V2 g16 a32 V6 @2 E80,100,80,4,8 EPX O2 @@4,1,3 D0~ f+8~ < _V-3 a16 _V3~ > > e8~ < _V-3 g16 _V3~ > g8 <~ _V-3 a16 _V3 >~ b8~ > d16~ e8 E100,80,60,3,15 @@4,2,1 P15,10,4 V6 O2 EP0,0,0,3,0 YLR D0 YLR f16 f16 f16 g32 a16 _V-2 a16 _V-2 a16 r32 _V2 d16 _V-2 d16 _V2 g16 _V-2 g16 _V2 b16 _V-2 b16 _V2 > d16 _V-2 d16 _V2 c4~ c16 E70,100,70,5,20 V6 O3 @@4,3,0 P0,8,4 D0 YLR c4 d4 g8.~ g32 _V-4 g32 E100,80,50,3,8 @@4,2,1 P15,10,4 V6 O2 EP0,0,0,3,0 a16. g16. a16 _V-2 a8 _V2 a16 a16 b16. > c8. r32 < a16 b16 a16 > c16. < b16. > c16 d16. c16. d16 E100,80,50,3,8 @@4,2,1 P15,10,4 V6 O3 EP0,0,0,3,0 D0 YLR d16. e16. f+16 g+8 _V-4 g+8 _V4 E100,80,60,3,15 @@4,2,1 D0 P15,10,4 V6 O3 EP0,0,0,3,0 YLR r16 c16 c16 c32 c16. e16 _V-2 e16 _V-2 e16 ( e16 _V5 < b16 b16 b32 b16. > e16 g16 a16 g16. f16. c8 _V-2 c16 _V2 < a16 a16 b16. > d16. < b8. _V-2 b16 _V-2 b16 _V4 r16 a16 a16 f32 a16. b16 > c16 d16 _V-2 d16 _V2 c16 < b16 g16 _V-4 g16 _V4 g16 a16 > E100,50,50,24,0 d8. E50,20,100,8,15 d8 E100,80,50,3,8 r16 d16 c16 < b32 _V-2 g+32 @@4,2,0 E80,100,70,3,8 EP0,0,0,3,0 P25,10,6 O3 V6 d16 V4 O2 f+16~ g+8~ a8~ b8 E100,80,60,3,15 @@4,2,1 P15,10,4 V6 O3 EP0,0,0,3,0 D0 YLR r16 c16 c16 c32 c16. e16 _V-2 e16 _V-2 e16 ( e16 _V5 < b16 b16 b32 b16. > e16 g16 a16 g16. e16. c16 _V-2 c16 _V-2 c16 r16 _V2 g16 _V2~ b16 a8 g8 d8 d16 E60,100,60,10,15 EP0,0,-12,4,9 e16. EP-12,0,0,8,0 e16 _V-4 EP0,0,0,3,0 E100,80,50,3,8 e32 _V2 c16 _V-2 c16 _V-2 c16 ( c16 _V5 d16 e16. EP-12,0,0,8,0 e16 _V-4 EP0,0,0,3,0 E100,80,50,3,8 e32 _V2 c16 _V-2 c16 _V-2 c16 _V4 g16 f8. P0,10,4 EX EPX @2 _V-2 f8. _V2 E50,20,100,8,15 f8. E100,80,60,3,15 @@4,2,1 P15,10,4 V6 O3 EP0,0,0,3,0 D-1 YLR _V-4 f16. _V2 g16 _V2 g16 _V-2 e16 _V2 g16 _V-2 e16 b16 a32 D0 @@4,2,0 E80,100,70,3,8 EP-4,0,0,5,0 V8 O2 e8 _V-4 e16 _V4 d8 _V-4 d16 _V4 f+8 _V-4 r4 V4 d16 _V-2 d16 _V2 < a16 _V-2 a16 _V2 b8 _V-2 b16 _V2 > d8 _V-2 d16 _V2 e8 _V-2 e16 _V2 a8 _V-2 a16 _V2 g16 _V-2 g16 _V2 f+16 _V-2 f+16 _V2 O1 b8 _V-2 b16 _V2 a8 _V-2 a16 _V2 > d8 _V-2 d16 _V2 d8 _V-2 d16 _V2 d16 _V-2 d16 _V2 < a16 _V-2 a16 _V2 b8 _V-2 b16 _V2 > d8 _V-2 d16 _V2 e8 _V-2 e16 _V2 a8 _V-2 a16 _V2 g16 _V-2 g16 _V2 f+16 _V-2 f+16 _V2 
!2  B3 @2 E80,100,70,3,8 EP-4,0,0,3,0 P25,10,6 O2 V4 d48 @0 d+48 e48 f48 f+48 g48 ) g+48 a48 a+48 b48 > c48 c+48 ) d48 d+48 e48 f48 f+48 g48 @@4,2,0 O3 E80,100,30,3,15 EP-4,0,-36,5,15 V12 a16. Y.R _V-4 a16. YL. _V-2 a16. Y.R _V-2 a16. r16. r32 r8 @@4,2,0 E80,100,70,3,8 EP-4,0,0,3,0 P25,10,6 YLR V10 r16 a16 g8. _V-4 P0,10,6 g8. _V-2 g8 r16 _V2 P25,10,6 f32 e32 _V2 d16. c16. < b16 > d32 _V-2 @0 c32 < b32 @@4,2,0 _V2 g32~ g8. a8 _V-6 a8. _V4 r16 a16~ b16~ > c16~ d16~ e16~ f16 g16~~ a16~ b16 > _V2~ c16~ d16 EP-4,0,4,3,15 P17,12,4 e8 e8 EPX P0,12,4 e4 _V-6 e8 _V8 r8 EP-4,0,0,15,15 P17,12,2 V8 a4~ a16 _V-6 a16 _V6 EP-4,0,0,3,0 @@4,0,3 < [ g32 g32 _V-4 g32 _V4 g32 _V-4 g32 _V4 g32 _V-4 g32 _V-2 g32 _V6 H2 ]2 H0 [ r8 ]4 L E100,80,60,3,15 @@4,2,1 P15,10,4 V8 O3 EP0,0,0,3,0 D0 YLR r16 e16 d16 c32 d16. < a16 a16 b32 > c16. d16 e16 _V-2 g32 _V2 f+16. g16 _V-2 f+16 d16 _V2 d16 c32 e16. V3 @2 E80,100,80,4,8 EPX O2 @@4,1,3 D-2 Y.R~ f+8~ d16~ a8~ e16~ > c8 <~ a16 >~ e8~ d16~ a16 E100,80,60,3,15 @@4,2,1 P15,10,4 V8 O3 EP0,0,0,3,0 D0 YLR r16 e16 d16 c32 d16. < a16 a16 g16 b16 _V-2 b16 _V2 b16 > c32 < b16. > c16 < _V-2 b16 g16 _V2 g16 a16. r32 V3 @2 E80,100,80,4,8 EPX O2 @@4,1,3 D-2 YL.~ f+8~ < _V-2 a16 _V2~ > > e8~ < _V-2 g16 _V2~ > g8 <~ _V-2 a16 _V2 >~ b8~ > d16~ e16 E100,80,60,3,15 @@4,2,1 P15,10,4 V8 O3 EP0,0,0,3,0 D0 YLR r16 e16 d16 c32 d16. < a16 a16 b32 > c16. d16 e16 _V-2 g32 _V2 f+16. g16 _V-2 f+16 d16 _V2 d16 c32 e16. V3 @2 E80,100,80,4,8 EPX O2 @@4,1,3 D-2 Y.R~ f+8~ d16~ a8~ e16~ > c8 <~ a16 >~ e8~ d16~ a16 E100,80,60,3,15 @@4,2,1 P15,10,4 V8 O3 EP0,0,0,3,0 D0 YLR r16 e16 d16 c32 d16. < a16 a16 g16 b16 _V-2 b16 _V2 b16 > c32 < b16. > c16 < _V-2 b16 g16 _V2 g16 a16. r32 V3 @2 E80,100,80,4,8 EPX O2 @@4,1,3 D-2 YL.~ f+8~ < _V-2 a16 _V2~ > > e8~ < _V-2 g16~ _V2 > g8 <~ _V-2 a16 _V2 >~ b8~ > d16~ e16 E100,80,60,3,15 @@4,2,1 P15,10,4 V8 O2 EP0,0,0,3,0 D0 YLR a16 a16 a16 b32 > c16 _V-4 c16 _V-2 c16 r32 _V6 < b16 _V-4 b16 _V4 > d16 _V-4 d16 _V4 g16 _V-4 g16 _V4 a16 _V-4 a16 _V4 e8.~ e8~ e32. EX V2 O3 @@4,3,0 P0,8,2 D-2 Y.R c4 YL. d4 Y.R g64 YLR D0 E100,80,60,3,15 @@4,2,1 P15,10,4 V8 O3 EP0,0,0,3,0 _V-2 d16 _V2 d16 _V-2 e16 _V2 c16. < b16. > c16 _V-4 c8 _V4 c16 c16 _V2 d16. e8. r32 _V-2 c16 d16 c16 _V2 e16. d16. e16 f16. e16. f16 f+16. g+16. a16 b8 _V-6 b8 _V6 V8 r16 e16 e16 e32 e16. a16 _V-4 a16 _V-2 a16 ( a16 _V7 e16 e16 e32 e16. a16 b16 > c16 < b16. a16. e8 _V-4 e16 _V4 c16 c16 d16. g16. d8. _V-4 d16 _V-2 d16 _V6 r16 c16 c16 < a32 > c16. d16 e16 f16 _V-4 f16 _V4 e16 d16 c16 _V-6 c16 _V6 < b16 > c16 E100,50,50,24,0 g8. E50,20,100,8,15 g8 E100,80,50,3,8 r16 f16 e16 f32 _V2 e32~ e16 @@4,2,0 E80,100,70,3,8 EP0,0,0,3,0 P25,10,6 O3 V6 d16~ e8~ f+8~ g+8 E100,80,60,3,15 @@4,2,1 P15,10,4 V10 O3 EP0,0,0,3,0 D0 YLR r16 e16 e16 e32 e16. a16 _V-4 a16 _V-2 a16 ( a16 _V7 e16 e16 e32 e16. a16 b16 > c16 < b16. a16. e16 _V-4 e16 _V-2 e16 r16 _V4 b16 _V2 >~ d16 c8 < b8 g8 g16 E60,100,60,10,15 EP0,0,-12,4,9 a16. EP-12,0,0,8,0 a16 _V-4 EP0,0,0,3,0 E100,80,50,3,8 a32 _V4 e16 _V-4 e16 _V-2 e16 ( e16 _V7 g16 a16. EP-12,0,0,8,0 a16 _V-4 EP0,0,0,3,0 E100,80,60,3,15 a32 _V4 e16 _V-4 e16 _V-2 e16 _V6 b16 > c8. P0,10,4 EX EPX @2 _V-4 c8. _V4 E50,20,100,8,15 c8. E100,80,60,3,15 @@4,2,1 P15,10,4 V8 O3 EP0,0,0,3,0 D0 YLR _V-6 > c16 < _V8 g16 _V2 g16 _V-2 e16 _V2 g16 _V-2 e16 b16 a16~ a4. _V-4 a16 _V-2 a16 @@4,2,0 E80,100,70,3,8 EP-4,0,0,5,0 V4 O2 f+16 _V4 g8 _V-4 g16 _V4 f+16 _V-4 f+16 _V4 d16 _V-4 d16 _V4 e8 _V-4 e16 _V4 f+8 _V-4 f+16 _V4 a8 _V-4 a16 _V4 > d8 _V-4 d16 _V4 c16 _V-4 c16 _V4 < b16 _V-4 b16 _V4 O2 e8 _V-4 e16 _V4 d8 _V-4 d16 _V4 f+8 _V-4 f+16 _V4 g8 _V-4 g16 _V4 f+16 _V-4 f+16 _V4 d16 _V-4 d16 _V4 e8 _V-4 e16 _V4 f+8 _V-4 f+16 _V4 a8 _V-4 a16 _V4 > d8 _V-4 d16 _V4 c16 _V-4 c16 _V4 < b16 _V-4 b16 _V4 
!3  @A0 `AE00 `2E63 B3 O4 P30,15,2 EPX V1 e2 f2 g2~ g2 e2 f2 g2~ g4 PX O2 PX E100,20,20,3,0 @A8 EPX V3 a32 > d32 e32 g32 a32 > d32 e32 g32 < V1 Y.R a32 > d32 e32 g32 YLR @A3 B1 V3 YLR PX E100,70,70,5,0 EPX V3 O0 a8 ( a8 ( r8 O3 [ V3 a32 a32 V1 a32 V3 a32 V1 a32 V3 a32 V1 a32 r32 H2 ]2 H0 [ r8 ]4 L O0 @A3 E100,60,60,8,0 P22,10,16 [ V3 a8 V3 a16 V2 g32 V2 a16 V3 a32 r32 V2 e32 V3 g16 g+16 ]16 H-12 @A3 E100,70,0,5,20 EPX O1 V3 f16 f16 O2 f16~ V2 f32~ V3 O1 f16~ O2 V2 f16~ e32 V3~ e16 V2~ f16~ O1 V3 f16 f16 O2~ f16 V2~ f32 V3 O1~ f16~ f16 V2~ f32 O2 V3~ f16 V2~ f16 O1 V3 f16 f16 O2 V3 e32~ V3 f16~ V2 c16~ V2 c32~ c16 V3 e16~ V2 f16~ O1 V3 f16 V2 f32~ f32~ O2 V2 d16 V2 d32 V1 d32 V2~ g16 g32 V1 g32 V2 g16 g32 V1 g32 O1 V3 d16 V2 d32 O2 V3 d16 V2~ c32 O1 V3~ a16 V2 a32 O2 V3~ d16 V2 d32 V3~ c32 V2 c32 V3~ d32 V2 d32 O1 V3 e16 V2 e32 V3~ g16 V2 g32 O2 V3~ c16 V2 c32 O1 V3~ b16 V2 b32 O2 V3~ e32 V2 e32~ V3 c32~ V2 O1 g32~ O1 [ V3 e16 V2 e16 V3~ a16~ b16~ ]2 O2 V3~ e16 V2 e16 V3~ d16 O1 V2~ b32 O2 V3~ e32 V2 e32 V3 e32 V2 e32 O1~ b32 O2 V3~ e16 V2~ d16 H0 @A3 B1 V3 YLR PX E100,70,70,5,0 EPX [ O0 a16 >~ a16~ ]4 [ O0 g16 >~ g16~ ]4 [ O0 f16 >~ f16~ ]4 [ O0 e16 >~ e16~ ]4 [ O0 d16 >~ d16~ ]4 [ O0 c16 >~ c16~ ]4 [ O0 d16~ b16~ ]4 O0 d16 >~ d16~ O0 g+16 >~ g+16~ O0 a16 >~ a16~ O0 b16 >~ b16~ [ O0 a16 >~ a16~ ]4 [ O0 g16 >~ g16~ ]4 [ O0 f16 >~ f16~ ]4 [ O0 e16 >~ e16~ ]4 [ O0 d16 >~ d16~ ]4 [ O0 e16 >~ e16~ ]4 [ O0 f16 >~ f16~ ]4 V3 g16. V1 g16. g16. r32 r8 r16 @A8 V2 E70,100,70,4,9 EP-8,0,0,4,0 P15,10,6 O2 D1 a8 ( a16 ) g8 ( g16 ) a8 ( a16 ) > c8 ( c16 ) < a16 ( a16 ) g16 ( g16 ) a8 ( a16 ) a8 ( a16 ) > d8 ( d16 ) g8 ( g16 ) D2 e16 ( e16 ) e16 ( e16 ) < D1 a8 ( a16 ) g8 ( g16 ) a8 ( a16 ) > c8 ( c16 ) < a16 ( a16 ) g16 ( g16 ) a8 ( a16 ) a8 ( a16 ) > d8 D0 EPX E100,30,30,5,0 @A2 O4 YLR V3 [ a32 g+32 g32 f+32 V1 EX YL. g32 Y.R f+32 H-4 YLR V3 E100,30,30,5,0 ]2 H0 c+32 c32 < b32 a+32 
!4  [ @6 x16 @5 x16 @6 x16 @5 x16 @9 x8. @6 x16 ]8 x32 x32 x32 x32 @8 x8. @6 x8 x16 @5 x8 @6 x8 @5 x8 @6 x8 @6 x8 x8 x8 x8 L [ @8 x8. @6 x16 [ @5 x16 @6 x16 ]2 [ [ @5 r16 @6 x16 ]4 ]3 ]2 [ @8 x8. @6 x16 @5 x16 @9 x8. [ [ @5 x16 @6 x16 ]2 @5 x16 @9 x8. ]3 ]2 @8 x8. @6 x32 x32 @5 x32 @6 x32 x32 x32 @5 x32 @6 x32 x32 x32 [ @5 x32 @6 x32 x32 x32 ]28 [ @5 x32 @6 x32 @7 x16 ]60 @8 x8. @6 x8 x8 x16 [ @5 x32 @6 x32 x32 x32 ]32 
!5  [ @42 V1 c16 c32 @32 V0 c32 [ V1 c32 V0 c32 c32 c32 ]2 @31 V1 c16 c32 V0 c32 ]8 @32 V1 c32 V0 c32 c32 c32 @0 V1 c32 @32 V0 c32 c32 c32 @32 V1 c32 V0 c32 c32 c32 @32 V1 c32 V0 c32 @1 c64 c64. c64. [ @1 V1 c32 c32 @32 V0 c32 @1 V1 c32 @32 V0 c32 @1 V1 c32 @32 V1 c32 c32 ]2 O2 r16 @1 V1 c64. V0 c64 c64. V1 c32 c16 @2 YL. V0 c32 V1 c16 YLR V0 < a+32 V1 a+16 Y.R V0 d+32 V1 e16 L O2 YLR @0 [ c8 c8 c8 c8 ]3 c8 c8 c16. @2 YLR < V0 a+32 V1 a+16 YL. d+16 O2 YLR @0 [ c8 c8 c8 c8 ]3 c8 c16. @1 V0 c32 V1 c16. V0 c32 V1 c16 V0 c32 c32 V1 [ @0 V1 c16 @32 V0 c32 V1 c32 @31 e16 @32 c32 V1 c32 @0 c16 @32 V0 c32 V1 c32 @31 c16 V0 c32 c32 ]3 @0 V1 c16 @32 V0 c32 V1 c32 @31 e16 @32 c32 V1 c32 @0 c16 @32 V0 c32 V0 @2 < Y.R e32 > YL. V1 c16 @31 YLR c16 [ @0 V1 c16 @32 V0 c32 V1 c32 @31 e16 @32 c32 V1 c32 @0 c16 @32 V0 c32 V1 c32 @31 c16 V0 c32 c32 ]3 @0 V1 c16 @32 V0 c32 V1 c32 @31 e16 @32 c32 V1 c32 @0 c16 @32 V0 c32 V0 @2 < Y.R c32 YLR V1 g+16 YL. d+16 YLR O2 [ V1 @0 c32 V0 @32 c32 @0 c32 @32 c32 @1 V1 c32 V0 @32 c32 c32 c32 V1 @32 c32 V0 c32 V1 @0 c32 V0 @32 c32 @1 V1 c32 V0 @32 c32 c32 c32 ]3 V1 @0 c32 V0 @32 c32 @0 c32 @32 c32 @1 V1 c32 V0 @32 c32 c32 c32 V1 @32 c32 V0 c32 V1 @0 c32 V0 @32 c32 @2 V1 < Y.R g+32 YLR > V0 @32 c32 < YL. @2 d+32 d+32 YLR O2 [ V1 @0 c32 V0 @32 c32 @0 c32 @32 c32 @1 V1 c32 V0 @32 c32 c32 c32 V1 @32 c32 V0 c32 V1 @0 c32 V0 @32 c32 @1 V1 c32 V0 @32 c32 c32 c32 ]3 V1 @0 c32 V0 @32 c32 @0 c32 @32 c32 @1 V1 c32 V0 @32 c32 c32 c32 V1 @32 c32 V0 c32 V1 @0 c32 V0 @32 c32 @1 V1 c32 V0 @32 c32 V1 @1 c32 V0 @32 c32 [ [ V1 @41 c16 @32 V0 c32 V1 c32 @31 c16 @32 V0 c32 V1 c32 ]2 ]3 V1 @41 c16 @32 V0 c32 V1 c32 @31 c16 @32 V0 c32 V1 c32 V1 @41 c16 @31 V0 c32 V1 c32 V1 @41 c16 @2 < V0 c32 V1 Y.R d+32 > YLR [ [ V1 @41 c16 @32 V0 c32 V1 c32 @31 c16 @32 V0 c32 V1 c32 ]2 ]3 V1 @41 c16 @32 V0 c32 V1 c32 @31 c16 @32 V0 c32 V1 c32 @31 c32 V0 c32 c32 c32 V1 c32 c32 @2 Y.R c32 < YL. d+32 > YLR [ [ V1 @41 c16 @32 V0 c32 V1 c32 @31 c16 @32 V0 c32 V1 c32 ]2 ]3 V1 @41 c16 @32 V0 c32 V1 c32 @31 c16 @32 V0 c32 V1 c32 V1 @41 c16 @31 V0 c32 V1 c32 c32 c32 V0 c32 V1 c32 [ [ V1 @41 c16 @32 V0 c32 V1 c32 @31 c16 @32 V0 c32 V1 c32 ]2 ]2 V1 @41 c16 @32 V0 c32 V1 c32 @31 c16 @32 V0 c32 V1 c32 V1 @41 c16 @31 V0 c32 V1 c32 c32 c32 V0 c32 V1 c32 @41 V1 c8 r8 @1 c16 @0 c16 @1 c64. @2 V0 Y.R c64. < YL. g+64 > YLR @0 c16 YLR [ [ [ @0 V1 c16 @32 V0 c32 c32 ]3 @1 V1 c16 @32 V0 c32 c32 ]3 [ @0 V1 c16 @32 V0 c32 c32 ]2 @0 V1 c16 @32 V0 c32 @1 c32 V1 c16 @2 V0 YL. < g+32 d+32 > YLR ]2 V1 
!6  @54 W0,98,0 V1 O2 b2 b2 b2~ b2 @55 W0,98,0 b2~ b2~ b2~ b4 r4~ r16 O2 @14 W0,33,6 r48 r48 e48~ V1 a8. V0 W33,33,6 EP0,0,-20,11,11 a8. @52 O2 V1 EPX g32 g32 Y.R V0 g32 V1 YLR g32 V0 YL. g32 V1 YLR g32 r32 r32 a32 a32 Y.R V0 a32 V1 YLR a32 V0 YL. a32 V1 YLR a32 r32 r64 r64. O2 r16 @1 V0 Y.R c64. YL. c64 Y.R c64. Y.R c32 YLR V1 c16 @2 Y.R V0 c32 V1 c16 YL. V0 < a+32 V1 a+16 YL. V0 d+32 V1 e32 r64. @53 V1 O2 e12 V0 Y.R e12 YL. e12 Y.R e12 YL. r6 YLR L V1 O2 f+12 V0 Y.R f+12 YL. f+12 Y.R f+12 YL. r6 YLR V1 O2 e12 V0 Y.R e12 YL. e12 Y.R e12 YL. r6 YLR r2 V1 O2 e12 V0 Y.R e12 YL. e12 Y.R e12 YL. r6 YLR V1 O2 f+12 V0 Y.R f+12 YL. f+12 Y.R f+12 YL. r6 YLR V1 O2 e12 V0 Y.R e12 YL. e12 Y.R e12 YL. r6 YLR r2 V0 e8 @14 O2 YLR a8 V0 @39 O1 Y.R a32 YL. d32 Y.R e32 YL. a32 O2 Y.R d32 O1 YL. g32 Y.R a32 O2 YL. d32 Y.R e32 O1 YL. a32 Y.R O2 d32 YL. e32 Y.R a32 YL. d32 Y.R e32 YL. a32 @27 Y.R d32 YL. O1 g32 Y.R @39 O2 a32 YL. d32 Y.R e32 YL. O1 Y.R a32 O2 YL. f+32 O1 Y.R a32 YLR @53 O2 V0 O2 e12 V0 Y.R e12 YL. e12 Y.R e12 YL. r6 YLR r8. O1 @14 V0 a32 a+32 V1 b32 > d32 r32 d+32 r32 e16 r32 @53 O2 V0 e8 @14 YLR a8 V0 @39 O1 Y.R a32 YL. d32 Y.R e32 YL. a32 O2 Y.R d32 O1 YL. g32 Y.R a32 O2 YL. d32 Y.R e32 O1 YL. a32 Y.R O2 d32 YL. e32 Y.R a32 YL. d32 Y.R e32 YL. a32 @27 Y.R d32 YL. O1 g32 Y.R @39 O2 a32 YL. b32 Y.R e32 YL. O1 Y.R a32 O2 YL. f+32 O1 Y.R a32 YLR @53 O2 V0 O2 e12 V0 Y.R e12 YL. e12 Y.R e12 YL. r6 YLR r8. O1 V0 @14 a32 > c32 V1 d32 e32 r32 f+32 r32 g16 r32 @46 W0,98,0 [ O0 [ YLR V1 f64 Y.R V0 f64 YLR V1 g64 YL. V0 g64 YLR V1 a64 Y.R V0 a64 > YLR V1 c64 YL. V0 c64 ]3 YLR V1 g64 Y.R V0 g64 YLR V1 f64 YL. V0 f64 YLR V1 c64 Y.R V0 c64 < YLR V1 a64 YL. V0 a64 [ YLR V1 g64 Y.R V0 g64 YLR V1 f64 YL. V0 f64 YLR V1 d64 Y.R V0 d64 < YLR V1 b64 YL. V0 b64 ]2 ]2 O0 [ YLR V1 d64 Y.R V0 d64 YLR V1 f64 YL. V0 f64 YLR V1 a64 Y.R V0 a64 > YLR V1 c64 YL. V0 c64 ]3 [ YLR V1 g64 Y.R V0 g64 YLR V1 e64 YL. V0 e64 YLR V1 d64 Y.R V0 d64 < YLR V1 b64 YL. V0 b64 ]3 O0 [ YLR V1 d64 V0 Y.R d64 YLR V1 f64 V0 YL. f64 YLR V1 a64 V0 YL. a64 > YLR V1 c64 V0 YL. c64 ]3 [ YLR V1 f64 Y.R V0 f64 YLR V1 d64 YL. V0 d64 YLR V1 c64 Y.R V0 c64 < YLR V1 a64 YL. V0 a64 ]3 O0 [ YLR V1 e64 Y.R V0 e64 YLR V1 a64 YL. V0 a64 YLR V1 b64 Y.R V0 b64 > YLR V1 d64 YL. V0 d64 ]4 [ YLR V1 e64 Y.R V0 e64 YLR V1 d64 YL. V0 d64 < YLR V1 b64 Y.R V0 b64 YLR V1 g+64 YL. V0 g+64 ]3 YLR V1 e64 Y.R V0 e64 YLR V1 d64 YL. V0 d64 < YLR V1 b64 Y.R V0 b64 YLR V1 g+64 YL. V0 g+64 @13 V0 O1 YLR [ r16 a32 r16 a16 r32 a16 r32 a16 r32 a16 H-2 ]2 H0 r16 f32 r16 f16 r32 f16 r32 f16 r32 f16 r16 e32 r16 e16 r32 O1 V1 g16 V0 g32 g32 > V1 d16 V0 d32 d32 r8 O1 V1 a8 V0 a16 a16 r8 V1 r16 g8 V0 g16 V1 g32 g32 r32 V0 g32 > [ V1 c32 V0 c32 ]2 r8 O2 V1 d8 V0 d16 d16 r8 r16 V1 e32 < b32 > d32 e32 r32 e32 r32 e32 r32 < b32 > r32 d32 r32 e32 @13 V1 O1 r8 a8 V0 a16 a16 r8 r16 g32 r16 g16 r32 g16 r32 g16 r32 g16 r16 f32 r16 f16 r32 f16 r32 f16 r32 f16 r16 f32 r16 f16 r32 O1 V1 g16 V0 g32 g32 > V1 d16 V0 d32 d32 @14 V1 [ r16 c32 r16 c32 r16 c16 r32 c16 r32 c16 H2 ]2 H0 r16 V0 e16 V1 e16 e16 d32 c+32 r32 e32 r32 f32 r32 f+32 V1 g16 V0 Y.R g16 YL. g16 YLR r8. r8 @48 W0,96,52 O0 V0 [ a16 > a16 < a16 d16 > d16 < d16 e16 > e16 < e16 a16 > a16 < a16 d16 > d16 < e16 > e16 < ]4 @39 V0 O1 a8 @53 V1 O2 V0 O2 e12 V0 Y.R e12 YL. e12 Y.R e24~ e48 YLR r16 
