;023 001B3EA0
!1  T90 T82 _2 r8. L r32 D-1 @@4,1,2 `EC00 P15,9,3 E100,70,70,3,0 EP1,0,0,1,0 O2 V4 EP-9,0,0,15,0 e16~ e16 EP1,0,0,1,0 e16 b16 > e16 EP-6,0,0,4,0 g16 EPX @2 EX~ f+16 @@4,1,2 EP4,0,0,1,0 EP1,0,0,1,0 d16 EP-9,0,0,15,0 < e16~ e16 EP1,0,0,1,0 e16 b16 > e32 EP-4,0,0,4,0 > _V-2 D-4 g16 EPX @2 EX~ f+16. D-1 _V2 < @@4,1,2 EX EP1,0,0,1,0 d16 EP-9,0,0,15,0 c16~ c16 EP1,0,0,1,0 c16 e16 c16 > EP-4,0,0,4,0 g16 EPX @2 EX~ f+16 < @@4,1,2 E100,70,90,3,3 EP1,0,0,1,0 c16~ EP-9,0,0,15,0 d16~ d16 EP1,0,0,1,0 d16 f+16 d16 EP-6,0,0,4,0 a16 EPX @2 EX~ g16 @@4,1,2 E100,70,90,3,3 EP1,0,0,1,0 f+16 EP-9,0,0,15,0 < e16~ e16 EP1,0,0,1,0 e16 b16 > e16 EP-6,0,0,4,0 g16 EPX @2 EX~ f+16 @@4,1,2 EP4,0,0,1,0 EP1,0,0,1,0 d16 EP-9,0,0,15,0 < e16~ e16 EP1,0,0,1,0 e16 b16 > e32 EP-4,0,0,4,0 > ( D-2 g16 EPX @2 EX~ f+16. D-1 ) < @@4,1,2 EX EP1,0,0,1,0 d16 EP-9,0,0,15,0 c16~ c16 EP1,0,0,1,0 c16 e16 c16 EP-6,0,0,4,0 g16 EPX @2 EX f+16 @@4,1,2 E100,70,90,3,3 EP1,0,0,1,0 c32~ @@4,1,3 E100,70,70,3,0 O3 V6 YLR D0 f+16~ f+8 E100,40,20,4,8 @2 EPX PX O5 [ g32 f+32 d32 < a32 ]3 @@4,2,0 E80,100,80,3,3 EP-4,0,0,3,0 PX V6 O2 b16 _V-4 b16. EX EPX @@4,0,1 P15,8,6 D-1 Y.R O2 V4 e16 _V-2 e16 _V2 f+24 _V-2 f+24 _V2 g24 _V-2 g24 _V2 a24 _V-2 a24 _V2 g8 _V-2 g16 _V2 f+16 _V-2 f+16 _V2 g16 f+32 @@4,1,3 `EC00 P15,8,2 EX O1 YLR V6 D0 EP-9,0,0,15,0 e16~ e16 EP1,0,0,1,0 _V-2 e16 _V2 b16 _V-2 > e16 EP-6,0,0,4,0 _V2 g16 EPX @3 EX V6~ f+16 @@4,1,3 E100,70,70,3,0 EP1,0,0,1,0 d16 @@4,1,3 `EC00 P15,8,2 EX O2 V6 EP-9,0,0,15,0 e16~ e16 EP1,0,0,1,0 _V-2 e16 _V2 b16 _V-2 > e16 EP-6,0,0,4,0 _V2 g16 EPX @3 EX V6~ f+16 @@4,1,3 E100,70,70,3,0 EP1,0,0,1,0 d16 YLR @@4,2,0 E80,100,80,3,3 EP-4,0,0,3,0 PX V6 O2 b16 _V-2 b16 _V-2 b16. E100,70,70,5,0 EPX @@4,0,1 P15,8,6 D-1 O2 Y.R V4 e16 _V-4 e16 _V4 f+16 g16 _V-4 g16 _V4 a16 a+16 b16 _V-4 b16 _V4 > d16 _V-4 d16 _V4 f+16 _V-4 f+32 _V4 EP-6,0,0,22,0 b4 D0 @@4,1,3 `EC00 P15,8,2 E100,70,70,3,0 O2 V6 YLR EP1,0,0,1,0 _V-2 f+16 EP-6,0,0,4,0 _V2 a16 EPX @3 EX V6~ f+16 @@4,1,3 E100,70,70,3,0 EP1,0,0,1,0 a16 @@4,1,3 `EC00 P15,8,2 E100,70,70,3,0 V6 EP-9,0,0,15,0 b16~ b16 EP1,0,0,1,0 _V-2 b16 _V2 > d+16 _V-2 f+16 EP-6,0,0,4,0 _V2 a16 EPX @3 EX V6~ f+16 @@4,1,3 E100,70,70,3,0 EP1,0,0,1,0 b8 @@4,2,0 E80,100,80,3,3 EP-4,0,0,3,0 PX V8 O2 b16 _V-4 b16 EX EPX @@4,0,1 P15,8,6 D0 YLR O1 V4 b8 > d24 _V-2 d24 _V2 e24 _V-2 e24 _V2 g24 _V-2 g24 _V2 e8 _V-2 e16 _V2 d16 _V-2 d16 _V2 e16 d16 @@4,1,3 `EC00 P15,8,2 EX O1 YLR V6 EP-9,0,0,15,0 e16~ e16 EP1,0,0,1,0 _V-2 e16 _V2 b16 _V-2 > e16 EP-6,0,0,4,0 _V2 g16 EPX @3 EX V6~ f+16 @@4,1,3 E100,70,70,3,0 EP1,0,0,1,0 d16 @@4,1,3 `EC00 P15,8,2 EX O2 V6 EP-9,0,0,15,0 e16~ e16 EP1,0,0,1,0 _V-2 e16 _V2 b16 _V-2 > e16 EP-6,0,0,4,0 _V2 g16 EPX @3 EX V6~ f+16 @@4,1,3 E100,70,70,3,0 EP1,0,0,1,0 d16 YLR @@4,2,0 E80,100,80,3,3 EP-4,0,0,3,0 PX V6 O2 b16 _V-2 b16 _V-2 b16 E100,70,70,5,0 EPX @@4,0,1 P15,8,6 O1 YLR V8 b16 _V-4 b16 _V4 > d16 e16 _V-4 e16 _V4 f+16 f+16 g16 _V-4 g16 _V4 b16 _V-4 b16 _V4 > d16 _V-4 d16 _V4 EP-9,0,0,22,0 f+4 @@4,1,3 `EC00 P15,8,2 E100,70,70,3,0 O2 V4 YLR f+16 EP-6,0,0,4,0 _V2 a16 EPX @3 EX V6~ f+16 @@4,1,3 E100,70,70,3,0 EP1,0,0,1,0 a16 @@4,1,3 `EC00 P15,8,2 E100,70,70,3,0 V6 EP-9,0,0,15,0 b16~ b16 EP1,0,0,1,0 _V-2 b16 _V2 > d+16 _V-2 f+16 EP-6,0,0,4,0 _V2 a16 EPX @3 EX V6~ f+16 @@4,1,3 E100,70,70,3,0 EP1,0,0,1,0 b8 E100,70,70,5,0 EPX @@4,0,1 P15,8,4 O2 YLR V8 f8 _V-4 f16 _V4 g16 _V-4 g16 _V4 g16 _V-4 g16 _V4 f+16~ f+8 _V-4 f+16 _V4 a4 _V-4 a16 _V4 d8 _V-4 d16 _V4 d+16 _V-4 d+16 _V4 d+16 _V-4 d+16 _V4 e16~ e8. _V-4 e16 _V4 c16 _V-4 c16 _V4 e16 _V-4 e16 _V4 d+8 _V-4 d+16 _V-2 d+16 _V6 d+16 e16 f+16 e16~ e8 _V-4 e16 _V-2 e16 _V6 e16 f+16 g16 f+16~ f+8 c+8 c+16 d16 e16 f+16~ f+8 _V-4 f+8 _V4 a16 b8 _V-4 b16 V8 O3 < @@4,0,1 b32 a32 b32 _V-6 a32 Y.R _V3 b32 a32 b32 _V-3 a32 YL. _V2 b32 a32 b32 _V-3 a32 YLR > V8 e16 d16~ d16 e8 d16 _V-6 d16 _V6 < b8 > d16 < @@4,0,1 b32 a32 b32 _V-6 a32 _V3 YL. b32 a32 b32 _V-3 a32 _V2 Y.R b32 a32 b32 _V-3 a32 > YLR V8 e16 f+16~ f+16 _V-4 f+16 _V4 g16 f+8 d8 _V-6 d16 _V6 < @@4,0,1 b32 a32 b32 _V-6 a32 Y.R _V3 b32 a32 b32 _V-3 a32 YL. _V2 b32 a32 b32 _V-3 a32 > YLR V8 e16 d16~ d16 e8 d16 _V-6 d16 _V6 < b8 > d16 < g16 f+16 g16 a8 g16 f+16 g+16~ g+8 @2 E100,0,0,8,0 PX O1 V6 [ b48 > e48 a48 ]3 [ b48 g+48 e48 < ]2 
!2  _2 r8. L @@4,1,3 `EC00 P15,8,2 E100,70,70,3,0 EP1,0,0,1,0 O2 V8 EP-9,0,0,15,0 e16~ e16 EP1,0,0,1,0 _V-2 e16 _V2 b16 _V-2 > e16 EP-6,0,0,4,0 _V2 g16 EPX @3 EX V6~ f+16 @@4,1,3 E100,70,70,3,0 EP1,0,0,1,0 d16 _V2 EP-9,0,0,15,0 < e16~ e16 EP1,0,0,1,0 _V-2 e16 _V2 b16 _V-2 > e16 EP-6,0,0,4,0 _V2 g16 EPX @3 EX V6~ f+16 @@4,1,3 E100,70,70,3,0 EP1,0,0,1,0 d16 _V2 EP-9,0,0,15,0 c16~ c16 EP1,0,0,1,0 _V-2 c16 _V2 e16 _V-2 c16 EP-6,0,0,4,0 _V2 g16 EPX @3 EX V6~ f+16 @@4,1,3 E100,70,70,3,0 EP1,0,0,1,0 c16 _V2~ EP-9,0,0,15,0 d16~ d16 EP1,0,0,1,0 _V-2 d16 _V2 f+16 _V-2 d16 EP-6,0,0,4,0 _V2 a16 EPX @3 EX V6~ g16 @@4,1,3 E100,70,70,3,0 EP1,0,0,1,0 f+16 _V2 EP-9,0,0,15,0 < e16~ e16 EP1,0,0,1,0 _V-2 e16 _V2 b16 > _V-2 e16 EP-6,0,0,4,0 _V2 g16 EPX @3 EX V6~ f+16 @@4,1,3 E100,70,70,3,0 EP1,0,0,1,0 d16 _V2 EP-9,0,0,15,0 < e16~ e16 EP1,0,0,1,0 _V-2 e16 _V2 b16 _V-2 > e16 EP-6,0,0,4,0 _V2 g16 EPX @3 EX V6~ f+16 @@4,1,3 E100,70,70,3,0 EP1,0,0,1,0 d16 _V2 EP-9,0,0,15,0 c16~ c16 EP1,0,0,1,0 _V-2 c16 _V2 e16 _V-2 c16 EP-6,0,0,4,0 _V2 g16 EPX @3 EX V6~ f+16 @@4,1,3 E100,70,70,3,0 EP1,0,0,1,0 c32 < _V-2 a64 > e64 _V4 a16~ a8 _V-4 a8 r64 @2 EPX PX EX D-1 O5 V2 g32 f+32 d32 < a32 g32 f+32 d32 < a64 D0 @@4,2,0 E80,100,80,3,3 EP-4,0,0,3,0 PX YLR V8 O3 e16 _V-6 e16 E100,70,70,5,0 EPX @@4,0,1 P15,8,6 YLR O2 V10 e16 _V-4 e16 _V4 f+24 _V-6 f+24 _V6 g24 _V-6 g24 _V6 a24 _V-6 a24 _V6 g8 _V-4 g16 _V4 f+16 _V-4 f+16 _V4 g16 f+16 e16~ e4 _V-4 e8 _V-2 e16. D-1 @@4,1,3 `EC00 P15,8,2 EX YL. O2 V4 EP-9,0,0,15,0 e16~ e16 EP1,0,0,1,0 _V-2 e16 _V2 b16 _V-2 > e16 EP-6,0,0,4,0 _V2 g16 EPX @3 EX V6~ f+16 @@4,1,3 EP1,0,0,1,0 d32 D0 YLR @@4,2,0 E80,100,80,3,3 EP-4,0,0,3,0 PX V8 O3 e16 _V-4 e16 _V-2 e16 E100,70,70,5,0 EPX @@4,0,1 P15,8,6 O2 YLR V10 e16 _V-4 e16 _V4 f+16 g16 _V-4 g16 _V4 a16 a+16 b16 _V-4 b16 _V4 > d16 _V-4 d16 _V4 f+16 _V-4 f+16 _V4 EP-9,0,0,22,0 b16~ b4 _V-4 b8 _V-2 b16. @@4,1,3 `EC00 P15,8,2 EX O2 V4 D-1 Y.R EP-9,0,0,15,0 b16~ b16 EP1,0,0,1,0 _V-2 b16 _V2 > d+16 _V-2 f+16 EP-6,0,0,4,0 _V2 a16 EPX @3 EX V6~ f+16 @@4,1,3 E100,70,70,3,0 EP1,0,0,1,0 b16. D0 @@4,2,0 E80,100,80,3,3 EP-4,0,0,3,0 PX YLR V8 O3 e16 _V-6 e16 E100,70,70,5,0 EPX @@4,0,1 P15,8,6 YLR O2 V10 e8 f+24 _V-6 f+24 _V6 g24 _V-6 g24 _V6 b24 _V-6 b24 _V6 g8 _V-4 g16 _V4 f+16 _V-4 f+16 _V4 g16 f+16 e16~ e4 _V-4 e8 _V-2 e16. D-1 @@4,1,3 `EC00 P15,8,2 EX YL. O2 V4 EP-9,0,0,15,0 e16~ e16 EP1,0,0,1,0 _V-2 e16 _V2 b16 _V-2 > e16 EP-6,0,0,4,0 _V2 g16 EPX @3 EX V6~ f+16 @@4,1,3 EP1,0,0,1,0 d32 D0 YLR @@4,2,0 E80,100,80,3,3 EP-4,0,0,3,0 PX V8 O3 e16 _V-4 e16 _V-2 e16 E100,70,70,5,0 EPX @@4,0,1 P15,8,6 O2 YLR V10 e16 _V-4 e16 _V4 f+16 g16 _V-4 g16 _V4 a16 a+16 b16 _V-4 b16 _V4 > d16 _V-4 d16 _V4 f+16 _V-4 f+16 _V4 EP-9,0,0,22,0 b16~ b4 _V-4 b8 _V-2 b16. @@4,1,3 `EC00 P15,8,2 EX O2 V4 D-1 Y.R EP-9,0,0,15,0 b16~ b16 EP1,0,0,1,0 _V-2 b16 _V2 > d+16 _V-2 f+16 EP-6,0,0,4,0 _V2 a16 EPX @3 EX V6~ f+16 @@4,1,3 E100,70,70,3,0 EP1,0,0,1,0 b16. D0 E100,70,70,5,0 EPX @@4,0,1 P15,8,4 O3 YLR V10 c8 _V-4 c16 _V4 c16 _V-4 c16 _V4 < b16 _V-4 b16 _V4 a16~ a8 _V-4 a16 _V4 > d4 _V-4 d16 _V4 < b8 _V-4 b16 _V4 b16 _V-4 b16 _V4 a16 _V-4 a16 _V4 g16~ g8. _V-4 g16 _V4 e16 _V-4 e16 _V4 g16 _V-4 g16 _V4 f+8 _V-4 f+16 _V-2 f+16 _V6 f+16 g16 a16 g16~ g8 _V-4 g16 _V-2 g16 _V6 g16 a16 b16 a16~ a8 _V-4 a16 _V-2 a16 _V6 a16 b16 a16 > d16~ d8 _V-4 d8 _V4 d16 d+8 _V-4 d+16 V10 O3 e32 d32 e32 _V-6 d32 Y.R _V3 e32 d32 e32 _V-3 d32 YL. _V2 e32 d32 e32 _V-3 d32 YLR V10 g16 f+16~ f+16 g8 f+16 _V-6 f+16 _V6 d8 f+16 e32 d32 e32 _V-6 d32 YL. _V3 e32 d32 e32 _V-3 d32 _V2 Y.R e32 d32 e32 _V-3 d32 YLR V10 g16 a16~ a16 _V-4 a16 _V4 b16 a8 f+8 _V-6 f+16 _V6 e32 d32 e32 _V-6 d32 Y.R _V3 e32 d32 e32 _V-3 d32 YL. _V2 e32 d32 e32 _V-3 d32 YLR V10 g16 f+16~ f+16 g8 f+16 _V-6 f+16 _V6 d8 f+16 c16 < b16 > c16 d8 c16 d16 e16~ e4 _V-4 e8 _V-2 e16 _V6 
!3  _2 r8. L `9F00 @A3 @B0 @~3 P20,9,12 O1 V3 e16~ e16 V2 e16 [ V3 e16 V2 e16 ]2 V3 e16 e16~ e16 V2 e16 [ V3 e16 V2 e16 ]2 V3 e16 c16~ c16 V2 c16 [ V3 c16 V2 c16 ]2 V3 c16 d16~ d16 V2 d16 [ V3 d16 V2 d16 ]2 V3 d16 e16~ e16 V2 e16 [ V3 e16 V2 e16 ]2 V3 e16 e16~ e16 V2 e16 [ V3 e16 V2 e16 ]2 V3 e16 c16~ c16 V2 c16 [ V3 c16 V2 c16 ]2 V3 c16 d16~ d8 V2 d8 V3~ > d8. < e32 < b32 O1 e16 V2 e16 [ V3 e16 V2 e16 ]2 V3 e16 c16~ c16 V2 c16 c16 V3 d16~ d16 V2 d16 d16 e16~ e16 V2 e16 [ V3 e16 V2 e16 ]2 V3 e16 e16~ e16 V2 e16 [ V3 e16 V2 e16 ]2 V3 e16 < e16~ e16 > V2 e16 [ V3 e16 V2 e16 ]2 V3 e16 d16~ d16 V2 d16 [ V3 d16 V2 d16 ]2 V3 d16 < b16~ b16 V2 b16 [ V3 b16 V2 b16 ]2 V3 b16 b16~ b16 V2 b16 V3 b16 V2 b16 >~ V3 b16 V2 b16 V3 b8 O1 e16 V2 e16 [ V3 e16 V2 e16 ]2 V3 e16 c16~ c16 V2 c16 c16 V3 d16~ d16 V2 d16 d16 e16~ e16 V2 e16 [ V3 e16 V2 e16 ]2 V3 e16 e16~ e16 V2 e16 [ V3 e16 V2 e16 ]2 V3 e16 < e16~ e16 > V2 e16 [ V3 e16 V2 e16 ]2 V3 e16 d16~ d16 V2 d16 [ V3 d16 V2 d16 ]2 V3 d16 < b16~ b16 V2 b16 [ V3 b16 V2 b16 ]2 V3 b16 b16~ b16 V2 b16 V3 b16 V2 b16 >~ V3 b16 V2 b16 < V3 b8 > f16 > f16 < V2 f16 V3 e16 V2 e16 V3 d16 V1 d16 V3 f+16~ f+8 >~ f+16 d16~ d16 <~ d16 a16 >~ a16 < V3 d16 V2 >~ d16 < g16 V3 d+16 V1 d+16 V3 d+16 V1 d+16 V3 e16~ e16 V2 e16 V3 e16 V2 e16 [ V3 c16 V2 c16 ]2 [ V3 d+16 V2 d+16 ]3 d+16 V3 c16~ c16 V2 c16 [ V3 c16 V2 c16 ]2 c16 V3 c+16~ c+16 V2 c+16 [ V3 c+16 V2 c+16 ]2 c+16 V3 d16~ d16 V2 d16 V3 d16 V2 d16 < V3 a16 V3 b8 V2 b16 V3 O0 V3 e16 V2 e16 V3~ b16 >~ e16~ g16~ f+16~ V2 d16 V3~ c16~ c16 V2 c16~ g16~ V3 d16~ d16 V2 d16~ a8 < V3 e16 V2 e16~ V3 b16 >~ e16~ g16~ f+16~ V2 d16~ V3 c16~ c16 V2 c16~ g16~ V3 d16~ d16~ V2 d16~ a8 < V3 e16 V2 e16~ V3 b16 >~ e16~ g16~ f+16~ V2 d16 V3~ c16~ c16 V2 c16~ g16~ V3 d16~ d16~ V2 d16 V3~ f+16 V2~ a16 V3 c16 e16 V2 g16 V3 d8 f+16 V2 a16 V3 b16~ b8 V3 e16 V2 e16 V3 e16 V2 e16 V3 e16 
!4  @12 x8. L @8 x16~ x16 @6 x16 [ @5 x16 @6 x16 ]2 @5 x16 @7 x16~ x16 @6 x16 [ @5 x16 @6 x16 ]2 @5 x16 @7 x16~ x16 @6 x16 [ @5 x16 @6 x16 ]2 @5 x16 @7 x16~ x16 @6 x16 @5 x16 @7 x16~ x16 @6 x16 @5 x16 @7 x16~ x16 @6 x16 [ @5 x16 @6 x16 ]2 @5 x16 @7 x16~ x16 @6 x16 [ @5 x16 @6 x16 ]2 @5 x16 @7 x16~ x16 @6 x16 [ @5 x16 @6 x16 ]2 @5 x16 @8 x16~ x8 @7 x8 x8 @8 x8 @8 x8 [ @5 x16 @6 x16 ]2 @5 x16 @7 x16~ x16 @6 x16 @5 x16 @7 x16~ x16 @6 x16 @5 x16 @7 x16~ x8 [ @5 x16 @6 x16 ]2 @5 x16 @7 x16~ x8 [ @5 x16 @6 x16 ]2 @5 x16 @8 x16~ x8 [ @5 x16 @6 x16 ]2 @5 x16 @7 x16~ x8 [ @5 x16 @6 x16 ]2 @5 x16 @7 x16~ x8 [ @5 x16 @6 x16 ]2 @5 x16 @7 x16~ x8 [ @5 x16 @6 x16 ]2 @7 x16 @6 x16 @8 x8 [ @5 x16 @6 x16 ]2 @5 x16 @7 x16~ x16 @6 x16 @5 x16 @7 x16~ x16 @6 x16 @5 x16 @7 x16~ x8 [ @5 x16 @6 x16 ]2 @5 x16 @7 x16~ x8 [ @5 x16 @6 x16 ]2 @5 x16 @8 x16~ x8 [ @5 x16 @6 x16 ]2 @5 x16 @7 x16~ x8 [ @5 x16 @6 x16 ]2 @5 x16 @7 x16~ x8 [ @5 x16 @6 x16 ]2 @5 x16 @7 x16~ x8 [ @5 x16 @6 x16 ]2 @7 x16 @6 x16 @8 x8 @5 x16 @7 x8 x8 @8 x16~ x16 @6 x16 x16 @5 x16 @6 x16 x16 @7 x8 @8 x8 @5 x16 @7 x8 x8 @8 x16~ x16 @6 x16 x16 @7 x16 @6 x16 x16 @8 x8 @5 x16 @6 x16 [ @7 x16 @6 x16 ]2 @7 x16 @8 x16~ x16 @6 x16 [ @7 x16 @6 x16 ]2 @7 x16 @8 x16~ x16 @6 x16 [ @7 x16 @6 x16 ]2 @7 x16 @8 x16~ x8 @7 x16 @6 x16 @5 x16 @8 x8. @8 x8 [ @5 x16 @6 x16 ]2 @5 x16 @8 x16~ x16 @6 x16 @5 x16 @7 x16~ x16 @6 x16 @5 x16 @7 x16 @8 x8 [ @5 x16 @6 x16 ]2 @5 x16 @8 x16~ x16 @6 x16 @5 x16 @7 x16~ x16 @6 x16 @5 x16 @7 x16 @8 x8 [ @5 x16 @6 x16 ]2 @5 x16 @8 x16~ x16 @6 x16 @5 x16 @7 x16~ x16 @6 x16 @5 x16 @8 x16~ Y.R @8 x8 YLR @6 x16 YL. @8 x8 YLR @6 x16 @5 x16 @8 x16~ x16 @6 x16 @7 x8. @6 x8 
!5  V1 @2 Y.R c48 @2 YLR < g+48 YL. f48 O2 YLR @0 V0 c32 V1 c32 @1 c128 c64.~ c32 L @0 c16~ c16 c16 @1 c8 @0 c16 c16 @1 c16 @0 c16~ c16 c16 @1 c8 @0 c16 c16 @1 c16 @0 c16~ c16 c16 @1 c8 @0 c16 c16 @1 c16 @0 c16~ c16 c16 @1 c16 @0 V0 c16 V1 c16 c16 @1 c16 @0 c16~ c16 c16 @1 c8 @0 c16 c16 @1 c16 @0 c16~ c16 c16 @1 c8 @0 c16 c16 @1 c16 @0 c16~ c16 c16 @1 c8 @0 c16 c16 @1 c16 @0 c16~ c4 r16 c32 c32 @1 c8 @0 c8 @1 c8 @0 c16 c16 @1 c16 @0 c16~ c16 V0 c16 V1 @1 c8 @0 c16 c16 @1 c16 @0 c16~ c16 c16 @1 c16 @0 V0 c16 V1 c16 V0 c16 @1 V1 c16 @0 c16~ c16 c16 @1 c16 @0 V0 c16 V1 c16 @1 V0 c16 V1 c16 @0 c16~ c8 @1 c8 @0 c16 c16 @1 c16 @0 c16~ c16 V0 c16 V1 @1 c8 @0 c16 c16 @1 c16 @0 c16~ c16 c16 @1 c16 @0 V0 c16 V1 c16 @1 V0 c16 V1 c16 @0 c16~ c16 c16 @1 c16 @0 V0 c16 V1 @1 c16 @0 c16 @1 V1 c16 c32 c32 @0 c8 @1 c8 @0 c16 c16 @1 c16 @0 c16~ c16 V0 c16 V1 @1 c8 @0 c16 c16 @1 c16 @0 c16~ c16 c16 @1 c16 @0 V0 c16 V1 c16 V0 c16 @1 V1 c16 @0 c16~ c16 c16 @1 c16 @0 V0 c16 V1 c16 @1 V0 c16 V1 c16 @0 c16~ c8 @1 c8 @0 c16 c16 @1 c16 @0 c16~ c16 V0 c16 V1 @1 c8 @0 c16 c16 @1 c16 @0 c16~ c16 c16 @1 c16 @0 V0 c16 V1 c16 @1 V0 c16 V1 c16 @0 c16~ c16 c16 @1 c16 @0 V0 c16 V1 @1 c32 c32 @2 Y.R V0 c64 c64 c32 V1 c32 YLR < g+32 YL. V0 f32 V1 f32 YLR O2 @0 c16 c16 @1 c16 @0 c8 c8 c16~ c16 c16 @1 c16 @0 c8 V0 c32 V1 c32 @1 c8 @0 c16 c16 @1 c16 @0 c8 c8 c16~ c16 c16 @1 c8. @0 V0 r32 c64 V1 c64 @1 c16 V0 c16 @0 V1 x16 x16 @1 x16 @0 V0 x16 @1 V1 c16 @0 V0 c32 V1 c32 @1 c16 @0 c16~ c16 c16 @1 c16 @0 V0 c16 V1 @1 c16 @2 Y.R V0 c48 < YLR g+48 YL. f48 V0 YLR > @0 c16 V1 c16~ c16 c16 @1 c16 @0 V0 c16 @1 V1 c16 @0 V0 c16 V1 @1 V1 c16 @0 c16~ c16 @1 V0 c16 V1 c16 @0 V0 c32 V1 c32 V1 @1 c16 @0 V1 c8 V0 @1 c16 V1 O2 YLR @0 c8 @1 c8 @0 c16 c16 @1 c16 @0 c16~ c16 c16 @1 c16 @0 c16~ c16 c16 @1 c8 @0 c8 @1 c8 @0 c16 c16 @1 c8 @0 c16 c16 @1 c16 @0 c16~ c16 c16 @1 c16 c16 @0 c8 @1 c8 @0 c16 c16 @1 c16 @0 c16~ c16 c16 @1 c16 @0 c16~ c16 c16 @1 c16 @0 c16~ c16 @1 V0 c16 V1 c16 @0 c8 @1 c32 V0 c32 Y.R @2 c32 V1 c32 YLR @0 c16~ c16 c16 @1 c8 V1 @1 YLR c48 @2 Y.R c48 < YL. f48 O2 YLR @0 V0 c32 c32 V1 @1 c128 c64.~ c32 @0 
!6  D1 r128 _2 V0 @2 YLR c48 < g+48 f48 O2 @0 c32 c32 @1 c64.~ c32 L D0 @8 O1 V1 YLR e16~ e16 V0 Y.R e16 YLR @21 O1 [ V1 e16 V0 e16 ]2 e16 V1 e16~ e16 V0 e16 [ V1 e16 V0 e16 ]2 e16 O1 @8 V1 c16~ c16 YL. V0 c16 YLR @21 O1 [ V1 c16 V0 c16 ]2 c16 O1 @8 V1 d16~ d16 Y.R V0 d16 YLR @21 O1 [ V1 d16 V0 d16 ]2 d16 O1 @8 V1 e16~ e16 V0 YL. e16 YLR @21 O1 [ V1 e16 V0 e16 ]2 e16 V1 e16~ e16 V0 e16 [ V1 e16 V0 e16 ]2 e16 @8 O1 V1 c16~ c16 Y.R V0 c16 YLR @21 O1 [ V1 c16 V0 c16 ]2 c16 O1 @8 V1 d16~ d12 Y.R V0 d12 YL. d12 @7 V1 O3 YLR [ g32 f+32 d32 < a32 ]2 [ @8 O1 V1 e16 V0 Y.R e16 @21 O1 YLR V1 e16 e32 V0 e32 V1 e16 V0 e32 e32 V1 e16 c16~ c16 V0 c32 c32 V1 c16 d16~ d16 V0 d32 d32 V1 d16 EP-2,0,0,3,0 @40 W0,95,0 O1 e16~ e16 e16 b16 > e16 g16 f+16 d16 e16~ e16 e16 b16 > e16 g16 f+16 d16 EPX O1 @8 e16~ e16 V0 YL. e16 @21 O1 YLR V1 e16 e32 V0 e32 V1 e16 V0 e32 e32 V1 e16 d16~ d16 V0 d16 V1 d16 V0 d16 V1 d32 V0 d32 V1 d16 V1 d16 @40 W0,95,0 O0 b16~ b16 b16 > d+16 f+16 a16 f+16 a16 b16~ b16 b16 > d+16 f+16 a16 f+16 b8 ]2 @8 O2 c16 Y.R V0 c16 V0 YLR @21 O2 a16 V1 e16 V0 e16 V1 d16 V0 d16 < V1 a16~ a16 V0 a16 a16 > V1 d16 V0 d16 d16 V1 f+16 V0 f+16 < V1 b16 V0 b16 b16 > V1 d+16 V0 d+16 < V1 b16 V0 b16 > V1 e16~ e16 V0 e16 e16 V1 e16 V0 e16 e16 V1 d16 V0 d16 O1 @8 V1 f+16 YL. V0 f+16 YLR O1 V1 @21 [ V1 f+16 V0 f+16 ]2 f+16 @8 V1 g16~ g16 V0 Y.R g16 YLR V1 @21 O1 [ V1 g16 V0 g16 ]2 g16 @8 V1 a16~ a16 V0 YL. a16 YLR V1 @21 O1 [ V1 a16 V0 a16 ]2 a16 @8 V1 > d16~ d16 V0 Y.R d16 YLR @15 V0 d16 V1 d32 V0 d32 @3 V1 d32 V0 d32 @3 V1 d+8. @3 O2 e32 d32 e16 O1 @43 W0,95,0 V1 b16 >~ e16~ g16~ f+16~ d16 <~ c16~ c16 c16~ g16~ d16~ d16~ d16~ a16~ < e16 @3 O2 e32 d32 e16 O1 @43 W0,95,0 V1 b16 >~ e16~ g16~ f+16~ d16 <~ c16~ c16 c16~ g16~ d16~ d16~ d16~ a16~ < e16 @3 O2 e32 d32 e16 O1 @43 W0,95,0 V1 b16 >~ e16~ g16~ f+16~ d16 <~ c16~ c16 c16~ g16~ d16~ d16~ d16~ f+16~ a16 c16 e16 g16 d8 f+16 a16 b16~ b8 r48 @7 O0 D-1 Y.R b48 YL. > e48 Y.R a48 YL. b48 Y.R > e48 YL. a48 Y.R b48 YL. > e48 Y.R a48 Y.R b48 YL. g+48 Y.R e48 < YL. b48 Y.R g+48 YLR D0 
