;024 001B5882
!1  T90 L O2 V4 @@4,0,1 E100,60,40,31,19 c8. d8. c8 < b8. > c8. < b8 a8. b8. a16 V2 a16 V4 a8. g+8. a16 b16 > c8. d8. c8 < b8. > c8. < b8 a8. b8. a16 V2 a16 V7 > b32 > c32 < V3 b32 > c32 < V5 b32 > c32 < b32 > c32 < V7 b32 > c32 < b32 > c32 < V10 b32 > c32 < V5 b32 > c32 < V3 b32 > c32 < V2 b32 > c32 < EX V8 r4 c32 _V-6 c32 _V6 < b16~ b12 ( YL. b12 ( Y.R b12 ( YL. b12 ( Y.R b12 _V-2 YL. b12 > YLR V8 r4. c32 _V-6 c32 _V6 < b16 @1 _V-2 b12 _V-2 b12 _V-2 b12 _V3 b12 _V3 b12 _V3 b12 > YLR V6 @2 E100,100,85,6,3 YLR c12 _V-2 YL. c12 _V-2 Y.R c12 _V4 YLR c16 d16 e16 c16 YL. c12 _V-2 Y.R c12 _V-2 YL. c12 _V4 YLR f16 g16 a16 g16~ g8 d16 < b16 _V-3 YL. b16 _V3 YLR > d16 _V-3 Y.R d16 _V3 YLR c16 > @@18,2,1 E100,90,70,6,6 Y.R V7 g32 r32 c32 r32 > e32 r32 < g32 r32 YL. g32 r32 < b32 r32 > > d32 r32 < g32 r32 EX < V6 @2 YLR c12 _V-2 YL. c12 _V-2 Y.R c12 _V4 YLR c16 d16 e16 c16 YL. c12 _V-2 Y.R c12 _V-2 YL. c12 _V4 YLR f8 a16 _V-3 a16 _V3 g8 _V-3 g16 _V3 g16~ g4 > @@2,2,1 E100,90,70,6,6 V7 e16 d16 c16 < b16 _V-5 b16 > _V5 d16 _V-5 d16 _V5 c16 EX < V6 @2 YLR c12 _V-2 YL. c12 _V-2 Y.R c12 _V4 YLR c16 d16 e16 c16 YL. c12 _V-2 Y.R c12 _V-2 YL. c12 _V4 YLR f16 g16 a16 g16~ g8 d16 < b16 _V-3 YL. b16 _V3 YLR > d16 _V-3 Y.R d16 _V3 YLR c16 _V-3 Y.R c16 YL. c16 _V3 @@11,0,1 > Y.R c16 < g16 _V-3 g16 _V-2 g16 _V5 YL. V8 b16 g16 YLR V6 @2 c12 _V-2 YL. c12 _V-2 Y.R c12 _V4 YLR c16 d16 e16 c16 YL. c12 _V-2 Y.R c12 _V-2 YL. c12 _V3 YLR f8 a16 _V-3 a16 _V3 g8 r16 g16~ g4 @@11,0,1 e16 f+16 _V-3 f+16 _V3 g+16 _V-3 g+16 _V3 b16 _V-3 b16 _V3 a16 V6 @2 E90,80,85,3,6 P25,11,4 f4 a4 g4. r8 g8. d8. b32 r32 b8. > c32 r32 < a8. g16 a16 a2 g4. r8 d4. g32 r32 g16 g8. a8. EX a16 a16 _V-3 Y.R a16 _V3 YLR a16 a4 > c32 r32 < a4 r16 a16. _V-3 YL. a32 _V3 YLR a32 _V-3 YL. a32 _V3 YLR b16 b8. d8. PX V9 YL. d48 f+48 g48 a48 b48 > c48 < YLR V8 @@2,0,1 b32 r32 b32 r32 b32 r32 b32 YL. b32 r16 YLR b32 Y.R b32 > r16 YLR c16 P12,12,4 E100,100,75,6,9 c8 _V-2 Y.R c16 _V2 YLR c8. c16 _V-2 YL. c16 < _V2 YLR b8 _V-2 Y.R b16 _V2 YLR b8. b16 _V-2 YL. b16 _V2 YLR a8 _V-2 Y.R a16 _V2 YLR a8. a16 _V-2 YL. a16 _V2 YLR a8 _V-2 Y.R a16 _V2 YLR g+16 _V-2 YL. g+16 _V2 YLR a16 b16 > c16~ c8 _V-2 Y.R c16 _V2 YLR c8. c16 _V-2 YL. c16 < _V2 YLR b8 _V-2 Y.R b16 _V2 YLR b8. b16 P25,12,3 a16~ a2 PX @@4,0,1 PX YLR b32 r32 b32 r32 b32 r32 > c16 r16 d16 r16 P19,11,6 e8. _V-4 e16 YLR P15,12,5 @@2,0,1 _V4 c8. c16 _V-4 c16 < _V4 b8 _V-4 b16 _V4 b8. b16 _V-4 b16 _V4 a8 _V-4 a16 _V4 a8. a16 _V-4 a16 _V4 a8 _V-4 a16 _V4 g+16 _V-4 g+16 _V4 a16 b16 > c16~ c8 _V-4 c16 _V4 c8. e16 _V-4 e16 _V4 d8 _V-4 d16 _V4 < b8. b16 > c16~ c2 r8 > d32 r32 d16 c16 r32 < b16 r32 ) P80,10,3 a16~ a2~ a4. _V-4 Y.R a16 YL. a16 r2 r2 PX V4 YLR @@4,0,1 E100,60,40,31,19 O2 c8. d8. c8 < b8. > c8. < b8 a8. b8. a16 V2 a16 V4 a8. g+8. a16 b16 > 
!2  L O3 V8 @2 E70,85,100,6,12 YLR V8 e16 V5 Y.R e16 YL. e16 YLR V8 f16 V5 Y.R f16 YL. f16 YLR V8 e16 V5 Y.R e16 YLR V8 d16 V5 Y.R d16 YL. d16 YLR V8 e16 V5 Y.R e16 YL. e16 YLR V8 d16 V5 Y.R d16 YLR V8 c16 V5 Y.R c16 YL. c16 YLR V8 d16 V5 Y.R d16 YL. d16 YLR V8 c16 V5 Y.R c16 YLR V8 c16 V5 Y.R c16 YL. c16 YLR V8 < b16 V5 Y.R b16 YL. b16 YLR V8 > c16 d16 YLR V8 e16 V5 Y.R e16 YL. e16 YLR V8 f16 V5 Y.R f16 YL. f16 YLR V8 e16 V5 Y.R e16 YLR V8 d16 V5 Y.R d16 YL. d16 YLR V8 e16 V5 Y.R e16 YL. e16 YLR V8 d16 V5 Y.R d16 YLR V8 c16 V5 Y.R c16 YL. c16 YLR V8 d16 V5 Y.R d16 YL. d16 YLR V8 c16 V5 Y.R c16 YLR V8 > e32 f32 V3 e32 f32 V5 e32 f32 e32 f32 V7 e32 f32 e32 f32 V10 e32 f32 V6 e32 f32 V4 e32 f32 V2 e32 f32 EX < < @@4,0,1 V8 r4 a32 _V-5 a32 _V5 g16~ g12 ( YL. g12 ( Y.R g12 ( YL. g12 ( Y.R g12 _V-2 YL. g12 YLR V8 r4. a32 _V-5 a32 _V5 g16 @1 _V-2 g12 _V-2 g12 _V-2 g12 _V3 g12 _V3 g12 _V3 g12 YLR V8 @2 P14,11,3 E100,100,85,6,3 a12 _V-3 YL. a12 _V-3 Y.R a12 V8 YLR a16 b16 > c16 < a16 YL. a12 _V-3 Y.R a12 _V-3 YL. a12 V8 YLR a16 b16 > c16 < b16~ b8 a16 g16 _V-4 YL. g16 _V4 YLR f16 _V-4 Y.R f16 _V4 YLR e16 _V-4 Y.R e16 YL. e16 _V4 > @@4,0,1 YLR d16 c16 _V-4 YL. c16 _V4 < YLR b16 _V-4 Y.R b16 _V4 YLR a16 V8 @2 a12 _V-3 YL. a12 _V-3 Y.R a12 V8 YLR a16 b16 > c16 < a16 YL. a12 _V-3 Y.R a12 _V-3 YL. a12 V8 YLR a8 > c16 _V-5 c16 _V5 c8. < b16~ b4 r2 V8 @2 a12 _V-3 YL. a12 _V-3 Y.R a12 V8 YLR a16 b16 > c16 < a16 YL. a12 _V-3 Y.R a12 _V-3 YL. a12 V8 YLR a16 b16 > c16 < b16~ b8 a16 g16 _V-4 YL. g16 _V4 YLR f16 _V-4 Y.R f16 _V4 YLR e16 _V-4 Y.R e16 YL. e16 _V4 @@11,0,1 > Y.R e16 c16 _V-3 c16 _V-2 c16 _V5 YL. V8 d16 < b16 YLR V8 @2 a12 _V-3 YL. a12 _V-3 Y.R a12 V8 YLR a16 b16 > c16 < a16 YL. a12 _V-3 Y.R a12 _V-3 YL. a12 V8 YLR a8 > c16 _V-5 c16 _V5 c8. < b16~ b4 r2 E90,80,85,3,6 P25,11,3 V9 a4 > e4 d4~ d16 c16 < b16 a16 b8. g8. > d32 r32 d8. e32 r32 c8. < b16 > c16~ c4 e4 d4~ d16 c16 < b16 a16 g4. > d32 r32 d16 d8. c+8 EX d16 e16 g16 _V-4 Y.R g16 _V4 YLR g16 f16 e16 d16 c16 e32 r32 d4 r16 d32 e32 c32 _V-4 YL. c32 _V4 YLR e32 _V-4 YL. e32 _V4 YLR d16~ d8. < g8. V10 PX Y.R g48 a48 b48 > c48 d48 e48 YLR @@2,0,1 [ f32 r32 ]3 e32 YL. e32 r16 YLR d32 Y.R d32 r16 YLR P12,12,3 E100,100,80,6,9 e16~ e8 _V-2 Y.R e16 _V2 YLR f8. e16 _V-2 YL. e16 _V2 YLR d8 _V-2 Y.R d16 _V2 YLR e8. d16 _V-2 Y.R d16 _V2 YLR c8 _V-2 YL. c16 _V2 YLR d8. c16 _V-2 Y.R c16 _V2 YLR c8 _V-2 YL. c16 _V2 < YLR b16 _V-2 Y.R b16 _V2 > YLR c16 d16 e16~ e8 _V-2 YL. e16 _V2 YLR a8. e16 _V-2 Y.R e16 _V2 YLR d8 _V-2 YL. d16 _V2 YLR g8. d16 P25,12,3 c16~ c2 @@4,0,1 PX YLR [ g+32 r32 ]3 a16 r16 b16 r16 > c8. _V-4 c16 _V4 YLR @@2,0,1 P12,12,3 < f8. e16 _V-4 e16 _V4 d8 _V-4 d16 _V4 e8. d16 _V-4 d16 _V4 c8 _V-4 c16 _V4 d8. c16 _V-4 c16 _V4 c8 _V-4 c16 _V4 < b16 _V-4 b16 _V4 > c16 d16 e16~ e8 _V-4 e16 _V4 a8. > c16 _V-4 c16 _V4 < b8 _V-4 b16 _V4 g8. e16 P15,12,3 a16~ a2 r8 D2 V6 d32 r32 d16 c16 r32 < b16 r32 a16 PX D0 > @2 E70,85,100,6,12 V8 O3 [ YLR V8 e16 V5 Y.R e16 YL. e16 YLR V8 f16 V5 Y.R f16 YL. f16 YLR V8 e16 V5 Y.R e16 YLR V8 d16 V5 Y.R d16 YL. d16 YLR V8 e16 V5 Y.R e16 YL. e16 YLR V8 d16 V5 Y.R d16 YLR V8 c16 V5 Y.R c16 YL. c16 YLR V8 d16 V5 Y.R d16 YL. d16 YLR V8 c16 V5 Y.R c16 YLR V8 c16 V5 Y.R c16 YL. c16 YLR V8 < b16 V5 Y.R b16 YL. b16 YLR V8 > c16 d16 ]2 
!3  L O1 `2E63 `9F00 `AE00 @A3 V3 r2 r2 r2 r2 r2 r2 r2 E100,100,80,8,1 e16. > e32~ e16 d32 < b32 EP0,-40,-70,31,12 e4 EPX < a16. > EP-40,-20,0,6,6 e16 r32 a16~ a4. r8 EPX d32 e32 r32 d32 r32 c32 e16 < E100,100,80,8,1 a16. > EP-40,-20,0,6,6 e16 r32 a16~ a4. r8 EPX B1 EX V3 > r64 @A1 > YL. d32 g32 YLR b32 > d32 Y.R g32 d32 < YLR b32 g64 B0 < < < V3 [ @A3 E100,70,70,8,0 a16. > e32 r16 < a8 > e32 r32 < a16 > e16 < f16. > c32 r16 < f8 > c32 r32 < f16 > c16 < g16. > d32 r16 < g8 > d32 r32 < g16 > d16 c16. g32 r16 < b8 > g32 r32 < b16 > g16 < a16. > e32 r16 < a8 > e32 r32 < a16 > e16 < f16. > c32 r16 < f8 > c32 r32 < f16 > c16 < g16. > d32 r16 < g8 > d32 r32 < g16 > d16 < e16. > e32 r16 < e8 > e32 r32 < e16 > e16 < ]2 [ [ f16. > f32 r16 < f8 > f32 r32 < f16 > f16 < ]2 e16. > e32 r16 < e8 > e32 r32 < e16 > e16 < a16. > a32 r16 < g8 > g32 r32 < g16 > g16 < ]2 f16. > f32 r16 < f8 > f32 r32 < f16 > f16 < f+16. > f+32 r16 < f+8 > f+32 r32 < f+16 > f+16 < g16. > g32 r16 < g8 > g32 r32 < g16 > g16 < V3 g+32 r32 g+32 r32 g+32 r32 e32 r32 r16 g+32 r32 r16 a16 EX EPX a16. E100,100,70,8,1 EP-10,-5,0,3,3 > a32 r16 < a16. > a32 r16 < a16 > a16 < g16. > g32 r16 < g8 > g32 r32 < g16 > g16 < f16. > f32 r16 < f8 > f32 r32 < f16 > f16 < e16. > e32 r16 < e8 > e32 r32 < e16 > e16 < a16. > a32 r16 < a8 > a32 r32 < a16 > a16 < g16. > g32 r16 < g8 > g32 r32 < g16 > g16 < f16. > f32 r16 < f8 > f32 r32 < f16 > f16 < e32 r32 e32 r32 e32 r32 f+16 r16 g+16 r16 a16 EX EPX a16. E100,100,70,8,1 EP-10,-5,0,3,3 > a32 r16 < a16. > a32 r16 < a16 > a16 < g16. > g32 r16 < g8 > g32 r32 < g16 > g16 < f16. > f32 r16 < f8 > f32 r32 < f16 > f16 < e16. > e32 r16 < e8 > e32 r32 < e16 > e16 < a16. > a32 r16 < a8 > a32 r32 < a16 > a16 < g16. > g32 r16 < g8 > g32 r32 < g16 f16 f16. > f32 r16 < f8 > f32 r32 < f16 > f16 < e8 r4. @A1 > > > V1 EX EPX c8. d8. c8 < b8. > c8. < b8 a8. b8. a16 r16 a8. g+8. a16 b16 > r2 r2 r2 r2 
!4  L r2 r2 r2 r2 [ r8 @5 x8 r8 x8 ]3 r8 @5 x8 r8 @7 x8 @8 x16. @6 x32 @5 x8 x8 x8 @5 x32 @6 x32 x32 x32 @5 x8 x8 @7 x8 @5 x32 @6 x32 x32 x32 @5 x8 x8 x8 @5 x32 @6 x32 x32 x32 @7 x16 @11 x4 @6 x16 @8 x8 [ @7 x16 @6 x16 ]3 [ [ @7 x16 @6 x16 ]4 ]14 [ @7 x16 @6 x16 ]3 @8 x8 [ @5 x32 @6 x32 x32 x32 @5 x16 @6 x16 @5 x16 @6 x16 @5 x16 @6 x16 @5 x16 @6 x16 @5 x16 @6 x16 @5 x16 @6 x16 @5 x16 @6 x16 ]4 [ @7 x8 x8 x8 x8 ]3 @5 x16 @6 x16 x16 @5 x16 @6 x16 x16 @5 x16 @8 x8 r16 @7 x8 x8 x8 [ @7 x8 x8 x8 x8 ]2 x8 x8 x8 r16 @8 x8 r16 @7 x8 x8 x8 [ [ @7 x8 x8 x8 x8 ]2 x8 x8 x8 r16 @8 x8 r16 @7 x8 x8 x8 ]2 [ @7 x8 x8 x8 x8 ]2 x8 r4 x8 [ r2 ]8 
!5  L V0 O1 @25 r16 a16 a16 r16 a16 a16 r16 a16 r16 g16 g16 r16 g16 g16 r16 g16 r16 f16 f16 r16 f16 f16 r16 f16 r16 e16 e16 r16 e16 e16 r16 e16 r16 a16 a16 r16 a16 a16 r16 a16 r16 g16 g16 r16 g16 g16 r16 g16 r16 f16 f16 r16 f16 f16 r16 f16 O2 V1 @0 c32 @24 V0 c32 V1 c32 V0 c32 c32 c32 @0 V1 c32 @24 V0 c32 V1 c32 V0 c32 c32 c32 @0 V1 c32 @24 V0 c32 c32 V1 c32 @0 V1 c16 r32 V0 c32 @24 V1 c16 @0 V0 c16 r16 c16 @24 V1 c8 @0 V1 c16 r32 V0 c32 @24 V1 c16 @0 V0 c16 r16 c16 @24 V1 c32 @0 V0 c16. @0 V1 c16 r32 V0 c32 @24 V1 c16 @0 V0 c16 r16 c16 @24 V1 c8 @0 V0 c8 r4 @24 V1 c32 ( c32 c32 c32 [ @0 V1 c16 r32 V0 c32 @24 V1 c16 @0 V1 c16 r16 V0 c16 @24 V1 c8 @0 V1 c16 r32 V0 c32 @24 V1 c16 @0 V1 c16 r16 V0 c16 @24 V1 c32 @0 V0 c16. ]3 @0 V1 c16 r32 V0 c32 @24 V1 c16 @0 V1 c16 r16 V0 c16 @24 V1 c8 @0 V1 c16 r32 V0 c32 @24 V1 c16 @0 V1 c16 r16 V0 c16 @24 V1 c32 V0 c32 @0 c16 [ @0 V1 c16 r32 V0 c32 @24 V1 c16 @0 V1 c16 r16 V0 c16 @24 V1 c8 @0 V1 c16 r32 V0 c32 @24 V1 c16 @0 V1 c16 r16 V0 c16 @24 V1 c32 @0 V0 c16. ]3 @0 V1 c16 r32 V0 c32 @24 V1 c16 @0 V1 c16 r16 V0 c16 @24 V1 c8 @0 V1 c16 r32 V0 c32 @24 V1 c16 @0 V1 c16 r16 V0 c16 @24 V1 c32 @2 c32 < a32 g32 > [ @0 V1 c16 r32 V0 c32 @24 V1 c16 @0 V1 c16 r16 V0 c16 @24 V1 c8 ]11 @24 c16 c16 V0 c16 @0 c16 r16 @24 V1 c16 c32 c32 @0 V0 c16 [ @0 V1 c16 r32 V0 c32 @24 V1 c16 @0 V1 c16 r16 V0 c16 @24 V1 c8 @0 V1 c16 r32 V0 c32 @24 V1 c16 @0 V1 c16 r16 V0 c16 @24 V1 c32 @0 V0 c16. ]3 @0 V1 c16 r32 V0 c32 @24 V1 c16 @0 V1 c16 r16 V0 c16 @24 V1 c8 @24 c16 c16 V0 c16 @0 c16 r16 @24 V1 c16 c32 c32 @0 V0 c16 [ @0 V1 c16 r32 V0 c32 @24 V1 c16 @0 V1 c16 r16 V0 c16 @24 V1 c8 @0 V1 c16 r32 V0 c32 @24 V1 c16 @0 V1 c16 r16 V0 c16 @24 V1 c32 @0 V0 c16. ]3 @0 V1 c16 r32 V0 c32 @24 V1 c16 @0 V1 c16 r16 V0 c16 @24 V1 c8 @0 V1 c8 r4. r2 r2 r2 r2 V0 O1 @25 r16 a16 a16 r16 a16 a16 r16 a16 r16 g16 g16 r16 g16 g16 r16 g16 r16 f16 f16 r16 f16 f16 r16 f16 r16 e16 e16 r16 e16 e16 r16 e16 
!6  L V1 r2 r2 r2 r2 O1 @8 a16 a16 r16 Y.R a16 YL. a16 r16 Y.R a16 YL. a16 ( r16 Y.R a16 YL. a16 r16 Y.R a16 YL. a16 r8 r2 V0 @8 > YLR e16 < e32 ( Y.R e32 YLR ) e32 ( YL. e32 ) YLR > e16 < e32 ( Y.R e32 YLR ) e32 ( YL. e32 ) YLR > e16 < e32 ( Y.R e32 [ V1 YLR r4. @27 e16 d16 d16 ( d16 d16 d16 ) YL. @19 d32 g32 YLR b32 > d32 Y.R g32 d32 < YLR b32 g32 ]2 r2 r2 r2 r8 O2 @3 f16 e16 ( YL. e16 ) YLR d16 ( Y.R d16 ) YLR c16 ( YL. c16 Y.R c16 YL. c16 Y.R c16 ) r4 r2 r2 YLR @3 g16 f16 e16 d16 YL. d16 YLR f16 Y.R f16 YLR e16 V0 @27 [ Y.R a16 < YL. a16 a16 > Y.R a16 < YL. a16 a16 > Y.R a16 < YL. a16 > ]2 [ Y.R g16 < YL. g16 g16 > Y.R g16 < YL. g16 g16 > Y.R g16 < YL. g16 > ]2 [ Y.R a16 < YL. a16 a16 > Y.R a16 < YL. a16 a16 > Y.R a16 < YL. a16 > ]2 Y.R g16 < YL. g16 g16 > Y.R g16 < YL. g16 g16 > Y.R g16 < YL. g16 YLR V1 @3 g+16 a16 ( YL. a16 YLR ) b16 ( Y.R b16 > YLR ) d16 ( YL. d16 ) YLR c16 @27 O1 V0 a32 Y.R a32 > YLR c32 YL. c32 YLR f32 Y.R f32 YLR a32 YL. a32 YLR f32 Y.R f32 YLR c32 YL. c32 < YLR a32 Y.R a32 > YLR c32 YL. c32 < [ YLR b32 Y.R b32 > YLR d32 YL. d32 YLR g32 Y.R g32 YLR b32 Y.R b32 YLR g32 YL. g32 YLR d32 Y.R d32 < YLR b32 YL. b32 > YLR d32 Y.R d32 < ]2 YLR a32 Y.R a32 > YLR c32 YL. c32 YLR e32 Y.R e32 YLR a32 YL. a32 YLR e32 Y.R e32 YLR c32 YL. c32 < YLR a32 Y.R a32 > YLR c32 YL. c32 < YLR a32 Y.R a32 > YLR c32 YL. c32 YLR f32 Y.R f32 YLR a32 YL. a32 YLR f32 Y.R f32 YLR c32 YL. c32 < YLR a32 Y.R a32 > YLR c32 YL. c32 < [ YLR b32 Y.R b32 > YLR d32 YL. d32 YLR g32 Y.R g32 YLR b32 Y.R b32 YLR g32 YL. g32 YLR d32 Y.R d32 < YLR b32 YL. b32 > YLR d32 Y.R d32 < ]2 YLR a32 Y.R a32 > YLR e32 YL. e32 YLR a32 Y.R a32 YLR e32 YL. e32 < YLR a32 Y.R a32 > YLR e32 YL. e32 YLR a32 Y.R a32 YLR e32 YL. e32 < YLR @3 V1 YLR f12 a12 > c12 f12 ( YL. f12 Y.R f12 ) < YLR d12 f+12 a12 > d12 ( YL. d12 Y.R d12 YLR r2 V1 f16 f16 f16 e16 YL. ( e16 ) YLR d16 ( Y.R d16 ) YLR e16 ( YL. e16 @6 O2 V1 YLR e32 YL. e32 > YLR c32 Y.R c32 < YLR e32 YL. e32 YLR a32 Y.R a32 YLR e32 YL. e32 > YLR c32 Y.R c32 < YLR e32 YL. e32 [ YLR g32 Y.R g32 YLR d32 YL. d32 YLR b32 Y.R b32 YLR d32 YL. d32 ]2 [ YLR f32 Y.R f32 YLR c32 YL. c32 YLR a32 Y.R a32 YLR c32 Y.R c32 ]2 YLR e32 YL. e32 < YLR b32 Y.R b32 > YLR e32 YL. e32 YLR b32 Y.R b32 YLR e32 YL. e32 YLR b32 Y.R b32 > YLR e32 YL. e32 < YLR e32 Y.R e32 YLR a32 Y.R a32 YLR e32 YL. e32 > YLR c32 Y.R c32 < YLR e32 YL. e32 YLR a32 Y.R a32 YLR e32 YL. e32 > YLR c32 Y.R c32 < YLR e32 YL. e32 [ YLR g32 Y.R g32 YLR d32 YL. d32 YLR b32 Y.R b32 YLR d32 YL. d32 ]2 [ YLR f32 Y.R f32 YLR c32 YL. c32 YLR a32 Y.R a32 YLR c32 Y.R c32 ]2 V1 O1 YLR @8 b16 b16 b16 > c16 ( YL. c16 ) YLR d16 ( Y.R d16 ) YLR e16 ( Y.R e16 @6 O2 V1 YLR e32 YL. e32 > YLR c32 Y.R c32 < YLR e32 YL. e32 YLR a32 Y.R a32 YLR e32 YL. e32 > YLR c32 Y.R c32 < YLR e32 YL. e32 [ YLR g32 Y.R g32 YLR d32 YL. d32 YLR b32 Y.R b32 YLR d32 YL. d32 ]2 [ YLR f32 Y.R f32 YLR c32 YL. c32 YLR a32 Y.R a32 YLR c32 Y.R c32 ]2 YLR e32 YL. e32 < YLR b32 Y.R b32 > YLR e32 YL. e32 YLR b32 Y.R b32 YLR e32 YL. e32 YLR b32 Y.R b32 > YLR e32 YL. e32 < YLR e32 Y.R e32 YLR a32 Y.R a32 YLR e32 YL. e32 > YLR c32 Y.R c32 < YLR e32 YL. e32 YLR a32 Y.R a32 YLR e32 YL. e32 > YLR c32 Y.R c32 < YLR e32 YL. e32 [ YLR g32 Y.R g32 YLR d32 YL. d32 YLR b32 Y.R b32 YLR d32 YL. d32 ]2 YLR f32 Y.R f32 YLR c32 YL. c32 YLR a32 Y.R a32 YLR c32 Y.R c32 YLR f32 Y.R f32 YLR c32 YL. c32 @8 O1 YLR a32 b32 > c32 d32 e2 [ r2 r2 r2 r2 ]2 
