;026 001B781E
!1  T90 @@2,3,1 O2 V4 YL. EX P24,12,5 D1 r32 g16 > c16 d16 d+16 f16 L g8. c8. g32 _V-3 g32 _V3 g+16~ g+4 _V-3 g+16 _V3 g16 _V-3 g16 _V3 f16~ f16 _V-3 f16 _V3 f16 d16 _V-3 d16 _V3 < a+16 _V-3 a+16 _V3 > B4 g16~ g8~ g+16 g16 _V-3 g16 _V3 f16 _V-3 f16 _V3 d+16~ d+4 _V-3 d+16 _V3 d16 _V-3 d16 _V3 c16~ c8. _V-3 c16 _V3 c8 d+16 _V-3 d+16 _V3 d+8. d8.~ d8 _V-4 d32 _V4 EX D0 EP-10,-5,0,1,1 @@2,2,0 YLR V8 O1 a+16 > d16 f16 a+16 > EPX @@2,3,1 E100,100,90,1,4 V7 O3 c8 d16 d+8. < g8. > d+32 _V-3 d+32 _V3 d+16~ d+4 _V-3 d+16 _V3 d+16 _V-3 d+16 _V3 d16~ d16 _V-3 d16 _V3 d16 < a+16 _V-3 a+16 _V3 f16 _V-3 f16 _V3 > d+16~ d+8~ f16 d+16 _V-3 d+16 _V3 d16 _V-3 d16 _V3 c16~ c4 _V-3 c16 _V3 < a+16 _V-3 a+16 _V3 g+16~ g+8. _V-3 g+16 _V3 g+8 > c16 _V-3 c16 _V3 c8. d8.~ d8 D1 V8 @2 E100,70,20,3,1 O1 r32 YL. a+32 > d32 f32 a+32 > Y.R c32 d32 f32 a+32 > YL. d32 < a+32 f32 d32 < Y.R a+32 f32 d32 D0 D2 O2 @@2,0,1 E100,100,90,1,4 P24,9,10 V5 r32 Y.R g8. c8. f16 d16~ d8. _V-4 f16 _V4 B6 d16~ d+16 d16~ < a+16~ a+8.~ > c16~ c4~ c4 _V-4 c12 _V4 O2 d+12 f12 g8. c8. f16 d16~ d8. _V-4 f16 _V4 B6 d16~ d+16 d16~ < a+16~ a+8. g8~ g32 YLR V7 D0 > d32 _V-4 d32 _V4 c16~ c4 _V-4 c16 YLR V7 c16 d32 r32 d+16~ d+8. > V10 @@2,2,0 EP-10,-5,0,3,3 d+16. EPX _V-4 Y.R d+32 _V4 @@2,0,1 V7 YLR < c16 d32 r32 < a16~ a8. > V10 @@2,2,0 EP-10,-5,0,3,3 a16. EPX _V-4 Y.R a32 _V4 @@2,0,1 V7 YLR c16 d32 r32 < b16~ b2~ b8 _V-4 b16 @@2,3,1 O2 V6 YLR E100,100,90,1,4 P24,12,5 r16 a16 b16 > c16 d16 d+8. < g8. > d+32 _V-3 d+32 _V3 d+16~ d+4 _V-3 d+16 _V3 d+16 _V-3 d+16 _V3 d16~ d16 _V-3 d16 _V3 d16 < a+16 _V-3 a+16 _V3 f16 _V-3 f16 _V3 > d+16~ d+8 f16 d+16 _V-3 d+16 _V3 d16 _V-3 d16 _V3 c16~ c4 _V-3 c16 _V3 < a+16 _V-3 a+16 _V3 g+16~ g+8. _V-3 g+16 _V3 g+8 > c16 _V-3 c16 _V3 c8. < a+8.~ a+4 _V-4 a+16 @@2,3,1 E100,100,90,1,4 V7 O3 c8. d8 d+8. < g8. > d+32 _V-3 d+32 _V3 d+16~ d+4 _V-3 d+16 _V3 d+16 _V-3 d+16 _V3 d16~ d16 _V-3 d16 _V3 d16 < a+16 _V-3 a+16 _V3 f16 _V-3 f16 _V3 > d+16~ d+8 f16 d+16 _V-3 d+16 _V3 d16 _V-3 d16 _V3 c16~ c4 _V-3 c16 _V3 < a+16 _V-3 a+16 _V3 g+16~ g+8. _V-3 g+16 _V3 g+8 > c16 _V-3 c16 _V3 c8. d8.~ d8 D1 V5 @2 E100,70,20,3,1 O1 r32 YL. a+32 > d32 f32 a+32 > Y.R c32 d32 f32 a+32 > YL. d32 < a+32 f32 d32 < Y.R a+32 f32 d32 D0 YLR @@2,1,2 O3 V6 E100,100,80,1,4 r8. EP-10,-5,0,5,6 d+16~ d+16 EPX d16 c16 d16~ d12 _V-3 Y.R c12 YL. d12 _V3 < YLR a+12 > c12 d12 EP-15,-7,0,5,12 < a+4 EPX _V-2 a+8 _V-2 a+8 @1 O2 EPX V5 r16 d+16 g16 a+16 > c16 d16 < a+16 > c16 < g+16 _V-3 Y.R g+16 YL. g+16 _V3 YLR @@2,1,2 O3 V6 EP-10,-5,0,5,6 d+16~ d+16 EPX d16 c16 d16~ d12 _V-3 Y.R c12 YL. d12 _V3 YLR d8 _V-3 Y.R d16 _V3 YLR EP-12,-6,0,3,6 d+16~ d+4 EPX _V-2 d+8 _V-2 d+8 @1 O3 EPX V5 c4 < a+12 > c12 d12 < g16 _V-3 Y.R g16 YL. g16 _V3 YLR @@2,1,2 O3 V6 EP-10,-5,0,5,6 d+16~ d+16 EPX d16 c16 d16~ d12 _V-3 Y.R c12 YL. d12 _V3 < YLR a+12 > c12 d12 EP-12,-6,0,3,6 < a+4 EPX _V-2 a+8 _V-2 a+8 @1 O2 EPX V5 r16 d+16 g16 a+16 > c16 d16 < a+16 > c16 < g+16 _V-3 Y.R g+16 YL. g+16 _V3 YLR @@2,1,2 O3 V6 EP-10,-5,0,5,6 d+16~ d+16 EPX d16 c16 d16~ d12 _V-3 Y.R c12 YL. d12 _V3 YLR d32 _V-3 d32 _V3 d16 _V-3 d16 _V3 < b16~ b2 EPX > @@2,2,0 V7 [ b32 r32 ]3 @@2,3,1 O2 V4 YL. E90,100,90,1,4 P24,12,5 D1 r32 g16 > c16 d16 d+16 f16 
!2  @@2,3,1 O2 V7 YLR E90,100,90,1,4 P24,12,5 g16 > c16 d16 d+16 f16 L g8. c8. g32 _V-4 g32 _V4 g+16~ g+4 _V-4 g+16 _V4 g16 _V-4 g16 _V4 f16~ f16 _V-4 f16 _V4 f16 d16 _V-4 d16 _V4 < a+16 _V-4 a+16 _V4 > B6 g16~ g8~ g+16 g16 _V-4 g16 _V4 f16 _V-4 f16 _V4 d+16~ d+4 _V-4 d+16 _V4 d16 _V-4 d16 _V4 c16~ c8. _V-4 c16 _V4 c8 d+16 _V-4 d+16 _V4 d+8. d8.~ d8 _V-4 d16 _V4 EX EP-10,-5,0,1,1 @@2,2,0 O2 V8 d16 f16 a+16 > d16 EPX @@2,3,1 E100,100,90,1,4 V8 O3 d+8 f16 g8. c8. g32 _V-4 g32 _V4 g+16~ g+4 _V-4 g+16 _V4 g16 _V-4 g16 _V4 f16~ f16 _V-4 f16 _V4 f16 d16 _V-4 d16 _V4 < a+16 _V-4 a+16 _V4 > g16~ g8~ g+16 g16 _V-4 g16 _V4 f16 _V-4 f16 _V4 d+16~ d+4 _V-4 d+16 _V4 d16 _V-4 d16 _V4 c16~ c8. _V-4 c16 _V4 c8 d+16 _V-4 d+16 _V4 d+8. f8.~ f4. _V-4 f12 _V4 O2 @@2,0,1 P24,9,10 V9 d+12 f12 g8. c8. f16 d16~ d8. _V-4 f16 _V4 B6 d16~ d+16 d16~ < a+16~ a+8.~ > c16~ c4~ c4 _V-4 c12 _V4 O2 d+12 f12 g8. c8. f16 d16~ d8. _V-4 f16 _V4 B6 d16~ d+16 d16~ < a+16~ a+8. g8. > f32 _V-4 f32 _V4 d+16~ d+4 _V-4 d+16 V10 [ d+16 f32 r32 g16~ g8. > @@2,2,0 EP-10,-5,0,3,3 g16. EPX _V-4 Y.R g32 _V4 @@2,0,1 < YLR ]2 d+16 f32 r32 g16~ g2~ g8 _V-4 g16 @@2,3,1 O2 V8 YLR E100,100,90,1,4 P24,12,5 g16 > c16 d16 d+16 f16 g8. c8. g32 _V-4 g32 _V4 g+16~ g+4 _V-4 g+16 _V4 g16 _V-4 g16 _V4 f16~ f16 _V-4 f16 _V4 f16 d16 _V-4 d16 _V4 < a+16 _V-4 a+16 _V4 > g16~ g8 g+16 g16 _V-4 g16 _V4 f16 _V-4 f16 _V4 d+16~ d+4 _V-4 d+16 _V4 d16 _V-4 d16 _V4 c16~ c8. _V-4 c16 _V4 c8 d+16 _V-4 d+16 _V4 d+8. d8.~ d4 _V-4 d16 @@2,3,1 E100,100,90,1,4 V8 O3 d+8. f8 g8. c8. g32 _V-4 g32 _V4 g+16~ g+4 _V-4 g+16 _V4 g16 _V-4 g16 _V4 f16~ f16 _V-4 f16 _V4 f16 d16 _V-4 d16 _V4 < a+16 _V-4 a+16 _V4 > g16~ g8 g+16 g16 _V-4 g16 _V4 f16 _V-4 f16 _V4 d+16~ d+4 _V-4 d+16 _V4 d16 _V-4 d16 _V4 c16~ c8. _V-4 c16 _V4 c8 d+16 _V-4 d+16 _V4 d+8. f8.~ f4. V5 @2 E100,70,20,3,1 O4 YL. d32 < a+32 f32 d32 < Y.R a+32 f32 d32 < a+32 YLR @@2,1,2 O3 V8 E100,100,80,1,4 r8. EP-10,-5,0,5,6 g16~ g16 EPX f16 d+16 f16~ f12 _V-3 Y.R d+12 YL. f12 _V3 YLR d12 d+12 f12 EP-15,-7,0,5,12 d4 _V-2 EPX d8 _V-2 d8 @1 O2 V5 r16 g16 > c16 d16 d+16 f16 d16 d+16 c16 _V-3 Y.R c16 YL. c16 _V3 YLR @@2,1,2 O3 V8 EP-10,-5,0,5,6 g16~ g16 EPX f16 d+16 f16~ f12 _V-3 Y.R d+12 YL. f12 _V3 YLR a+16 > c16 _V-3 Y.R c16 _V3 < YLR EP-12,-6,0,3,6 g16~ g4 EPX _V-2 g8 _V-2 g8 @1 O3 V5 d+4 d12 d+12 f12 c16 _V-3 Y.R c16 YL. c16 _V3 YLR @@2,1,2 O3 V8 EP-10,-5,0,5,6 g16~ g16 EPX f16 d+16 f16~ f12 _V-3 Y.R d+12 YL. f12 _V3 YLR d12 d+12 f12 EP-15,-7,0,5,12 d4 _V-2 EPX d8 _V-2 d8 @1 O2 V5 r16 g16 > c16 d16 d+16 f16 d16 d+16 c16 _V-3 Y.R c16 YL. c16 _V3 YLR @@2,1,2 O3 V8 EP-10,-5,0,5,6 g16~ g16 EPX f16 d+16 f16~ f12 _V-3 Y.R d+12 YL. f12 _V3 YLR a+16 > c16 _V-3 Y.R c16 _V3 < YLR EP-12,-6,0,3,6 g16~ g2 EPX > @@2,2,0 V8 [ g32 r32 ]3 @@2,3,1 O2 V7 YLR E90,100,90,1,4 P24,12,5 g16 > c16 d16 d+16 f16 
!3  `9F00 `AE00 @A3 V3 E100,100,60,4,3 O0 r8. g8 > L [ c16 c16 ]4 [ f16 f16 ]4 < [ a+16 a+16 ]4 > [ [ d+16 d+16 ]2 H-1 ]2 H0 [ c16 c16 ]2 c16 < a+16 a+16 g+8 [ g+16 ]3 [ g+16 g+16 ]2 [ a+16 a+16 ]4 a+12 B4~ > a+12 f12 < a+4 O1 [ c16 c16 ]4 [ f16 f16 ]4 < [ a+16 a+16 ]4 > [ [ d+16 d+16 ]2 H-1 ]2 H0 [ c16 c16 ]2 c16 < a+16 a+16 g+8 [ g+16 ]3 [ g+16 g+16 ]2 [ a+16 a+16 ]8 [ [ g+16 g+16 ]4 H2 ]2 H0 > [ c16 c16 ]6 < [ a+16 a+16 ]2 [ [ g+16 g+16 ]4 H2 ]2 H0 [ g16 g16 ]4 > [ [ c16 c16 ]2 H-2 ]2 H0 < [ g+16 g+16 ]4 [ f16 f16 ]4 [ g16 <~ g16 g16~ > ]2 g16 <~ g16 g16 g16 a16 a16 b16 b16 g16 g16 O1 [ c16 c16 ]4 [ f16 f16 ]4 < [ a+16 a+16 ]4 > [ [ d+16 d+16 ]2 H-1 ]2 H0 [ c16 c16 ]2 c16 < a+16 a+16 g+8 [ g+16 ]3 [ g+16 g+16 ]2 [ a+16 a+16 ]4 a+12 B3~ > a+12 f12 < a+12 > d12 < a+12 O1 [ c16 c16 ]4 [ f16 f16 ]4 < [ a+16 a+16 ]4 > [ [ d+16 d+16 ]2 H-1 ]2 H0 [ c16 c16 ]2 c16 < a+16 a+16 g+8 [ g+16 ]3 [ g+16 g+16 ]2 [ a+16 a+16 ]8 E100,100,60,3,6 [ g+4 > g+8. < g+16 H2 ]2 H0 > c8. < g8. > c8. < g16 > c16 d16 d+16 d16 c16 < g16 [ g+4 > g+8. < g+16 H2 ]2 H0 > c8. < g8. > c8. < g16 > c16 d16 d+16 d16 c16 < g16 [ g+4 > g+8. < g+16 H2 ]2 H0 > c8. < g8. > c8. < g16 > c16 d16 d+16 d16 c16 < g16 [ g+4 > g+8. < g+16 H2 ]2 H0 g8. > g8. < g8 g16 g16 g16 O0 r8. g8 > 
!4  r8. @7 x8 L @8 x8 @7 [ x8 ]3 [ [ x8 ]4 ]7 @8 x8 @7 [ x8 ]3 [ [ x8 ]4 ]7 @8 x8 @7 [ x8 ]3 [ [ x8 ]4 ]3 [ [ x8 ]4 ]4 [ [ x8 ]4 ]2 [ @7 x8 @5 x16 ]2 @7 x16 @5 x16 @8 x8 @6 x8 x8 @7 x8 @8 x8 @7 [ x8 ]3 [ [ x8 ]4 ]7 @8 x8 @7 [ x8 ]3 [ [ x8 ]4 ]7 [ @8 x8 @5 x16 @6 x16 @7 x16 @5 x16 @6 x16 x16 [ @5 x16 @6 x16 x16 x16 @7 x16 @5 x16 @6 x16 x16 ]2 @5 x16 @6 x16 x16 x16 [ @7 x16 @5 x16 ]2 ]3 @8 x8 @5 x16 @6 x16 @7 x16 @5 x16 @6 x16 x16 @5 x16 @6 x16 x16 x16 @7 x16 @5 x16 @6 x16 x16 [ @8 x8 @5 x16 ]2 @8 x8 @7 x16 x16 @8 x8. r16 @7 x8 
!5  V1 YLR O2 r8 r32. @24 V0 c64 V1 c8 L [ @0 c8 @24 c8 @0 c16 c16 @24 c8 ]7 @0 c32 @24 c32 @2 c32 c32 @0 c32 @24 c32 @2 < a32 a32 > @0 c16. r64 @24 V0 c64 V1 c16 @0 c16 [ @0 c8 @24 c8 @0 c16 c16 @24 c8 ]7 @0 c8 @24 c16 @0 c16 @24 d32 c32 @0 c16 @24 d16 @0 c16 [ @0 c8 @24 c8 @0 c16 c16 @24 c8 ]10 [ @24 c16 @0 c16 c16 ]2 @24 c16 @0 c16 @0 c32 @24 c32 @2 c32 c32 @0 c32 @24 c32 @2 < a32 a32 > @0 c32 @24 c32 @2 < g32 g32 > @0 c32 @24 c32 @2 < e32 e32 > [ @0 c8 @24 c8 @0 c16 c16 @24 c8 ]7 @0 c8 @24 c16 @0 c16 [ @24 d32 c32 @0 c16 ]2 [ @0 c8 @24 c8 @0 c16 c16 @24 c8 ]7 @0 c32 @24 c32 @2 c32 c32 @0 c32 @24 c32 @2 < a32 a32 > @0 c32 @24 c32 @2 < g32 g32 > @24 d32 c32 c32 c32 [ @0 c8. c32. @24 V0 c64 V1 d8. @0 c16 c8 V0 c16. r64 @24 c64 V1 d8. @0 c16 ]3 @0 c8. c32. @24 V0 c64 V1 d8. @0 c16 c8 V0 c16. r64 @24 c64 V1 d16 @0 c32. @24 V0 c64 V1 d16 @0 c16 [ @0 c8. c32. @24 V0 c64 V1 d8. @0 c16 c8 V0 c16. r64 @24 c64 V1 d8. @0 c16 ]3 @0 c8 @24 c8 @0 c16 c16 @24 c8 @24 c16 c16 c16 @0 c16 @24 d32 c32 @0 c16 @24 d16 @0 c16 
!6  r4 r16 L V1 YLR O1 @40 W0,95,1 [ c32 g32 > c32 g32 > c32 < g32 c32 < g32 ]2 < [ f32 > c32 f32 > c32 f32 c32 < f32 c32 < ]2 [ a+32 > f32 a+32 > f32 a+32 f32 < a+32 f32 < ]2 < d+32 a+32 > d+32 a+32 > d+32 < a+32 d+32 < a+32 d32 a+32 > f32 a+32 > d32 < a+32 f32 < a+32 c32 g32 > c32 g32 > c32 < g32 c32 < g32 c32 g32 > c32 < g32 a+32 > f32 a+32 f32 [ [ < g+32 > d+32 g+32 > d+32 g+32 d+32 < g+32 d+32 ]2 H2 ]2 H0 O0 @8 V0 a+16 > V1 d16 f16 a+16 > d12 V0 Y.R d12 YL. d12 V1 YLR O1 @40 W0,95,1 [ c32 g32 > c32 g32 > c32 < g32 c32 < g32 ]2 < [ f32 > c32 f32 > c32 f32 c32 < f32 c32 < ]2 [ a+32 > f32 a+32 > f32 a+32 f32 < a+32 f32 < ]2 < d+32 a+32 > d+32 a+32 > d+32 < a+32 d+32 < a+32 d32 a+32 > f32 a+32 > d32 < a+32 f32 < a+32 c32 g32 > c32 g32 > c32 < g32 c32 < g32 c32 g32 > c32 < g32 a+32 > f32 a+32 f32 [ [ < g+32 > d+32 g+32 > d+32 g+32 d+32 < g+32 d+32 ]2 H2 ]2 H0 @44 W0,54,18 O0 a+32 > d32 f32 a+32 > c32 d32 f32 a+32 > d32 < a+32 f32 d32 < a+32 f32 d32 < a+32 O0 @46 W0,70,14 [ [ YL. g+64 Y.R g+64 > YL. d+64 Y.R d+64 YL. g+64 Y.R g+64 > YL. d+64 Y.R d+64 YL. g+64 Y.R g+64 YL. d+64 Y.R d+64 < YL. g+64 Y.R g+64 YL. d+64 Y.R d+64 < ]2 H2 ]2 H0 > [ YL. c64 Y.R c64 YL. g64 Y.R g64 > YL. c64 Y.R c64 YL. g64 Y.R g64 > YL. c64 Y.R c64 < YL. g64 Y.R g64 YL. c64 Y.R c64 < YL. g64 Y.R g64 ]3 < YL. a+64 Y.R a+64 > YL. f64 Y.R f64 YL. a+64 Y.R a+64 > YL. f64 Y.R f64 YL. a+64 Y.R a+64 YL. f64 Y.R f64 < YL. a+64 Y.R a+64 YL. f64 Y.R f64 < [ [ YL. g+64 Y.R g+64 > YL. d+64 Y.R d+64 YL. g+64 Y.R g+64 > YL. d+64 Y.R d+64 YL. g+64 Y.R g+64 YL. d+64 Y.R d+64 < YL. g+64 Y.R g+64 YL. d+64 Y.R d+64 < ]2 H2 ]2 H0 [ YL. g64 Y.R g64 > YL. d64 Y.R d64 YL. g64 Y.R g64 > YL. d64 Y.R d64 YL. g64 Y.R g64 YL. d64 Y.R d64 < YL. g64 Y.R g64 YL. d64 Y.R d64 < ]2 > [ YL. c64 Y.R c64 YL. g64 Y.R g64 > YL. c64 Y.R c64 YL. g64 Y.R g64 > YL. c64 Y.R c64 < YL. g64 Y.R g64 YL. c64 Y.R c64 < YL. g64 Y.R g64 H-2 ]2 H0 [ @27 O3 V0 [ YL. c64 Y.R c64 < YL. c64 Y.R c64 > ]3 @14 O2 V1 YLR g8. V0 YL. g16 Y.R g16 V1 ]2 @8 O2 YLR [ g16 < g16 g16 > ]2 g16 < g16 g32 a32 b32 > c32 d8 V0 Y.R d8 YL. d8 V1 O1 @40 W0,91,11 YLR [ c32 g32 > c32 g32 > c32 < g32 c32 < g32 ]2 < [ f32 > c32 f32 > c32 f32 c32 < f32 c32 < ]2 [ a+32 > f32 a+32 > f32 a+32 f32 < a+32 f32 < ]2 < d+32 a+32 > d+32 a+32 > d+32 < a+32 d+32 < a+32 d32 a+32 > f32 a+32 > d32 < a+32 f32 < a+32 c32 g32 > c32 g32 > c32 < g32 c32 < g32 c32 g32 > c32 < g32 a+32 > f32 a+32 f32 [ [ < g+32 > d+32 g+32 > d+32 g+32 d+32 < g+32 d+32 ]2 H2 ]3 H0 O1 [ c32 g32 > c32 g32 > c32 < g32 c32 < g32 ]2 < [ f32 > c32 f32 > c32 f32 c32 < f32 c32 < ]2 [ a+32 > f32 a+32 > f32 a+32 f32 < a+32 f32 < ]2 < d+32 a+32 > d+32 a+32 > d+32 < a+32 d+32 < a+32 d32 a+32 > f32 a+32 > d32 < a+32 f32 < a+32 c32 g32 > c32 g32 > c32 < g32 c32 < g32 c32 g32 > c32 < g32 a+32 > f32 a+32 f32 [ [ < g+32 > d+32 g+32 > d+32 g+32 d+32 < g+32 d+32 ]2 H2 ]2 H0 @44 W0,54,18 O0 a+32 > d32 f32 a+32 > c32 d32 f32 a+32 > d32 < a+32 f32 d32 < a+32 f32 d32 < a+32 @43 W0,95,1 O2 [ YLR V1 c8 Y.R V1 c8 YLR V1 c8 YL. V1 c8 ]3 YL. c16 V1 YLR < g16 > c16 d16 d+16 f16 d16 d+16 [ YLR V1 c8 Y.R V1 c8 YLR V1 c8 YL. V1 c8 ]3 YLR V1 d+4 d12 d+12 f12 [ YLR V1 c8 Y.R V1 c8 YLR V1 c8 YL. V1 c8 ]3 YL. c16 V1 YLR < g16 > c16 d16 d+16 f16 d16 d+16 [ YLR V1 c8 Y.R V1 c8 YLR V1 c8 YL. V1 c8 ]2 @14 O1 YL. YLR g32 r32 g16 g+16 g16 b16 g16 > d16 < g16 > g16 g16 g8 V0 Y.R g8 YL. g8 
