;027 001B8AFA
!1  T90 B1 T84 E100,80,60,1,8 @1 P15,11,5 V8 H-1 O1 e32 _V-2 g32 ( > c32 ( e32 _V2 g32 e32 g32 > c32 _V2 e32 c32 e32 g32 > c32 < _V-2 g32 ) a32 a+32 ) L [ EP-4,0,0,3,0 E80,100,80,1,12 @@4,2,0 P19,9,4 O3 V8 c4 _V-4 Y.R c8 YLR _V4 e8 d4 _V-4 YL. d8 YLR _V4 f+8 e4 _V-4 Y.R e8 YLR _V2 f+16 g16 _V2 a16 _V-4 g16 _V4 g16 _V-4 g16 _V4 f+16 _V-4 f+16 _V4 e16 _V-4 e16 _V4 c4 _V-4 Y.R c8 YLR _V4 e8 d4 _V-4 YL. d8 YLR _V4 f+8 e4 _V-4 Y.R e8 YLR _V4 f+16 g16 f+4 _V-4 YL. f+8 _V-2 Y.R f+8 YLR _V6 c4 _V-4 Y.R c8 YLR _V4 e8 d4 _V-4 YL. d8 YLR _V4 f+8 e4 _V-4 Y.R e8 YLR _V2 f+16 g16 _V2 a16 _V-4 g16 _V4 g16 _V-4 g16 _V4 f+16 _V-4 f+16 _V4 e16 _V-4 e16 _V4 c4 _V-4 Y.R c8 YLR _V4 e8 d4 _V-4 YL. d8 YLR _V4 f+8 e4 _V-4 Y.R e8 YLR _V4 f+16 g16 f+8 E100,80,60,1,8 @1 EPX P15,11,5 V8 O2 c+32 _V-4 d32 e32 f+32 _V2 g32 a32 b32 > c+32 ) d32 e32 ) f+32 g32 H1 ]2 H-1 
!2  V8 B1 E100,80,60,1,8 @1 P15,11,5 V8 H-1 O1 g32 _V-2 > c32 ( e32 ( g32 _V2 e32 g32 > c32 e32 _V2 c32 e32 g32 > c32 < g32 > c32 _V-2 d32 ) d+32 ) L [ EP-4,0,0,3,0 E80,100,80,1,12 @@4,2,0 P19,9,4 O3 V10 e4 _V-6 Y.R e8 YLR _V6 g8 f+4 _V-6 YL. f+8 YLR _V6 a8 g4 _V-6 Y.R g8 YLR _V4 a16 b16 _V2 > c16 _V-6 c16 _V6 < b16 _V-6 b16 _V6 a16 _V-6 a16 _V6 g16 _V-6 g16 _V6 e4 _V-6 Y.R e8 YLR _V6 g8 f+4 _V-6 YL. f+8 YLR _V6 a8 g4 _V-6 Y.R g8 YLR _V6 a16 b16 a4 _V-6 Y.R a4 YLR _V5 e4 _V-6 Y.R e8 YLR _V6 g8 f+4 _V-6 YL. f+8 YLR _V6 a8 g4 _V-6 Y.R g8 YLR _V4 a16 b16 _V2 > c16 _V-6 c16 _V6 < b16 _V-6 b16 _V6 a16 _V-6 a16 _V6 g16 _V-6 g16 _V6 e4 _V-6 Y.R e8 YLR _V6 g8 f+4 _V-6 YL. f+8 YLR _V6 a8 g4 _V-6 Y.R g8 YLR _V6 a16 b16 a8 E100,80,60,1,8 @1 EPX P15,11,5 V8 O2 a32 _V-4 b32 > c+32 d32 _V2 e32 f+32 g32 a32 ) b32 > c+32 ) d32 e32 V8 @2 EX < H1 ]2 H-1 
!3  `9F00 `2E06 H-1 @A3 `AE00 B1 O0 V3 E100,80,30,5,15 O0 r4. V2 a24 V1 a+24 b24 V3 > L [ [ [ c12 V1 c24 V3 c24 V2 c24 < c24 > V3 ]7 V3 c24 V1 c24 V3 c24 V1 c24 V3 < V2 c12 V3 > [ c12 V1 c24 V3 c24 V2 c24 < c24 > V3 ]6 d12 V1 d24 V3 d24 V2 d24 < d24 > V3 d24 V1 d24 V3 d24 V1 d24 V3 < V2 d12 V3 > ]2 H1 ]2 H-1 
!4  @8 x8. @6 x8 x16 @7 x8 L [ [ @8 x8 @5 x24 x24 x24 [ x8 x24 x24 x24 ]14 @5 x12 x12 x12 ]2 ]2 
!5  O2 V1 H-1 @4 c8 V0 [ c48 c48 c48 c48 c48 c48 ]2 < V1 g8 > L [ @25 W0,70,70 [ [ V1 c24 YL. V0 c24 Y.R c24 YLR V1 c24 c24 c24 V1 c24 Y.R V0 c24 YL. c24 YLR V1 c24 c24 c24 ]3 V1 c24 YL. V0 c24 Y.R c24 YLR V1 c24 c24 c24 V1 c24 Y.R V0 c24 YLR V1 c24 YL. V0 c24 YLR V1 c24 Y.R V0 c24 YLR [ V1 c24 YL. V0 c24 Y.R c24 YLR V1 c24 c24 c24 V1 c24 Y.R V0 c24 YL. c24 YLR V1 c24 c24 c24 ]3 V1 d24 YL. V0 d24 Y.R d24 YLR V1 d24 d24 d24 V1 d24 Y.R V0 d24 YLR V1 d24 YL. V0 d24 YLR V1 d24 Y.R V0 d24 YLR ]2 H1 ]2 H-1 
!6  O2 V1 @0 c4. V0 c8 L [ V1 @8 O1 b8 O2 V0 @0 c8 c8 c8 [ c8 c8 c8 c8 ]6 c8 @4 V0 c8 c48 c48 c48 c48 c48 c48 V1 c16 < g16 > ]2 [ V1 @8 O2 c+8 O2 V0 @0 c8 c8 c8 [ c8 c8 c8 c8 ]6 c8 @4 V0 c8 c48 c48 c48 c48 c48 c48 V1 c16 < g16 > ]2 
