;029 001B9CF4
!1  T80 r6 L E100,60,0,4,17 @@5,1,3 EPX PX O1 [ V6 f12 V4 f12 f12 f12 ]2 [ V6 g12 V4 g12 g12 ]2 V6 g12 V4 g12 V6 g+12 V4 g+12 g+12 g+12 g+12 V6 g+12 V4 g+12 g+12 [ a+12 V6 a+12 V4 ]2 a+12 a+12 E80,100,80,3,17 EP-2,0,0,2,0 @@2,2,0 P24,11,2 O2 V4 d+24 e24 f24 f+24 V6 f6~ f6~ f6~ f12 e24 f24 e6~ e6~ e12 _V-4 e12 E80,100,80,3,17 EP-2,0,0,2,0 @@2,2,0 O2 V6 < g24 > c24 d24 f24 g6 e6 f6 f24 e12 d24 e6 < g6 > c6 c24 < a+12 a24 a+6 g12 a12 a+12 > c6 d12 e6~ e6 _V-4 EX EPX @0 e6 E80,100,80,3,17 EP-2,0,0,2,0 @@2,2,0 V6 < g24 > c24 d24 f24 g6 e6 f6 f24 e12 d24 e6 < g6 > c6 c24 < a+12 a24 a+6 > c12 d12 e12 f6 g12 d6~ d12~ d24 c+48 d48 c+6~ c+6 E80,100,70,3,17 @3 O2 V4 [ d12 d12 _V-2 d12 _V2 d12 e12 e12 _V-2 e12 _V2 e12 c+12 c+12 _V-2 c+12 _V2 c+12 d12 d12 _V-2 d12 _V2 d12 ]3 O2 V4 D-1 r48 Y.R d24 c+24 d24 e24 f24 e24 f24 g24 a24 g+24 a24 b24 > c+24 d24 e24 c+24 YL. d24 c+24 d24 e24 f24 e24 f24 g24 a24 g+24 a24 b24 > c+24 d24 e24 c+48 D0 V6 YLR < < g+6~ g+6. _V-4 g+12 _V4 a+6 a6~ > B28 a6~ a6~ a12 _V-4 a12 B3 
!2  r6 L E100,60,0,4,17 @@5,1,3 EPX PX O2 [ V8 c12 V4 c12 c12 c12 ]2 [ V8 d12 V4 d12 d12 ]2 V8 d12 V4 d12 V8 d+12 V4 d+12 d+12 d+12 d+12 V8 d+12 V4 d+12 d+12 [ f12 V8 f12 V4 ]2 f12 f12 E80,100,80,3,17 EP-2,0,0,2,0 @@2,2,0 P24,11,2 V6 O2 g+24 a24 a+24 b24 > V8 c6~ c6~ c6~ c6~ c6~ c6~ c12 _V-6 c12 E80,100,80,3,17 EP-2,0,0,2,0 @@2,2,0 V8 O3 c24 f24 g24 a+24 > c6 < g6 a+6 a24 g12 f24 g6 c6 f6 e24 d12 c24 d6 < a+12 > c12 d12 e6 f12 g6~ g6 _V-6 EX EPX @0 g6 E80,100,80,3,17 EP-2,0,0,2,0 @@2,2,0 V8 c24 f24 g24 a+24 > c6 < g6 a+6 a24 g12 f24 g6 c6 f6 e24 d12 c24 d6 e12 f12 g12 a6 b12 a6~ a6 a6~ a6 E80,100,70,3,17 @3 O2 V6 [ f12 f12 _V-4 f12 _V2 f12 _V2 g12 g12 _V-4 g12 _V2 g12 _V2 e12 e12 _V-4 e12 _V2 e12 _V2 f12 f12 _V-4 f12 _V2 f12 _V2 ]3 O2 [ d24 c+24 d24 e24 f24 e24 f24 g24 a24 g+24 a24 b24 > c+24 d24 e24 c+24 ]2 V8 < d6~ d6. _V-4 d12 _V4 e6 c+6~ > B28 c+6~ c+6~ c+12 _V-6 c+12 B3 
!3  r6 L @A3 @B0 @~5 EX O0 [ V3 f12 V2 f12 f12 f12 ]2 [ V3 g12 V2 g12 g12 ]2 V3 g12 V2 g12 V3 g+12 V2 g+12 g+12 g+12 g+12 V3 g+12 V2 g+12 g+12 a+12 V3 a+12 V2 a+12 V3 a+12 V2 a+12 a+12 a+12 a+12 O1 V3 [ V3 c12 V2 c12 c12 c12 ]2 V3 c12 V2 c12 c12 < g12 V3 c6 V2 c6 `9F00 `AE00 E100,70,70,3,0 @A3 @~X [ V3 c12 V2 c12 ]2 [ V3 d12 V2 d12 ]2 V3 e12 V2 e12 V3 f12 V2 f12 V3 a12 V2 a12 V3 g12 V2 g12 < V3 a+12 V2 a+12 > V3 c12 V2 c12 V3 d12 V2 d12 V3 f12 V2 f12 V3 e12 V2 e12 V3 d12 V2 d12 V3 c12 V2 c12 < V3 g12 V2 g12 > [ V3 c12 V2 c12 ]2 [ V3 d12 V2 d12 ]2 V3 e12 V2 e12 V3 f12 V2 f12 V3 a12 V2 a12 V3 g12 V2 g12 < V3 a+12 V2 a+12 V3 g12 V2 g12 > V3 c12 V2 c12 V3 d12 V2 d12 V3 e12 V2 e12 V3 d12 V2 d12 V3 c+12 V2 c+12 < V3 a12 V2 a24 V3 a24 [ V3 d12 V2 d6 < V2 a24 V3 a24 > d12 V1 d6 < V2 a24 V3 a24 > d12 d12 d24 V2 d24 d24 d24 V3 d12 d12 r12 < V2 a24 V3 a24 > ]3 d12 V2 d6 < V2 a24 V3 a24 > d12 V1 d6 < V2 a24 V3 a24 > d12 d12 d24 V2 d24 d24 d24 V3 d12 d12 r6 < f6~ f6~ f6 g12 >~ c+12 < e6 >~ B28 c+6~ c+12~ c+6 V2 c+12 B3 
!4  r6 L @8 x12 @6 x12 x12 x24 x24 @8 x12 @6 x12 x12 x12 [ @8 x12 @6 x12 x12 ]2 @7 x12 @6 x12 @8 x12 @6 x12 x24 x24 x12 x12 @8 x12 @6 x12 x12 x24 x24 [ @8 x12 @6 x12 ]2 @6 x12 @5 x12 @6 x12 [ @8 x12 @6 x12 x12 x24 x24 ]2 @8 x12 @6 x12 x12 x12 @8 x12 @6 x12 @7 x6 @8 x6 [ @1 x12 @5 x12 ]3 [ @1 x12 @5 x12 ]4 [ @1 x12 @5 x12 ]4 [ @1 x12 @5 x12 ]3 @7 x6 @8 x6 [ @1 x12 @5 x12 ]3 [ @1 x12 @5 x12 ]4 [ @1 x12 @5 x12 ]4 [ @1 x12 @5 x12 ]3 Y.R @8 x6 YLR [ [ @1 x12 @5 x12 ]8 ]4 @8 x6. @6 x6 x12 @7 x6 @8 x6. @6 x6 x12 @5 x24 @6 x24 @7 x12 
!5  @1 V1 c48 V0 c48 c48 c48 V1 c48 V0 c48 c48 c48 L V1 YLR O1 @8 f12 Y.R V0 f12 V1 YLR O2 @0 c6 O1 @8 f6 O2 @0 c6 O1 @8 g6 O2 @0 c12 O1 @8 g12 O2 @0 c6 c6 O1 @8 V1 g+12 YL. V0 g+12 V1 YLR O2 @0 c6 c12 O1 @8 V1 g+12 O2 @0 c6 c12 O1 @8 V1 a+12 O2 @0 c12 @8 O1 a+12 O2 @0 c6 c12 V1 O1 @8 c+48 d48 d+48 e48 V1 YLR O2 @8 c12 Y.R V0 c12 V1 YLR O2 @0 c6 [ O2 @8 c6 O2 @0 c6 ]2 O2 @8 c6 @4 O1 V1 g48 V0 g48 g48 g48 g48 g48 g48 g48 > V1 c12 V0 YL. V0 c12 YLR @1 V1 c48 V0 c48 c48 c48 c48 c48 c48 c48 V1 c12 c12 V0 c48 c48 c48 c48 c48 c48 c48 c48 V1 c12. V0 c24 V1 c48 V0 c48 c48 c48 c48 c48 c48 c48 V1 c12 V0 c24 c24 c48 c48 c48 c48 c48 c48 c48 c48 V1 c12 c12 @1 V1 c48 V0 c48 c48 c48 c48 c48 c48 c48 V1 c12 c12 V0 c48 c48 c48 c48 c48 c48 c48 c48 V1 c12. V0 c24 V1 c48 V0 c48 c48 c48 c48 c48 c48 c48 V1 c12 V0 c24 c24 c48 c48 c48 c48 @4 O1 V1 g48 V0 g48 g48 g48 > V1 c12 V0 YL. c12 YLR @1 V1 c48 V0 c48 c48 c48 c48 c48 c48 c48 V1 c12 c12 V0 c48 c48 c48 c48 c48 c48 c48 c48 V1 c12. V0 c24 V1 c48 V0 c48 c48 c48 c48 c48 c48 c48 V1 c12 V0 c24 c24 c48 c48 c48 c48 c48 c48 c48 c48 V1 c12 c12 @1 V1 c48 V0 c48 c48 c48 c48 c48 c48 c48 V1 c24 V0 c24 c24 c24 V1 c48 V0 c48 c48 c48 c48 c48 c48 c48 V1 c12 c12 V1 c24 V0 c24 c24 c24 V1 c12 c24 V0 c24 V1 c48 V0 c48 c48 c48 @8 O1 V0 a12 O2 [ V1 d12 V1 @1 c6 V0 c48 c48 c48 c48 V1 c12 c6 V0 c48 c48 c48 c48 V1 c12 c12 c24 V0 c24 c24 c24 V1 c12 c12 c48 c48 c48 c48 @8 O1 V0 a12 > ]3 V1 d12 V1 @1 c6 V0 c48 c48 c48 c48 V1 c12 c6 V0 c48 c48 c48 c48 V1 c12 c12 c24 V0 c24 c24 c24 V1 c12 c12 c48 c48 c48 c48 @4 O1 V1 a48 V0 a48 a48 a48 V1 d12 Y.R V0 d12 YL. d12 r12 YLR r6 @4 V1 d48 V0 d48 d48 d48 d48 d48 d48 d48 V1 a12 Y.R V0 a12 YL. a12 r12 YLR r6 V1 g48 V0 g48 g48 g48 g48 g48 V1 g48 g48 
!6  @8 V0 O1 a48 a+48 b48 > c48 c+48 d48 d+48 e48 L @25 O0 [ V1 f12 V0 f12 f12 f12 ]2 [ V1 g12 V0 g12 g12 ]2 V1 g12 V0 g12 V1 g+12 V0 g+12 g+12 g+12 g+12 V1 g+12 V0 g+12 g+12 a+12 V1 a+12 V0 a+12 V1 a+12 V0 a+12 a+12 a+12 a+12 O1 [ V1 c12 V0 c12 c12 c12 ]3 V1 c12 V0 c12 @28 W0,95,58 V0 O2 V1 c24 V0 f24 g24 a+24 V1 > c6 < g6 a+6 a24 g12 f24 g6 c6 f6 e24 d12 c24 d6 < a+12 > c12 d12 e6 f12 g6~ g6~ g6 c24 f24 g24 a+24 > c6 < g6 a+6 a24 g12 f24 g6 c6 f6 e24 d12 c24 d6 e12 f12 g12 a6 b12 a6~ a6 a6~ a6 [ @4 YLR O1 V1 d12 Y.R V0 d6 YLR O2 @15 V0 a24 a24 V1 > d24 r24 < a12 V0 a6 r6. f24 e24 V1 d24 r24 < a12 V0 a12 @4 O1 V1 a48 V0 a48 a48 a48 ]3 @4 YLR O1 V1 d12 Y.R V0 d6 YLR O2 @15 V0 a24 a24 V1 > d24 r24 < a12 V0 a6 r6. f24 e24 V1 f6 V0 f12 @4 O1 V1 a48 V0 a48 a48 a48 > @40 W0,88,0 V1 d6~ d6~ d6 e6 c+6~ c+6 < a6 V0 a6 
