;032 001BAA1A
!1  T90 T60 E100,80,20,8,20 @@2,0,3 P20,10,2 r6 _-2 O2 YLR V4 f12 Y.R V2 f12 YLR V4 f12 YL. V2 f12 YLR V4 g12 Y.R V2 g12 YLR V4 g12 YL. V2 g12 YLR V4 e12 Y.R V2 e12 YLR V4 e12 YL. V2 e12 YLR V4 f12 Y.R V2 f12 YLR V4 f12 YL. V2 f12 YLR V4 d12 Y.R V2 d12 YLR V4 d12 YL. V2 d12 YLR V4 f12 Y.R V2 f12 YLR V4 f12 YL. V2 f12 T45 YLR V4 c+12 Y.R V2 c+12 YLR V4 e12 Y.R V2 e12 YLR V4 d6~ d6 
!2  _-2 E100,80,20,8,20 @@2,0,3 P20,10,2 V4 a+24 ) b24 > ) c24 ) c+24 V8 d6 a6 a+12 a12 g12 f12 e12 f12 g12 e12 a6 f12 V2 f12 V8 < a+6 > f6 g12 f12 e12 d12 c+12 d12 e12 c+12 d6 V2 d6 
!3  _-2 `9F01 P20,11,12 EP-2,0,0,3,0 @A1 @A0 V3 O2 r6 r6 d6 g12 f12 e12 d12 c6 V2 c6 V3 f12 e12 d12 c12 < a+6 V2 a+6 > V3 e12 d12 c+12 < a+12 a6 V2 a6 V3 d6 V1 d6 
!4  @11 x6 [ @5 x12 @6 x12 @5 x12 @6 x12 ]7 @7 x6 
!5  _-2 @40 W0,79,0 O1 YLR V1 a+24 b24 > c24 c+24 V1 YLR d6 a6 a+12 a12 g12 f12 e12 f12 g12 e12 a6 f12 V0 f12 V1 < a+6 > f6 g12 f12 e12 d12 c+12 d12 e12 c+12 d6 V0 d6 
!6  _-2 @25 O1 r6 YLR V1 a12 Y.R V0 a12 YLR V1 a12 YL. V0 a12 YLR V1 a+12 Y.R V0 a+12 YLR V1 a+12 YL. V0 a+12 YLR V1 g12 Y.R V0 g12 YLR V1 g12 YL. V0 g12 YLR V1 a12 Y.R V0 a12 YLR V1 a12 YL. V0 a12 YLR V1 f12 Y.R V0 f12 YLR V1 f12 YL. V0 f12 YLR V1 g12 Y.R V0 g12 YLR V1 g12 YL. V0 g12 T45 YLR V1 e12 Y.R V0 e12 YLR V1 g12 Y.R V0 g12 YLR V1 f6~ f6 
