;033 001BAC7A
!1  T53 r8 L V6 YLR @@4,2,1 O1 E100,100,90,42,11 P42,17,5 f+4~ f+16 _V-3 f+16 _V3 [ f+48 _V-3 f+48 _V3 ]3 > c4~ c16 _V-3 c16 _V3 c48 _V-3 c48 _V3 < a48 _V-3 a48 _V3 > c48 _V-3 c48 _V3 < b4~ b16 _V-3 b16 _V3 [ b48 _V-3 b48 _V3 ]3 > f16. _V-3 f32 _V3 [ f48 _V-3 f48 _V3 ]3 [ a+48 _V-3 a+48 _V3 ]3 > [ d48 _V-3 d48 _V3 ]2 f24 P74,17,3 f+2~ f+4 _V-3 f+8 @2 V6 E100,80,50,7,7 e48 d48 c+48 < b48 a48 g48 f+2 _V-2 f+8 _V-2 f+8 r4 @1 V4 O2 D1 r64 YL. E100,100,70,47,11 d4~ d16 _V-2 d16 _V2 d24 e24 f+24 g4~ g16 _V-2 g16 _V2 g24 f+24 e24 d4.~ d16~ d64 @2 V6 E100,80,60,7,7 D0 YLR O3 a64 _V-3 Y.R a64 _V3 YLR a4 _V-3 YL. a24 _V3 YLR f+48 _V-3 Y.R a48 _V3 YLR f+48 _V-3 YL. a48 _V3 YLR f+48 _V-3 Y.R a48 _V3 YLR d48 _V-3 YL. f+48 _V3 < YLR a48 _V-3 > Y.R d48 _V3 @1 V4 O2 D1 r64 YL. E100,100,70,47,11 d4~ d16 _V-2 d16 _V2 d24 e24 f+24 g4~ g16 _V-2 g16 _V2 g24 f+24 e24 a2~ a8.~ a32. D0 V6 E100,100,70,42,15 [ YLR f48 _V-4 Y.R f48 _V4 YLR d48 _V-4 YL. d48 _V4 YLR f48 _V-4 Y.R f48 _V4 H2 ]2 H0 @1 V4 O2 D1 r64 YL. E100,100,70,47,11 d4~ d16 _V-2 d16 _V2 d24 e24 f+24 g4~ g16 _V-2 g16 _V2 g24 f+24 e24 d4.~ d16~ d64 @2 V6 E100,80,60,7,7 D0 YLR O3 a64 _V-3 Y.R a64 _V3 YLR a4 _V-3 YL. a24 _V3 YLR f+48 _V-3 Y.R a48 _V3 YLR f+48 _V-3 YL. a48 _V3 YLR f+48 _V-3 Y.R a48 _V3 YLR d48 _V-3 YL. f+48 _V3 < YLR a48 _V-3 > Y.R d48 _V3 @1 V4 O2 D1 r64 YL. E100,100,70,47,11 d4~ d16 _V-2 d16 _V2 d24 e24 f+24 g4~ g16 _V-2 g16 _V2 g24 f+24 e24 a2~ a8.~ a32. D0 T53 @@4,2,1 V6 O2 E100,100,80,21,21 P32,17,2 YLR d8 f+8 f+4~ f+16 _V-3 f+16 _V3 f+24 b24 > c+24 d4~ d16 _V-3 d16 _V3 < a24 > d24 c+24 d4~ d16 _V-3 d16 _V3 < d16 e16 f+4~ f+16 _V-4 f+16 _V4 f+16 b16 > d4 < b16 _V-4 b16 _V5 f+16 b16 > d4 < b4 > c4. r16 < @@6,2,1 E100,100,70,21,36 a32 r32 a8 _V-4 a16 _V4 a32 r32 a8 V7 @2 YLR g48 a48 b48 > c+48 d48 e48 f+8 Y.R f+16 V7 O3 @@4,1,2 P26,19,2 YLR [ d64 r64 ]2 d32 _V-4 Y.R d32 _V4 < YLR a32 _V-4 YL. a32 _V4 > YLR d32 _V-4 Y.R d32 _V4 YLR e32 _V-4 YL. e32 _V4 YLR d8 _V-4 Y.R d16 _V4 YLR [ d64 r64 ]2 [ YLR d32 _V-4 YL. d32 _V4 < YLR a32 _V-4 Y.R a32 _V4 > ]2 YLR d8 _V-4 YL. d16 _V4 YLR [ d64 r64 ]2 d32 _V-4 Y.R d32 _V4 < YLR b32 _V-4 YL. b32 _V4 > [ YLR d32 _V-4 Y.R d32 _V4 ]2 YLR d8 _V-4 Y.R d16 _V4 YLR [ d64 r64 ]2 [ YLR d32 _V-4 YL. d32 _V4 < YLR a+32 _V-4 Y.R a+32 _V4 > ]2 YLR d8 _V-4 YL. d16 _V4 YLR [ d64 r64 ]2 [ YLR d32 _V-4 Y.R d32 _V4 < YLR a32 _V-4 YL. a32 _V4 > ]2 YLR d4~ d16 _V-4 Y.R d16 _V4 < YLR r16 r16 b8 _V-4 YL. b16 _V4 YLR [ b64 r64 ]2 b32 _V-4 Y.R b32 _V4 YLR d32 _V-4 YL. d32 _V4 YLR g32 _V-4 Y.R g32 _V4 YLR b16 @1 a48 _V-4 a48 _V4 e48 _V-4 e48 _V4 a48 _V-4 a48 _V4 b48 _V-4 b48 _V4 e48 _V-4 e48 _V4 b48 _V-4 b48 _V4 > c+48 _V-4 c+48 _V4 < a48 _V-4 a48 _V4 > c+48 _V-4 c+48 _V3 e48 _V-4 e48 _V4 c+48 _V-4 c+48 _V4 e48 _V-4 e48 _V4 @@4,1,2 V6 YLR f+48 g48 a48 b48 > c+48 d48 e48 f+48 _V-2 YL. f+48 V7 O3 @@4,2,1 P26,19,2 YLR [ d64 r64 ]2 d32 _V-2 Y.R d32 _V2 < YLR a32 _V-2 YL. a32 _V2 > YLR d32 _V-2 Y.R d32 _V2 YLR e32 _V-2 YL. e32 _V2 YLR d8 _V-2 Y.R d16 _V2 YLR [ d64 r64 ]2 [ YLR d32 _V-2 YL. d32 _V2 < YLR a32 _V-2 Y.R a32 _V2 > ]2 YLR d8 _V-2 YL. d16 _V2 YLR [ d64 r64 ]2 d32 _V-2 Y.R d32 _V2 < YLR b32 _V-2 YL. b32 _V2 > [ YLR d32 _V-2 Y.R d32 _V2 ]2 YLR d8 _V-2 Y.R d16 _V2 YLR [ d64 r64 ]2 [ YLR d32 _V-2 YL. d32 _V2 < YLR a+32 _V-2 Y.R a+32 _V2 > ]2 YLR d8 _V-2 YL. d16 _V2 YLR [ d64 r64 ]2 [ YLR d32 _V-2 Y.R d32 _V2 < YLR a32 _V-2 YL. a32 _V2 > ]2 YLR d4~ d16 _V-2 Y.R d16 _V2 YLR YL. D1 r32 < b16 > c+16 d4.~ d16 _V-4 d32 _V4 D0 YLR < a8. > c+8. e16 _V-4 e16 _V4 e4.~ e16 c+32 e32 d+2 
!2  r8 L V9 YLR @@4,2,1 O2 E100,100,90,42,11 P42,17,3 d4~ d16 _V-4 d16 _V4 d48 _V-4 d48 _V4 < a48 _V-4 a48 _V4 > d48 _V-4 d48 _V4 f4~ f16 _V-4 f16 _V4 f48 _V-4 f48 _V4 c48 _V-4 c48 _V4 f48 _V-4 f48 _V4 g4~ g16 _V-4 g16 _V4 g48 _V-4 g48 _V4 d48 _V-4 d48 _V4 g48 _V-4 g48 _V4 a+16. _V-4 a+32 _V4 [ a+48 _V-4 a+48 _V4 ]3 > [ d48 _V-4 d48 _V4 ]3 [ f48 _V-4 f48 _V4 ]2 a+24 P63,17,2 a2~ a4 _V-4 a8 @2 V6 E100,80,50,7,7 g48 f+48 e48 d48 c+48 < b48 a2 _V-2 a8 _V-2 a8 r4 @1 V8 E100,100,70,47,11 O2 P42,17,3 d4~ d16 _V-4 d16 _V4 d24 e24 f+24 g4~ g16 _V-4 g16 _V4 g24 f+24 e24 d4.~ d16. @2 V6 E100,80,60,7,7 O4 d64 _V-3 Y.R d64 _V3 YLR d4 _V-3 YL. d24 _V3 < YLR a48 _V-3 > Y.R d48 _V3 < YLR a48 _V-3 > YL. d48 _V3 < YLR a48 _V-3 > Y.R d48 _V3 < YLR f+48 _V-3 YL. a48 _V3 YLR d48 _V-3 Y.R f+48 _V3 @1 V8 YLR E100,100,70,47,11 O2 d4~ d16 _V-4 d16 _V4 d24 e24 f+24 g4~ g16 _V-4 g16 _V4 g24 f+24 e24 a2~ a4 [ YLR a+48 _V-4 Y.R a+48 _V4 YLR f48 _V-4 YL. f48 _V4 YLR a+48 _V-4 Y.R a+48 _V4 H2 ]2 H0 @1 V8 YLR E100,100,70,47,11 O2 d4~ d16 _V-4 d16 _V4 d24 e24 f+24 g4~ g16 _V-4 g16 _V4 g24 f+24 e24 d4.~ d16. @2 V6 E100,80,60,7,7 O4 d64 _V-3 Y.R d64 _V3 YLR d4 _V-3 YL. d24 _V3 < YLR a48 _V-3 > Y.R d48 _V3 < YLR a48 _V-3 > YL. d48 _V3 < YLR a48 _V-3 > Y.R d48 _V3 < YLR f+48 _V-3 YL. a48 _V3 YLR d48 _V-3 Y.R f+48 _V3 @1 V8 YLR E100,100,70,47,11 O2 d4~ d16 _V-4 d16 _V4 d24 e24 f+24 g4~ g16 _V-4 g16 _V4 g24 f+24 e24 a2~ a4 @@4,2,1 V8 O2 E100,100,85,21,21 P32,19,2 f+8 a8 > d4~ d16 _V-4 d16 _V4 c+24 d24 e24 f+4~ f+16 _V-4 f+16 _V4 d24 f+24 a24 b4~ b16 _V-4 b16 _V4 < b16 > c+16 d4~ d16 _V-4 d16 _V4 < b16 > d16 f+8. e32 f+32 g16 _V-4 g16 _V5 < b16 > d16 f+8 _V-4 f+16 _V4 f+48 e48 f+48 g8 d8 e4. r16 @@6,2,1 V7 E100,100,70,21,36 d32 r32 d8 _V-4 d16 _V4 c+32 r32 c+8 V7 @2 O2 b48 > c+48 d48 e48 f+48 g48 a8 Y.R a16 @@4,1,2 P26,21,2 V8 O3 YLR [ f+64 r64 ]2 f+32 _V-4 Y.R f+32 _V4 YLR d32 _V-4 YL. d32 _V4 YLR f+32 _V-4 Y.R f+32 _V4 YLR g32 _V-4 YL. g32 _V4 YLR f+8 _V-4 Y.R f+16 _V4 YLR [ f+64 r64 ]2 [ YLR f+32 _V-4 YL. f+32 _V4 YLR d32 _V-4 Y.R d32 _V4 ]2 YLR g8 _V-4 YL. g16 _V4 YLR [ g64 r64 ]2 YLR g32 _V-4 Y.R g32 _V4 YLR d32 _V-4 YL. d32 _V4 YLR g32 _V-4 Y.R g32 _V4 YLR a32 _V-4 YL. a32 _V4 YLR g8 _V-4 Y.R g16 _V4 YLR [ g64 r64 ]2 [ YLR g32 _V-4 YL. g32 _V4 YLR d32 _V-4 Y.R d32 _V4 ]2 YLR f+8 _V-4 YL. f+16 _V4 YLR [ f+64 r64 ]2 [ YLR f+32 _V-4 Y.R f+32 _V4 YLR d32 _V-4 YL. d32 _V4 ]2 YLR b4~ b16 _V-4 Y.R b16 _V4 < YLR b16 > c+16 d8 _V-4 YL. d16 _V4 YLR [ d64 r64 ]2 d32 _V-4 Y.R d32 _V4 < YLR g32 _V-4 YL. g32 _V4 YLR b32 _V-4 Y.R b32 _V4 > YLR d16 V6 @1 c+48 _V-4 c+48 _V4 < a48 _V-4 a48 _V4 > c+48 _V-4 c+48 _V4 d48 _V-4 d48 _V4 < b48 _V-4 b48 _V4 > d48 _V-4 d48 _V4 e48 _V-4 e48 _V4 c+48 _V-4 c+48 _V4 e48 _V-4 e48 _V4 g48 _V-4 g48 _V4 e48 _V-4 e48 _V4 g48 _V-4 g48 _V4 @@4,1,2 V8 YLR d48 e48 f+48 g48 a48 b48 > c+48 d48 YL. _V-2 d48 @@4,2,1 P26,21,2 V8 O3 YLR [ f+64 r64 ]2 f+32 _V-2 Y.R f+32 _V2 YLR d32 _V-2 YL. d32 _V2 YLR f+32 _V-2 Y.R f+32 _V2 YLR g32 _V-2 YL. g32 _V2 YLR f+8 _V-2 Y.R f+16 _V2 YLR [ f+64 r64 ]2 [ YLR f+32 _V-2 YL. f+32 _V2 YLR d32 _V-2 Y.R d32 _V2 ]2 YLR g8 _V-2 YL. g16 _V2 YLR [ g64 r64 ]2 YLR g32 _V-2 Y.R g32 _V2 YLR d32 _V-2 YL. d32 _V2 YLR g32 _V-2 Y.R g32 _V2 YLR a32 _V-2 YL. a32 _V2 YLR g8 _V-2 Y.R g16 _V2 YLR [ g64 r64 ]2 [ YLR g32 _V-2 YL. g32 _V2 YLR d32 _V-2 Y.R d32 _V2 ]2 YLR f+8 _V-2 YL. f+16 _V2 YLR [ f+64 r64 ]2 [ YLR f+32 _V-2 Y.R f+32 _V2 YLR d32 _V-2 YL. d32 _V2 ]2 YLR b4~ b16 _V-2 Y.R b16 _V2 YLR < b16 > c+16 d4.~ d16 _V-4 d16 _V4 c+8. e8. a16 _V-2 a16 _V2 b2~ b2 
!3  r8 L `9F00 `AE00 @A3 V3 O1 E100,100,65,9,5 YLR [ d16 d16 d16 d16 d16 d16 d16 d16 ]8 [ V3 d16 V2 d16 d16 d16 d16 d16 d16 d16 ]7 V3 d16 V2 d16 d16 d16 < V3 a+16 V2 a+16 > V3 c16 V2 c16 [ V3 d16 V2 d16 d16 d16 d16 d16 d16 d16 ]7 V3 d16 V2 d16 d16 d16 V3 d16 V2 d16 V3 c+16 V2 c+16 < [ V3 b16 V2 b16 b16 b16 b16 b16 b16 b16 H-2 ]2 H0 V3 g16 V2 g16 g16 g16 g16 g16 V3 g16 a16 V3 b16 V2 b16 b16 b16 V3 a16 V2 a16 a16 a16 V3 g16 V2 g16 g16 g16 > V3 g16 V2 g16 V3 f+16 V2 f+16 V3 e16 V2 e16 e16 e16 e16 e16 e16 e16 V3 c16 V2 c16 c16 c16 c16 c16 c16 c16 < V3 a16 V2 a16 a16 a16 a16 V3 a16 a16 a16 O0 > [ d16 d16 d16 d16 d16 d16 d16 d16 H-2 ]2 H0 < [ b16 b16 b16 b16 b16 b16 b16 b16 H-1 ]2 H0 [ a16 a16 a16 a16 a16 a16 a16 a16 H-1 ]2 H0 g16 g16 g16 g16 g16 g16 g16 g16 a16 a16 a16 a16 a16 e16 < a16 > a16 d16 d16 < d8 > d16 d16 d16 d16 c16 c16 c16 c16 c16 c16 c16 c16 < [ b16 b16 b16 b16 b16 b16 b16 b16 H-1 ]2 H0 [ a16 a16 a16 a16 a16 a16 a16 a16 H-1 ]2 H0 [ g16 g16 g16 g16 g16 g16 g16 g16 H2 ]2 H0 [ b16 b16 b16 b16 b16 b16 b16 b16 ]2 
!4  @7 [ x48 ]6 L @8 x8 @5 x16 @6 x16 x16 x16 @5 x16 @6 x16 [ @6 x16 x16 @5 x16 @6 x16 ]5 @6 x16 x16 @7 [ x48 ]6 @8 x8 @5 x16 @6 x16 x16 x16 @5 x16 @6 x16 [ @6 x16 x16 @5 x16 @6 x16 ]2 [ @6 x16 x16 @5 x16 @6 x16 ]4 @8 x8 @5 x16 @6 x16 x16 x16 @5 x16 @6 x16 [ @6 x16 x16 @5 x16 @6 x16 ]6 @8 x8 @5 x16 @6 x16 x16 x16 @5 x16 @6 x16 [ @6 x16 x16 @5 x16 @6 x16 ]6 @8 x8 @5 x16 @6 x16 x16 x16 @5 x16 @6 x16 [ @6 x16 x16 @5 x16 @6 x16 ]6 @8 x8 @5 x16 @6 x16 x16 x16 @5 x16 @6 x16 [ @6 x16 x16 @5 x16 @6 x16 ]6 @8 x8 @7 x16 @5 x16 x16 x16 @7 x16 @5 x16 [ @5 x16 x16 @7 x16 @5 x16 ]3 @5 x16 x16 @8 Y.R x16 YL. x16 YLR @8 x8 @7 x16 @5 x16 x16 x16 @7 x16 @5 x16 [ @5 x16 x16 @7 x16 @5 x16 ]5 @5 x16 x16 @7 x16 @8 x16 @8 Y.R x8. YLR @8 x16 YL. x4 YLR @8 x4 @5 x32 @6 x32 x32 x32 @7 x32 @5 x32 @6 x32 x32 [ @5 x32 @6 x32 x32 x32 @7 x32 @5 x32 @6 x32 x32 ]12 @7 [ x8 ]2 r8 x8 YLR @7 x16 @8 x16 x8 @5 x32 @6 x32 x32 x32 @7 x32 @5 x32 @6 x32 x32 [ @7 x16 @6 x32 x32 @7 x16 @5 x32 @6 x32 ]12 @7 [ x8 ]2 r8 @7 [ x48 ]6 @8 x8 @5 x16 @6 x16 x16 x16 @5 x16 @7 x16 @8 x8 @5 x16 @6 x16 x16 x16 @7 [ x48 ]6 
!5  Y.R O2 @2 V0 c48 V1 c48 < V0 a48 V1 a48 V0 f48 V1 f48 L O2 YLR [ @0 c8 @1 c8 ]7 @0 c16 @1 c16 @2 Y.R c24 < YLR a24 YL. f24 > YLR [ @0 c8 @1 c8 ]7 @0 c8 @1 c32 c32 @2 Y.R c32 < YL. f32 > YLR V1 [ @0 c8 @1 c8 ]7 @0 c16. r64 @1 V0 c64 V1 c32 c32 @2 O1 f16 O2 [ @0 c8 @1 c8 ]7 YL. @0 c24 @1 c24 c24 YLR @2 V0 c48 V1 c48 < V0 a48 V1 a48 V0 f48 V1 f48 O2 [ @0 c8 @1 c8 ]7 @0 c16. r64 @1 V0 c64 V1 c32 c32 @2 O1 f16 O2 [ @0 c8 @1 c8 ]7 @0 c24 @1 c24 c24 @2 V0 c48 V1 c48 < V0 a48 V1 a48 V0 f48 V1 f48 O2 [ @0 c8 @1 c8 ]8 [ @0 c8 @1 c8 ]5 @0 c8 @1 c16 @0 c16 c8 @1 c16 @0 c16 c16 @1 c32 c32 @2 O1 Y.R a32 a32 YL. f32 f32 YLR O2 O2 V1 [ @0 c8 @1 c8 @0 c16 c16 @1 c8 ]7 @0 c16 @1 c16 c16 c16 c32 c32 @2 c32 c32 O1 Y.R a48 a48 a48 YL. f48 f48 f48 O2 YLR YL. @1 c32 c32 @2 c48 < a48 f48 > @1 c16 @0 c16 YLR @1 c32 c32 @0 c16 @1 c8 [ @0 c8 @1 c8 @0 c16 c16 @1 c8 ]6 @0 c16 @1 c16 c16 c16 c32 c32 @2 c32 c32 O1 Y.R a48 a48 a48 YL. f48 f48 f48 O2 YLR @0 c8 @1 c8 @0 c16 c16 @1 c8 @0 c8 @1 c8 @0 c16 c16 YLR O2 @2 V1 c48 V1 c48 < V1 a48 V1 a48 V1 f48 V1 f48 
!6  YL. O2 D-1 @2 V0 c48 V1 c48 < V0 a48 V1 a48 V0 f48 V1 f48 D0 L @43 W0,95,0 O2 [ YLR d32 Y.R d32 < YLR a32 YL. a32 YLR d32 Y.R d32 YLR a32 YL. a32 > ]12 [ YLR d32 Y.R d32 < YLR a32 YL. a32 YLR d32 Y.R d32 YLR a32 YL. a32 > ]2 V0 [ YLR d32 Y.R d32 < YLR a32 YL. a32 YLR d32 Y.R d32 YLR a32 YL. a32 > ]2 [ r2 ]7 r4 @3 O1 V1 [ YLR a+48 Y.R a+48 YLR f48 YL. f48 YLR a+48 Y.R a+48 H2 ]2 H0 YLR > d8 V0 YL. d8 @40 W0,95,0 O0 V1 YLR f+4 > c2 < a2~ a24 b24 > c+24 d24 e24 f+24 g24 a24 b24 > c+24 d24 e24 f+2 c4 g8 > c8 < f+48 g48 f+48~ f+16~ f+4.~ f+4 Y.R O2 @0 D1 c24 @1 c24 c24 @2 V0 c48 V1 c48 < V0 YLR a48 V1 a48 V0 YL. f48 V1 f48 D0 @40 O0 YL. b32 Y.R b32 > YL. f+32 Y.R f+32 YL. b32 Y.R b32 > YL. f+32 Y.R f+32 YL. b32 Y.R b32 YL. f+32 Y.R f+32 < YL. b32 Y.R b32 YL. f+32 Y.R f+32 < YL. a32 Y.R a32 > YL. f+32 Y.R f+32 YL. > c+32 Y.R c+32 YL. f+32 Y.R f+32 YL. a32 Y.R a32 YL. f+32 Y.R f+32 YL. c+32 Y.R c+32 YL. < a32 Y.R a32 < YL. g32 Y.R g32 > YL. d32 Y.R d32 YL. g32 Y.R g32 YL. > d32 Y.R d32 YL. g32 Y.R g32 YL. d32 Y.R d32 YL. < YLR g16 a16 @40 W0,95,0 b2 O1 YLR r8 b4 a8 g2 > e2 a4 < a48 b48 > c+48 d48 e48 f+48 < b48 > c+48 d48 e48 f+48 g48 @40 W0,95,0 O2 V1 a2~ a2 O1 YL. @15 W0,77,44 r8 g24 d24 g24 YLR b24 g24 b24 Y.R > d24 < b24 > d24 YLR g16 Y.R g16 YL. g24 Y.R d24 d24 YLR d24 < g24 g24 YL. g24 d24 d24~ d8 YLR @43 W0,95,0 O1 d8 c+8 d8 f+4. d8 g8 f+8 e8 d8 e4 O1 @3 YLR a48 V0 Y.R a48 > V1 YLR c+48 V0 YL. c+48 V1 YLR e48 V0 Y.R e48 YLR V1 c+48 V0 YL. c+48 V1 YLR e48 V0 Y.R e48 V1 YLR a48 V0 YL. a48 D1 V1 Y.R O2 @1 c32 c32 @2 c48 < a48 f48 > @1 c16 @0 c16 D0 @40 W0,95,0 O2 V1 [ YLR d64 Y.R d64 < YLR a64 YL. a64 YLR d64 Y.R d64 YLR a64 YL. a64 > ]6 [ YLR g64 Y.R g64 YLR d64 YL. d64 YLR < g64 Y.R g64 YLR > d64 YL. d64 ]8 [ YLR f+64 Y.R f+64 YLR d64 YL. d64 YLR < a64 Y.R a64 YLR > d64 YL. d64 ]4 [ YLR f+64 Y.R f+64 YLR d64 YL. d64 YLR < b64 Y.R b64 YLR > d64 YL. d64 ]4 [ [ YLR g64 Y.R g64 YLR d64 YL. d64 YLR < g64 Y.R g64 YLR > d64 YL. d64 ]4 H2 ]2 H0 [ YLR b64 Y.R b64 YLR f+64 YL. f+64 YLR < b64 Y.R b64 YLR > f+64 YL. f+64 ]8 
