;035 001BCABE
!1  T90 B1 E100,40,70,1,1 YLR V8 O2 @@4,3,2 d24 d24 d24 d24 d24 _V-3 d24 _V3 d24 d24 d24 d24 d24 _V-3 d24 _V3 d24 d24 d24 d24 g24 g24 g24 g24 g24 _V-3 g24 _V3 g24 g24 g24 g24 g24 _V-3 g24 _V3 g24 g24 g24 g24 > d24 d24 d24 d24 d24 _V-3 d24 _V3 d24 d24 d24 d24 d24 _V-3 d24 _V3 d24 d24 d24 d24 E90,100,80,1,6 @@4,2,0 EP-8,0,0,1,3 P15,11,5 V6 d24 d24 d24 d24 d24 _V-3 d24 _V3 d24 d24 d24 d24 d24 _V-3 d24 _V3 d24 _V-3 d24 _V3 d24 _V-3 d24 _V3 L @@4,0,1 P15,11,6 O2 V8 E100,80,60,4,9 d6.~ g6. f6.~ a+6. _V-5 a+6~ a+12 _V5 EX~ a24 @1~ g+24 @@4,0,1 E100,80,60,4,9 g6. _V-5 g6. g6 _V5 E90,100,70,1,6 @@4,2,0 EP-8,0,0,1,3 P15,11,5 V6 > d24 d24 d24 d24 d24 _V-3 d24 _V3 d24 d24 d24 d24 d24 _V-3 d24 _V3 d24 _V-3 d24 _V3 c24 _V-3 c24 _V3 @@4,0,1 P15,11,6 O2 V8 E100,80,60,4,9 d6.~ g6. f6.~ a+6.~ g6 >~ f12~ _V-2 EX e24~ @1 d+24 @@4,0,1 P15,11,6 V8 E100,80,60,4,9 d6 _V-3 d6 _V-2 d6 _V5 r6 E90,100,70,1,6 @@4,2,0 EP-8,0,0,1,3 P15,11,5 V6 d24 d24 d24 d24 d24 _V-3 d24 _V3 d24 d24 d24 d24 d24 _V-3 d24 _V3 d24 _V-3 d24 _V3 c24 _V-3 c24 _V3 @@4,0,1 P15,11,6 O2 V8 E100,80,60,4,9 d6.~ g6. f6.~ a+6. _V-5 a+6~ a+12 _V5 EX~ a24 @1~ g+24 @@4,0,1 E100,80,60,4,9 g6. _V-5 g6. g6 _V5 E90,100,70,1,6 @@4,2,0 EP-8,0,0,1,3 P15,11,5 V6 > d24 d24 d24 d24 d24 _V-3 d24 _V3 d24 d24 d24 d24 d24 _V-3 d24 _V3 d24 _V-3 d24 _V3 c24 _V-3 c24 _V3 @@4,0,1 P15,11,6 O2 V8 E100,80,60,4,9 d6.~ g6. f6.~ a+6.~ g6 >~ f12~ _V-2 EX g24~ @1 g+24 @@4,0,1 P15,11,6 V8 E100,80,60,4,9 a6 _V-3 a6 _V-2 a6 _V5 r6 EX @2 EPX PX V1 O1 EPX r48 f24 a24 > c24 e24 f24 a24 > c24 e24 f24 a24 > c24 e24 f24 a24 > c24 e48 @@4,0,1 P20,11,2 O2 V8 E100,80,60,4,9 EPX g12 a+12 _V-5 > > Y.R @2 a+12 @@4,0,1 YLR < < _V5 a12 _V-5 > > YL. @2 a12 @@4,0,1 YLR < < _V5 g12 _V-5 > > Y.R @2 g12 @@4,0,1 YLR < < _V6 f12 e12 d+12 _V-5 YL. @2 > > d+12 < < @@4,0,1 YLR _V5 c12 < g12 _V-5 Y.R @2 > > g12 < < @@4,0,1 YLR _V5 a+12 _V-5 YL. @2 > > a+12 < < @@4,0,1 YLR _V5 > g12 a+12 _V-5 Y.R @2 > > a+12 < < @@4,0,1 YLR _V5 a12 _V-5 YL. @2 > > a12 < < @@4,0,1 YLR _V5 g12 _V-5 Y.R @2 > > g12 < < @@4,0,1 YLR _V6 f12 > EP-12,0,0,15,0 c6. EPX EX @2 PX V1 O3 EPX r48 Y.R >~ f24~ YL. g24~ Y.R ) a24~ YL. > c24~ Y.R < a24~ YL. g24~ f24~ Y.R c24~ < YL. a24~ Y.R f48 YLR > @@4,0,1 P20,11,2 O2 V8 E100,80,60,4,9 EPX g12 a+12 _V-5 > > YL. @2 a+12 @@4,0,1 YLR < < _V5 a12 _V-5 > > Y.R @2 a12 @@4,0,1 YLR < < _V5 g12 _V-5 > > YL. @2 g12 @@4,0,1 YLR < < _V6 f12 e12 d+12 _V-5 Y.R @2 > > d+12 < < @@4,0,1 YLR _V5 c12 < g12 _V-5 YL. @2 > > g12 < < @@4,0,1 YLR _V5 a+12 _V-5 Y.R @2 > > a+12 < < @@4,0,1 YLR _V5 a+12 a12 a+12 > c6 < a+12 > c12 d6 d+12 g12 EX _V-2 a+12~ > a12 E100,0,0,8,0 @2 PX V5 O4 EPX Y.R f+24~ a24 YLR~ f+12 _V-2 YLR @@4,0,1 P15,11,6 O1 V8 E100,80,60,4,9 _V-3 a+48 ) b48 > ) c48 c+48 
!2  B1 E100,40,70,1,1 YLR V8 O2 @@4,3,2 g24 g24 g24 g24 g24 _V-3 g24 _V3 g24 g24 g24 g24 g24 _V-3 g24 _V3 g24 g24 g24 g24 > d24 d24 d24 d24 d24 _V-3 d24 _V3 d24 d24 d24 d24 d24 _V-3 d24 _V3 d24 d24 d24 d24 g24 g24 g24 g24 g24 _V-3 g24 _V3 g24 g24 g24 g24 g24 _V-3 g24 _V3 g24 g24 g24 g24 E90,100,80,1,6 @@4,2,0 EP-8,0,0,1,3 P15,11,5 V6 g24 g24 g24 g24 g24 _V-3 g24 _V3 g24 g24 g24 g24 g24 _V-3 g24 _V3 g24 _V-3 g24 _V3 g24 _V-3 g24 _V3 L EP-8,0,0,1,3 @@4,0,1 P15,11,6 O2 V10 E100,80,60,4,9 g6.~ > d6. < a+6.~ > f6. _V-5 f6 _V-2 f12 _V5 EX~ e24 @1~ d+24 _V2 @@4,0,1 E100,80,60,4,9 d6. _V-5 d6. _V-2 d6 _V7 E90,100,70,1,6 @@4,2,0 EP-8,0,0,1,3 P15,11,5 V6 g24 g24 g24 g24 g24 _V-3 g24 _V3 g24 g24 g24 g24 g24 _V-3 g24 _V3 g24 _V-3 g24 _V3 f24 _V-3 f24 _V3 @@4,0,1 P15,11,6 O2 V10 E100,80,60,4,9 g6.~ > d6. < a+6.~ > f6.~ d6~ a12~ _V-3 EX g24~ @1 f+24 @@4,0,1 P15,11,6 V10 E100,80,60,4,9 f6 _V-5 f6 _V-2 f6 _V7 r6 E90,100,70,1,6 @@4,2,0 EP-8,0,0,1,3 P15,11,5 V6 g24 g24 g24 g24 g24 _V-3 g24 _V3 g24 g24 g24 g24 g24 _V-3 g24 _V3 g24 _V-3 g24 _V3 f24 _V-3 f24 _V3 @@4,0,1 P15,11,6 O2 V10 E100,80,60,4,9 g6.~ > d6. < a+6.~ > f6. _V-5 f6 _V-2 f12 _V5 EX~ e24 @1~ d+24 _V2 @@4,0,1 E100,80,60,4,9 d6. _V-5 d6. _V-2 d6 _V7 E90,100,70,1,6 @@4,2,0 EP-8,0,0,1,3 P15,11,5 V6 g24 g24 g24 g24 g24 _V-3 g24 _V3 g24 g24 g24 g24 g24 _V-3 g24 _V3 g24 _V-3 g24 _V3 f24 _V-3 f24 _V3 @@4,0,1 P15,11,6 O2 V10 E100,80,60,4,9 g6.~ > d6. < a+6.~ > f6.~ d6~ a12~ _V-3 EX a+24~ @1 b24 @@4,0,1 P15,11,6 V10 E100,80,60,4,9 > c6 _V-5 c6 _V-2 c6 _V7 r6 E100,50,50,3,15 @2 PX V6 O1 EPX Y.R f24 a24 > c24 e24 YL. f24 a24 > c24 e24 Y.R f24 a24 > c24 e24 YL. f24 a24 > c24 e24 YLR @@4,0,1 P20,11,1 O3 V10 E100,80,60,4,9 EPX d+12 d12 _V-7 > > Y.R @2 d12 @@4,0,1 YLR < < _V7 c12 _V-7 > > YL. @2 c12 @@4,0,1 YLR < < _V7 < a+12 _V-7 Y.R @2 > > a+12 < < @@4,0,1 YLR _V8 a12 g12 g12 _V-7 > > YL. @2 g12 @@4,0,1 YLR < < _V7 f12 d+12 _V-7 > > Y.R @2 d+12 @@4,0,1 YLR < < _V7 d12 _V-7 > > YL. @2 d12 @@4,0,1 YLR < < _V7 > d+12 d12 _V-7 > > Y.R @2 d12 @@4,0,1 YLR < < _V7 c12 _V-7 > > YL. @2 c12 @@4,0,1 YLR < < _V7 < a+12 _V-7 > > Y.R @2 a+12 @@4,0,1 YLR < < _V8 a12 > EP-12,0,0,15,0 f6. EPX EX @2 PX V1 O3 EPX >~ f24 )~ g24 )~ a24 >~ c24 <~ a24~ g24~ f24~ c24~ < a24~ f24 > @@4,0,1 P20,11,1 O3 V10 E100,80,60,4,9 EPX d+12 d12 _V-7 > > YL. @2 d12 @@4,0,1 YLR < < _V7 c12 _V-7 > > Y.R @2 c12 @@4,0,1 YLR < < _V7 < a+12 _V-7 YL. @2 > > a+12 < < @@4,0,1 YLR _V8 a12 g12 g12 _V-7 > > Y.R @2 g12 @@4,0,1 YLR < < _V7 f12 d+12 _V-7 > > YL. @2 d+12 @@4,0,1 YLR < < _V7 d12 _V-7 > > Y.R @2 d12 @@4,0,1 YLR < < _V7 d+12 d12 d+12 f6 d+12 f12 g6 a12 a+12 > EX _V-4 d12~ f+12 E100,0,0,8,0 @2 PX V5 O4 EPX Y.R a24~ > d24 YLR~ a12 _V-2 YLR @@4,0,1 P15,11,6 O2 V10 E100,80,60,4,9 _V-3 d+48 ) e48 ) f48 f+48 
!3  `2E0C @A3 `AE00 `9F00 B1 O0 V3 YLR O0 E100,100,80,3,4 P20,11,13 V3 g6 V2 g12 V3 g6 V2 g12 V3 g6 V3 d6 V2 d12 V3 d6 V2 d12 V3 d6 V3 g6 V2 g12 V3 g6 V2 g12 V3 g6 > V3 g24 g24 g24 g24 g24 V1 g24 V3 g24 g24 g24 g24 > d24 V1 g24 V3 g24 V1 g24 V3 EP0,0,-90,5,11 g12 L < < EPX [ V3 g24 V2 g24 g24 V3 g24 g24 V1 g24 V3 g24 V2 g24 g24 g24 V3 g24 V1 g24 V3 g24 V2 g24 V3 g12 ]7 > V3 g24 g24 g24 g24 g24 V1 g24 V3 g24 g24 g24 g24 > d24 V1 < g24 > V3 g24 V1 g24 V3 EP0,0,-90,5,11 f12 < < EPX PX EPX [ V3 g24 V2 g24 g24 V3 g24 g24 V1 g24 V3 g24 V2 g24 g24 g24 V3 g24 V1 g24 V3 g24 V2 g24 V3 g12 ]5 V3 g24 V2 g24 g24 V3 g24 g24 V1 g24 V3 g24 V2 g24 g24 g24 V3 g24 V1 g24 V3 g24 V2 g24 V3 g24 V1 f+24 V3 f24 V2 f24 f24 V3 f24 f24 V1 f24 V3 f24 V2 f24 f24 f24 V3 f24 V1 f24 V3 f24 V2 f24 V2 f24 V1 > c24 V3 f12 c24 < V2 a+24 V3 a12 f24 V2 c24 < V3 a12 a+24 > V2 c24 V3 a24 V2~ g24 V3~ EP0,0,-40,8,8 f12 EPX PX V3 E100,80,80,15,0 P20,12,9 < V3 d+12~ f6 a12 V1 a12~ V3 a+12 V1 a+12 >~ V3 c12~ < e12~ g6~ a12 EP-60,0,0,10,0 a+6 EPX~ f12~ V1 f12 V3 d+12~ f6 a12 V1 a12~ V3 a+12 V1 a+12 V2 c12 V3 EP-60,0,0,12,0 f6~ V1 EPX f12 V2 c12 V3 EP-60,0,0,12,0 c6 V3 EPX~ V1 V3 f12 V2 e12 V3 d+12~ f6 a12 V1 a12~ V3 a+12 V1 a+12 >~ V3 c12~ e12~ g6~ a12~ EP-60,0,0,10,0 a+6 EPX~ f12 <~ f12 @A3 `AE00 V3 O1 a+12 V2 f12 a+12 V3 a6 V2 c+12 V2 e12 V3 g6 V1 < a+12 V2 > d12 V3~ f+12 a12 r12 EP-40,0,0,15,0 a6 > EPX 
!4  @6 [ @4 x24 x24 x24 x24 x12 x24 x24 x24 x24 x12 @3 x48 @4 x48 x48 x48 x24 @3 x24 ]3 @4 x24 x24 x24 x24 x12 x24 x24 x24 x24 x12 @3 x48 @4 x48 x48 x48 @6 x12 L [ @8 x6. @6 x12 @5 x12 @6 x12 @5 x12 @7 x12 [ @5 x12 @6 x12 @5 x12 @6 x12 @5 x12 @6 x12 @5 x12 @6 x12 ]2 @6 x6 x6 x6 @7 x12 x12 ]4 @8 x6 @6 x12 @7 x6 x6 @6 x12 @6 x12 @7 x6 @6 x12 @8 x6 x6 @8 x6 @6 x12 @7 x6 x6 @6 x12 @7 x6 @6 x6 x6 x6 @8 x6 @6 x12 @7 x6 x6 @6 x12 @6 x12 @7 x6 @6 x12 @8 x6 x6 @8 x6 @6 x12 @8 x6. @6 x12 @8 x6. @6 x6 @7 x6 @8 x6 
!5  V1 YLR O2 @0 c6 c6 c6 c6 c6 c6 c6 c6 c6 c6 c6 c6 c6 c6 c6 c24 c24 @2 Y.R d24 < YL. a+24 YLR O2 L [ [ [ V1 @0 c24 V0 @1 c24 @0 c24 V1 c24 @1 c12 V0 c24 @0 c24 ]6 V1 @0 c24 V0 @1 c24 @0 c24 V1 c24 @1 c12 V1 @0 c24 V0 @2 d24 < a+24 > V0 @0 c24 V1 @1 c12 V1 c24 V0 c24 c24 V1 c24 ]2 ]2 @0 c6 @1 c12 @0 c12 Y.R @2 V0 d+12 V1 YLR @0 c12 @2 V0 c12 @1 c48 c48 c48 c48 V1 c12 @0 c12 YL. < @2 V0 g+12 > V0 @0 c12 V1 @0 c12 @2 Y.R d+24 YL. O1 g+24 YLR O2 @0 c12 @1 V0 c24 V1 c24 @0 c6 @1 c12 @0 c12 @2 V0 c12 V1 @0 c12 @2 V0 Y.R d+12 YLR @1 c24 c24 V1 @0 c24 V0 @1 c12 @0 c24 V1 @1 c12. V0 @0 c24 V1 @0 c24 V0 @1 c12 @0 c24 V1 @1 c24 V0 c24 c24 V1 c24 @0 c6 @1 c12 @0 c12 Y.R @2 V0 d+12 V1 YLR @0 c12 @2 V0 c12 @1 c48 c48 c48 c48 V1 c12 @0 c12 YL. < @2 V0 g+12 > V0 @0 c12 V1 @0 c12 @2 Y.R d+24 O1 YL. g+24 YLR O2 @0 c12 @1 V0 c24 V1 c24 V1 @0 c24 @1 V0 c24 c24 c24 V1 c24 V0 c24 @2 Y.R d+24 d+24 YLR V1 @0 c24 @1 V0 c24 V1 c24 V0 c24 Y.R @2 d+24 V1 d+24 YLR c24 c24 V1 @0 c24 @1 V0 c24 V1 c24 V0 c24 @2 c24 V1 O1 YL. g+24 f24 YLR O2 @0 c24 @1 V1 c12. @0 V0 c48 V1 c48 @1 c6 
!6  YLR V1 O1 @4 g6 YL. g6 Y.R g6 YLR V1 g48 V0 g48 g48 g48 g48 g48 g48 g48 V1 O2 d6 YL. d6 Y.R d6 YLR d48 V0 d48 d48 d48 d48 d48 d48 d48 V1 O1 g6 YL. g6 Y.R g6 YLR O1 V0 g48 g48 g48 g48 g48 g48 g48 g48 @8 V1 g24 V0 g24 g24 g24 V1 g24 Y.R g24 YLR V1 g24 V0 g24 g24 g24 V1 g24 YL. g24 YLR g12 f12 L V1 [ g12 @19 V1 g24 V0 g24 g12 g24 g24 g24 g24 g12 g24 g24 g24 g24 [ g24 g24 g24 g24 g12 g24 g24 g24 g24 g12 g24 g24 g24 g24 ]2 @8 V1 g24 V0 g24 g24 g24 V1 g24 Y.R g24 YLR V1 g24 V0 g24 g24 g24 V1 g24 YL. g24 YLR g12 f12 ]2 g12 @19 V1 g24 V0 g24 g12 g24 g24 g24 g24 g12 g24 g24 g24 g24 [ g24 g24 g24 g24 g12 g24 g24 g24 g24 g12 g24 g24 g24 g24 ]2 @8 V1 g24 V0 g24 g24 g24 V1 g24 Y.R g24 YLR V1 g24 V0 g24 g24 g24 V1 g24 YL. g24 YLR g12 f12 g12 @19 V1 g24 V0 g24 g12 g24 g24 g24 g24 g12 g24 g24 g24 g24 g24 g24 g24 g24 g12 g24 g24 g24 g24 g12 g24 g24 g24 g24 a24 a24 a24 a24 a12 a24 a24 a24 a24 a12 a24 a24 a24 a24 @8 V1 f24 V0 f24 f24 f24 V1 f24 Y.R f24 YLR V1 f24 V0 f24 f24 f24 V1 f24 YL. f24 YLR f12 e12 d+12 @25 O2 V1 f12 V0 Y.R f12 YLR V1 c12 V0 YL. c12 YLR V1 d12 Y.R V0 d12 V1 YLR f12 e12 d+12 V0 YL. d+12 V1 YLR f12 g12 V0 Y.R g12 YLR V1 a+12 YL. V0 a+12 YLR V1 c12 V1 f12 V0 Y.R f12 YLR V1 c12 V0 YL. c12 YLR V1 d12 Y.R V0 d12 V1 YLR f12 O1 @19 V0 f24 c24 f24 g24 V1 a24 c24 > f24 g24 a24 > c24 < a24 g24 f24 c24 < a24 f24 O2 @25 V1 c12 V1 f12 V0 Y.R f12 YLR V1 c12 V0 YL. c12 YLR V1 d12 Y.R V0 d12 V1 YLR f12 e12 d+12 V0 YL. d+12 V1 YLR f12 g12 V0 Y.R g12 YLR V1 a+12 YL. V0 a+12 YLR V1 @8 O1 V1 g12 V0 Y.R g12 YL. g12 YLR V1 a12 V0 Y.R a12 YL. a12 YLR r6 V1 a+12 V0 Y.R a+12 YL. a+12 YLR r12 > V1 d12 V0 Y.R d12 YL. d12 < @8 V0 YLR d+48 e48 f48 f+48 V1 
