;037 001BE790
!1  T48 r8 L YLR @@4,2,1 O3 V7 E100,100,95,12,10 P24,19,3 d+8 _V-4 d+16 _V4 d+32 _V-4 d+32 _V4 d+8 _V-4 d+16 _V4 d+16 f8 _V-4 f16 _V4 f16 d+8. d16 < g4 a4 d8. c48 < b48 a48 g8 > g8 @@4,2,0 E100,100,80,12,5 r16 [ YLR d+32 _V-4 d+32 _V4 d+8 _V-4 Y.R d+16 _V4 ]2 YLR f32 _V-4 f32 _V4 f8 _V-4 YL. f16 _V4 YLR d16 _V-4 Y.R d16 _V4 < YLR b16 _V-4 YL. b16 _V4 YLR > d+16 g32 _V-4 g32 _V4 > c8 < f+16 a32 _V-4 a32 _V4 > c16 g8 g+8 a8 b8 @2 V6 Y.R D1 P17,19,3 r64 g2 _V-2 EX g4 _V-2 g8 ( g8 V3 g8 ) g8 ) g8 ) g8 > c8 < f+8 g4 P17,19,4 < V3 g8 ) g8 ) g8 ) g8 _V-2 g8 ( g8 ( g8 ( g8 V3 g8 ) g8 ) g8 ) g16.~ g64 > ( D0 YLR c8 < f+8 g4 @2 V5 O2 E85,100,75,3,5 r16 [ YLR g32 _V-2 YL. g32 _V2 ]3 YLR f8 _V-3 Y.R f16 YL. f16 _V3 r16 [ YLR d32 _V-2 Y.R d32 _V2 ]3 YLR c8 _V-3 Y.R c16 YL. c16 _V3 @1 O3 YLR V6 [ [ YLR g64 _V-2 Y.R g64 _V2 YLR d+64 _V-2 YL. d+64 < _V2 YLR a+64 _V-2 Y.R a+64 > _V2 YLR d+64 _V-2 YL. d+64 _V2 ]4 H1 ]2 H0 [ [ YLR a64 _V-2 Y.R a64 _V2 YLR f64 _V-2 YL. f64 _V2 YLR c64 _V-2 Y.R c64 _V2 YLR f64 _V-2 YL. f64 _V2 ]4 H1 ]2 H0 O2 V8 YLR g16 _V-4 Y.R g16 _V4 YLR g16 _V-4 Y.R g16 YL. g16 _V4 YLR g32 _V-4 Y.R g32 _V4 YLR g16 _V-4 YL. g16 _V4 YLR g32 r32 r16 r8 r8~ r32 r8.~ r32 
!2  r8 L YLR @@4,2,1 O3 V8 E100,100,95,12,10 P24,19,3 g8 _V-4 g16 _V4 g32 _V-4 g32 _V4 g8 _V-4 g16 _V4 g16 g+8 _V-4 g+16 _V4 g+16 g8. f16 d+24 g48 _V-4 g48 _V4 > c48 _V-4 c48 _V4 d+8 < f+24 a48 _V-4 a48 _V4 > c48 _V-4 c48 _V4 d+8 V5 Y.R g48 g+48 g48 YLR f48 g48 f48 d+48 f48 d+48 d48 d+48 f48 < g48 g+48 g48 YL. f48 g48 f48 d+48 f48 d+48 d48 c48 < b48 _V-3 b16 V7 @@4,2,0 E100,100,80,12,5 YLR [ YLR g32 _V-4 g32 _V4 g8 _V-4 Y.R g16 _V4 ]2 YLR g+32 _V-4 g+32 _V4 g+8 _V-4 YL. g+16 _V4 YLR g16 _V-4 Y.R g16 _V4 YLR d16 _V-4 YL. d16 _V4 YLR g16 > c32 _V-4 c32 _V4 d+8 < a16 > c32 _V-4 c32 _V4 d+16 _V-2 g2 @2 V6 YL. P17,21,3 g2 _V-2 EX g4 _V-2 g8 ( g8 V3 g8 ) g8 ) g8 ) g8 > c8 < f+8 g4 P17,19,4 < V3 g8 ) g8 ) g8 ) g8 _V-2 g8 ( g8 ( g8 ( g8 V3 g8 ) g8 ) g8 ) g8 > YLR c8 d+8 d8 _V-2 d8 @2 V5 O2 E85,100,75,3,5 r16 [ YLR a+32 _V-2 YL. a+32 _V2 ]3 YLR a8 _V-3 Y.R a16 YL. a16 _V3 r16 [ YLR g32 _V-2 Y.R g32 _V2 ]3 YLR f8 _V-3 Y.R f16 YL. f16 _V3 @1 O3 V6 [ [ YLR d+64 _V-2 Y.R d+64 < _V2 YLR a+64 _V-2 YL. a+64 _V2 YLR d+64 _V-2 Y.R d+64 _V2 YLR a+64 _V-2 YL. a+64 _V2 > ]4 H1 ]2 H0 [ [ YLR f64 _V-2 Y.R f64 _V2 YLR c64 _V-2 YL. c64 _V2 YLR < f64 _V-2 Y.R f64 > _V2 YLR c64 _V-2 YL. c64 _V2 ]4 H1 ]2 H0 O3 V8 YLR d16 _V-4 Y.R d16 _V4 YLR d16 _V-4 Y.R d16 YL. d16 _V4 YLR d32 _V-4 Y.R d32 _V4 YLR d16 _V-4 YL. d16 _V4 YLR d32 r32 r16 r8 r8~ r32 r8.~ r32 
!3  r8 `9F00 `AE00 L @A3 V3 YLR O1 E100,100,60,17,17 c8 d8 d+8 c8 d8 c8 < b8 g8 > c8 c8 < f+8 f+8 g8 g8 g8 g8 > c8 d8 d+8 c8 d8 c8 < b8 g8 > c8 c8 < f+8 f+8 g8 g8 g8 g8 V3 @A1 @B0 @~2 O1 [ c8 d8 d+8 f8 g8 a8 b8 g8 c8 d8 d+8 f8 g8 a8 g8 < g8 > ]2 @~X @A1 O1 [ g2 ]2 @A3 O1 V3 [ d+8 ]4 [ e8 ]4 [ [ f8 ]4 H1 ]2 H0 g8 g8 < g16 > g16 < g8 > g8 f8 d+8~ d+32 d8~ d16. 
!4  @7 [ x48 ]6 L @8 x8 @1 x8 x8 x8 [ x8 ]12 @8 x8 @1 x8 x8 x8 [ x8 ]11 @7 [ x32 ]4 @8 x8 @5 x8 x8 x8 [ x8 ]12 @8 x8 @5 x8 x8 x8 [ x8 ]11 @3 [ x32 ]4 [ @8 x8 r4 @7 [ x32 ]4 ]2 [ @8 x8 @1 x8 x8 @7 [ x32 ]4 ]4 @8 x8 x8 @1 x16 @7 x16 @8 x8 x8 r8 r8~ r32 r8.~ r32 
!5  @4 O1 V1 g48 V0 g48 g48 g48 V1 g48 g48 L V1 YLR O2 @50 W0,95,0 c8 V0 c16 V1 c32 V0 c32 V1 c8 V0 c16 V1 c16 d8. c16 < b8. > d16 [ d+8. d32 c32 ]2 @50 W0,95,0 c8. d32 c32 < b4 @43 W0,91,11 O2 [ r16 YLR V1 c16 < YLR V1 c32 Y.R V0 c32 > YLR V1 c32 YL. V0 c32 ]6 YLR < [ g32 g+32 ]4 V1 [ g32 g+32 ]4 @51 W0,90,26 O3 [ r16 YLR V1 c16 Y.R V0 c16 < YLR V1 g16 YL. V0 g16 YLR V1 g+16 Y.R V0 g+16 YLR V1 f16 YL. V0 f16 YLR V1 d+16 Y.R V0 d+16 YLR V1 d32 c32 YLR V1 g8 YLR V1 d8 Y.R V0 d16 > YLR V1 c16 Y.R V0 c16 < YLR V1 g16 YL. V0 g16 YLR V1 g+16 Y.R V0 g+16 YLR V1 f16 YL. V0 f16 YLR V1 d+16 Y.R V0 d+16 YLR V1 d32 c32 YLR V1 g8. Y.R V0 g16 > ]2 @40 W0,95,1 O2 YLR V1 d4~ d16 c32 r32 c16 d16 < a+4~ a+16 a32 r32 a16 a+16 g16 @3 W0,30,5 O0 a+48 > d+48 g48 a+8. a48 a+48 > d+48 g8 < < r16 H1 a+48 > d+48 g48 a+8. a48 a+48 > d+48 g8 H2 < < r16 a+48 > d+48 g48 a+8. a48 a+48 > d+48 g8 H3 < < r16 a+48 > d+48 g48 a+8. a48 a+48 > d+48 g8 H0 @14 O2 V1 YLR g16 V0 Y.R g16 V1 YLR g16 V0 YL. g16 Y.R g16 V1 YLR g16 g16 V0 YL. g16 V1 YLR g8 r8 r8~ r32 r8.~ r32 
!6  r8 L V1 YLR O2 @4 c8 V0 c8 c8 c8 c8 c8 < g8 V1 g16 g32 g32 > c8 V0 c8 V1 c8 V0 c8 < V1 g8 V0 g8 g8 V1 g16 g32 g32 > c8 V0 c8 c8 c8 c8 c8 < g8 V1 g16 g32 g32 > c8 V0 c8 V1 c8 V0 c8 < V1 g8 V0 g8 g8 V1 g16 g32 g32 > c16 @51 W0,90,26 O3 D1 r32 YLR V1 c16 Y.R V0 c16 < YLR V1 g16 YL. V0 g16 YLR V1 g+16 Y.R V0 g+16 YLR V1 f16 YL. V0 f16 YLR V1 d+16 Y.R V0 d+16 YLR V1 d32 c32 YLR V1 g8 YLR V1 d16 Y.R V0 d16 > r16 YLR V1 c16 Y.R V0 c16 < YLR V1 g16 YL. V0 g16 YLR V1 g+16 Y.R V0 g+16 YLR V1 f16 YL. V0 f16 YLR V1 d+16 Y.R V0 d+16 YLR V1 d32 c32 YLR V1 g8. Y.R V0 g16 > r16 YLR V1 c16 Y.R V0 c16 < YLR V1 g16 YL. V0 g16 YLR V1 g+16 Y.R V0 g+16 YLR V1 f16 YL. V0 f16 YLR V1 d+16 Y.R V0 d+16 YLR V1 d32 c32 YLR V1 g8 YLR V1 d8 Y.R V0 d16 > YLR V1 c16 Y.R V0 c16 < YLR V1 g16 YL. V0 g16 YLR V1 g+16 Y.R V0 g+16 YLR V1 f16 YL. V0 f16 YLR V1 d+16 Y.R V0 d+16 YLR V1 d32 c32 YLR V1 g8. Y.R V0 g32 D0 D1 r64 @40 W0,95,1 O2 YL. V1 d4~ d16 c32 r32 c16 d16 < a+4~ a+16 a32 r64 @4 O1 YLR d32 d32 d32 d32 [ d+8 V0 d+8 d+8 V1 d+16 d+32 d+32 H1 ]2 H0 f8 V0 f8 f8 V1 f16 f32 f32 f+8 V0 f+8 f+8 V1 [ f+32 ]4 > g16 < g16 > g16 < g16 V0 g16 > V1 g16 g32 g32 < g16 > g8 r8 r8~ r32 r8.~ r32 
