;001 003112A0
!1  T150 V5 O2 YL. @@1,2,1 E95,100,70,22,37 d16 _V-2 d16 _V2 d16 d16 e16 _V-2 e16 _V2 e16 e16 f16 _V-2 f16 _V2 f16 g16 g16 a16 d8~ d16 _V-2 d16 _V2 d16 d16 e16 _V-2 e16 _V2 e16 e16 V5 O2 YL. D-1 @1 E100,90,70,37,37 P26,13,6 B6 r16 d16~ _V-2 d16~ _V2 a16~ _V-2 a16~ _V2 e16~ _V-2 e16~ _V2 > c16~ L c16 c1~ c2~ _V-2 c8~ _V2 < a+16~ _V-2 a+16~ _V2 a16~ _V-2 a16~ _V2 d8~ d1~ d4.~ _V-2 d8~ _V2 d16~ _V-2 d16~ _V2 a16~ _V-2 a16~ _V2 a+16~ _V-2 a+16~ _V2 e8~ e4~ _V-2 e8~ _V2 f4~ _V-2 f8~ _V2 g4~ g2~ _V-2 g8~ _V2 g16~ _V-2 g16~ _V2 f16~ _V-2 f16~ _V2 < a8~ a1~ a4.~ _V-2 a8~ _V2 > d16~ _V-2 d16~ _V2 a16~ _V-2 a16~ _V2 e16~ _V-2 e16~ _V2 > c8~ c1~ c2~ _V-2 c8~ _V2 < a+16~ _V-2 a+16~ _V2 a16~ _V-2 a16~ _V2 d8~ d1~ d4.~ _V-2 d8~ _V2 d16~ _V-2 d16~ _V2 e16~ _V-2 e16~ _V2 a16~ _V-2 a16~ _V2 g8~ g4~ _V-2 g8~ _V2 f4~ _V-2 f8~ _V2 e4~ e2~ _V-2 e8~ _V2 f16~ _V-2 f16~ _V2 < a+16~ _V-2 a+16~ _V2 > d8~ d1~ d4.~ _V-2 d8~ _V2 Y.R d16~ _V-2 d16~ _V2 a16~ _V-2 a16~ _V2 e16~ _V-2 e16~ _V2 > c8~ c1~ c2~ _V-2 c8~ _V2 < a+16~ _V-2 a+16~ _V2 a16~ _V-2 a16~ _V2 d8~ d1~ d4.~ _V-2 d8~ _V2 d16~ _V-2 d16~ _V2 a16~ _V-2 a16~ _V2 a+16~ _V-2 a+16~ _V2 e8~ e4~ _V-2 e8~ _V2 f4~ _V-2 f8~ _V2 g4~ g2~ _V-2 g8~ _V2 g16~ _V-2 g16~ _V2 f16~ _V-2 f16~ _V2 < a8~ a1~ a4.~ _V-2 a8~ _V2 > d16~ _V-2 d16~ _V2 a16~ _V-2 a16~ _V2 e16~ _V-2 e16~ _V2 > c8~ c1~ c2~ _V-2 c8~ _V2 < a+16~ _V-2 a+16~ _V2 a16~ _V-2 a16~ _V2 d8~ d1~ d4.~ _V-2 d8~ _V2 d16~ _V-2 d16~ _V2 e16~ _V-2 e16~ _V2 a16~ _V-2 a16~ _V2 g8~ g4~ _V-2 g8~ _V2 f4~ _V-2 f8~ _V2 e4~ e2~ _V-2 e8~ _V2 f16~ _V-2 f16~ _V2 < a+16~ _V-2 a+16~ _V2 > d8~ d1~ d4.~ _V-2 d8 _V2 V5 O2 PX @2 E100,100,50,0,15 YL. a32 _V-2 Y.R a32 _V2 > YL. d32 _V-2 Y.R d32 _V2 YL. d32 _V-2 Y.R d32 _V2 YL. a32 _V-2 Y.R a32 _V2 YL. a32 _V-2 Y.R a32 _V2 > YL. d32 _V-2 Y.R d32 _V2 YL. d32 _V-2 Y.R d32 _V2 r4. V5 O2 YL. @@1,2,1 E95,100,70,22,37 f16 g16 e8 f8 d4~ d16 ( d16 ) f16 g16 e8 f8 d16 ( d16 ) a16 a+16 e8 f8 d16 ( d16 ) a+16 > c16 < e8 f8 d16 ( d16 ) YL. > c8 d8 e8 V4 O3 Y.R @@3,1,2 E100,90,50,22,37 r16 f2.~ _V-2 f8 _V2 f16 g16 e8 f8 d16~ _V-2 d16 _V2 d16 e16 c8 d8 < a+8 a8 d2~ _V-2 d8 _V2 c8 f8 d8~ d8 c16 < g16~ g16 f16 d16 c16 c8 d8 a8 c8 > > f2.~ _V-2 f8 _V2 f16 g16 e8 f8 d16~ _V-2 d16 _V2 d16 e16 c8 d8 < a+8 a16 d4. ( YL. d4 ( Y.R d4 ( YL. d8 [ r1 ]3 r16 V6 O3 YL. B7 @@0,2,0 E100,90,50,22,37 r8 c+16~ d16~ d2. < d8 g+16~ a16~ g8.~ a16~ a8 > c16~ < _V-2 g+16 _V2~ a8 g16 f16 g4~ g8 f24 g24 f24 e8 f8 g8 e8 e8 f8 e8 c+16~ d16~ d8 c8~ c16~ < _V-2 a16~ ( f16~ ( d16 _V4 g8 a8 > c8 d8 d+16~ e16 d16 c16 d4~ d8 a8 b16~ > c8. < a+8 a24 a+24 a24 g8 f8 f16~ g8.~ g8. _V-2 g16 _V2 g8 g8 a8 b8~ b4. d8 g8 b8 > c8 c+16~ d16~ d1~ _V-2 d8 _V-2 d8 _V-2 d8 r8 V5 O2 YL. D-1 @1 E100,90,70,37,37 P26,13,6 B6 d16~ _V-2 d16~ _V2 a16~ _V-2 a16~ _V2 e16~ _V-2 e16~ _V2 > c16~ 
!2  V4 O1 Y.R @@1,2,1 E95,100,70,22,37 a16 _V-2 a16 _V2 a16 a16 > c16 _V-2 c16 _V2 c16 c16 d16 _V-2 d16 _V2 d16 e16 e16 f16 < a8~ a16 _V-2 a16 _V2 a16 a16 > c16 _V-2 c16 _V2 c16 c16 V8 O2 YLR @1 E100,90,70,37,37 P26,13,6 B6 d16~ _V-2 d16~ _V2 a16~ _V-2 a16~ _V2 e16~ _V-2 e16~ _V2 > c8~ L c1~ c2~ _V-2 c8~ _V2 < a+16~ _V-2 a+16~ _V2 a16~ _V-2 a16~ _V2 d8~ d1~ d4.~ _V-2 d8~ _V2 d16~ _V-2 d16~ _V2 a16~ _V-2 a16~ _V2 a+16~ _V-2 a+16~ _V2 e8~ e4~ _V-2 e8~ _V2 f4~ _V-2 f8~ _V2 g4~ g2~ _V-2 g8~ _V2 g16~ _V-2 g16~ _V2 f16~ _V-2 f16~ _V2 < a8~ a1~ a4.~ _V-2 a8~ _V2 > d16~ _V-2 d16~ _V2 a16~ _V-2 a16~ _V2 e16~ _V-2 e16~ _V2 > c8~ c1~ c2~ _V-2 c8~ _V2 < a+16~ _V-2 a+16~ _V2 a16~ _V-2 a16~ _V2 d8~ d1~ d4.~ _V-2 d8~ _V2 d16~ _V-2 d16~ _V2 e16~ _V-2 e16~ _V2 a16~ _V-2 a16~ _V2 g8~ g4~ _V-2 g8~ _V2 f4~ _V-2 f8~ _V2 e4~ e2~ _V-2 e8~ _V2 f16~ _V-2 f16~ _V2 < a+16~ _V-2 a+16~ _V2 > d8~ d1~ d4.~ _V-2 d8~ _V2 d16~ _V-2 d16~ _V2 a16~ _V-2 a16~ _V2 e16~ _V-2 e16~ _V2 > c8~ c1~ c2~ _V-2 c8~ _V2 < a+16~ _V-2 a+16~ _V2 a16~ _V-2 a16~ _V2 d8~ d1~ d4.~ _V-2 d8~ _V2 d16~ _V-2 d16~ _V2 a16~ _V-2 a16~ _V2 a+16~ _V-2 a+16~ _V2 e8~ e4~ _V-2 e8~ _V2 f4~ _V-2 f8~ _V2 g4~ g2~ _V-2 g8~ _V2 g16~ _V-2 g16~ _V2 f16~ _V-2 f16~ _V2 < a8~ a1~ a4.~ _V-2 a8~ _V2 > d16~ _V-2 d16~ _V2 a16~ _V-2 a16~ _V2 e16~ _V-2 e16~ _V2 > c8~ c1~ c2~ _V-2 c8~ _V2 < a+16~ _V-2 a+16~ _V2 a16~ _V-2 a16~ _V2 d8~ d1~ d4.~ _V-2 d8~ _V2 d16~ _V-2 d16~ _V2 e16~ _V-2 e16~ _V2 a16~ _V-2 a16~ _V2 g8~ g4~ _V-2 g8~ _V2 f4~ _V-2 f8~ _V2 e4~ e2~ _V-2 e8~ _V2 f16~ _V-2 f16~ _V2 < a+16~ _V-2 a+16~ _V2 > d8~ d1~ d4.~ _V-2 d8 _V2 V5 O2 PX B0 @2 E100,100,50,0,15 [ Y.R a32 _V-2 YL. a32 _V2 > Y.R d32 _V-2 YL. d32 _V2 Y.R d32 _V-2 YL. d32 _V2 Y.R a32 _V-2 YL. a32 _V2 ]2 V5 O1 Y.R @@1,2,1 E95,100,70,22,37 [ d16 _V-2 d16 _V2 < a16 _V-2 a16 _V2 > d16 _V-2 d16 _V2 f16 _V-2 f16 _V2 f16 _V-2 f16 _V2 d16 _V-2 d16 _V2 f8 _V-2 f8 _V2 ]2 > c16 _V-2 c16 _V2 < d16 _V-2 d16 _V2 d16 _V-2 d16 _V2 a16 _V-2 a16 _V2 d8 e8 f8 g8 V6 O3 YLR P26,13,4 B6 @@3,1,2 E100,90,50,22,37 f2.~ _V-2 f8 _V2 f16 g16 e8 f8 d16~ _V-2 d16 _V2 d16 e16 c8 d8 < a+8 a8 d2~ _V-2 d8 _V2 c8 f8 d8~ d8 c16 < g16~ g16 f16 d16 c16 c8 d8 a8 c8 > > f2.~ _V-2 f8 _V2 f16 g16 e8 f8 d16~ _V-2 d16 _V2 d16 e16 c8 d8 < a+8 a8 d4 _V-2 Y.R d4 ( YL. d4 ( Y.R d4 _V4 [ r1 ]3 V8 O3 YLR B7 @@0,2,0 E100,90,50,22,37 r8 c+16~ d16~ d2. < d8 g+16~ a16~ g8.~ a16~ a8 > c16~ < _V-2 g+16 _V2~ a8 g16 f16 g4~ g8 f24 g24 f24 e8 f8 g8 e8 e8 f8 e8 c+16~ d16~ d8 c8~ c16~ < _V-2 a16~ ( f16~ ( d16 _V4 g8 a8 > c8 d8 d+16~ e16 d16 c16 d4~ d8 a8 b16~ > c8. < a+8 a24 a+24 a24 g8 f8 f16~ g8.~ g8. _V-2 g16 _V2 g8 g8 a8 b8~ b4. d8 g8 b8 > c8 c+16~ d16~ d1~ _V-2 d8 _V-2 d8 _V-2 d8 r8 V8 O2 YLR @1 E100,90,70,37,37 P26,13,6 B6 d16~ _V-2 d16~ _V2 a16~ _V-2 a16~ _V2 e16~ _V-2 e16~ _V2 > c8~ 
!3  V3 O1 YLR `9F00 @A3 @B0 @~3 d4 ( Y.R d4 YL. d4 ) YLR c+8 c8 ( c8 ) < b8 ( b8 ) a+8 ( a+8 ) a4. > L [ [ d16 ( d16 ) ]5 < a16 ( a16 ) > c16 ( c16 ) < a16 ( a16 ) > [ d16 ( d16 ) ]5 < a16 ( a16 ) > e16 ( e16 ) f16 ( f16 ) ]2 < [ a+16 ( a+16 ) ]5 f16 ( f16 ) > c16 ( c16 ) d16 ( d16 ) < [ a+16 ( a+16 ) ]5 a16 ( a16 ) a+16 ( a+16 ) > c16 ( c16 ) [ d16 ( d16 ) ]5 < a16 ( a16 ) > c16 ( c16 ) < a16 ( a16 ) > [ d16 ( d16 ) ]5 < a16 ( a16 ) > e16 ( e16 ) f16 ( f16 ) [ [ [ d16 ( d16 ) ]5 < a16 ( a16 ) > c16 ( c16 ) < a16 ( a16 ) > [ d16 ( d16 ) ]5 < a16 ( a16 ) > e16 ( e16 ) f16 ( f16 ) ]2 < [ a+16 ( a+16 ) ]6 > c16 ( c16 ) d16 ( d16 ) < [ a+16 ( a+16 ) ]5 f16 ( f16 ) a+16 ( a+16 ) > c16 ( c16 ) [ d16 ( d16 ) ]5 < a16 ( a16 ) > c16 ( c16 ) < a16 ( a16 ) > [ d16 ( d16 ) ]5 < a16 ( a16 ) > e16 ( e16 ) f16 ( f16 ) ]3 [ d4 ( Y.R d4 YL. d4 ) YLR d4 ]2 d4 ( d4 ) c4 ( c4 ) < [ a+16 ( a+16 ) ]4 [ a+16 a+16 a+16 ( a+16 ) ]2 [ a+16 ( a+16 ) ]2 [ a+16 a+16 a+16 ( a+16 ) ]3 > [ [ d16 ( d16 ) ]3 d16 d16 ]3 [ c16 ( c16 ) ]3 c16 c16 < [ [ a+16 ( a+16 ) ]3 a+16 a+16 ]4 [ > d16 ( d16 ) d8 ( Y.R d8 YL. d8 ) r2 r1 < YLR a+16 ( a+16 ) a+8 ( Y.R a+8 YL. a+8 ) r2 r1 ]2 YLR a8 a8 ( a8 ) a8 ( a8 ) a8 > e8 < a8 a+8 a+8 ( a+8 ) a+4 > f8 a+8 d8 d+8 d+8 ( d+8 ) d+8 ( d+8 ) < f8 ( f8 ) g8~ g16 ( g16 ) [ g16 ( g16 ) ]7 [ a8 > a16 a16 < ]7 a8 > a8 < 
!4  @3 x2. x8 @7 x8 [ @5 x8 @7 x8 ]2 @5 x8 @8 x4 @3 x16 x16 L [ @1 x8 x16 @5 x16 @7 x8 @1 x16 @5 x16 @7 x8 @5 x16 x16 @7 x8 @1 x16 @5 x16 @1 x8 x16 @5 x16 @7 x8 @1 x16 @5 x16 @7 x16 x16 @1 x16 @7 x16 @3 x8 @5 x16 x16 ]3 @1 x8 x16 @5 x16 @7 x8 @1 x16 @5 x16 @7 x8 @5 x16 x16 @7 x8 @1 x16 @5 x16 @1 x8 x16 @5 x16 @7 x8 @1 x16 @5 x16 @7 x16 x16 @1 x16 @7 x16 @3 x8 @7 x8 [ @1 x8 x16 @5 x16 @7 x8 @1 x16 @5 x16 @7 x8 @5 x16 x16 @7 x8 @1 x16 @5 x16 @1 x8 x16 @5 x16 @7 x8 @1 x16 @5 x16 @7 x16 x16 @1 x16 @7 x16 @3 x8 @5 x16 x16 ]3 @1 x8 x16 @5 x16 @7 x8 @1 x16 @5 x16 @7 x8 @5 x16 x16 @7 x8 @1 x16 @5 x16 @1 x8 x16 @5 x16 @7 x8 @1 x16 @5 x16 [ @3 x16 @6 x16 ]4 [ @1 x8 x16 @5 x16 @7 x8 @1 x16 @5 x16 @7 x8 @5 x16 x16 @7 x8 @1 x16 @5 x16 @1 x8 x16 @5 x16 @7 x8 @1 x16 @5 x16 @7 x16 x16 @1 x16 @7 x16 @3 x8 @5 x16 x16 ]3 @1 x8 x16 @5 x16 @7 x8 @1 x16 @5 x16 @7 x8 @5 x16 x16 @7 x8 @1 x16 @5 x16 @1 x8 x16 @5 x16 @7 x8 @1 x16 @5 x16 @7 x16 x16 @1 x16 @7 x16 @3 x8 @7 x8 [ @1 x8 x16 @5 x16 @7 x8 @1 x16 @5 x16 @7 x8 @5 x16 x16 @7 x8 @1 x16 @5 x16 @1 x8 x16 @5 x16 @7 x8 @1 x16 @5 x16 @7 x16 x16 @1 x16 @7 x16 @3 x8 @5 x16 x16 ]3 @1 x8 x16 @5 x16 @7 x8 @1 x16 @5 x16 @7 x8 @5 x16 x16 @7 x8 @1 x16 @5 x16 @1 x8 x16 @5 x16 @7 x8 @1 x16 @5 x16 @3 x8 @5 x16 @3 x16 @3 x16 @1 x16 @3 x16 x16 [ r1 ]2 r2. @3 x4 @8 x8. @5 x16 @3 x8 @5 x16 x16 @1 x8 x8 @3 x8 @5 x16 x16 @1 x8 @5 x16 x16 @3 x8 @5 x16 x16 @1 x8 x8 @3 x8 @5 x16 x16 @1 x8 x16 @5 x16 @7 x8 @1 x16 @5 x16 @7 x8 @5 x16 x16 @7 x8 @1 x16 @5 x16 @1 x8 x16 @5 x16 [ @7 x8 @1 x16 @5 x16 ]2 @3 x8 @5 x16 x16 @8 x8. @5 x16 @3 x8 @5 x16 x16 @1 x8 x8 @3 x8 @5 x16 x16 @1 x8 @5 x16 x16 @3 x8 @5 x16 x16 @8 x8 @3 x8 @3 x16 x16 @1 x8 [ [ @3 x16 @6 x16 ]2 r2. r1 ]3 [ @3 x16 @6 x16 ]2 r2. @6 x8 @3 x8 @6 x16 @3 x16 @6 x8 @3 x8 @6 x16 @3 x16 @6 x8 @3 x8 @8 x8. @5 x16 @3 x8 @5 x16 x16 @1 x8 x8 @3 x8 @5 x16 x16 @1 x8 @5 x16 x16 @3 x8 @5 x16 x16 @1 x8 x8 @3 x8 @5 x16 x16 @1 x8 @5 x16 x16 @3 x8 @5 x16 x16 @3 x8 @7 x8 @5 x8 @8 x8~ x8 @5 x16 x16 @3 x8 @5 x16 x16 @1 x8 x8 @3 x8 @5 x16 x16 @1 x8 @5 x16 x16 @3 x8 @5 x16 x16 @1 x8 x8 @3 x8 @5 x16 x16 @1 x8 @5 x16 x16 @3 x8 @7 x8 @3 x16 @5 x16 @3 x16 x16 x16 x16 @0 x8 
!5  O2 YLR @67 W0,100,0 d16 YL. ( d16 ) YLR d16 @68 W0,100,0 e16 e16 Y.R ( e16 ) YLR e16 @69 W0,100,0 f16 f16 YL. ( f16 ) YLR f16 @67 W0,100,0 g16 @69 W0,100,0 g16 @67 W0,100,0 a16 d8~ @67 W0,100,0 d16 YL. ( d16 ) YLR d16 d16 @68 W0,100,0 e16 Y.R ( e16 ) YLR e16 e16 @69 W0,100,0 f16 YL. ( f16 ) YLR f16 f16 @67 W0,100,0 g16 Y.R ( g16 ) YLR g16 g16 L O2 [ @67 W0,100,0 YLR d16 YL. ( d16 ) Y.R c16 YL. d16 YLR d16 YL. ( d16 ) Y.R d16 @68 W0,100,0 YL. e16 YLR e16 YL. ( e16 ) @67 W0,100,0 Y.R d16 @68 W0,100,0 YL. e16 @69 W0,100,0 YLR f16 YL. ( f16 ) @68 W0,100,0 Y.R e16 @69 W0,100,0 YL. f16 @67 W0,100,0 YLR g16 Y.R ( g16 ) YLR f16 YL. ( f16 ) YLR f16 ( Y.R f16 ) @68 W0,100,0 YLR e16 YL. ( e16 ) YLR e16 Y.R ( e16 ) @67 W0,100,0 YLR d16 YL. ( d16 ) YLR d16 Y.R ( d16 ) YLR d16 YL. ( d16 ) @67 W0,100,0 YLR d16 YL. ( d16 ) Y.R c16 YL. d16 YLR d16 YL. ( d16 ) Y.R d16 @68 W0,100,0 YL. e16 YLR e16 YL. ( e16 ) @67 W0,100,0 Y.R d16 @68 W0,100,0 YL. e16 @69 W0,100,0 YLR f16 YL. ( f16 ) @68 W0,100,0 Y.R e16 @69 W0,100,0 YL. f16 @67 W0,100,0 YLR g16 Y.R ( g16 ) @69 W0,100,0 [ YLR f16 YL. ( f16 ) YLR f16 Y.R ( f16 ) ]2 @67 W0,100,0 YLR g16 YL. ( g16 ) YLR g16 Y.R ( g16 ) @68 W0,100,0 YL. d16 Y.R e16 @67 W0,100,0 YLR d16 YL. ( d16 ) Y.R c16 YL. d16 YLR d16 YL. ( d16 ) Y.R d16 @68 W0,100,0 YL. e16 YLR e16 YL. ( e16 ) @67 W0,100,0 Y.R d16 @68 W0,100,0 YL. e16 @69 W0,100,0 YLR f16 YL. ( f16 ) @68 W0,100,0 Y.R e16 @69 W0,100,0 YL. f16 @67 W0,100,0 YLR g16 Y.R ( g16 ) YLR f16 YL. ( f16 ) YLR f16 ( Y.R f16 ) @68 W0,100,0 YLR e16 YL. ( e16 ) YLR e16 Y.R ( e16 ) @67 W0,100,0 YLR d16 YL. ( d16 ) YLR d16 Y.R ( d16 ) YLR d16 YL. ( d16 ) @67 W0,100,0 YLR d16 YL. ( d16 ) Y.R c16 YL. d16 YLR d16 YL. ( d16 ) Y.R d16 @68 W0,100,0 YL. e16 YLR e16 YL. ( e16 ) @67 W0,100,0 Y.R d16 @68 W0,100,0 YL. e16 @69 W0,100,0 YLR f16 YL. ( f16 ) @68 W0,100,0 Y.R e16 @69 W0,100,0 YL. f16 @67 W0,100,0 YLR g16 Y.R ( g16 ) @69 W0,100,0 YLR f16 Y.R ( f16 ) YLR f16 YL. ( f16 ) @68 W0,100,0 YLR a16 Y.R ( a16 ) YLR a16 YL. ( a16 ) @67 W0,100,0 YLR g16 Y.R ( g16 ) YLR g16 YL. ( g16 ) @69 W0,100,0 YLR f16 Y.R ( f16 ) ]3 @67 W0,100,0 YLR d16 YL. ( d16 ) Y.R c16 YL. d16 YLR d16 YL. ( d16 ) Y.R d16 @68 W0,100,0 YL. e16 YLR e16 YL. ( e16 ) @67 W0,100,0 Y.R d16 @68 W0,100,0 YL. e16 @69 W0,100,0 YLR f16 YL. ( f16 ) @68 W0,100,0 Y.R e16 @69 W0,100,0 YL. f16 @67 W0,100,0 YLR g16 Y.R ( g16 ) YLR f16 YL. ( f16 ) YLR f16 ( Y.R f16 ) @68 W0,100,0 YLR e16 YL. ( e16 ) YLR e16 Y.R ( e16 ) @67 W0,100,0 YLR d16 YL. ( d16 ) YLR d16 Y.R ( d16 ) YLR d16 YL. ( d16 ) @67 W0,100,0 YLR d16 YL. ( d16 ) Y.R c16 YL. d16 YLR d16 YL. ( d16 ) Y.R d16 @68 W0,100,0 YL. e16 YLR e16 YL. ( e16 ) @67 W0,100,0 Y.R d16 @68 W0,100,0 YL. e16 @69 W0,100,0 YLR f16 YL. ( f16 ) @68 W0,100,0 Y.R e16 @69 W0,100,0 YL. f16 @67 W0,100,0 YLR g16 Y.R ( g16 ) @69 W0,100,0 [ YLR f16 YL. ( f16 ) YLR f16 Y.R ( f16 ) ]2 @67 W0,100,0 YLR g16 YL. ( g16 ) YLR g16 Y.R ( g16 ) @68 W0,100,0 YL. d16 Y.R e16 @67 W0,100,0 YLR d16 YL. ( d16 ) Y.R c16 YL. d16 YLR d16 YL. ( d16 ) Y.R d16 @68 W0,100,0 YL. e16 YLR e16 YL. ( e16 ) @67 W0,100,0 Y.R d16 @68 W0,100,0 YL. e16 @69 W0,100,0 YLR f16 YL. ( f16 ) @68 W0,100,0 Y.R e16 @69 W0,100,0 YL. f16 @67 W0,100,0 YLR g16 Y.R ( g16 ) YLR f16 YL. ( f16 ) YLR f16 ( Y.R f16 ) @68 W0,100,0 YLR e16 YL. ( e16 ) YLR e16 Y.R ( e16 ) @67 W0,100,0 YLR d16 YL. ( d16 ) YLR d16 Y.R ( d16 ) YLR d16 YL. ( d16 ) @67 W0,100,0 YLR d16 YL. ( d16 ) Y.R c16 YL. d16 YLR d16 YL. ( d16 ) Y.R d16 @68 W0,100,0 YL. e16 YLR e16 YL. ( e16 ) @67 W0,100,0 Y.R d16 @68 W0,100,0 YL. e16 @69 W0,100,0 YLR f16 YL. ( f16 ) @68 W0,100,0 Y.R e16 @69 W0,100,0 YL. f16 @67 W0,100,0 YLR g16 Y.R ( g16 ) @69 W0,100,0 YLR f16 YL. ( f16 ) @68 W0,100,0 YLR e16 Y.R ( e16 ) @67 W0,100,0 YLR d8~ d4 ( YL. d8 Y.R d8 ) @67 W0,100,0 [ YLR d16 Y.R ( d16 ) ]8 @68 W0,100,0 [ YLR d16 Y.R ( d16 ) ]8 @69 W0,100,0 [ YLR c16 Y.R ( c16 ) ]5 @67 W0,100,0 YLR f16 Y.R ( f16 ) YLR a16 Y.R ( a16 ) > YLR c16 Y.R ( c16 ) O0 Y.R @40 W0,100,0 f4. a+24 > c24 f24 g2~ g1 g2 f2~ f2 d16 a32 ( a32 ) a16 > d32 ( d32 ) d16 a32 ( a32 ) a16 > d16 f4 < < < d8 e16 ( e16 ) e8 f16 ( f16 ) f8 g16 ( g16 ) g8 a16 ( a16 ) a8 a+8 c4. ( c8 ) YLR [ d16 ( d16 ) d16 e32 ( e32 ) e16 ( e16 ) e16 f32 ( f32 ) f16 ( f16 ) f16 g32 ( g32 ) g16 ( g16 ) a16 ( a16 ) ]4 O2 [ @67 W0,100,0 d16 YL. ( d16 ) YLR d16 @68 W0,100,0 e16 e16 Y.R ( e16 ) YLR e16 @69 W0,100,0 f16 f16 YL. ( f16 ) YLR f16 @67 W0,100,0 g16 @69 W0,100,0 g16 @68 W0,100,0 a16 e16 @67 W0,100,0 d16 ]4 @68 W0,100,0 [ YLR e8 Y.R e8 ]4 @69 W0,100,0 [ YLR f8 Y.R f8 ]4 @68 W0,100,0 YLR g8 Y.R g8 YLR g8 ( g8 ) g8 a8 ( a8 ) @67 W0,100,0 g8~ [ YLR g8 Y.R g8 ]4 YLR a8 ( a8 ) O1 @40 W0,100,0 a8 > e8 d8 a8 e8 b8 a8 > e8 < b8 > g8 d8 b8 a8 > e8 < 
!6  r2. r8 V1 O2 YLR @38 W0,100,72 a8~ a1 L O1 B4 Y.R @15 W0,100,66 c+16~ d8.~ d8~ d8~ d8~ d8~ ( d8 ) [ c+16~ d8.~ d8~ d8~ d8~ d8~ d8~ ( d8 ) ]7 r8 [ d16 ( d16 ) ]5 [ g16 ( g16 ) ]2 a16 ( a16 ) a16 ( a16 ) g16 ( g16 ) a16 ( a16 ) d16 ( d16 ) r2 > d16 ( d16 ) c16 ( c16 ) [ d16 ( d16 ) ]2 ( d8 ) < g16 ( g16 ) ( g8 ) a16 ( a16 ) [ g16 ( g16 ) ]2 [ a16 ( a16 ) ]2 [ d16 ( d16 ) ]4 [ g16 ( g16 ) ]2 [ a16 ( a16 ) ]2 ( a8 ) g16 ( g16 ) [ a16 ( a16 ) ]2 [ g16 ( g16 ) ]2 [ a16 ( a16 ) ]2 r2 [ g16 ( g16 ) ]2 [ a16 ( a16 ) ]2 ( a8 ) g16 ( g16 ) ( g8 ) a16 ( a16 ) a+8 a8 g8 a8~ a4 ( a4 ) O2 YL. @38 W0,100,72 r4 e16 r16 e16 e16 [ e16 ]8 [ e16 ]8 @40 W0,100,0 YLR e2~ e4. d8 c8 < a+8 a8 g8 f8 e8 d8 c8 < a+8 a8 g8 e8 d2. ( d8 ) O1 @15 W0,100,66 YL. [ c+16~ d8.~ d8~ d8~ d8~ d8~ d8~ ( d8 ) ]3 r8 O2 @38 W0,100,72 r4 e16 r16 e16 e16 [ e16 ]8 e16 f16 f+16 g16 g16 f+16 f16 e16~ e2 O0 @40 W0,100,0 YLR a8 > e8 c8 g8 e8 a8 f8 > c8 < a8 > e8 c8 g8 d8 e8 a8 > e8~ e4. d4. g4~ g8 f+16 f16 e2. O1 @15 W0,100,66 YL. [ g16 ( g16 ) ]2 [ a16 ( a16 ) ]2 ( a8 ) g16 ( g16 ) ( g8 ) a16 ( a16 ) a+8 a8 g8 a8~ a4 ( a4 ) r4. O2 YLR @40 W0,100,0 f16 g16 e8 f8 d4~ d16 ( d16 ) f16 g16 e8 f8 d16 ( d16 ) a16 a+16 e8 f8 d16 ( d16 ) a+16 > c16 < e8 f8 d16 ( d16 ) YL. > c8 d8 e8 f2. ( f8 ) < a16 a+16 g8 a8 f16 ( f16 ) f16 g16 c8 f8 d8 c8 d1~ d4. < a16 ( a16 ) a16 > d32 ( d32 ) d16 a32 ( a32 ) a16 > d32 ( d32 ) d16 e16 d16 c+16 c16 < b16 a+16 a16 g+16 g16 f4 a8 a+8 g8 a8 f16 ( f16 ) f16 g16 c8 f8 d8 c8 d8 ( d8 ) r2. r1 YLR O1 @15 W0,100,66 [ a16 ( a16 ) ]2 r2. r1 [ O1 @15 W0,100,66 YL. [ a16 ( a16 ) ]2 O0 @40 W0,100,0 Y.R e16 ( e16 ) e16 f32 ( f32 ) f16 ( f16 ) f16 g32 ( g32 ) g16 ( g16 ) a16 ( a16 ) d16 ( d16 ) d16 e32 ( e32 ) e16 ( e16 ) e16 f32 ( f32 ) f16 ( f16 ) f16 g32 ( g32 ) g16 ( g16 ) a16 ( a16 ) ]2 O3 YL. @38 W0,100,72 r8 [ e32 ( e32 ) ]6 d8 e16 ( e16 ) r4 r8 [ f32 ( f32 ) ]6 e8 f16 ( f16 ) r4 r8 [ g32 ( g32 ) ]6 g8 a16 ( a16 ) r8 @3 < g8~ g4 r2. > @38 W0,100,72 a1~ a1 
