;002 00312D2A
!1  T162 @3 E90,100,80,3,8 P22,8,4 EPX V4 O3 e16 f+16 g16 a16 e2. _V-2 e4 _V2 d4 c4 c4 < b4 b2. _V-2 b4 _V2 a4 g4 g4 f+4 @0 E80,100,70,4,16 EP-4,0,0,3,0 P22,9,3 V4 D-1 r16 Y.R O3 V4 > c4 < b8 a8 _V-2 b8 a8 _V2 g8 f+4 _V-2 f+8 _V2 e4 d+4 e4 EX f+8 ( f+8 ( f+8 ( f+4 ) f+8 _V2 f+8 _V-2 f+8 _V2 b8 _V-2 b8 ( b4. ) b8 _V2 b8 _V-2 b16 _V2 L @3 EPX E80,100,70,3,8 V4 O1 YLR [ r8 _V-2 b8 _V2 b8 _V-2 b8 _V2 b8 > d8 _V-2 < b8 > d8 _V2 < ]4 > [ r8 _V-2 c8 _V2 c8 _V-2 c8 _V2 c8 d8 _V-2 c8 d8 _V2 ]2 < r8 _V-2 a8 _V2 a8 _V-2 a8 _V2 a8 > c8 _V-2 < a8 > c8 _V2 < r8 _V-2 b8 _V2 b8 _V-2 b8 _V2 b8 > d+8 _V-2 < b8 > d+8 _V2 < [ r8 _V-2 b8 _V2 b8 _V-2 b8 _V2 b8 > d8 _V-2 < b8 > d8 _V2 < ]4 > [ r8 _V-2 c8 _V2 c8 _V-2 c8 _V2 c8 d8 _V-2 c8 d8 _V2 ]2 < r8 _V-2 a8 _V2 a8 _V-2 a8 _V2 a8 > c8 _V-2 < a8 > c8 _V4 r8 _V-2 d+8 _V2 d+8 _V-2 d+8 _V2 d+8 f+8 _V-2 < d+8 @@2,3,0 EX EP-4,0,0,3,0 P22,9,3 O2 V4 YL. B1 D-1 r16. > d2 EP-6,0,-24,3,16 d4. EP-4,0,0,3,0 < f8 e8 _V-2 f8 _V2 EP0,0,20,11,0 e4 EP-4,0,0,3,0 _V-2 b8 _V2 > f4 g8 e8~ e4. _V-2 e8 _V2 e4 d8 c8~ c2 _V-2 c8 _V2 e8 f+8 g8~ g4. g4~ _V-2 @0 f24 e24 d24 _V2 @@2,3,0 < EP0,0,-18,9,0 b4 EP0,0,20,11,0 _V-2 b8 _V2 a4 EP-4,0,0,3,0 _V-2 > c+8 _V2 g4 _V-2 e8 _V2 f+8~ f+2.~ f+8 _V-2 f+8 _V2 EP0,0,-12,7,16 E90,100,20,3,22 f+6 _V-2 f+6 ( f+6 ( f+8 r32 D0 @3 EPX E80,100,70,3,8 YLR V4 O3 a8 b8 _V2 > c2. _V-2 d8 e8 f+4 e4 d+4 c4 < b2 b8 > c8 _V-4 < b8 _V4 g8~ g4. _V-4 g4 < _V2 e8 _V-2 e8 _V2 < b8~ b8. _V-2 b16 Y.R @@2,3,0 E80,100,70,4,16 EP-1,0,0,1,0 P22,9,2 O3 V8 e16 f+16 g16 f+16 g4 _V-4 g8 @3 EPX E80,100,70,3,8 YLR V4 O2 c8~ c8. _V-2 c16 YL. @@2,3,0 E80,100,70,4,16 EP-1,0,0,1,0 P22,9,2 O3 V8 e16 f+16 g16 f+16 g4. _V-4 g8 Y.R _V2 < [ b8~ a+8 b8 b4 > c8 < b8 > _V-2~ c8~ _V2 YL. ]2 
!2  @@2,2,0 E80,100,70,4,16 EP-8,0,0,3,0 P22,9,8 V6 r4 O2 r4 g4 f+8. g8. e8 < b1 _V-4 b4 _V4 > g4 f+8. g8. e8 < b4 O3 @@2,2,0 E80,100,70,4,16 EP-4,0,0,3,0 P22,9,3 V8 c4 e4 _V-2 b4 _V2 > c4 < b8 a8 _V-4 b8 _V-2 a8 _V6 g8 f+4 _V-4 f+8 _V4 e4 d+4 e4 EX f+8 V6 @0 f+8 V4 f+8 V2 f+4 V4 f+8 V6 f+8 _V-4 f+8 _V6 b8 _V-4 b8 _V-2 b4. _V4 b8 _V2 b8 _V-6 b8 _V6 L @3 EPX E80,100,70,3,8 V6 O2 [ r8 _V-2 e8 _V2 e8 _V-2 e8 _V2 e8 f+8 _V-4 e8 f+8 _V4 ]2 [ r8 _V-2 d8 _V2 d8 _V-2 d8 _V2 d8 f+8 _V-4 d8 f+8 _V4 ]2 [ r8 _V-2 e8 _V2 e8 _V-2 e8 _V2 e8 f+8 _V-4 e8 f+8 _V4 ]2 r8 _V-2 c8 _V2 c8 _V-2 c8 _V2 c8 e8 _V-4 c8 e8 _V4 @@2,2,0 E80,100,70,4,16 EP-4,0,0,3,0 P22,9,3 V6 O3 b8 _V-2 EPX EX PX @0 b8 _V-2 b4. _V2 b8 _V2 b8 _V-4 b8 _V4 @@2,2,0 E80,100,70,4,16 EP-8,0,0,3,0 P22,9,8 [ V8 O2 r4 b4 f+8. g8. e8 < b2. _V-6 b4 _V4 ]2 a2. _V-4 EPX P0,9,8 @0 EX a4 _V2 a8 _V2 a8 @@2,2,0 E80,100,70,4,16 EP-4,0,0,3,0 P22,9,3 V6 O3 b4 a4 g4 f+2 e2 _V-2 b2~ b8 _V-2 @@2,3,0 E80,100,50,4,16 EP-4,0,0,3,0 P22,9,3 O2 V8 B1 b8 >~ @0 c8 @@2,3,0 EP-4,0,0,8,0 d2 E80,100,30,4,29 EP-6,0,-4,3,16 d4. EP-4,0,0,3,0 < f8 e8 _V-6 f8 _V6 EP0,0,20,11,0 e4 EP-4,0,0,3,0 _V-2 b8 _V2 > f4 g8 e8~ e4. _V-6 e8 _V6 e4 d8 c8~ c2 _V-6 c8 _V6 e8 f+8 g8~ g4. g4~ _V-2 @0 f24 e24 d24 @@2,3,0 _V2 < EP0,0,-14,11,0 b4 _V-6 b8 _V6 EP0,0,14,11,0 a4 EP-4,0,0,3,0 _V-2 > c+8 _V2 g4 _V-2 e8 _V2 f+8~ f+2.~ f+8 _V-6 f+8 _V6 EP0,0,-12,7,16 E90,100,20,3,22 f+6 _V-4 f+6 ( f+6 ( f+6 r12 @3 EPX E80,100,70,3,8 V6 O3 f+8 g8 _V2 a2. _V-2 b8 > c8 d4 c4 < b4 a4 g2 g8 a8 _V-4 g8 _V4 b8~ b4. _V-4 b4. _V-2 b8 @3 EPX E80,100,70,3,8 YLR V4 O2 g8~ g8. _V-2 g16 @@2,3,0 E80,100,50,4,16 P22,9,3 O3 V6 r8 EP0,0,-14,5,1 b8 b8 EP-4,0,0,3,0 _V-2 b16 _V-2 a16 EP0,0,-1,5,1 _V4 b8 EP-2,0,0,3,0 b8~ b4 EP-4,0,-2,1,3 a4. > EP-2,0,0,3,0 c8 EP-2,0,0,3,0 d8 _V-4 d8 @3 EPX E80,100,70,3,8 YLR V4 O2 b8 _V-2 Y.R b8 _V2 YLR b8 _V-2 YL. b8 _V2 YLR b8 _V-2 Y.R b8 _V2 YLR b12 @@2,3,0 E80,100,50,4,16 P22,9,3 O3 V6 EP0,0,-2,8,0 g6 EP-3,0,0,3,0 b8 _V-4 f+8 _V4 g4 EPX @0 EX P0,9,3 V4 g4 V2 g8 f+8 
!3  `9F00 `AE00 @A3 E100,70,70,4,0 P22,9,12 r4 O1 V3 e1~ e2. e4~ V3 c1 <~ c2. V2 c4 V3 > [ V3 f8 V2 f8 ]4 [ V3 f+8 V2 f+8 ]4 [ V3 b8 V2 b8 ]4 < > V3 b2. V2 b4 L O1 [ V3 e8 e8 V1 e8 V2 e8 V3 e8 < b8 > e8 V1 e8 ]2 V3 d8 d8 V1 d8 V2 d8 V3 d8 < b8 > d8 V1 d8 V3 d8 d8 V1 d8 V3 d8 V2 d8 < V3 b8 > d8 V1 d8 V3 c8 c8 V1 c8 V3 c8 V2 c8 < V3 g8 > c8 V1 c8 < V3 a8 a8 V1 a8 V3 a8 V2 a8 V3 e8 a8 V1 a8 V3 f8 f8 V1 f8 V3 f8 V2 f8 V3 a8 > c8 V1 c8 < V3 b8 b8 V1 b8 V3 b8 V2 b8 V3 f+8 b8 V1 b8 > [ V3 e8 e8 V1 e8 V3 e8 V2 e8 < b8 > e8 V1 e8 ]2 V3 d8 d8 V1 d8 V3 d8 V2 d8 < b8 > d8 V1 d8 V3 d8 d8 V1 d8 V3 d8 V2 d8 < V3 b8 > d8 V1 d8 V3 c8 c8 V1 c8 V3 c8 V2 c8 < V3 g8 > c8 V1 c8 < V3 a8 a8 V1 a8 V3 a8 V2 a8 V3 e8 a8 V1 g8 V3 f+8 f+8 V1 f+8 V3 f+8 V2 f+8 V2 > c8 f+8 V1 f+8 < < V3 b8 b8 V1 b8 V3 b8 V2 b8 V3 f+8 b8 V1 b8 [ V3 b8 V2 b8 V1 b8 ]2 > V3 f8 V2 f8 [ V3 e8 V2 e8 V1 e8 ]2 < V3 b8 V2 b8 [ V3 a8 V2 a8 V1 a8 ]2 V3 e8 V2 e8 V3 g8 V2 g8 V1 g8 V3 g8 V2 g8 V3 > e8 g8 V2 g8 [ V3 c+8 V2 c+8 V1 c+8 ]2 < V3 g8 V2 g8 V3 f+8 V2 f+8 V1 f+8 V3 f+8 V2 f+8 V3 > c+8 g8 V2 g8 < V3 b8 V2 b8 V1 b8 V3 b8 V2 b8 V3 b8 f+8 V2 f+8 V3 b8 V2 b8 V1 b8 V3 b8 V2 b8 V3 f+8 b8 V2 b8 [ V3 f+8 V2 f+8 V1 f+8 ]2 > V3 c8 V2 c8 < V3 b8 V2 b8 V1 b8 V3 b8 V2 b8 V3 > f+8 > c8 V2 c8 < [ V3 e8 V2 e8 V1 e8 H-1 ]2 H0 V3 d8 V2 d8 V3 c+8 V2 c+8 V1 c+8 V3 c+8 V2 c+8 V3 < g8 > V2 c+8 V3 c8~ c4 V2 c8 V3 < f8 > c8 < e8 g8 f8~ f4 V2 f8 V3 a8 > c8 f8 c8 < V2 g8 [ V3 b8 V2 b8 V1 b8 ]2 V3 f+8 V2 f+8 [ V3 b8 V2 b8 V1 b8 ]2 V3 b8 V2 b8 
!4  r4 [ @8 x4. @6 x4 x4~ x4 x4~ x4 x4~ x8 ]2 @8 x4 [ @5 x8 @6 x8 ]3 [ @5 x8 @6 x8 ]7 @5 x8 @7 x8 @8 x4 @6 x4 x4 x8 @7 x8 L @8 x4. @6 x4 x4 x8 [ [ x8 x16 x16 ]2 x16 x16 x8 x8 x16 x16 ]6 [ x8 x16 x16 ]2 x16 x16 x8 @7 x4 @8 x4. @6 x4 x4 x8 [ [ x8 x16 x16 ]2 x16 x16 x8 x8 x16 x16 ]6 @5 x8 @6 x8 @7 x4 @8 x4~ x8 @6 x8 @8 x4 [ @5 x8 @6 x8 ]3 [ [ @5 x8 @6 x8 ]4 ]6 @5 x8 @6 x8 @7 x4. x4 x8 @8 x4 [ @5 x8 @6 x8 ]3 [ @5 x8 @6 x8 ]11 @7 x8 @8 x8~ x4. @6 x4 x8 @5 x8 @8 x8~ x4. @6 x4 x4 x8 @8 x4 [ @5 x8 @6 x8 ]5 @7 x4. @6 x8 
!5  r4 V1 @0 c4 @9 W0,41,34 V0 O1 g4 f+8. g8. e8 < V0 b4. O2 @2 V1 Y.R c64 c32.~ c8. YLR < g+8 V1 YL. @2 V1 f64 f32.~ f8. O2 YLR @0 V1 c4 @9 W0,41,34 V0 O1 g4 f+8. g8. e8 < V0 b8 O2 @2 V1 Y.R c64 c32.~ c8.~ c8 YLR < g+64 g+32.~ g+8 > Y.R @2 V1 Y.R c8. V1 YL. @2 V1 < f64 f32.~ f16 [ YLR O2 @0 V1 c4 @1 c4 @0 c8 c8 @1 c4 ]3 @0 c2 @1 V0 c16 V1 c16 @2 YL. < f8 > YLR @1 c8 c8 L [ V1 @0 c4 @1 c4 [ @0 c8 c8 @1 c4 ]2 @0 c4 @1 c4 ]3 V1 @0 c4 @1 c4 [ @0 c8 c8 @1 c4 ]2 @0 c8 c8 @1 c8 c16 c16 [ V1 @0 c4 @1 c4 [ @0 c8 c8 @1 c4 ]2 @0 c4 @1 c4 ]3 V1 @0 c4 @1 c4 @0 c8 c8 @1 c4 @0 c4 @1 c4 @0 c8. @1 V0 c16 V1 c8 < YL. @2 g+8 > YLR V1 [ @0 c4 @1 c8 @0 c4. @1 c4 ]7 @0 c4 @1 c8 @0 V0 c8 V1 c8. @1 V0 c16 V1 c8 @2 < YL. f8 > YLR [ @0 c4 @1 c8 @0 c4. @1 c4 ]3 @0 c4 @1 c8 @0 c4. @1 c8 @0 c8~ c4 @1 c8 @0 V0 c8 V1 c4 @1 c8 @0 c8~ c4 @1 c8 @0 V0 c8 V1 c4 @1 c4 @0 c4 @1 c8 @0 V0 c8 V1 c4 @1 c8 @0 V0 c8 c8 V0 c8 V1 @1 c4 @0 c8. @1 V0 c16 V1 c16 c16 @2 < YL. f8 YLR > 
!6  @43 V1 O1 W0,99,0 e16 f+16 g16 a16 b8 V0~ b8~ b2. V1 b8 a8 a8 g8 g8 V0 f+8 V1 e16 f+16 g16 a16 b8 V0~ b8~ b2. V1 > d8 c8 c8 < b8 b8 a8 a8 g8 V1 a2 V0 a4 f+16 g16 g+16 a16 V1 a+2 V0 a+4 V1 a+8 r8 @40 W0,99,0 O2 b8 a8 g8 f+8 f+8 e8 d+8 d16 V0 c16 V1 < b2. > g8 f+8 L V0 r8 < e8 e8 e8 e8 f+8 V1 b8 > e8 V0 r8 < e8 e8 e8 e8 f+8 V1 > g8 f+8 V0 r8 < d8 d8 d8 d8 f+8 V1 b8 > b8 V0 r8 < d8 d8 d8 d8 f+8 V1 > a8 g8 V0 r8 < e8 e8 e8 e8 f+8 V1 > f+8 e8 V0 r8 < e8 e8 e8 e8 f+8 V1 > > d8 c8 < V0 r8 < c8 c8 c8 c8 e8 V1 > f+8 g8 V0 r8 < d+8 d+8 d+8 d+8 f+8 V1 > g8 f+8 V0 r8 < e8 e8 e8 e8 f+8 V1 b8 > e8 V0 r8 < e8 e8 e8 e8 f+8 V1 > g8 f+8 V0 r8 < d8 d8 d8 d8 f+8 V1 b8 > b8 V0 r8 < d8 d8 d8 d8 f+8 V1 > a8 g8 V0 r8 < e8 e8 e8 e8 f+8 V1 > > f+8 e8 < V0 r8 < e8 e8 e8 e8 f+8 V1 > f+8 > c8 < V0 r8 < c8 c8 c8 c8 e8 V1 > a8 a+8 V1 b4 V0 b2~ b8 r8 O1 V0 a1 g+1 b1 a1 b1 a+1 b8 < V1 b8 a8 a+8 b8 > c8 d8 e8 V1 f+8 V0 f+8 e8 f8 V1 f+8 g8 a8 b8 > c4 V0 c8 < V1 g8 f+4 e4 d+2. V0 e8 f+8 V1 f+4 e4 < b8 V0 b8 V1 a8 V1 g8~ g2 V0 g8 V1 > V1 g8 V0 g8 V1 e8~ e2. V0 e8 V1 e8~ e2. V0 e4 V1 [ f+8 V0 Y.R f+8 YLR V1 f+8 YL. V0 f+8 YLR V1 ]3 f+8 V0 Y.R f+8 V1 @40 W0,99,0 O2 YLR g8 f+8 
