;003 00313AE4
!1  T120 L @1 O2 V5 E90,100,90,3,2 [ YLR c32 _V-3 Y.R c32 YLR _V3 c32 _V-3 YL. c32 _V3 YLR d32 _V-3 Y.R c32 _V3 YLR c32 _V-3 YL. c32 _V3 d+32 _V-3 Y.R c32 _V3 YLR c32 _V-3 YL. d+32 _V3 YLR f32 _V-3 Y.R c32 _V3 YLR c32 _V-3 Y.R c32 _V3 ]4 [ YLR d32 _V-4 Y.R d32 YLR _V4 d32 _V-4 YL. d32 _V4 YLR d+32 _V-4 Y.R d32 _V4 YLR d32 _V-4 YL. d+32 _V4 f32 _V-4 Y.R d32 _V4 YLR d32 _V-4 YL. f32 _V4 YLR g32 _V-4 Y.R d32 _V4 YLR d32 _V-4 Y.R d32 _V4 ]2 Y.R @1 O2 E100,100,60,2,2 V5 D3 r32 g16 f+16 f16 e16 d+16 d16 c+16 c32 < YLR b16 a+16 a16 g+16 g16 f+16 f16 e16 YLR D0 @@0,2,1 O2 V6 E100,40,80,2,2 c8. Y.R c8. YL. c8 YLR c8. Y.R c8. YL. c8 YLR d+8. Y.R d+8. YL. d+8 YLR f8. Y.R f8. YL. f8 EX @@1,1,3 O2 V5 YL. D2 r16. g8. f8. d+16 _V-3 d+16 _V3 Y.R d8. d+8. c16 _V-3 c16 _V3 YL. d8. d+8. a+16 _V-3 a+16 _V3 Y.R g8. f8. d+32 D0 @@0,2,1 O2 V6 E100,40,80,2,2 YLR c8. Y.R c8. YL. c8 YLR c8. Y.R c8. YL. c8 YLR d+8. Y.R d+8. YL. d+8 YLR f8. Y.R f8. YL. f8 EX @@1,1,3 O2 V5 YL. D2 r16. g8. f8. d+16 _V-3 d+16 _V3 Y.R d8. d+8. c16 _V-3 c16 _V3 YL. d8. d+8. a+16 _V-3 a+16 _V3 Y.R f8. g8.~ g32 @1 V5 D0 [ YLR g+32 > c32 < Y.R g+32 > c32 < YL. g+32 > c32 < Y.R g+32 > c32 < ]4 YLR V6 @@1,2,1 O2 c8. < a+8. g+16 _V-4 YL. g+16 _V2 YLR g8. g+8.~ g+16 YL. _V-2 g+16 _V2 YLR @1 V5 O2 [ YLR g+32 b32 Y.R g+32 b32 YL. g+32 b32 Y.R g+32 b32 ]4 YLR V6 @@1,2,1 O2 d8. c8. < a+16 _V-4 YL. a+16 _V2 YLR a8. g8. f16 YL. _V-2 f16 _V2 YLR @1 V5 D0 [ YLR g+32 > c32 < Y.R g+32 > c32 < YL. g+32 > c32 < Y.R g+32 > c32 < ]4 P28,7,17 V7 [ YLR g+16 Y.R g+16 ]4 [ YLR g16 Y.R g16 ]2 P28,18,3 V5 @1 O2 Y.R EP-2,0,0,2,2 a24 b24 > c24 d24 d+24 f24 YLR < V6 @0 E100,100,70,18,2 g2 a2 g+2 a2 > c2 < g+2 @@3,3,2 E100,100,80,2,2 [ a+16 ]4 YL. [ a16 ]4 Y.R [ g+16 ]4 YL. [ g16 ]4 @3 YLR V6 O1 r4 a+24 > c24 c+24 d+24 f24 f+24 g+4. a+8 < a+2 > c+8 c8 < a8 a+8 V6 E100,100,70,18,2 EPX P42,18,5 @@1,2,1 O2 d+2 c+8. d+8. e16 _V-4 e16 _V4 f2 d8. e8. f16 _V-4 f16 _V4 f+2 d+8. f8. f+16 _V-4 f+16 _V4 D2 > d8. _V-4 d16 _V4 d16 c16 < b16 g16~ g2 
!2  L @@1,2,0 O4 V7 YLR P12,18,3 c8 r8 _V-4 Y.R c8 _V-2 c8 YL. _V2 c8 _V-2 c8 _V2 Y.R c8 _V-2 c8 _V6 YLR [ c32 _V-4 c32 _V4 ]2 r8 _V-4 Y.R c8 _V-2 c8 YL. _V2 c8 _V-2 c8 _V2 Y.R c8 _V-2 c8 _V6 < YLR f8 r8 _V-4 Y.R f8 _V-2 f8 _V6 YLR O3 P23,18,5 EP-20,-10,0,2,2 f+8. g16~ g4 EPX @1 O1 E100,100,60,2,2 V4 g16 f+16 f16 e16 d+16 d16 c+16 c16 < _V2 b16 a+16 a16 g+16 g16 f+16 f16 e16 @@1,2,1 O3 V7 P65,14,10 E100,100,80,18,4 g8. f8. d+16 _V-5 d+16 _V5 d8. d+8. c16 _V-5 c16 _V5 d8. d+8. f16 _V-5 f16 _V5 d+8. d8. < a+16 _V-5 a+16 _V5 @@1,1,3 O2 YLR V6 g8. f8. d+16 _V-4 d+16 _V4 d8. d+8. c16 _V-4 c16 _V4 d8. d+8. a+16 _V-4 a+16 _V4 g8. f8. @@1,2,1 V7 O3 c32 d32 d+32 f32 P65,14,10 g8. f8. d+16 _V-5 d+16 _V5 d8. d+8. c16 _V-5 c16 _V5 d8. d+8. f16 _V-5 f16 _V5 d+8. d8. < a+16 _V-5 a+16 _V5 @@1,1,3 O2 YLR V6 g8. f8. d+16 _V-4 d+16 _V4 d8. d+8. c16 _V-4 c16 _V4 d8. d+8. a+16 _V-4 a+16 _V4 f8. g8. @@1,2,1 V6 O3 d32 d+32 f32 g32 YL. r4. g+16 > c16 f16. g32 g+4. YLR O2 V6 g+8. g8. f16 _V-4 YL. f16 _V4 YLR e8. f8.~ f16 YL. _V-4 f16 _V4 V6 O1 YL. r4 r16 g+16 b16 > e16 g+16 b16 > e16 g+16~ g+4 YLR O2 V6 a+8. a8. g16 _V-4 YL. g16 _V4 YLR f8. d+8. d16 YL. _V-4 d16 _V4 YLR @1 c4 _V-4 c16 _V3 < d+16 g+16 > c16 d+8.~ d+32 g32 g+4 > P28,9,6 [ YLR c16 YL. c16 ]4 < [ YLR b16 YL. b16 ]2 V8 P37,18,3 @1 EP-2,0,0,2,2 O2 YLR a24 b24 > c24 d24 d+24 f24 E100,100,80,2,2 g8. f8. d+16 _V-4 YLR d+16 _V4 YLR d8. d+8. c16 _V-4 YLR c16 _V4 YLR a+8. g+8. g16 _V-4 YLR g16 _V4 YLR f+8. > d8. < f+16 _V-4 YLR f+16 _V4 YLR g+8. g8. f16 _V-4 YLR f16 _V4 YLR e8. f8. g16 _V-4 YLR g16 _V4 YLR E100,100,60,83,9 f2.~ f8 V8 O3 P23,18,3 E100,100,80,2,2 r32 c32 c+32 d+32 f2 d+8. c+8~ c+32. _V-2 d+64 _V2 g+8 f+8. f8. d+8 c+4 < V8 E100,100,80,37,9 EPX P32,18,5 @@1,2,1 B2 c+8~ > c16 _V-4 c16 _V4 c2 < a+8. > c8. c+16 _V-4 c+16 _V4 d2 < b8. > c+8. d16 _V-4 d16 _V4 d+2 c8. c+8. d+16 _V-4 d+16 _V4 f8. _V-4 f16 _V4 f16 d+16 d16 P46,18,5 g16~ g2 
!3  L `9F00 `AE00 @A3 V3 O1 YLR c8 O2 @A0 @B1 V2 @~1 d16 c16 d+16 c16 f16 c32 V1 c32 V2 [ c32 V1 c32 V2 ]2 d16 c16 d+16 c16 f16 c32 V1 c32 O1 @A3 [ V3 c32 V1 c32 ]2 O2 @A0 @B1 V2 @~1 d16 c16 d+16 c16 f16 c32 V1 c32 [ c32 V3 c32 V1 ]2 V2 d16 c16 d+16 c16 f16 c32 V1 c32 @~X O1 @A3 V2 d8 O2 @A0 @B1 @~1 d+16 d16 f16 d16 g16 d32 V1 d32 @~X O1 @A0 V3 f+8. g16~ g4 < r2. [ g32 r32 ]4 O1 @A3 E100,100,60,2,6 [ [ c16 ]2 c16 > [ c16 ]2 c16 < [ c16 ]2 ]8 [ [ c16 ]2 c16 > [ c16 ]2 c16 < [ c16 ]2 ]8 [ c+8. c+8. c+8 ]2 [ f8. f8. f8 ]2 [ e8. e8. e8 ]2 [ g8. g8. g8 ]2 [ g+8. g+8. g+8 ]2 a8. a8. a8 g8. g8. g8 [ c8. c16 r16 c16 r16 c16 c16 c16 r16 c16 r16 c16 r16 c16 ]2 f8. f16 r16 f16 r16 f16 c+16 c+16 r16 c+16 r16 c+16 r16 c+16 < a+8. a+16 r16 a+16 r16 a+16 a+16 a+16 r16 a+16 r16 a+16 r16 a+16 > [ d+16 d+16 [ r16 d+16 ]3 ]2 < [ a+16 a+16 [ r16 a+16 ]3 ]2 [ f+16 f+16 [ r16 f+16 ]3 ]2 [ g+16 g+16 [ r16 g+16 ]3 ]2 [ a16 a16 [ r16 a16 ]3 ]2 b16 b16 [ r16 b16 ]3 g16 g16 [ r16 g16 ]3 EX 
!4  L @8 x8 r8 @5 x4 x4 x4 @8 x16 x16 r8 @5 x4 x4 x4 @8 x8 r8 @5 x4 @8 x8 r16 x16 r4 @6 x4 r2 x8 @5 x8 [ @8 x8 @5 x8 [ @6 x8 @5 x8 ]15 ]2 @8 x8 @5 x8 [ @6 x8 @5 x8 ]23 @8 x8 @5 x8 [ @6 x8 @5 x8 ]15 [ @6 x8 @5 x8 ]21 @6 x8 @7 x8 r2 
!5  L V1 O2 @8 c4 ( Y.R c4 YL. c4 r4 ) YLR c16 c8. ( Y.R c4 YL. c4 r4 ) YLR < a+4 ( Y.R a+4 ) YLR O2 @14 W0,45,10 g+8. a+16~ a+4 V1 @26 O2 Y.R g16 f+16 f16 e16 d+16 d16 c+16 c16 YLR @15 g+16 g16 f+16 f16 e16 d+16 d16 c+16 [ @0 c8 @1 c16 @0 c16 r16 ( c16 ) @1 c8 ]8 [ @0 c8 @1 c16 @0 c16 r16 ( c16 ) @1 c8 ]7 @0 c16 @1 ( c16 ) c16. ( c32 ) c16. ( c32 ) c8 [ [ @0 c8. c8. @1 c8 ]3 @0 c8. c8 c16 @1 c8 ]2 @0 c8. c8. @1 c8 @0 c8. c8 c16 @1 c8 @0 c16 @2 d16 d16 c16 < a+16 a16 g16 f16 @4 O1 [ g16 ]8 O2 [ @0 c8 @1 c16 @0 c16 r16 ( c16 ) @1 c8 ]4 [ @0 c8 @1 c16 @0 c16 r16 ( c16 ) @1 c8 ]4 [ @0 c8 @1 c16 @0 c16 r16 ( c16 ) @1 c8 ]11 @0 c16 @2 d16 d16 c16 < a+16 a16 g16 f16 
!6  L V1 O2 @4 c8 V0 YL. c8 Y.R c8 YLR V1 c16 V0 c16 V1 c16 V0 c16 c16 c16 YL. c8 Y.R c8 YLR V1 c16 c16 YL. V0 c8 Y.R c8 YLR V1 c16 c16 c16 V0 c16 c16 c16 c16 c16 YL. c16 Y.R c16 YLR V1 c8 @2 d24 c24 < a+24 g8 g8 @0 O2 c8. c16 r4 @26 O2 YL. r64 D3 g16 f+16 f16 e16 d+16 d16 c+16 c32. D0 YLR @2 O2 r16 d16 c16 < a+16 @4 O1 g16 V0 g16 g16 g16 @3 O1 V0 g8. Y.R g8. YL. g8 YLR a8. Y.R a8. YL. a8 YLR g+8. Y.R g+8. YL. g+8 YLR a+8. Y.R a+8. YL. a+8 YLR g8. Y.R g8. YL. g8 YLR a8. Y.R a8. YL. a8 YLR g+8. Y.R g+8. YL. g+8 YLR a+16 @4 O2 V0 c16 V1 c16 c16 c16 V0 c16 c16 c16 V1 c8. @3 O1 V0 Y.R g8. YL. g8 YLR a8. Y.R a8. YL. a8 YLR g+8. Y.R g+8. YL. g+8 YLR a+8. Y.R a+8. YL. a+8 YLR g8. Y.R g8. YL. g8 YLR a8. Y.R a8. YL. a8 YLR g+8. Y.R g+8. YL. g+8 YLR a+8. Y.R a+8. @3 W0,33,6 O2 YLR V1 d32 d+32 f32 g32 g+8. g8. f16 ( f16 ) e8. f16~ f4 @43 W0,91,11 g+4. Y.R c24 < a+24 > c24 < g+2 YLR @3 W0,33,6 O2 g+8. f+8. e16 ( e16 ) d+8. c+8. < b16 ( b16 ) a+2 @43 W0,91,11 O2 Y.R d2 YLR @3 W0,33,6 O2 c4 ( c16 ) < d+16 g+16 > c16 d+8.~ d+32 g32 g+4 a2 a+4 @40 W0,95,1 O1 Y.R a24 b24 > c24 d24 d+24 f24 YLR g8. f8. d+16 ( YL. d+16 ) YLR d8. d+8. c16 ( YL. c16 ) YLR a+8. g+8. g16 ( YL. g16 ) YLR f+8. > d8. O2 @4 YLR V0 c32 c32 V1 c32 c32 O2 @40 W0,95,1 YLR g+8. g8. f16 ( YL. f16 ) YLR e8. f8. g16 ( YL. g16 ) @27 O1 YLR f16 V0 f16 f16 f16 YL. [ f16 ]4 Y.R [ f16 ]4 YL. f16 f16 YLR O2 @3 ( r32 c32 c+32 d+32 ) f8. ( YL. f8. Y.R f8 YLR ) d+8. c+8~ c+32. ( d+64 ) g+8 f+8 ( YL. f+16 YLR ) f8 ( Y.R f16 YLR ) d+8 c+8 ( YL. c+8 r4 YLR V1 d+8 d+16 c+16 r16 d+16 d+16 c+16 @43 W0,91,11 O1 a+8. > c8. c+8 @3 O2 f8 f16 e16 r16 f16 f16 e16 @43 W0,91,11 O1 b8. > c+8. d8 @3 O2 f+8 f+16 f16 r16 f+16 f+16 f16 @43 W0,91,11 O2 c8. c+8. d+8 @3 O2 f16 f16 r16 f16 r16 f16 r16 g16~ g8 @4 O1 g16 g16 g16 V0 g16 g16 V1 g16 
