;004 003147C6
!1  T165 V6 O1 @0 E100,90,50,13,33 [ [ Y.R a+32 _V-2 a+32 _V2 YLR a+32 _V-2 a+32 _V2 YL. a+32 _V-2 a+32 _V2 YLR a+32 _V-2 a+32 _V2 ]4 H> ]4 H< H< H< H< V4 O1 YLR @2 E100,100,100,0,0 a+2 b2 > c2 c+2 c+2 d+2 f+2 g+2 L V7 O1 YLR V6 @0 E95,100,90,20,33 P12,12,4 r4 a+4 > d+4. d8 < a+4 f2~ f8 _V-3 f8 _V3 r4 a+4 > f4. d+8 g+2. a+4 f1~ _V-3 f4 _V3 d+4 < a+4. > d+8 f1 _V-3 f4 _V3 d+4 < a+4. > d+8 f1~ f2. _V-3 f4 _V3 YL. _V-3 < r4 g+4 g2~ g2 b2 > _V3 YLR r4 < a+4 > c4 d+4 c+1 c1 < g+2. _V-3 g+4 _V3 r4 < a+4 > d+4. d8 < a+4 f2~ f8 _V-3 f8 _V3 r4 a+4 > f4. d+8 g+2. _V-3 g+4 _V3 r4 a+4 > d+4. d8 < a+4 f2~ f8 _V-3 f8 _V3 r4 a+4 > f4. d+8 g+1 a+8 _V-3 a+8 _V3 V7 O2 @2 E95,100,90,20,33 PX Y.R c8 YL. c8 < Y.R b8 YL. b8 > Y.R d+8 YL. d+8 [ _V-2 Y.R d+8 _V-2 YL. d+8 _V4 Y.R c8 YL. c8 < Y.R b8 YL. b8 > Y.R d+8 YL. d+8 ]3 
!2  V4 O0 YLR @2 E100,100,100,0,0 D1 a+1~ a+1~ a+1~ a+1 D0 > > d2 d+2 e2 f2 f+2 g+2 a+2 > c2 L V6 O2 YLR P12,11,3 @1 E95,100,90,20,33 r4 a+4 > d+4. d8 < a+4 f2~ f8 _V-3 f8 _V3 r4 a+4 > f4. d+8 g+2. a+4 f1~ _V-3 f4 _V3 d+4 < a+4. > d+8 f1 _V-3 f4 _V3 d+4 < a+4. > d+8 f1~ f2. _V-3 f4 _V3 YL. _V-3 < r4 g+4 g2~ g2 b2 > _V3 YLR r4 < a+4 > c4 d+4 c+1 c1 < g+2. _V-3 g+4 _V3 r4 < a+4 > d+4. d8 < a+4 f2~ f8 _V-3 f8 _V3 r4 a+4 > f4. d+8 g+2. _V-3 g+4 _V3 r4 a+4 > d+4. d8 < a+4 f2~ f8 _V-3 f8 _V3 r4 a+4 > f4. d+8 g+1 a+8 _V-3 a+8 _V3 V7 O1 @2 E95,100,90,20,33 PX YL. g+8 Y.R g+8 YL. g8 Y.R g8 YL. b8 Y.R b8 [ _V-2 YL. b8 _V-2 Y.R b8 _V4 YL. g+8 Y.R g+8 YL. g8 Y.R g8 YL. b8 Y.R b8 ]3 
!3  V3 `9F00 @A3 @B0 @~3 O0 [ [ a+16 ( a+16 ) ]8 ]8 L [ a+16 ( a+16 ) ]16 [ f+16 ( f+16 ) ]8 [ g+16 ( g+16 ) ]8 [ a+16 ( a+16 ) ]8 > [ d+16 ( d+16 ) ]8 [ c+16 ( c+16 ) ]8 < [ g+16 ( g+16 ) ]8 [ [ a+16 ( a+16 ) ]15 f16 ( f16 ) ]2 [ f+16 ( f+16 ) ]16 [ g+16 ( g+16 ) ]16 [ [ a+16 ( a+16 ) ]16 [ f+16 ( f+16 ) ]8 [ g+16 ( g+16 ) ]8 ]2 [ a+16 ( a+16 ) ]32 
!4  [ r1 ]4 @20 x1~ x1 @4 [ x16 ]16 @3 [ x16 ]12 @21 x4 L @8 x8. @7 x16 @3 x16 @7 x16 x16 x16 @1 x16 @5 x16 x16 x16 @3 x16 @5 x16 x16 x16 [ @1 x8 @5 x16 @6 x16 @3 x8 @5 x16 @6 x16 ]2 [ @1 x16 @7 x16 x16 x16 @3 x16 @7 x16 x16 x16 @1 x16 @5 x16 x16 x16 @3 x16 @5 x16 x16 x16 [ @1 x8 @5 x16 @6 x16 @3 x8 @5 x16 @6 x16 ]2 ]3 [ @1 x16 @7 x16 x16 x16 @3 x16 @7 x16 x16 x16 @1 x16 @5 x16 x16 x16 @3 x16 @5 x16 x16 x16 [ @1 x8 @5 x16 @6 x16 @3 x8 @5 x16 @6 x16 ]2 ]4 @8 x8. @7 x16 @3 x16 @7 x16 x16 x16 @1 x16 @5 x16 x16 x16 @3 x16 @5 x16 x16 x16 [ @1 x8 @5 x16 @6 x16 @3 x8 @5 x16 @6 x16 ]2 @1 x16 @7 x16 x16 x16 @3 x16 @7 x16 x16 x16 @1 x16 @5 x16 x16 x16 @3 x16 @5 x16 x16 x16 [ @1 x8 @5 x16 @6 x16 @3 x8 @5 x16 @6 x16 ]2 @8 x8. @7 x16 @3 x16 @7 x16 x16 x16 @1 x16 @5 x16 x16 x16 @3 x16 @5 x16 x16 x16 [ [ @1 x8 @5 x16 @6 x16 @3 x8 @5 x16 @6 x16 ]2 ]3 @8 x8. @5 x16 @3 x8 @5 x16 @6 x16 [ @1 x8 @5 x16 @6 x16 @3 x8 @5 x16 @6 x16 ]3 @8 x8. @5 x16 @3 x8 @5 x16 @6 x16 [ @1 x8 @5 x16 @6 x16 @3 x8 @5 x16 @6 x16 ]2 @3 [ x16 ]8 
!5  V1 O0 @40 W0,100,0 [ Y.R f+8 YL. f+8 ]4 [ Y.R g8 YL. g8 ]4 [ Y.R g+8 YL. g+8 ]4 [ Y.R a8 YL. a8 ]4 V1 O1 YLR @4 [ a+16 ]64 L a+8 V1 O0 YL. @43 W0,100,0 ( a+8 ) a+2. > f1 a+1 > c1 f1~ f2 < a+2 > a+1~ a+2.~ a+8 @4 O1 YLR f16 f16 a+4 @40 W0,100,0 O1 YL. g+4 g2~ g2 b4. @4 O1 YLR f16 f16 a+4 @40 W0,100,0 O0 YL. g+4 g2 YLR @4 O1 [ a+16 ]16 f8 V1 O1 YL. @43 W0,100,0 ( f8 )~ f2. a+1 > c1 < g+2.~ g+8 @4 O1 YLR f16 f16 b4 V1 O1 YL. @43 W0,100,0 YL. a+8 ( Y.R a+8 ) YL. a+8 ( Y.R a+8 ) YL. a+8 ( Y.R a+8 ) [ YL. a+8 ( Y.R a+8 ) ]4 [ YL. a+8 ( Y.R a+8 ) ]4 YL. a+8 ( Y.R a+8 ) YL. a+8 ( Y.R a+8 ) YL. a+8 ( Y.R a+8 ) YL. a+8 @4 O1 YLR f16 f16 b4 V1 O1 YL. @43 W0,100,0 YL. a+8 ( Y.R a+8 ) YL. a+8 ( Y.R a+8 ) YL. a+8 ( Y.R a+8 ) [ YL. a+8 ( Y.R a+8 ) ]4 [ YL. a+8 ( Y.R a+8 ) ]4 [ YL. a+8 ( Y.R a+8 ) ]4 O0 @40 W0,100,0 [ [ YL. a+16 Y.R a+16 ]8 ]3 O1 YLR @4 [ a+16 ]16 
!6  V1 O1 @40 W0,100,0 [ YL. c+8 Y.R c+8 ]4 [ YL. d8 Y.R d8 ]4 [ YL. d+8 Y.R d+8 ]4 [ YL. e8 Y.R e8 ]4 [ YLR f12 YL. f12 Y.R f12 ]2 [ YLR f+12 YL. f+12 Y.R f+12 ]2 [ YLR g12 YL. g12 Y.R g12 ]2 [ YLR g+12 YL. g+12 Y.R g+12 ]2 [ YLR a+12 YL. a+12 Y.R a+12 ]2 > [ YLR c12 YL. c12 Y.R c12 ]2 [ YLR c+12 YL. c+12 Y.R c+12 ]2 [ YLR d+12 YL. d+12 Y.R d+12 ]2 < L YL. O1 @40 W0,100,0 [ Y.R a+16 YLR f16 ]16 [ Y.R f+16 YLR a+16 ]8 [ Y.R g+16 YLR > c16 < ]8 [ Y.R a+16 YLR > f16 < ]8 > [ Y.R d+16 YLR < a+16 > ]8 [ Y.R c+16 YLR < g+16 > ]8 < [ Y.R g+16 YLR > c16 < ]8 Y.R [ r4 d+4 d2~ d2 f+2 ]2 < a+1~ a+8~ ( a+8 ) a+4 > c4 f4 d+1 c1 [ [ YLR f8 YL. f8 YLR f8 Y.R f8 ]2 ]2 > [ YLR c+8 YL. c+8 YLR c+8 Y.R c+8 ]2 [ YLR d+8 YL. d+8 YLR d+8 Y.R d+8 ]2 < Y.R a+1~ a+8~ ( a+8 ) a+4 > d+4. d8 < a+2. ( a+8 ) [ a+16 ]2 > f1 a+8 ( a+8 ) @38 W0,100,71 < YLR d+4 d4 f+4 ( Y.R f+8 YL. f+8 ) YLR d+4 d4 f+4 ( Y.R f+8 YL. f+8 ) YLR > d+4 d4 f+4 ( Y.R f+8 YL. f+8 ) YLR d+4 d4 f+4 
