;005 00314FFA
!1  T180 V5 O2 YL. P8,11,2 D-1 @@3,2,1 E100,90,60,18,31 r16 c8 d8 d+8 f8~ f8 d8 d+8 f8 g4. > c8 _V-2 c8 _V2 < _V2 a+4~ a+16 _V-2 L r16 f8 g8 g+8 a+8~ a+8 g8 g+8 a+8 > c4. f8 _V-2 f8 _V4 d+4. _V-2 d8 d+8 d8 < a+8~ _V-2 a+8 _V2 a+16 > c+4~ c+2. _V-2 c+4 _V2 < [ a+16 _V-2 a+16 _V2 ]3 [ g+16 _V-2 g+16 _V2 ]3 [ g16 _V-2 g16 _V2 ]3 > [ d16 _V-2 d16 _V2 ]3 c+8 _V-2 c+8 _V2 d+8 _V-2 d+8 _V2 < V5 O3 P7,11,4 B5 @@1,1,0 E100,90,70,12,37 [ g16~ g+16~ g+4. ]2 g+2~ g+8~ _V-2 g+8 _V2 r16 f16 d+16 c+16 d+16~ e16~ f16~ f8 f16 d+16 c16 e16~ f8 f24 d+24 c24 e16~ f8. g+16 f16 g16 f16 g+16 g16 f16 d+16 c16 d+16 c+24 c24 < a+24 > c16 < a+16 g+16 a+32~ > b32 <~ a+32~ b32~ > c16 < < a+16~ g+16~ > c16~ d+16~ f+16~ a+16 b16~ > c8. < a+16~ b16 g16 _V-2 g16 _V2 > c16 c8 > > _V-2 c16~ c4~ c8 _V2 < < a+16 g+16 b16~ > c16 < g+8 a+8 g+16 _V-3 g+16 _V3 g+8 g8 g+8 g8 f8 d+16~ f16~ g+16~ a+16 _V-2 a+8 _V2 > g+16~ a+8.~ a+4 e8. V6 O1 YL. P8,11,2 @@3,2,1 E100,90,60,18,31 f4 _V-2 f8 _V2 > c8~ c4~ _V-2 c8~ _V-2 c8 _V4 < a+4 _V-2 a+8 _V2 > d+8~ d+4~ _V-2 d+8~ _V-2 d+8 _V4 c4 _V-2 c8 _V2 f8 _V-4 f8 _V4 d+8 f4~ f2 _V-2 f8 _V-2 f8 _V4 < V7 O2 @0 E80,100,60,24,31 r16 f8 g8 g+4. a+4. g4 d+4. < a+4. > d+8. O3 V6 @2 [ YL. f16 Y.R _V-3 f16 _V3 ]3 [ YL. g+16 Y.R _V-3 g+16 _V3 ]3 [ YL. a+16 Y.R _V-3 a+16 _V3 ]3 [ YL. g+16 Y.R _V-3 g+16 _V3 ]3 [ YL. g16 Y.R _V-4 g8. _V4 ]2 O1 YL. @@3,2,1 E100,90,60,18,31 f4 _V-2 f8 _V2 > c8~ c4~ _V-2 c8~ _V-2 c8 _V4 < a+4 _V-2 a+8 _V2 > d+8~ d+4~ _V-2 d+8~ _V-2 d+8 _V4 c4 _V-2 c8 _V2 f8 _V-4 f8 _V4 d+8 f4~ f2 _V-2 f8 _V-2 f8 _V4 < V7 O2 @0 E80,100,60,24,31 r16 f8 g8 g+4. a+4. > c4 < a+2 > d+4. _V-2 d+16 _V2 O1 @@3,2,1 E100,90,60,18,31 [ g2.~ g8~ _V-2 g8 _V2 ]2 P7,11,3 B3 D-1 V5 YLR O3 @2 E80,100,70,18,31 r16 c+2.~ c4~ < a+2~ > d+2~ c2.~ < a+4~ g+2~ > c+2~ < a+2.~ g+4~ g2~ > c2~ < g+2~ a+2~ > c2~ d+2~ c+2.~ c4~ < a+2~ > d+2~ c2.~ < a+4~ g+2~ > c+4.~ _V-3 c+8 _V3 < a+4~ _V-3 a+8 _V3 > c4~ _V-3 c8 _V3 c+4~ c+2.~ _V-3 c+4 _V3 c4~ _V-3 c8 _V3 d4~ _V-3 d8 _V3 e4~ e2~ _V-3 e8. _V3 V4 O3 @2 D0 B0 g+24 a+24 > c24 d24 d+24 e24 V7 O3 P10,11,2 YL. B3 @@1,1,0 E100,90,70,12,37 c8~ < _V-3 g+8 _V3 r8 c8 _V-3 c8 _V3 d+8 _V-3 d+8 _V3 d8~ d8 c8 < a+8 _V-3 a+8 _V3 r2 > d+8 f8~ _V-3 f8 _V3 g+8~ _V-3 g+8 _V3 f8~ _V-3 f8 _V3 b8 a+4 g+8 f8 g+8 a+8~ a+8~ _V-4 < a+8 _V4 f8 g+8 _V-3 g+8 _V3 > c8 _V-3 c8 _V3 d+8 _V-3 d+8 _V3 d8~ d8 c8 < a+8 _V-3 a+8 _V3 r2 r4 > f8 d+8 f8 g+8~ _V-3 g+8 _V3 g8~ g8 f8~ _V-3 f8 _V3 d+8 _V-2 d+16 _V2 V6 O2 P7,11,4 B5 YL. D-1 @@0,1,0 E100,90,70,12,37 [ b16~ > c16 < ]3 a+16~ b16 b16~ > c8.~ c2~ < _V-2 c4~ _V-2 c8 _V4 a+16 _V-2 a+16 _V-2 a+8 _V4 > c8 d+16 _V-3 d+16 _V3 d+16~ d16 c8 < a+8 [ b16~ > c16 < ]3 g+8 f8 a+8 f8 g+8 f8 < a+8 g+8 f8 a+8 g+16 f16 g+8 f8 d+16 ( d+16 ) f16 ( f16 ) g+16 ( g+16 ) a+16 ( a+16 )~ > c16 ( c16 ) d+16 ( d+16 ) f16 ( f16 ) g+16 ( g+16 ) a+8 g+8 a+8 > c16 d+16~ f8 c16 d+16 c16 d+16 f8 g16~ g+16 g8 g+16 _V-2 g+16 _V2 a+8~ a+8~ a8~ g+8 g8 d+8 < a+8 a+4. _V-3 a+8 _V3 O2 P7,10,2 B3 YLR @2 E80,100,70,18,31 f4~ > f2.~ d+4~ c+4.~ c4. <~ g+4~ a+4. >~ c8~ c2~ c2 _V-2 c4 _V2 < f4~ > f2.~ d+4~ c+4.~ c4. <~ g+4~ a+4.~ g8~ g2~ g2. _V-2 g8 _V-2 g8 _V4 f4.~ g4.~ g+4~ g+2.~ _V-2 g+8~ _V-2 g+8 _V4 g4.~ g+4.~ a+4~ a+2.~ _V-2 a+8~ _V-2 a+8 _V4 g+4.~ a+4. >~ c4~ c2.~ _V-2 c8~ _V-2 c8 _V4 < a+4.~ > c4.~ d+4~ d+8~ g4.~ d+4~ c8. V7 O2 YLR P8,11,2 D0 @@3,2,1 E100,90,60,18,31 f8 g8 g+8 a+8~ a+8 g8 g+8 a+8 > c4. f8 _V-3 f8 _V3 d+4. < V5 YL. D-1 
!2  V6 O2 YLR P8,11,2 @@3,2,1 E100,90,60,18,31 c8 d8 d+8 f8~ f8 d8 d+8 f8 g4. > c8 _V-3 c8 _V3 < a+4. L f8 g8 g+8 a+8~ a+8 g8 g+8 a+8 > c4. f8 _V-3 f8 _V3 d+4. d8 d+8 d8 < a+8~ _V-3 a+8 _V3 a+8 > f4~ f2. _V-3 f4 _V3 < [ a+16 _V-2 a+16 _V2 ]3 > [ c16 _V-2 c16 _V2 ]3 [ d+16 _V-2 d+16 _V2 ]3 [ f16 _V-2 f16 _V2 ]3 g+8 _V-3 g+8 _V3 a+8 _V-3 a+8 _V3 V5 O3 P7,11,4 B5 @@1,1,0 E100,90,70,12,37 [ e16~ f16~ f4. ]2 f2~ f8~ _V-3 f8 _V3 f16 d+16 c+16 d+16~ e16~ f16~ f8 f16 d+16 c16 e16~ f8 f24 d+24 c24 e16~ f8. g+16 f16 g16 f16 g+16 g16 f16 d+16 c16 d+16 c+24 c24 < a+24 > c16 < a+16 g+16 a+32~ > b32 <~ a+32~ b32~ > c16 < < a+16~ g+16~ > c16~ d+16~ f+16~ a+16 b16~ > c8. < a+16~ b16 g16 _V-2 g16 _V2 > c16 c8 > > _V-2 c16~ c4~ c8 _V2 < < a+16 g+16 b16~ > c16 < g+8 a+8 g+16 _V-2 g+16 _V2 g+8 g8 g+8 g8 f8 d+16~ f16~ g+16~ a+16 _V-3 a+8 _V3 > g+16~ a+8.~ a+4 e4 V7 O2 YLR P8,11,2 @@3,2,1 E100,90,60,18,31 f4 _V-2 f8 _V2 > c8~ c4~ _V-2 c8~ _V-2 c8 _V4 < a+4 _V-2 a+8 _V2 > d+8~ d+4~ _V-2 d+8~ _V-2 d+8 _V4 c4 _V-2 c8 _V2 f8 _V-4 f8 _V4 d+8 f4~ f2 _V-2 f8 _V-2 f8 _V4 < @0 E80,100,60,24,31 f8 g8 g+4. a+4. g4 d+4. < a+4. > d+4 c1~ c2 r2 @@3,2,1 E100,90,60,18,31 f4 _V-2 f8 _V2 > c8~ c4~ _V-2 c8~ _V-2 c8 _V4 < a+4 _V-2 a+8 _V2 > d+8~ d+4~ _V-2 d+8~ _V-2 d+8 _V4 c4 _V-2 c8 _V2 f8 _V-4 f8 _V4 d+8 f4~ f2 _V-2 f8 _V-2 f8 _V4 < @0 E80,100,60,24,31 f8 g8 g+4. a+4. > c4 < a+2 > d+2 c1~ c2 < P7,11,3 B3 @2 E80,100,70,18,31 c16 d16 e16 f16 g16 g+16 a+16 > c16 c+2.~ c4~ < a+2~ > d+2~ c2.~ < a+4~ g+2~ > c+2~ < a+2.~ g+4~ g2~ > c2~ < g+2~ a+2~ > c2~ d+2~ c+2.~ c4~ < a+2~ > d+2~ c2.~ < a+4~ g+2~ > c+4.~ _V-3 c+8 _V3 < a+4~ _V-4 a+8 _V4 > c4~ _V-4 c8 _V4 c+4~ c+2.~ _V-4 c+4 _V4 c4~ _V-4 c8 _V4 d4~ _V-4 d8 _V4 e4~ e2.~ _V-4 e4 _V4 f1~ f1~ f1~ f2. _V-4 f4 _V4 [ r1 ]3 r2 V7 O2 P7,11,4 B5 @@0,1,0 E100,90,70,12,37 [ b16~ > c16 < ]3 a+16~ b16 b16~ > c8.~ c2~ < _V-2 c4~ _V-2 c8 _V4 a+16 _V-2 a+16 _V-2 a+8 _V4 > c8 d+16 _V-3 d+16 _V3 d+16~ d16 c8 < a+8 [ b16~ > c16 < ]3 g+8 f8 a+8 f8 g+8 f8 < a+8 g+8 f8 a+8 g+16 f16 g+8 f8 d+16 ( d+16 ) f16 ( f16 ) g+16 ( g+16 ) a+16 ( a+16 )~ > c16 ( c16 ) d+16 ( d+16 ) f16 ( f16 ) g+16 ( g+16 ) a+8 g+8 a+8 > c16 d+16~ f8 c16 d+16 c16 d+16 f8 g16~ g+16 g8 g+16 _V-2 g+16 _V2 a+8~ a+8~ a8~ g+8 g8 d+8 < a+8 a+4. _V-2 a+8 _V2 O2 P7,9,2 B3 @2 E80,100,70,18,31 f4~ > f2.~ d+4~ c+4.~ c4.~ < g+4~ a+4.~ > c8~ c2~ c2~ _V-2 c4~ _V2 < f4~ > f2.~ d+4~ c+4.~ c4.~ < g+4~ a+4.~ g8~ g2~ g2.~ _V-2~ g8 _V-2 g8 _V4 f4.~ g4.~ g+4~ g+2.~ _V-2 g+8~ _V-2 g+8 _V4 g4.~ g+4.~ a+4~ a+2.~ _V-2 a+8~ _V-2 a+8 _V4 g+4.~ a+4.~ > c4~ c2.~ _V-2 c8~ _V-2 c8 _V4 < a+4.~ > c4.~ d+4~ d+8~ g4.~ d+4~ c4~ f1~ f2.~ _V-2 f8~ _V-2 f8 _V4 V6 O2 YLR P8,11,2 @@3,2,1 E100,90,60,18,31 
!3  V3 O0 `9F00 @A3 @B0 @~3 > c4 ( c8 ) < a+2 ( a+8 ) g+4 ( g+8 ) g8 ( g8 ) g4 ( g8 ) L > f4 ( f8 ) d+2 ( d+8 ) c+4 ( c+8 ) c8 ( c8 ) c4 ( c8 ) < a+4. a+8 ( a+4 ) a+4 ( a+8 ) a+8 ( a+8 ) f8 g+4 a+8 ( a+8 ) a+4 ( a+8 ) g+4 ( g+8 ) g4 ( g8 ) f4. d+8 d8 c8 ( c8 ) [ f8 g+8 ( g+8 ) > c8 ( c8 ) d+8 ( d+8 ) d8~ d8 c8 < a+8 ( a+8 [ Y.R a+8 YL. a+8 ]2 ) YLR ]3 > c+8 f8 ( f8 ) g+8 ( g+8 ) a+8 ( a+8 ) g8~ g8 f8 d+8 ( d+4 ) d+8 < a+8 d+8 [ f16 ( f16 ) ]30 [ d+16 ( d+16 ) ]2 > [ c+16 ( c+16 ) ]8 [ d+16 ( d+16 ) ]8 < f4 ( f8 ) g+4 ( g+8 ) a+4 ( a+8 ) > c+4 ( c+8 ) [ d+8 ( d+8 ) ]2 < [ f16 ( f16 ) ]30 [ d+16 ( d+16 ) ]2 > [ c+16 ( c+16 ) ]8 [ d+16 ( d+16 ) ]8 [ c16 ( c16 ) ]16 < [ a+8 > ( a+8 ) < ]4 [ d+8 > ( d+8 ) < ]4 [ g+8 > ( g+8 ) < ]4 > [ c+8 > ( c+8 ) < ]4 < [ g8 > ( g8 ) < ]4 > [ c8 > ( c8 ) < ]4 < [ f8 > ( f8 ) < ]2 [ g8 > ( g8 ) < ]2 [ g+8 > ( g+8 ) < ]2 [ a8 > ( a8 ) < ]2 [ a+8 > ( a+8 ) < ]4 [ d+8 > ( d+8 ) < ]4 [ g+8 > ( g+8 ) < ]4 > [ c+8 > ( c+8 ) < ]4 < [ f+8 > ( f+8 ) < ]8 > [ c8 > ( c8 ) < ]8 < [ [ f8 g+8 ( g+8 ) > c8 ( c8 ) d+8 ( d+8 ) d8~ d8 c8 < a+8 ( a+8 [ Y.R a+8 YL. a+8 ]2 ) YLR ]3 > c+8 f8 ( f8 ) g+8 ( g+8 ) a+8 ( a+8 ) g8~ g8 f8 d+8 ( d+4 ) d+8 < a+8 d+8 ]2 > c+1~ c+1 d+1~ d+1 c+1~ c+1 d+1~ d+2 ( d+8 ) d+8 c+8 c8 < a+4. > f4. a+4~ a+2 ( a+8 ) a+8 f8 < a+8 > c4. g4. > c4~ c2 ( c8 ) c8 < g8 c8 c+4. f4. > c+4~ c+2 ( c+8 ) f8 < g+8 c+8 [ d+8 > ( d+8 ) < ]8 < f4 ( f8 ) d+2 ( d+8 ) c+4 ( c+8 ) c8 ( c8 ) c4 ( c8 ) 
!4  @8 Y.R x4. YL. x4. r4 Y.R x4. YL. x4 Y.R x4. L @8 YL. x4. Y.R x4. r4 @8 YL. x4. Y.R x4 YL. x4. Y.R x4. YL. x4. Y.R x4 r1 YL. x4. Y.R x4. YL. x4. Y.R x4. YL. x2 YLR @8 x4 @7 [ x4 ]3 [ [ x4 ]4 ]5 [ x4 ]3 @5 x8 @8 x8~ x4 r2. @8 x4 @7 [ x4 ]3 [ [ x4 ]4 ]5 @8 YL. x4. Y.R x4. YL. x4. Y.R x4. YL. x2 YLR @8 x4 @7 [ x4 ]3 [ [ x4 ]4 ]3 [ @8 x4 @7 [ x4 ]3 [ x4 ]4 ]2 @8 x4 @5 [ x8 ]6 [ [ x8 ]8 ]6 [ x8 ]6 @21 x4 @8 x4 @5 [ x8 ]6 [ [ x8 ]8 ]5 [ x8 ]6 @7 x4 @6 [ x8 ]6 @21 x4 [ @8 x4 @7 [ x4 ]3 [ [ x4 ]4 ]3 ]3 @8 x4 @7 [ x4 ]3 [ x4 ]4 [ x4 ]3 @5 x8 @8 x8~ x4 r2. @8 x4 @5 x8 @7 x4 @5 x8 @7 x4 r1 @7 x4 @5 x8 @7 x4 @5 x8 @7 x4 r1 @7 x4 @5 x8 @7 x4 @5 x8 @7 x4 r2 r8 @5 x8 @7 x4 @7 x4 @5 x8 @7 x4 @5 x8 @7 x4 r1 @7 x4 @5 x8 @7 x4 @5 x8 @7 x4 r2 r8 @5 x8 @7 x4 @7 x4 @5 x8 @7 x4 @5 x8 @7 x4 r1 @7 x4 @5 x8 @7 x4 @5 x8 @7 x4 r2 r8 @5 x8 @7 x4 @6 [ [ x8 ]8 ]2 @8 Y.R x4. YL. x4. r4 Y.R x4. YL. x4 Y.R x4. 
!5  V1 O1 @0 x4 @1 ( x8 ) @0 x4 @1 x8 @2 g4 @0 x4 @1 ( x8 ) @0 x4 x4 @1 ( x8 ) L @0 x4 @1 ( x8 ) @0 x4 @1 x8 @2 g4 @0 x4 @1 ( x8 ) @0 x4 x4 @1 ( x8 ) @0 x4. x4. x4. @1 x4 @2 Y.R b8 YLR g4 YL. d4 YLR [ @0 x4 @1 x8 ]2 @0 x4 @1 x8 @0 x4 @1 ( x8 ) @0 x8 @1 x8 x4 [ @0 x8 x8 @1 x8 @0 x4 x8 @1 x8 @0 x8 r8 x8 @1 x4 @0 x8 x8 @1 x8 @0 ( x8 ) ]3 @0 x8 x8 @1 x8 @0 x4 x8 @1 x8 @0 x8 r8 @1 x8 @2 g4 @1 x16 @2 Y.R b16 YL. d8 @1 YLR x8 @2 YL. d8 YLR @0 x4 @1 x8 @0 x8 x8 x8 @1 x4 @0 x8 x8 @1 x8 @0 x8 x8 x8 @1 x4 [ @0 x8 x8 @1 x8 @0 x8 ]4 [ @0 x4 @1 x4 ]2 @0 x4 @1 x8 @0 x8 r8 x8 @1 x8 @0 x8 [ @0 x4 @1 x8 ]2 @0 x4 @1 x8 @0 x4 @1 x8 @0 x8 @1 x8 @2 Y.R g8 YL. d8 YLR @0 x4 @1 x8 @0 x8 r8 x8 @1 x4 [ @0 x8 x8 @1 x8 @0 x8 ]2 [ @0 x8 x8 @1 x8 @0 x8 ]2 r8 @0 x8 @1 x8 @0 x8 x8 x8 @1 x8 @0 x8 @0 x4 @1 x8 @0 x8 r8 x8 @1 x4 @0 x4 @1 x4 @0 x8 x8 @1 x4 @0 x4 @1 x4 @0 x8 x8 @1 x4 @0 x4 @1 x4 @0 x8. @1 x16 x8 @2 g8 [ @0 x4 @1 x4 @0 x4 @1 x4 ]7 @0 x4 @1 x4 @0 x8 @2 Y.R b8 YLR g8 YL. d8 YLR [ @0 x4 @1 x4 @0 x4 @1 x4 ]6 @0 x4 @1 x8 @0 x8 x4 @1 x4 @0 x8 x8 @1 x8 @0 x8 x8 x16 @1 x16 x16 @2 Y.R b16 YLR g16 YL. d16 YLR @0 x4 @1 x8 @0 x8 r8 x8 @1 x8 @0 x8 r8 x8 @1 x4 @0 x8 x8 @1 x8 @0 x8 [ @0 x4 @1 x4 @0 x8 x8 @1 x8 @0 x8 r8 x8 @1 x4 @0 x8 x8 @1 x8 @0 x8 ]2 @0 x4 @1 x8 @0 x8 r8 x8 @1 x4 @0 x8 x8 @1 x4 r8 @0 x8 @1 x8 @0 x8 @0 x4 @1 x8 @0 x8 r8 x8 @1 x8 @0 x8 r8 x8 @1 x8 @0 x8 r8 x8 @1 x8 @0 x8 @0 x8 x8 @1 x8 @0 x8 x8 x8 @1 x8 @0 x8 r8 x8 @1 x8 @0 x8 r8 x8 @1 x8 @0 x8 @0 x4 @1 x4 @0 x8 x8 @1 x8 @0 x8 r8 x8 @1 x4 @0 x8 x8 @1 x8 @0 x8 @0 x8 x8 @1 x8 @0 x8 r8 x8 @1 x8 @0 x8 r8 @1 x8 x4 x8. x16 x8 @2 g8 @0 x1 r1 @0 x1 r2 r8 @2 Y.R g8 YL. d8 @0 YLR x8 @0 x1 r1 @0 x1 r8 @2 b4. Y.R g8 g8 YL. d8 @0 YLR x8 @0 x1 r2. r8 ( x8 ) @0 x1 r8 @2 b4. Y.R g4 YL. d8 @0 YLR ( x8 ) @0 x1 r2. r8 ( x8 ) @0 [ x4 ]8 @0 x4 @1 ( x8 ) @0 x4 @1 x8 @2 g4 @0 x4 @1 ( x8 ) @0 x4 x4 @1 ( x8 ) 
!6  V1 O1 Y.R @38 W0,100,72 c4. < a+8~ a+2 g+4. g8 ( g8 ) g4. > L f4. d+8~ d+2 c+4. c8 ( c8 ) c4. < [ a+4 ( a+8 ) ]2 a+4 ( a+8 ) a+4 f8 g+8 ( g+8 ) > f4 > f1~ f1 < < YLR f8 g+8 ( g+8 ) > c8 ( c8 ) d+8 ( d+8 ) d8~ d8 c8 < a+8 ( a+8 ) r2 f8 g+8 ( g+8 ) > c8 ( c8 ) d+8 ( d+8 ) d8~ d8 c8 < a+8 ( a+8 ) Y.R > > g+8 a+8 ( a+8 ) r8 < g+8 > c8 ( c8 ) d+8 ( d+8 ) g8 ( g8 ) f8~ f8 d+8 d8 ( d8 ) r4. < f16 f16 YLR f1 g2. ( g4 ) @62 W0,100,33 > [ [ Y.R f16 YL. ( f16 ) ]8 ]3 [ Y.R f16 YL. ( f16 ) ]6 < @79 W0,100,0 > Y.R d+4 [ Y.R c+8 YL. c+8 ]4 [ Y.R d+8 YL. d+8 ]4 @38 W0,100,72 [ Y.R c16 YL. ( c16 ) ]3 [ Y.R d+16 YL. ( d+16 ) ]3 [ Y.R d16 YL. ( d16 ) ]3 [ Y.R f16 YL. ( f16 ) ]3 [ Y.R d+8 YL. ( d+8 ) ]2 < @62 W0,100,33 > [ [ Y.R f16 YL. ( f16 ) ]8 ]3 [ Y.R f16 YL. ( f16 ) ]6 < @79 W0,100,0 > Y.R d+4 [ Y.R c+8 YL. c+8 ]4 [ Y.R d+8 YL. d+8 ]4 @38 W0,100,72 [ Y.R f8~ YL. f8 ]4 [ Y.R e8~ YL. e8 ]4 < Y.R @79 W0,100,0 [ Y.R a+8 YL. a+8 ]4 @82 W0,100,0 [ Y.R a+8 YL. a+8 ]2 @79 W0,100,0 > [ Y.R d+8 YL. d+8 ]2 @80 W0,100,0 [ Y.R c8 YL. c8 ]4 @82 W0,100,0 < [ Y.R g+8 YL. g+8 ]2 @79 W0,100,0 > [ Y.R c+8 YL. c+8 ]2 @82 W0,100,0 < [ Y.R a+8 YL. a+8 ]4 [ Y.R g8 YL. g8 ]2 @79 W0,100,0 > [ Y.R c8 YL. c8 ]2 < @82 W0,100,0 [ Y.R g+8 YL. g+8 ]2 [ Y.R a+8 YL. a+8 ]2 @80 W0,100,0 > [ Y.R c8 YL. c8 ]2 @38 W0,100,72 [ Y.R d+8 YL. d+8 ]2 < @79 W0,100,0 [ Y.R a+8 YL. a+8 ]4 @82 W0,100,0 [ Y.R a+8 YL. a+8 ]2 @79 W0,100,0 > [ Y.R d+8 YL. d+8 ]2 @80 W0,100,0 [ Y.R c8 YL. c8 ]4 @82 W0,100,0 < [ Y.R g+8 YL. g+8 ]2 @79 W0,100,0 > [ Y.R c+8 YL. c+8 ]2 < Y.R @38 W0,100,72 > [ a+4 ( a+8 ) ]2 a+4~ a+2.~ ( a+4 ) > c4 ( c8 ) < a+4 ( a+8 ) > c4~ c2.~ ( c4 ) O1 [ [ f8 g+8 ( g+8 ) > c8 ( c8 ) d+8 ( d+8 ) d8~ d8 c8 < a+8 ( a+8 ) r2 ]3 > c+8 f8 ( f8 ) g+8 ( g+8 ) a+8 ( a+8 ) g8~ g8 f8 d+8 ( d+8 ) r2 < ]2 O3 [ @80 W0,100,0 [ Y.R c16 YL. c16 ]16 @82 W0,100,0 < [ Y.R a+16 YL. a+16 ]16 > ]2 @82 W0,100,0 < [ Y.R g+16 YL. g+16 ]16 [ Y.R a+16 YL. a+16 ]16 @80 W0,100,0 > [ Y.R c16 YL. c16 ]16 @82 W0,100,0 [ Y.R d+16 YL. d+16 ]16 V1 O1 Y.R @38 W0,100,72 f4. d+8~ d+2 c+4. c8 ( c8 ) c4. 
