;006 003164F0
!1  T155 YLR V6 O3 @@3,1,2 E100,90,60,21,36 [ d+8 _V-3 d+16 _V3 ]2 d+4 f8 f+4 [ d+8 _V-3 d+16 _V3 ]2 d+4 f8 f+8 < a+8 > a+8 _V-3 a+16 _V3 g+8 _V-3 g+16 _V3 f+8 f4 _V-3 f8 _V3 < a+8 > a+8 _V-3 a+16 _V3 g+8 _V-3 g+16 _V3 f+8 f8 _V-3 f16 _V3 d+8 _V-3 d+16 _V3 c+8 d+2 _V-3 d+8 _V-3 d+8 _V6 D1 V5 r16 > c+8 < f+8~ f+4 _V-3 f+8 _V3 r8 f+8 f8 f+8 g+8 a+8 _V-3 a+8 _V3 a+8 g+4 f+8 f8 f+8~ f+2~ f+8 _V-3 f+16 _V3 O2 @2 E100,85,60,18,36 P23,14,4 B11 D0 a16~ a+8. L d+2~ d+8 _V-3 d+8 _V3 e16~ f8. d+2~ d+8 _V-3 d+8 _V3 a16~ a+8. d+2.~ d+8 _V-3 d+8 _V3 c+8. d+8. f8~ f4. _V-3 f8 _V3 PX YLR V5 O3 @@3,1,2 E100,90,60,21,36 B7 D1 r16 [ f8 _V-3 f16 _V3 ]2 f4~ _V-3 f8 _V3 d8 f8 e8 _V-3 e16 _V3 g8 _V-3 g16 _V3 c16 Y.R V6 O2 @2 a16 a+16 > c16 < a16 > f16 < a16 > c16 < a16 YLR V5 O3 @@3,1,2 E100,90,60,21,36 r16 [ d8 _V-3 d16 _V3 ]2 d4~ _V-3 d8 _V3 r8 d16 d16 e8 _V-3 e16 _V3 f8 _V-3 f16 _V3 e16 Y.R V6 O3 @2 c16 d16 e16 c16 g16 f16 e16 d16 YLR V5 O3 @@3,1,2 E100,90,60,21,36 r16 [ f8 _V-3 f16 _V3 ]2 f4~ _V-3 f8 _V3 r8 f8 e8 _V-3 e16 _V3 g8 _V-3 g16 _V3 c16 Y.R V6 O2 @2 a16 a+16 > c16 < a16 > f16 < a16 > c16 < a16 YLR V5 O3 @@3,1,2 E100,90,60,21,36 r16 d4. e8 _V-3 e8 _V3 f8~ _V-2 d16 _V2 Y.R V6 O3 @2 a8~ a16 _V-3 a16 _V3 g16 _V-3 g16 _V3 f16 _V-3 f16 _V3 g16 _V-3 g16 _V3 f16 _V-3 f16 _V3 e16 _V-3 e16 _V3 d16 _V-3 d16 _V3 c16 _V-3 c16 _V3 YLR V5 O3 @@3,1,2 E100,90,60,21,36 B7 D1 r16 [ f8 _V-3 f16 _V3 ]2 f8~ f8~ _V-3 d8 _V3 d8 f8 e8 _V-3 e16 _V3 g8 _V-3 g16 _V3 c16 Y.R V6 O2 @2 a16 a+16 > c16 < a16 > f16 < a16 > c16 < a16 YLR V5 O3 @@3,1,2 E100,90,60,21,36 r16 [ d8 _V-3 d16 _V3 ]2 d4~ _V-3 d8 _V3 r8 d8 e8 _V-3 e16 _V3 f8 _V-3 f16 _V3 e16 Y.R V6 O3 @2 c16 d16 e16 c16 g16 f16 e16 d16 YLR V5 O3 @@3,1,2 E100,90,60,21,36 r16 [ f8 _V-3 f16 _V3 ]2 f4~ _V-3 f8 _V3 r8 f8 e8 _V-3 e16 _V3 g8 _V-3 g16 _V3 c16 Y.R V6 O2 @2 a16 a+16 > c16 < a16 > f16 < a16 > c16 < a16 YLR V5 O3 @@3,1,2 E100,90,60,21,36 r16 d4. e8 _V-3 e8 _V3 f8~ _V-2 d16 _V2 Y.R V6 O3 @2 a8~ a16 _V-3 a16 _V3 g16 _V-3 g16 _V3 f16 _V-3 f16 _V3 g16 _V-3 g16 _V3 f16 _V-3 f16 _V3 e16 _V-3 e16 _V3 d16 _V-3 d16 _V3 c16 _V-3 c16 _V3 YLR V5 O3 @@3,1,2 E100,90,60,21,36 r16 [ d8~ d32~ _V-3 d32 _V3 ]2 d8~ d4~ _V-3 d8 _V3 r8 e8~ e32~ _V-3 e32 _V3 f8~ f32~ _V-3 f32 _V3 e8~ e8~ _V-3 e8 _V3 e8 f8 g4 _V-3 g8 _V3 r8 c4 g16 _V-3 g16 _V3 g8~ g8 a8 f4 _V-3 f8 _V3 f8 g8 a8 a4 a+8 a8~ a4 a+8 a8 a16~ _V-2 g16 _V2 f4 _V-3 f8 _V3 f4 a16 _V-3 a16 _V3 a8~ a8 g16 _V-3 g16 _V3 g2~ g8. Y.R V6 O3 @2 ) < [ Y.R a+32 _V-3 YL. > a+32 < _V3 ]8 > [ Y.R c32 _V-3 YL. > c32 < _V3 ]4 [ Y.R e32 _V-3 YL. > e32 < _V3 ]4 ( YLR D0 V5 O3 @@3,1,2 E100,90,60,21,36 [ d+8 _V-3 d+16 _V3 ]2 d+4 f8 f+4 [ d+8 _V-3 d+16 _V3 ]2 d+4 f8 f+8 < a+8 > a+8 _V-3 a+16 _V3 g+8 _V-3 g+16 _V3 f+8 f4 _V-3 f8 _V3 < a+8 > a+8 _V-3 a+16 _V3 g+8 _V-3 g+16 _V3 f+8 f8 _V-3 f16 _V3 d+8 _V-3 d+16 _V3 c+8 d+2 _V-3 d+8 _V-3 d+8 _V6 D1 r16 > c+8 < f+8~ f+4 _V-3 f+8 _V3 r8 f+8 f8 f+8 g+8 a+8 _V-3 a+8 _V3 a+8 g+4 f+8 f8 f+8~ f+2~ f+8 _V-3 f+8 _V3 r8. D0 [ d+8 _V-3 d+16 _V3 ]2 d+4 f8 f+4 [ d+8 _V-3 d+16 _V3 ]2 d+4 f8 f+8 < a+8 > a+8 _V-3 a+16 _V3 g+8 _V-3 g+16 _V3 f+8 f4 _V-3 f8 _V3 < a+8 > a+8 _V-3 a+16 _V3 g+8 _V-3 g+16 _V3 f+8 f8 _V-3 f16 _V3 f+8 _V-3 f+16 _V3 g+8 a32~ a+16.~ a+8~ _V-3 a+8 _V3 a+8 a+8~ _V-3 c+8 _V3 c+8 c+8~ c+4 _V-3 c+8 _V3 r8 D1 r16 f+8 f8 f+8 g+8 a+8 _V-3 a+8 _V3 a+8 g+4 f+8 f8 f+8~ f+2~ f+8 _V-3 f+16 _V3 O2 @2 E100,85,60,18,36 P23,14,4 B11 D0 a16~ a+8. 
!2  V8 O3 @@3,1,2 E100,90,60,21,36 [ f+8 _V-3 f+16 _V3 ]2 f+4 g+8 a+4 [ f+8 _V-3 f+16 _V3 ]2 f+4 g+8 a+8 c+8 > c+8 _V-3 c+16 _V3 < b8 _V-3 b16 _V3 a+8 g+4 _V-3 g+8 _V3 c+8 > c+8 _V-3 c+16 _V3 < b8 _V-3 b16 _V3 a+8 g+8 _V-3 g+16 _V3 f+8 _V-3 f+16 _V3 f8 f+2 _V-3 f+8 _V-3 f+8 _V6 > c+8 < f+8~ f+4 _V-3 f+8 _V3 r8 f+8 f8 f+8 g+8 a+8 _V-3 a+8 _V3 a+8 g+4 f+8 f8 f+8~ f+2~ f+8 _V-3 f+8 _V3 O3 @2 E100,85,60,18,36 P23,14,4 B11 c16~ c+8. < L f+2~ f+8 _V-3 f+8 _V3 g16~ g+8. f+2~ f+8 _V-3 f+8 _V3 > c16~ c+8. < f+2.~ f+8 _V-3 f+8 _V3 f8. f+8. g+8~ g+4. _V-3 g+8 _V3 PX V8 O3 @@3,1,2 E100,90,60,21,36 B7 [ f8 _V-3 f16 _V3 ]2 f4~ _V-3 f8 _V3 d8 f8 e8 _V-3 e16 _V3 g8 _V-3 g16 _V3 c4~ _V-3 c8 _V3 r8 c8 [ d8 _V-3 d16 _V3 ]2 d4~ _V-3 d8 _V3 r8 d16 d16 e8 _V-3 e16 _V3 f8 _V-3 f16 _V3 e4~ _V-2 e8 ) _V-3 e8 _V3 r8 [ f8 _V-3 f16 _V3 ]2 f4~ _V-3 f8 _V3 r8 f8 e8 _V-3 e16 _V3 g8 _V-3 g16 _V3 c4~ _V-3 c8 _V3 r8 < a+16 > c16 d4. e8 _V-3 e8 _V3 f8~ _V-2 d8 _V2 d8~ d4 _V-2 d8 _V-2 d8 _V4 r2 [ f8 _V-3 f16 _V3 ]2 f8~ f8~ _V-3 d8 _V3 d8 f8 e8 _V-3 e16 _V3 g8 _V-3 g16 _V3 c4~ _V-3 c8 _V3 r8 < a+16 > c16 [ d8 _V-3 d16 _V3 ]2 d4~ _V-3 d8 _V3 r8 d8 e8 _V-3 e16 _V3 f8 _V-3 f16 _V3 e4~ _V-2 e8 ) _V-3 e8 _V3 r8 [ f8 _V-3 f16 _V3 ]2 f4~ _V-3 f8 _V3 r8 f8 e8 _V-3 e16 _V3 g8 _V-3 g16 _V3 c4~ _V-3 c8 _V3 r8 < a+16 > c16 d4. e8 _V-3 e8 _V3 f4 d8~ d4 _V-2 d8 _V-2 d8 _V4 r2 [ d8~ d32~ _V-3 d32 _V3 ]2 d8~ d4~ _V-3 d8 _V3 r8 e8~ e32~ _V-3 e32 _V3 f8~ f32~ _V-3 f32 _V3 e8~ e8~ _V-3 e8 _V3 e8 f8 g4 _V-3 g8 _V3 r8 c4 g16 _V-3 g16 _V3 g8~ g8 a8 f4 _V-3 f8 _V3 f8 g8 a8 a4 a+8 a8~ a4 a+8 a8 a16~ _V-2 g16 _V2 f4 _V-3 f8 _V3 f4 a16 _V-3 a16 _V3 a8~ a8 g16 _V-3 g16 _V3 g2.~ _V-3 g8 _V3 r8 r2. ) [ f+8 _V-3 f+16 _V3 ]2 f+4 g+8 a+4 [ f+8 _V-3 f+16 _V3 ]2 f+4 g+8 a+8 c+8 > c+8 _V-3 c+16 _V3 < b8 _V-3 b16 _V3 a+8 g+4 _V-3 g+8 _V3 c+8 > c+8 _V-3 c+16 _V3 < b8 _V-3 b16 _V3 a+8 g+8 _V-3 g+16 _V3 f+8 _V-3 f+16 _V3 f8 f+2 _V-3 f+8 _V-3 f+8 _V6 ( > c+8 < f+8~ f+4 _V-3 f+8 _V3 r8 f+8 f8 f+8 g+8 a+8 _V-3 a+8 _V3 a+8 g+4 f+8 f8 f+8~ f+2~ f+8 _V-3 f+8 _V3 r4 ) [ f+8 _V-3 f+16 _V3 ]2 f+4 g+8 a+4 [ f+8 _V-3 f+16 _V3 ]2 f+4 g+8 a+8 c+8 > c+8 _V-3 c+16 _V3 < b8 _V-3 b16 _V3 a+8 g+4 _V-3 g+8 _V3 c+8 > c+8 _V-3 c+16 _V3 < b8 _V-3 b16 _V3 a+8 g+8 _V-3 g+16 _V3 a+8 _V-3 a+16 _V3 b8 > c32~ c+16.~ c+8~ _V-3 c+8 _V3 c+8 c+8~ < _V-3 f+8 _V3 f+8 f+8~ f+4 _V-3 f+8 _V3 ( r8 f+8 f8 f+8 g+8 a+8 _V-3 a+8 _V3 a+8 g+4 f+8 f8 f+8~ f+2~ f+8 _V-3 f+8 _V3 O3 @2 E100,85,60,18,36 P23,14,4 B11 c16~ c+8. < 
!3  V3 `9F00 @A3 @B0 @~3 O0 b2. ( b8 ) b8 > c+2.~ c+8 ( c+16 c+16 ) d+2. ( d+8 ) d+8 f2. > f16 < f16 ( f16 ) f16 < b2. ( b8 ) b8 a+2. ( a+8 ) a+8 b4 ( b8 ) > c+8 ( c+8 ) c+4 < b8~ b16 ( b16 ) b4. > [ c+8. ( c+16 ) ]2 < L [ b16 ( b16 ) b16 b16 ]2 [ b16 b16 > b16 < b16 ]2 [ a+16 ( a+16 ) a+16 a+16 ]2 [ a+16 a+16 > a+16 < a+16 ]2 [ b16 ( b16 ) b16 b16 ]2 [ b16 ]8 > [ c+16 ( c+16 ) c+16 c+16 ]2 f16~ f+16~ g16~ g+16 > c+4 < [ d16 ( d16 ) d16 d16 d16 d16 d16 ( d16 ) [ d16 ( d16 ) ]4 < a16 ( a16 ) a16 a16 a16 a16 a16 ( a16 ) [ a16 ( a16 ) ]4 a+16 ( a+16 ) a+16 a+16 a+16 a+16 a+16 ( a+16 ) [ a+16 ( a+16 ) ]4 > c16 ( c16 ) c16 c16 c16 c16 c16 ( c16 ) [ c16 ( c16 ) ]4 d16 ( d16 ) d16 d16 d16 d16 d16 ( d16 ) [ d16 ( d16 ) ]4 < a16 ( a16 ) a16 a16 a16 a16 a16 ( a16 ) [ a16 ( a16 ) ]4 a+8 ( a+8 ) a+8 > c4 [ c16 ( c16 ) ]2 d8~ d16 ( d16 ) [ d16 ( d16 ) ]5 [ c16 ( c16 ) ]2 ]2 < a+2. ( a+8 ) a+16 a+16 a+2.~ a+8~ ( a+8 ) a2.~ a8~ ( a8 ) > d2 c2 < a+16 ( a+16 ) a+16 a+16 a+16 a+16 a+16 ( a+16 ) [ a+16 ( a+16 ) ]4 > f16 ( f16 ) f16 f16 f16 f16 f16 ( f16 ) [ f16 ( f16 ) ]4 c16 ( c16 ) c16 c16 c16 > c16 < c16 ( c16 ) [ c16 ( c16 ) ]4 < [ a+16 ( a+16 ) ]4 > [ c16 ( c16 ) ]4 < b16 ( b16 ) b16 b16 [ b16 ]4 > b16 < b16 ( b16 ) b16 > b8 b8 c+16 ( c+16 ) c+16 c+16 [ c+16 ]4 > c+16 < c+16 ( c+16 ) c+16 > c+8 < c16 d16 d+16 ( d+16 ) d+16 d+16 [ d+16 ]4 > d+16 < d+16 ( d+16 ) d+16 > d+8 < d+16 d+16 f16 ( f16 ) f16 f16 f16 ( f16 ) f8 ( f16 ) f16 f16 f16 [ f16 ( f16 ) ]2 < b16 ( b16 ) b16 b16 b16 b16 a+16 ( a+16 ) b16 ( b16 ) b8 > b8 < b8 a+16 ( a+16 ) a+16 a+16 a+16 a+16 a16 ( a16 ) a+16 ( a+16 ) a+8 > a+8 < a+8 b8 ( b8 ) b8 > c+4 [ c+16 ( c+16 ) ]2 < b8~ [ b16 ( b16 ) ]4 > [ c+16 ( c+16 ) ]4 < b16 ( b16 ) b16 b16 [ b16 ]4 > b16 < b16 ( b16 ) b16 > b8 b8 c+16 ( c+16 ) c+16 c+16 c+16 c+16 < b16 > c16 c+16 c+16 ( c+16 ) c+16 > c+8 < c+16 c+16 d+16 ( d+16 ) d+16 d+16 d+16 c+16 c+8 > d+16 < d+16 ( d+16 ) d+16 > d+8 < d+16 d+16 f16 ( f16 ) f16 f16 f16 ( f16 ) f8 ( f16 ) f16 f16 f16 [ f16 ( f16 ) ]2 < b16 ( b16 ) b16 b16 b16 ( b16 ) b8 b16 ( b16 ) b8 > b8 < b8 a+16 ( a+16 ) a+16 a+16 a+16 ( a+16 ) a+8 a+16 ( a+16 ) a+8 > a+8 < a+8 b8 ( b8 ) b8 > c+4 [ c+16 ( c+16 ) ]2 < b8~ [ b16 ( b16 ) ]4 > [ c+8 ( c+8 ) ]2 < 
!4  [ @8 x4 @6 x8 @5 x16 @6 x16 @6 x16 @7 x8 @6 x16 @5 x8 @8 x8 @8 x4 @6 x8 @5 x16 @6 x16 @6 x16 @7 x8 @6 x16 [ @7 x16 @5 x16 ]2 ]2 @8 x4 [ @5 x16 x16 @7 x16 @5 x16 ]3 [ @5 x16 x16 @7 x16 @5 x16 ]4 @8 x4 @7 x8 @8 x8~ x8 @7 x16 @5 x16 @7 x8 @8 x8 @8 x4 [ @5 x16 x16 @7 x16 @5 x16 ]3 L @8 x4 [ @5 x16 x16 @7 x16 @5 x16 ]3 [ @5 x16 x16 @7 x16 @5 x16 ]8 [ @5 x16 x16 @7 x16 @5 x16 ]3 @21 x4 @8 x4 [ @5 x16 x16 @7 x16 @5 x16 ]3 [ @5 x16 x16 @7 x16 @5 x16 ]24 [ @5 x16 x16 @7 x16 @5 x16 ]3 @21 x4 @8 x4 [ @5 x16 x16 @7 x16 @5 x16 ]3 [ @5 x16 x16 @7 x16 @5 x16 ]12 @8 x4 [ @5 x16 x16 @7 x16 @5 x16 ]3 [ @5 x16 x16 @7 x16 @5 x16 ]4 @8 x4 @5 x16 x16 @8 x8~ x8 @7 x16 @5 x16 x16 x16 @8 x8~ x4 [ @5 x16 x16 @7 x16 @5 x16 ]2 @8 x4 @8 x4 [ @5 x16 x16 @7 x16 @5 x16 ]3 [ @5 x16 x16 @7 x16 @5 x16 ]11 @8 x4 @8 x4 [ @5 x16 x16 @7 x16 @5 x16 ]3 [ @5 x16 x16 @7 x16 @5 x16 ]8 @8 x4 @5 x16 x16 @7 x16 @5 x16 @8 x4 @21 x4 [ @8 x4 [ @5 x16 x16 @7 x16 @5 x16 ]3 [ @5 x16 x16 @7 x16 @5 x16 ]12 @8 x4 [ @5 x16 x16 @7 x16 @5 x16 ]3 [ @5 x16 x16 @7 x16 @5 x16 ]4 @8 x4 @5 x16 x16 @8 x8~ x8 @7 x16 @5 x16 x16 x16 @8 x8~ x4 [ @5 x16 x16 @7 x16 @5 x16 ]2 @21 x4 ]2 
!5  V1 O1 @20 [ x2. r8 x8 x1 ]2 [ x4 ]12 [ @33 x16 @23 x16 x16 x16 ]3 @33 x24 @23 [ x24 ]5 L [ @20 x4 @29 x4 ]7 @33 x8 @23 x8 @33 x16 @2 Y.R g16 YL. d16 d16 YLR [ @20 x4 @29 x4 ]7 @20 x16 @23 x8. @33 x8 @23 x8 [ @20 x4 @29 x4 ]6 [ @33 x16 @23 x16 x8 ]2 @33 x16 @23 x16 x16 x16 @33 x16 @2 Y.R g16 YL. d16 d16 YLR [ @20 x4 @29 x4 ]7 @20 x16 @23 x8. @33 x8 @20 x8 [ @20 x4 @29 x4 ]6 @20 x8 @23 x8 @33 x16 @23 x16 x8 @33 x16 @23 x16 x16 x16 @33 x16 @2 Y.R g16 YL. d16 d16 YLR [ @20 x4 @29 x4 @33 x16 @23 x16 x16 x16 @29 x4 ]3 @20 x4 @29 x4 @33 x16 @23 x16 x16 x16 @29 x8 @20 x8 [ @20 x4 @29 x4 ]6 @33 x8 @23 x8 @33 x16 @23 x16 x16 x16 @33 x16 x16 @2 Y.R b16 b16 YLR g16 g16 YL. d16 d16 YLR [ @20 x4 @29 x4 ]7 @20 x4 @29 x8 @20 x8 [ @20 x4 @29 x4 ]6 [ @33 x16 @23 x16 x8 ]2 @33 x16 @23 x16 x16 x16 @33 x16 @2 Y.R g16 YL. d16 d16 YLR [ @20 x4 @29 x4 ]7 @20 x16 @23 x8. @33 x8 @20 x8 [ @20 x4 @29 x4 ]5 @20 x8 @23 x8 @33 x8 @23 x8 [ @33 x16 @23 x16 x16 x16 ]2 @33 x16 x16 @2 Y.R b16 b16 YLR g16 g16 YL. d16 d16 YLR 
!6  O2 V1 @62 W0,100,40 [ YL. b16 Y.R ( b16 ) YL. b32 ( Y.R b32 ) YL. b32 ( Y.R b32 ) ]2 YL. ( b16 ) b32 Y.R ( b32 ) YL. b16 ( Y.R b16 ) YL. b16 ( Y.R b16 ) YL. b32 ( Y.R b32 ) YL. b32 ( Y.R b32 ) > [ YL. c+16 Y.R ( c+16 ) YL. c+32 ( Y.R c+32 ) YL. c+32 ( Y.R c+32 ) ]2 YL. ( c+16 ) c+32 Y.R ( c+32 ) YL. c+16 ( Y.R c+16 ) YL. c+16 ( Y.R c+16 ) YL. c+32 ( Y.R c+32 ) YL. c+32 ( Y.R c+32 ) [ YL. d+16 Y.R ( d+16 ) YL. d+32 ( Y.R d+32 ) YL. d+32 ( Y.R d+32 ) ]2 YL. ( d+16 ) d+32 Y.R ( d+32 ) YL. d+16 ( Y.R d+16 ) YL. d+16 ( Y.R d+16 ) YL. d+32 ( Y.R d+32 ) YL. d+32 ( Y.R d+32 ) [ YL. f16 Y.R ( f16 ) YL. f32 ( Y.R f32 ) YL. f32 ( Y.R f32 ) ]2 YL. ( f16 ) f32 Y.R ( f32 ) YL. f16 ( Y.R f16 ) YL. f16 ( Y.R f16 ) YL. f32 ( Y.R f32 ) YL. f32 ( Y.R f32 ) < [ YL. b16 Y.R ( b16 ) YL. b32 ( Y.R b32 ) YL. b32 ( Y.R b32 ) ]2 YL. ( b16 ) b32 Y.R ( b32 ) YL. b16 ( Y.R b16 ) YL. b16 ( Y.R b16 ) YL. b32 ( Y.R b32 ) YL. b32 ( Y.R b32 ) [ YL. a+16 Y.R ( a+16 ) YL. a+32 ( Y.R a+32 ) YL. a+32 ( Y.R a+32 ) ]2 YL. ( a+16 ) a+32 Y.R ( a+32 ) YL. a+16 ( Y.R a+16 ) YL. a+16 ( Y.R a+16 ) YL. a+32 ( Y.R a+32 ) YL. a+32 ( Y.R a+32 ) YL. b16 Y.R ( b16 ) [ YL. b32 ( Y.R b32 ) ]2 YL. b16 Y.R ( b16 ) > YL. c+8~ c+16 ( Y.R c+16 ) YL. c+16 ( Y.R c+16 ) YL. c+16 ( Y.R c+16 ) < b8~ b16 ( Y.R b16 ) [ YL. b16 ( Y.R b16 ) ]3 > [ YL. c+16. ( Y.R c+32 ) ]4 L [ YL. f+32 ( Y.R f+32 ) ]7 YL. f+16~ f+16 ( Y.R f+16 ) YL. g+16 ( Y.R g+16 ) [ YL. a+16 ( Y.R a+16 ) ]2 [ YL. f+32 ( Y.R f+32 ) ]7 YL. f+16~ f+16 ( Y.R f+16 ) YL. f16 ( Y.R f16 ) [ YL. f+16 ( Y.R f+16 ) ]2 [ YL. f+32 ( Y.R f+32 ) ]7 YL. f+16~ f+16 ( Y.R f+16 ) YL. g+16 ( Y.R g+16 ) [ YL. a+16 ( Y.R a+16 ) ]2 [ YL. f+32 ( Y.R f+32 ) ]8 [ YL. c+32 ( Y.R c+32 ) ]8 O2 @37 W0,100,60 [ [ YL. f16 Y.R ( f16 ) [ YL. d16 Y.R ( d16 ) ]2 ]2 YL. a8 d16 Y.R ( d16 ) [ YL. e16 Y.R ( e16 ) [ YL. c16 Y.R ( c16 ) ]2 ]2 YL. g8 ( e16 g16 ) [ YL. f16 Y.R ( f16 ) [ YL. d16 Y.R ( d16 ) ]2 ]2 YL. a8 d16 Y.R ( d16 ) [ YL. e16 Y.R ( e16 ) [ YL. c16 Y.R ( c16 ) ]2 ]2 YL. g16 ( f16 ) e16 d16 [ YL. f16 Y.R ( f16 ) [ YL. d16 Y.R ( d16 ) ]2 ]2 YL. a8 d16 Y.R ( d16 ) [ YL. e16 Y.R ( e16 ) [ YL. c16 Y.R ( c16 ) ]2 ]2 YL. e16 Y.R ( e16 ) YL. c16 Y.R ( c16 ) YL. f16 Y.R ( f16 ) YL. d16 Y.R ( d16 ) YL. f16 Y.R ( f16 ) YL. a16 Y.R ( a16 ) YL. g16 Y.R ( g16 ) YL. f16 Y.R ( f16 ) YL. e16 Y.R ( e16 ) YL. f16 Y.R ( f16 ) YL. d16 ( d16 ) e8 c16 ( c16 ) d16 ( c16 ) < a16 ( a16 ) > c16 < ( a16 ) g16 ( g16 ) a8 > ]2 O2 @62 W0,100,40 [ YL. a+8 ( Y.R a+16 ) ]4 YL. a+8 a16 a+16 > [ YL. c8 ( Y.R c16 ) ]4 YL. c8 < a+8 [ YL. a8 ( Y.R a16 ) ]4 YL. a16 ( Y.R a16 ) YL. a8 > [ YL. d8 ( Y.R d16 ) ]4 YL. d16 ( Y.R d16 ) YL. d8 < [ YL. a+16 Y.R ( a+16 ) YL. a+32 ( Y.R a+32 ) YL. a+32 ( Y.R a+32 ) ]2 YL. ( a+16 ) a+32 Y.R ( a+32 ) YL. a+16 ( Y.R a+16 ) YL. a+16 ( Y.R a+16 ) YL. a+32 ( Y.R a+32 ) YL. a+32 ( Y.R a+32 ) > [ YL. f16 Y.R ( f16 ) YL. f32 ( Y.R f32 ) YL. f32 ( Y.R f32 ) ]2 YL. ( f16 ) f32 Y.R ( f32 ) YL. f16 ( Y.R f16 ) YL. f16 ( Y.R f16 ) YL. f32 ( Y.R f32 ) YL. f32 ( Y.R f32 ) [ YL. c16 Y.R ( c16 ) YL. c32 ( Y.R c32 ) YL. c32 ( Y.R c32 ) ]2 YL. ( c16 ) c32 Y.R ( c32 ) YL. c16 ( Y.R c16 ) YL. c16 ( Y.R c16 ) YL. c32 ( Y.R c32 ) YL. c32 ( Y.R c32 ) < [ YL. a+16 ( Y.R a+16 ) ]2 YL. a+4 > [ YL. c8. ( Y.R c16 ) ]2 < [ [ YL. b16 Y.R ( b16 ) YL. b32 ( Y.R b32 ) YL. b32 ( Y.R b32 ) ]2 YL. ( b16 ) b32 Y.R ( b32 ) YL. b16 ( Y.R b16 ) YL. b16 ( Y.R b16 ) YL. b32 ( Y.R b32 ) YL. b32 ( Y.R b32 ) > [ YL. c+16 Y.R ( c+16 ) YL. c+32 ( Y.R c+32 ) YL. c+32 ( Y.R c+32 ) ]2 YL. ( c+16 ) c+32 Y.R ( c+32 ) YL. c+16 ( Y.R c+16 ) YL. c+16 ( Y.R c+16 ) YL. c+32 ( Y.R c+32 ) YL. c+32 ( Y.R c+32 ) [ YL. d+16 Y.R ( d+16 ) YL. d+32 ( Y.R d+32 ) YL. d+32 ( Y.R d+32 ) ]2 YL. ( d+16 ) d+32 Y.R ( d+32 ) YL. d+16 ( Y.R d+16 ) YL. d+16 ( Y.R d+16 ) YL. d+32 ( Y.R d+32 ) YL. d+32 ( Y.R d+32 ) [ YL. c+16 Y.R ( c+16 ) YL. c+32 ( Y.R c+32 ) YL. c+32 ( Y.R c+32 ) ]2 YL. ( c+16 ) c+32 Y.R ( c+32 ) YL. c+16 ( Y.R c+16 ) YL. c+16 ( Y.R c+16 ) YL. c+32 ( Y.R c+32 ) YL. c+32 ( Y.R c+32 ) [ YL. f+32 ( Y.R f+32 ) ]7 YL. f+16~ f+16 ( Y.R f+16 ) YL. g+16 ( Y.R g+16 ) [ YL. a+16 ( Y.R a+16 ) ]2 [ YL. f+32 ( Y.R f+32 ) ]7 YL. f+16~ f+16 ( Y.R f+16 ) YL. f16 ( Y.R f16 ) [ YL. f+16 ( Y.R f+16 ) ]2 < YL. b16 Y.R ( b16 ) [ YL. b32 ( Y.R b32 ) ]2 YL. b16 Y.R ( b16 ) > YL. c+8~ c+16 ( Y.R c+16 ) YL. c+16 ( Y.R c+16 ) YL. c+16 ( Y.R c+16 ) < b8~ b16 ( Y.R b16 ) [ YL. b16 ( Y.R b16 ) ]3 > [ YL. c+16. ( Y.R c+32 ) ]4 < ]2 > 
