;007 00317C92
!1  T170 V0 O3 @2 r2 [ ) e4 ]6 V4 O2 @2 E100,75,20,26,26 B1 D-1 YL. r4 g2 > d4.~ d8 g4 f+16~ g8. f+16~ g8.~ _V-3 g4 _V3 Y.R < g2 > d4.~ d8 g4 f+16~ g16 < D0 YLR O3 @2 E100,85,60,16,32 P21,13,4 B8 < a8 b8 b16~ > c16~ L c2 < a+16~ b8. a4 b4 b16~ > c16 < b8~ b8 a8 b8 b16~ > c16~ c2 < a+16~ b8. a8~ _V-2 e8 _V2 > c+16~ d8. c8. _V-3 c16 _V3 < a+16~ b8. a4 f1 d+16~ e8. > f8 e8~ e4. < YL. c8~ c2. _V-3 c8 _V3 a8~ a2. _V-3 a8 _V3 > c8~ c2. _V-3 c8 _V3 g8~ g2. _V-3 g4 _V3 YLR V6 O2 @@3,2,1 E100,90,60,19,32 f2 g2 a4.~ _V-3 a4 _V3 r4 a8 a2 g4.~ ( e8 ) e4.~ _V-3 e4 _V3 r4 a8 a2 g2 g2~ _V-4 g4 _V4 r4 YL. _V-3 d2.~ _V-2 d8 _V2 a8~ a1 _V3 YLR f2 g2 a4.~ _V-3 a4 _V3 r4 a8 a2 g4.~ ( e8 ) e4.~ _V-3 e4 _V3 r4. a2 g2 g2~ _V-4 g4 _V4 r4 r2. r8 V8 @0 YL. e8~ e16 _V-4 e16 _V4 [ e16 _V-4 e16 _V4 ]3 d8 e8 _V-4 e8 _V4 r8 YLR V5 O2 @2 E100,80,0,6,6 r8 [ e16 _V-3 e16 _V3 ]3 [ f16 _V-3 f16 _V3 ]2 r4 [ d16 _V-3 d16 _V3 ]4 r2 r8 < [ b16 _V-3 b16 _V3 ]6 r8 > c16 _V-3 c16 _V3 r8 < b16 _V-3 b16 _V3 a16 _V-3 a16 _V3 r2 > r8 [ e16 _V-3 e16 _V3 ]4 d16 _V-3 d16 _V3 r4 < b8 _V-3 b8 _V3 r8 b8 _V-3 b8 _V3 r4. > @2 E100,90,60,19,32 YLR B3 P9,12,5 r8 c16 e16 a8 e8 b8 e8 > d8 c16~ d16~ d8 c16~ d16 c2 _V-3 c4 _V3 < PX @2 E100,80,0,6,6 r8 [ e16 _V-3 e16 _V3 ]4 d16 _V-3 d16 _V3 r4 < b16 _V-3 b16 _V3 r8 r8 b16 _V-3 b16 _V3 r2 r8 [ b16 _V-3 b16 _V3 ]4 b16 _V-3 b16 _V3 r4 > c16 _V-3 c16 _V3 r8 r8 c16 _V-3 c16 _V3 r2 r8 [ c16 _V-3 c16 _V3 ]3 < [ a16 _V-3 a16 _V3 ]2 r4 a16 _V-3 a16 _V3 r8 r8 a16 _V-3 a16 _V3 r2 r8 [ b16 _V-3 b16 _V3 ]7 > V8 @0 E100,90,60,19,32 YL. r8 [ a16 _V-3 a16 _V3 ]2 b8 _V-3 b8 _V3 YLR V6 O2 @@3,2,1 E100,90,60,19,32 a8 b8 > c8~ c4~ _V-3 c4 _V3 < ( < a2 b2~ b8 > ) a8 b8 > c8~ c4~ _V-3 c4 _V3 ( < e2 f+1 f1 f2 g2 g8 ) > @2 E100,90,60,19,32 YLR B3 P9,12,5 < d+16~ e16 d8 c8 d8~ e8 > c8 < b16~ > c16~ c16~ < b16 e8 f8 > d+16~ e8. PX O2 @@3,2,1 E100,90,60,19,32 a8 b8 > c8~ c4~ _V-3 c4 _V3 < ( < a2 b2~ b8 > ) a8 b8 > c8~ c4~ _V-3 c4 _V3 ( < c2 d1 ) f1 > [ g4 ( ]4 < _V4 V7 O2 @2 E100,75,20,26,26 B1 r8 [ Y.R g8 ( YL. g8 ( ]2 _V4 > [ Y.R d8 ( YL. d8 ( ]2 _V4 [ Y.R g8 ( YL. g8 ]4 _V4 YL. < g2 > d4.~ d8 g8~ g4. YLR V4 O3 @2 E100,85,60,16,32 P21,13,4 B8 < a8 b8 b16~ > c16~ 
!2  V0 O1 @2 r2 [ ) g4 ]6 V7 O2 @2 E100,75,20,26,26 B1 Y.R r8 g2 > d4.~ d8 g8~ g2.~ _V-4 g8 _V4 YL. < g2 > d4.~ d8 g8~ g4. YLR O3 @2 E100,85,60,16,32 P21,13,4 B10 c8 d8 d+16~ e16~ L e2 c+16~ d8. c4 d4 d+32~ e16. d8~ d8 c8 d8 d+16~ e16~ e2 c+16~ d8. c8.~ < _V-2 a16 _V2 > e16~ f8. e8. _V-2 e16 _V2 c+16~ d8. c4 < a1 g16~ a8. > a8 g8~ g4. g+16~ a16~ a1~ a4~ _V-3 e16~ ( c16~ ( < a16~ ( e16 _V6 r4. V4 Y.R > d8~ d2. _V-3 d8 _V3 c8~ c2. _V-3 c4 _V3 < YLR V8 O2 @@3,2,1 E100,90,60,19,32 a2 b2 > c4.~ _V-3 c8 _V3 < a8 b8 > c8 d8 c2 < b4.~ ( a8 ) a4.~ _V-3 a8 _V3 a8 b8 > c8 d8 c2 < b2 b4.~ _V-3 b8 _V3 [ b16.~ _V-3 b32 _V3 ]3 > c8 < b4 a8 e8~ e4~ _V-3 e8 _V3 Y.R _V-4 d8~ d1 _V4 YLR a2 b2 > c4.~ _V-3 c8 _V3 < a8 b8 > c8 d8 c2 < b4.~ ( a8 ) a4.~ _V-3 a8 _V3 a8 b8 > c8 d8 c2 < b2 b4.~ _V-3 b8 _V3 [ b16.~ _V-3 b32 _V3 ]3 > c8 < b4 a8 a8~ a4~ _V-3 a8 _V3 @0 Y.R a8~ a16 _V-4 a16 _V4 [ a16 _V-4 a16 _V4 ]3 g8 a8 _V-3 a8 _V3 YLR @@3,2,1 E100,90,60,19,32 > e8~ [ e16.~ _V-3 e32 _V3 ]4 e4 f8 e8~ e8 d8~ d4~ _V-3 d4 _V3 r8 d8~ d16.~ _V-3 d32 _V3 [ d16.~ _V-3 d32 _V3 ]3 d4 e8 d8~ d8 c8~ c4~ _V-3 c4 _V3 r8 c8~ c16.~ _V-3 c32 _V3 [ c16.~ _V-3 c32 _V3 ]3 c4 d8 < b8~ b4~ _V-3 b8 _V3 b8 a4 g+4 a4.~ _V-3 a8 _V3 a4 b8 > c8~ c2~ _V-3 c4 _V3 r8 e8~ e16.~ _V-3 e32 _V3 [ e16.~ _V-3 e32 _V3 ]3 e4 f8 e8~ e8 d8~ d4~ _V-3 d4 _V3 r8 d8~ d16.~ _V-3 d32 _V3 [ d16.~ _V-3 d32 _V3 ]3 d4 e8 d8~ d8 c8~ c4~ _V-3 c8 _V3 r8 < a8 b8 > c4~ _V-3 c4 _V3 r4 c8 c8 d4 c4 < b8 a4 b8~ b2.~ _V-3 b4 _V3 @0 Y.R r8 [ d16 _V-3 d16 _V3 ]2 e8 _V-3 e8 _V3 YLR @@3,2,1 E100,90,60,19,32 > c8 d8 e8~ e4~ _V-3 e4 _V3 d4 c4 d4 e8 d8~ _V-3 d8 _V3 c8 d8 e8~ e4~ _V-3 e4 _V3 d4 c4 d4 e8 d4~ _V-3 d8 _V3 r8 < a8 > f4 e4 d4 c4 d4 d4 < b4 g4 > e1~ _V-5 e4 _V5 r4 r8 c8 d8 e8~ e4~ _V-3 e4 _V3 d4 c4 d4 e8 d8~ _V-3 d8 _V3 c8 d8 e8~ e4~ _V-3 e4 _V3 d4 c4 f4 e4 d4 c4 < a2~ _V-4 a4 _V4 > e4 d4 d4 < b4 g4 b4~ b8 a8~ a2~ a2.~ _V-5 a4 _V5 V4 O3 @2 E100,75,20,26,26 B1 D-1 YL. _V-3 g4 _V3 Y.R < g2 > d4.~ d8 g4 f+16~ g16 < D0 YLR V7 O3 @2 E100,85,60,16,32 P21,13,4 B10 c8 d8 d+16~ e16~ 
!3  V3 B10 `9F00 @A3 @B0 @~3 O0 [ r1 ]2 [ [ f16~ _V-2 f16 _V2 ]8 ]3 [ f16~ _V-2 f16 _V2 ]7 a8~ L [ a16~ _V-2 a16 _V2 ]8 [ b16~ _V-2 b16 _V2 ]7 > c8 [ c16~ _V-2 c16 _V2 ]8 [ d16~ _V-2 d16 _V2 ]8 < [ f16~ _V-2 f16 _V2 ]8 [ e16~ _V-2 e16 _V2 ]7 a8~ [ a16~ _V-2 a16 _V2 ]2 g8~ _V-2 g8 _V2 a8 e8 g8 a8~ [ a16~ _V-2 a16 _V2 ]2 g8 a8 > d8 e8 < g8 a8~ [ a16~ _V-2 a16 _V2 ]2 g8~ _V-2 g8 _V2 a8 e8 g8 a8~ [ a16~ _V-2 a16 _V2 ]2 g8 a8 > d8 e8 < g8 a8 [ f16~ _V-2 f16 _V2 ]8 [ f16~ _V-2 f16 _V2 ]7 g16~ _V-2 g16 _V2 [ a16~ _V-2 a16 _V2 ]8 [ a16~ _V-2 a16 _V2 ]6 [ g16~ _V-2 g16 _V2 ]2 [ f16~ _V-2 f16 _V2 ]8 [ e16~ _V-2 e16 _V2 ]7 g16~ _V-2 g16 _V2 [ a16~ _V-2 a16 _V2 ]2 g8~ _V-2 g8 _V2 a8 e8 g8 a8~ [ a16~ _V-2 a16 _V2 ]2 a8 b8 > d8 e8 < g8 a8 [ f16~ _V-2 f16 _V2 ]8 [ f16~ _V-2 f16 _V2 ]7 g16~ _V-2 g16 _V2 [ a16~ _V-2 a16 _V2 ]8 [ a16~ _V-2 a16 _V2 ]7 g16~ _V-2 g16 _V2 [ f16~ _V-2 f16 _V2 ]8 [ e16~ _V-2 e16 _V2 ]8 a8~ _V-2 a8 _V2 > d8 e16~ _V-2 e16 _V2 c8 d16~ _V-2 d16 _V2 < g8 a8~ [ a16~ _V-2 a16 _V2 ]4 g8 a8 r8 f8~ [ f16.~ _V-2 f32 _V2 ]3 f8 _V-2 f8 _V2 r4 g8~ [ g16.~ _V-2 g32 _V2 ]2 f+8 g8 > f+8 g8 < _V-2 g8 _V2 g+8~ [ g+16.~ _V-2 g+32 _V2 ]3 g+4~ ( e8 ) r8 a8~ [ a16.~ _V-2 a32 _V2 ]2 g+8 a8 > g+8 a8 < _V-2 a8 _V2 f8~ [ f16~ _V-2 f16 _V2 ]7 e16~ _V-2 e16 _V2 [ e16~ _V-2 e16 _V2 ]8 [ a16~ _V-2 a16 _V2 ]8 [ a16~ _V-2 a16 _V2 ]4 > d8 e8 < _V-2 g8 _V2 f8~ [ f16.~ _V-2 f32 _V2 ]3 f8 _V-2 f8 _V2 r4 g8~ [ g16.~ _V-2 g32 _V2 ]2 f+8 g8 > f+8 g8 < _V-2 g8 _V2 g+8~ [ g+16.~ _V-2 g+32 _V2 ]3 g+4~ ( e8 ) r8 a8~ [ a16.~ _V-2 a32 _V2 ]2 g+8 a8 > g+8 a8 < a8~ e8 > d8 > d8 < [ d16.~ _V-2 d32 _V2 ]6 [ d+16~ _V-2 d+16 _V2 ]8 [ e16~ _V-2 e16 _V2 ]8 < r8 [ e16~ _V-2 e16 _V2 ]3 r4. a8~ [ a16~ _V-2 a16 _V2 ]8 [ b16~ _V-2 b16 _V2 ]7 > c8~ [ c16~ _V-2 c16 _V2 ]8 [ d16~ _V-2 d16 _V2 ]8 < [ f16~ _V-2 f16 _V2 ]8 [ g16~ _V-2 g16 _V2 ]8 > [ c16~ _V-2 c16 _V2 c16.~ _V-2 c32 _V2 ]3 c8 < e8~ [ e16.~ _V-2 e32 _V2 ]2 e8~ _V-2 e8 _V2 [ e16.~ _V-2 e32 _V2 ]2 r8 a8~ [ a16~ _V-2 a16 _V2 ]6 a8~ ( e8 ) [ b16~ _V-2 b16 _V2 ]7 > c8~ [ c16~ _V-2 c16 _V2 ]7 c16 c+16 [ d16~ _V-2 d16 _V2 ]8 < [ f16~ _V-2 f16 _V2 ]8 e1 [ [ f16~ _V-2 f16 _V2 ]8 ]3 [ f16~ _V-2 f16 _V2 ]7 a8~ 
!4  r1 r2. @21 x2 @5 x16 @6 x16 x16 x16 @5 x16 @6 x16 @7 x8 @5 x16 @6 x16 x16 x16 @5 x16 @6 x16 @7 x16 @6 x16 @7 x16 @6 x16 x16 x16 [ @5 x16 @6 x16 x16 x16 ]2 [ @5 x16 @6 x16 @7 x16 @6 x16 @5 x16 @6 x16 x16 x16 ]2 @5 x16 @6 x16 @7 x16 @6 x16 @7 x16 @6 x16 x16 x16 @5 x16 @6 x16 x16 x16 @5 x16 @6 x16 @8 x8~ L x4 [ @5 x8 @6 x8 ]6 @5 x8 @8 x8~ x4 [ @5 x8 @6 x8 ]7 @8 x4 [ @5 x8 @6 x8 ]6 @5 x8 @8 x8~ x4 @5 x4 r4 x8 @7 x8 @5 x4 x4 r4 x8 @8 x8~ x4 @5 x4 r4 x8 @7 x8 @5 x4 r2. @8 x4 [ @5 x8 @6 x8 ]2 @5 x8 @7 x8 [ [ @5 x8 @6 x8 ]3 @5 x8 @7 x8 ]4 [ @5 x8 @6 x8 ]4 r4 @5 x4 r4. @7 x8 @5 x4 x4 r2 @8 x4 [ @5 x8 @6 x8 ]2 @5 x8 @7 x8 [ [ @5 x8 @6 x8 ]3 @5 x8 @7 x8 ]4 [ @5 x8 @6 x8 ]4 r4 @5 x4 r4. @7 x8 @5 x4 r2 r8 @8 x8~ x4 @5 x4 r4. @7 x8 @5 x4 r2 r8 @8 x8~ x4 @5 x4 r4. @7 x8 @5 x4 r2 r8 @8 x8~ x4 [ @5 x8 @6 x8 ]2 @5 x8 @7 x8 [ @5 x8 @6 x8 ]10 @5 x8 @7 x8 @5 x8 @8 x8~ x4 @5 x4 r4. @7 x8 @5 x4 r2 r8 @8 x8~ x4 @5 x4 r4. @7 x8 @5 x4 r2. @8 x4 [ @5 x8 @6 x8 ]11 r2. r8 @8 x8~ x4 [ @5 x8 @6 x8 ]6 @5 x8 @8 x8~ x4 [ @5 x8 @6 x8 ]7 @8 x4 [ @5 x8 @6 x8 ]9 @7 x8 @5 x8 x8 @8 x8~ r2. r8 x8~ x4 [ @5 x8 @6 x8 ]6 @5 x8 @8 x8~ x4 [ @5 x8 @6 x8 ]7 x4 [ @5 x8 @6 x8 ]3 @8 x1 [ @5 x16 @6 x16 @7 x16 @6 x16 @5 x16 @6 x16 x16 x16 ]2 @5 x16 @6 x16 @7 x16 @6 x16 @7 x16 @6 x16 x16 x16 @5 x16 @6 x16 x16 x16 @5 x16 @6 x16 @8 x8~ [ @5 x16 @6 x16 @7 x16 @6 x16 @5 x16 @6 x16 x16 x16 ]2 @5 x16 @6 x16 @7 x16 @6 x16 @7 x16 @6 x16 x16 x16 @5 x16 @6 x16 x16 x16 @5 x16 @6 x16 @8 x8~ 
!5  V1 O1 @0 x4 x4 @1 [ c16 ]4 c4 @0 x4 x4 x8 @1 [ x8 ]3 [ @0 [ x4 ]4 @0 x4 x4 x8 @1 [ x8 ]3 ]2 L [ @0 x4 @1 x4 ]11 @0 x4 @1 x8 x8 [ [ @0 x4 @1 x32 x32~ x8. ]3 @0 x8 @1 [ x8 ]3 ]2 [ @0 x4 x4 x4 @1 x4 ]5 @0 x4 x4 x4 @1 x8 x8 [ @0 x4 @1 x32 x32~ x8. ]3 @0 x8 @1 [ x8 ]3 [ @0 x4 x4 x4 @1 x4 ]5 @0 x4 x4 x4 @1 x8 x8 [ @0 x4 @1 x4 ]2 @0 x8 @1 [ x8 ]5 r8 x8 [ @0 x4 @1 x4 ]3 [ @0 x8 @1 x8 ]2 [ @0 x4 @1 x4 ]3 @0 x8 @1 x8 x4 [ @0 x4 @1 x4 ]7 @1 x8 x8 @0 x8 @1 x8 [ @0 x4 @1 x4 ]3 [ @0 x8 @1 x8 ]2 [ @0 x4 @1 x4 ]3 @0 x8 @1 x8 x4 [ @0 x4 @1 x4 ]5 @2 Y.R b8 YLR g8 YL. e8 e8 @0 YLR x8 @1 [ x8 ]3 @2 Y.R b16 b16 YLR g8 YL. e8 @0 YLR x8 r8 @0 x8 @1 x4 @0 x4 @1 x4 @0 x4 @1 x4 @0 x4 @1 x8 @0 x8 [ @0 x4 @1 x4 ]3 @0 x4 @1 x8 x8 [ @0 x4 @1 x4 ]4 @0 x8 x8 @1 x8 @0 x8 @1 x8 @0 x8 @1 x8 @0 x8 r8 @1 x8 x8 @0 x8 @1 x8 x8 @0 x8 @1 x8 r8 @0 x8 @1 x4 @0 x4 @1 x4 @0 x4 @1 x4 @0 x4 @1 x8 @0 x8 [ @0 x4 @1 x4 ]4 @0 x4 @1 x4 @0 x4 @1 x8 x8 @0 x4 x4 x8 @1 [ x8 ]3 [ @0 [ x4 ]4 @0 x4 x4 x8 @1 [ x8 ]3 ]2 
!6  [ r1 ]2 V1 @77 W0,100,33 r8 Y.R e8 c8 < YL. f8 > Y.R d8 YL. c8 < Y.R f8 > YL. e8 Y.R ( e8 ) YL. e8 Y.R c8 < YL. f8 > Y.R d8 YL. c8 < Y.R f8 > Y.R c8 YL. ( c8 ) Y.R e8 c8 < YL. f8 > Y.R d8 YL. c8 < Y.R f8 > YL. e8 Y.R ( e8 ) YL. e8 Y.R c8 < YL. f8 > Y.R d8 YL. c8 < Y.R f8 > Y.R c8 < L r8 [ Y.R b16 YL. ( b16 ) ]4 Y.R a16 YL. ( a16 ) r4 Y.R b8 YL. ( b8 ) r8 Y.R b8 YL. ( b8 ) r4. r8 [ Y.R b16 YL. ( b16 ) ]4 Y.R a16 YL. ( a16 ) r4 Y.R > c8 YL. ( c8 ) r8 Y.R c8 YL. ( c8 ) < r4. r8 [ Y.R a16 YL. ( a16 ) ]3 Y.R g16 YL. ( g16 ) Y.R a16 YL. ( a16 ) r4 Y.R g8 YL. ( g8 ) r8 Y.R g8 YL. ( g8 ) < r4 V1 O1 @10 W0,100,50 YLR YLR g8~ g4 Y.R g4 YL. ( g4 Y.R g8 ) YLR a8~ a4 Y.R a4 ( YL. a4 Y.R a8 ) YLR > c8~ c4 Y.R c4 ( YL. c4 Y.R c8 ) YLR < b8~ b4 Y.R b4 ( YL. b4 Y.R b4 ) B3 V1 O1 @10 W0,100,50 YLR f4~ Y.R ( f4 ) YLR g4~ YL. ( g4 ) YLR f4~ Y.R ( f8 ) @5 W0,100,33 > c8 ( c8 ) r8 < YL. g8~ a8~ Y.R ( a8 ) r8 > c8 ( c8 ) < b8 ( b8 ) r4 a8 ( a8 ) r8 ( a8 ) YL. g8~ a8 d8~ e8 @10 W0,100,50 YLR f4~ Y.R ( f4 ) YLR g4~ YL. ( g4 ) YLR g4~ Y.R ( g8 ) @5 W0,100,33 g8 YL. g8~ a8~ ( a8 ) r8 YLR > g2. ( g8 ) > g8~ g8 g2 ( g4. ) < < @10 W0,100,50 f4~ Y.R ( f4 ) YLR g4~ YL. ( g4 ) YLR f4~ Y.R ( f8 ) @5 W0,100,33 > c8 ( c8 ) r8 < YL. g8~ a8~ Y.R ( a8 ) r8 > c8 ( c8 ) < b8 ( b8 ) r4 a8 ( a8 ) r8 ( a8 ) YL. g8~ a8 d8~ e8 @10 W0,100,50 YLR f4~ Y.R ( f4 ) YLR g4~ YL. ( g4 ) YLR g4~ Y.R ( g8 ) @5 W0,100,33 Y.R g8 YL. a8~ g8 ( g8 ) r8 r4 Y.R d8~ e8 YL. c8~ d8 < Y.R g8 > @14 YLR > a8~ a8 a8 a8 a8 g8 a8 ( a8 ) < @60 W0,100,40 Y.R > f8~ f16 YL. ( f16 ) Y.R f8 e8 f8 YL. ( f8 ) r4 < @10 W0,100,50 YL. g8~ g4 Y.R ( g4 ) @60 W0,100,40 Y.R > f8 g8~ YL. ( d8 ) Y.R g+8 g+16 YL. ( g+16 ) Y.R g+8 f+8 g+8 YL. ( g+8 ) r4 < @10 W0,100,50 YL. a8~ a4 Y.R ( a4 ) @60 W0,100,40 Y.R > g+8 a8~ YL. ( a8~ e8 ) < @11 W0,100,0 [ YL. a8 Y.R a8 ]4 [ YL. b8 Y.R b8 ]3 YLR ( b4 ) @12 W0,100,0 > [ YL. c8 Y.R c8 ]2 < @11 W0,100,0 [ YL. b8 Y.R b8 ]2 [ YL. a8 Y.R a8 ]2 @10 W0,100,50 YLR g8 a8 ( a8 ) @60 W0,100,40 Y.R > f8~ f16 YL. ( f16 ) Y.R f8 e8 f8 YL. ( f8 ) r4 < @10 W0,100,50 YL. g8~ g4 Y.R ( g4 ) @60 W0,100,40 Y.R > f8 g8~ YL. ( d8 ) Y.R g+8 g+16 YL. ( g+16 ) Y.R g+8 f+8 g+8 YL. ( g+8 ) r4 < @10 W0,100,50 YL. a8~ a4 Y.R ( a4 ) @60 W0,100,40 Y.R > g+8 a8~ YL. ( a8~ e8 ) < @12 W0,100,0 [ YL. f8 Y.R f8 ]4 @11 W0,100,0 [ YL. f+8 Y.R f+8 ]4 [ YL. g+8 Y.R g+8 ]4 @13 YLR r8 > a8 a8 b8 ( b8 ) < r4. @10 W0,100,50 r8 Y.R d8 c8 YL. ( c8 ) @5 W0,100,33 Y.R g16 YL. ( g16 ) Y.R a16 YL. ( a16 ) r4 r4 YL. d8~ e8 Y.R d16 YL. ( d16 ) Y.R e16 YL. ( e16 ) r4 @10 W0,100,50 r8 YL. d8 c8 Y.R ( c8 ) @5 W0,100,33 Y.R g16 YL. ( g16 ) Y.R a16 YL. ( a16 ) g8 Y.R ( g8 ) r4 YL. > c8 ( c8 ) Y.R d8 < @10 W0,100,50 Y.R c8 d8 YL. ( d8 ) @5 W0,100,33 r4 YL. g8 Y.R ( g8 ) a8 a8 YL. ( a8 ) r8 r4 a8 Y.R ( a8 ) g8 YL. ( g8 ) r4 r4 g8 Y.R ( g8 ) g8 YL. ( g8 ) r8 @13 YLR > a8~ a8 a8 a8 ( a8 ) b8 b8 ( b8 ) < r8 @10 W0,100,50 r8 YL. d8 c8 Y.R ( c8 ) @5 W0,100,33 Y.R g16 YL. ( g16 ) Y.R a16 YL. ( a16 ) r4 r4 YL. d8~ e8 Y.R d16 YL. ( d16 ) Y.R e16 YL. ( e16 ) r4 @10 W0,100,50 r8 Y.R d8 c8 YL. ( c8 ) @5 W0,100,33 Y.R g16 YL. ( g16 ) Y.R a16 YL. ( a16 ) g8 Y.R ( g8 ) r4 YL. > e8 ( e8 ) Y.R d8 c8 ( c8 ) < r8 r4 YL. g8 ( g8 ) Y.R g8 a8 ( a8 ) r8 @11 W0,100,0 [ Y.R b4 YL. b4 ]2 @77 W0,100,33 r8 Y.R > e8 c8 < YL. f8 > Y.R d8 YL. c8 < Y.R f8 > YL. e8 Y.R ( e8 ) YL. e8 Y.R c8 < YL. f8 > Y.R d8 YL. c8 < Y.R f8 > Y.R c8 YL. ( c8 ) Y.R e8 c8 < YL. f8 > Y.R d8 YL. c8 < Y.R f8 > YL. e8 Y.R ( e8 ) YL. e8 Y.R c8 < YL. f8 > Y.R d8 YL. c8 < Y.R f8 > Y.R c8 < 
