;008 003192B0
!1  T145 L [ r1 ]2 V7 O2 P9,12,2 D1 @1 E80,100,60,15,38 YL. [ [ a32~ _V-3 a32 _V3 ]2 _V-3 a32~ ( a32~ ( a32~ ( a32 _V6 ]2 r2 r2 [ [ a32~ _V-3 a32 _V3 ]2 _V-3 a32~ ( a32~ ( a32~ ( a32 _V6 ]2 r2 [ a32~ _V-3 a32 _V3 ]2 _V-3 a32~ ( a32~ ( a32~ ( a32 _V6 r4 r4 [ a32~ _V-3 a32 _V3 ]2 _V-3 a32~ ( a32~ ( a32~ ( a32 _V6 r2 r1 r4. > c24 d24 e24 f2 < [ [ e32~ _V-3 e32 _V3 ]2 _V-3 e32~ ( e32~ ( e32~ ( e32 _V6 ]2 r4 [ e32~ _V-3 e32 _V3 ]2 _V-3 e32~ ( e32~ ( e32~ ( e32 _V6 r4 [ e32~ _V-3 e32 _V3 ]2 _V-3 e32~ ( e32~ ( e32~ ( e32 _V6 r2 O2 [ [ a32~ _V-3 a32 _V3 ]2 _V-3 a32~ ( a32~ ( a32~ ( a32 _V6 ]2 r2 r2 [ [ a32~ _V-3 a32 _V3 ]2 _V-3 a32~ ( a32~ ( a32~ ( a32 _V6 ]2 r2 [ a32~ _V-3 a32 _V3 ]2 _V-3 a32~ ( a32~ ( a32~ ( a32 _V6 r4 r4 [ a32~ _V-3 a32 _V3 ]2 _V-3 a32~ ( a32~ ( a32~ ( a32 _V6 r2 r1 r4. > c24 d24 e24 f2 < [ [ e32~ _V-3 e32 _V3 ]2 _V-3 e32~ ( e32~ ( e32~ ( e32 _V6 ]2 r4 [ e32~ _V-3 e32 _V3 ]2 _V-3 e32~ ( e32~ ( e32~ ( e32 _V6 r4 [ e32~ _V-3 e32 _V3 ]2 _V-3 e32~ ( e32~ ( e32~ ( e32 _V6 r2 YL. V4 r32 O1 [ [ b16 a16 b16 > c16 d16 c16 < b16 a16 ]2 ]2 O2 [ [ b16 a16 b16 > c16 d16 c16 < b16 a16 ]2 ]2 O3 [ [ b16 a16 b16 > c16 d16 c16 < b16 a16 ]2 ]2 V6 Y.R D0 < b32 a16 b16 > c16 d16 c16 d16 e16 f16 _V-2 e16 f16 g16 a16 g16 a16 b16 > c16 < _V2 r16 r4. b16 a16 g16 f16 e16 d16 c16 < b16 a2.~ _V-2 a8 _V-2 a8 _V4 
!2  L V6 O2 P9,12,2 D-1 @1 E80,100,60,15,38 YLR [ b16 a16 b16 > c16 d16 c16 < b16 a16 b16 a16 b16 > c16 d16 c16 < b16 a16 ]2 V7 O2 P9,12,2 D-1 @1 E80,100,60,15,38 Y.R [ [ b32~ _V-3 b32 _V3 ]2 _V-3 b32~ ( b32~ ( b32~ ( b32 _V6 ]2 YLR _V-2 b16 a16 b16 > c16 d16 c16 < b16 a16 b16 a16 b16 > c16 d16 c16 < b16 a16 _V2 Y.R [ [ b32~ _V-3 b32 _V3 ]2 _V-3 b32~ ( b32~ ( b32~ ( b32 _V6 ]2 YLR _V-2 b16 a16 b16 > c16 d16 c16 < b16 a16 _V2 Y.R [ b32~ _V-3 b32 _V3 ]2 _V-3 b32~ ( b32~ ( b32~ ( b32 _V6 YLR _V-2 > d16 c16 < b16 a16 b16 a16 b16 > c16 < _V2 Y.R [ b32~ _V-3 b32 _V3 ]2 _V-3 b32~ ( b32~ ( b32~ ( b32 _V6 YLR _V-2 b16 a16 b16 > c16 d16 c16 < b16 a16 b16 a16 b16 > c16 d16 c16 < b16 a16 b16 a16 b16 > c16 d16 c16 < _V2 Y.R g24 a24 b24 > c1 [ [ b32~ _V-3 b32 _V3 ]2 _V-3 b32~ ( b32~ ( b32~ ( b32 _V6 ]2 r4 [ b32~ _V-3 b32 _V3 ]2 _V-3 b32~ ( b32~ ( b32~ ( b32 _V6 r4 [ b32~ _V-3 b32 _V3 ]2 _V-3 b32~ ( b32~ ( b32~ ( b32 _V6 r2 O2 [ [ b32~ _V-3 b32 _V3 ]2 _V-3 b32~ ( b32~ ( b32~ ( b32 _V6 ]2 YLR _V-2 b16 a16 b16 > c16 d16 c16 < b16 a16 b16 a16 b16 > c16 d16 c16 < b16 a16 _V2 Y.R [ [ b32~ _V-3 b32 _V3 ]2 _V-3 b32~ ( b32~ ( b32~ ( b32 _V6 ]2 YLR _V-2 b16 a16 b16 > c16 d16 c16 < b16 a16 _V2 Y.R [ b32~ _V-3 b32 _V3 ]2 _V-3 b32~ ( b32~ ( b32~ ( b32 _V6 YLR _V-2 > d16 c16 < b16 a16 b16 a16 b16 > c16 < _V2 Y.R [ b32~ _V-3 b32 _V3 ]2 _V-3 b32~ ( b32~ ( b32~ ( b32 _V6 YLR _V-2 b16 a16 b16 > c16 d16 c16 < b16 a16 b16 a16 b16 > c16 d16 c16 < b16 a16 b16 a16 b16 > c16 d16 c16 < _V2 Y.R g24 a24 b24 > c1 [ [ b32~ _V-3 b32 _V3 ]2 _V-3 b32~ ( b32~ ( b32~ ( b32 _V6 ]2 r4 [ b32~ _V-3 b32 _V3 ]2 _V-3 b32~ ( b32~ ( b32~ ( b32 _V6 r4 [ b32~ _V-3 b32 _V3 ]2 _V-3 b32~ ( b32~ ( b32~ ( b32 _V6 r2 Y.R V4 O1 [ [ b16 a16 b16 > c16 d16 c16 < b16 a16 ]2 ]2 O2 [ [ b16 a16 b16 > c16 d16 c16 < b16 a16 ]2 ]2 O3 [ [ b16 a16 b16 > c16 d16 c16 < b16 a16 ]2 ]2 O2 YL. D0 r2 f16 e16 f16 g16 a16 g16 a16 b16 > c16 < b16 a16 g16 f16 e16 d16 c16 b16 a16 g16 f16 e16 d16 c16 < b16 a2. _V-2 a8 _V-2 a8 _V4 
!3  L [ r1 ]2 V2 O3 D1 @A3 YLR [ [ e32 ( e32 ) ]2 r8 ]2 r2 r2 [ [ e32 ( e32 ) ]2 r8 ]2 r2 [ e32 ( e32 ) ]2 r8 r4 r4 [ e32 ( e32 ) ]2 r8 r4 < b16 > c16 d16 e16 f1~ f1 < [ [ a32 ( a32 ) ]2 r8 ]2 r4 [ a32 ( a32 ) ]2 r8 r4 [ a32 ( a32 ) ]2 r8 r2 O3 [ [ e32 ( e32 ) ]2 r8 ]2 r2 r2 [ [ e32 ( e32 ) ]2 r8 ]2 r2 [ e32 ( e32 ) ]2 r8 r4 r4 [ e32 ( e32 ) ]2 r8 r4 < b16 > c16 d16 e16 f1~ f1 < [ [ a32 ( a32 ) ]2 r8 ]2 r4 [ a32 ( a32 ) ]2 r8 r4 [ a32 ( a32 ) ]2 r8 r2 < < [ a16 ( a16 ) r8 r2. r1 ]3 a16 ( a16 ) r8 r2. r2 > b16 a16 g16 f16 e16 d16 c16 < b16 a2.~ ( a4 ) 
!4  
!5  L O2 V1 r1 r1 @86 c4 c1 r4 c4 c2. c2. c2 @87 c4~ c1~ c1 @88 c4 c2 c4~ c4 c2. @86 c4 c1 r4 c4 c2. c2. c2 @87 c4~ c1~ c1 @88 c4 c2 c4~ c4 c2 @90 c2. @91 c2 c2 c2 @92 c2 @93 c2 c2 c2 @94 c2 @95 c2 c2 c2~ c2 @97 c2~ c1~ c1 
!6  L O2 V1 @84 c2 @85 c2 c2 c2 c2 c2 c2 c2 c2 c2 c2 c2 c2 c2 c2 c2 r1 r2. @89 c2. @85 c2 c2 c2 c2 c2 c2 c2 c2 c2 c2 c2 r1 r1 [ r1 ]6 @96 c1~ c1~ c1 
