;009 0031994C
!1  T110 O2 V8 YLR @2 E100,90,0,20,40 e8 < g8 > c8 d8 e8 ( Y.R e8 ( YL. e8 ( Y.R e8 _V3 YLR g8 < g8 b8 > e8 ( YL. e8 ( Y.R e8 ( YL. e8 ( Y.R e8 _V4 YLR < a8 e8 a8 ( YL. a8 ) YLR g8 e8 g8 ( Y.R g8 ) YLR > g8 < c8 e8 a+8 ( YL. a+8 ( Y.R a+8 ( YL. a+8 ( Y.R a+8 _V4 YLR < f8 > c8 f8 YL. ( f8 ) < YLR g8 > d8 g8 ( Y.R g8 ) YLR < e8 b8 > e8 YL. ( e8 ) YLR a8 e8 a8 ( a8 ) d8 a8 > d8 < f8 ( Y.R f8 ( YL. f8 ( Y.R f8 ( YL. f8 _V4 YLR d4 ( d4 ( d4 ( d4 ( d4 ( d4 ( d4 ( d4 _V7 T145 V5 O3 YL. @1 E90,100,60,38,38 e1 e1 d1 c2 _V-2 c16 _V2 D2 < d+16 d16 c16 d16 c8 _V-2 c16 _V2 > D0 e1 e1 L YL. d1 < < a8 _V-3 a16 _V3 a8 _V-3 a16 _V3 a8~ a8 _V-3~ a4. _V3 > > Y.R V7 O3 @@3,2,1 E100,90,60,23,38 P11,14,3 B6 D1 r16 r8 e16~ _V-4 e16 _V4 e8~ _V-2 e16 _V2 e16~ e8 e16~ _V-4 e16 _V4 d8 c8 d8 e16 e16~ e4~ _V-4 e8 _V4 r8 r8 e8 a8~ _V-4 a8 _V4 e8 e8~ e16~ _V-4 e16 _V4 e8 d8 c8 d8 c16 c16~ c4~ _V-3 c8~ _V-3 c8 _V6 r4 r8 e16~ _V-4 e16 _V4 e8~ _V-2 e16 _V2 e16~ e8 e16~ _V-4 e16 _V4 d8 c8 d8 e16 e16~ e4~ _V-4 e8 _V4 r8 r8 e8 > c8 <~ _V-4 e8 _V4 e8 e8~ _V-4 e8 _V4 e8 d8 c8 d8 c16 d16~ d8 e16~ _V-4 e16 _V4 d8 c16 < a16~ a16 > c8 r16 r4. d16 _V-4 d16 _V4 d8 c8 d8 e8 f8. e8. d8~ _V-3 c8 _V3 c8 e16 _V-3 d+16 _V3 e8 _V-4 e8 _V4 r4 e16. _V-4 e32 _V3 e8 e16. _V-4 e32 _V4 g8 g16. _V-4 g32 _V4 a8. e8. d8~ _V-4 c8 _V4 c4 _V-4 c8 _V4 r4. a16~ _V-4 a16 _V4 [ a16.~ _V-4 a32 _V4 ]2 [ e16.~ _V-4 e32 _V4 ]2 d8 e16 d16~ d4~ _V-4 d16 _V4 V6 O3 @@3,2,1 E100,90,60,23,38 D0 P11,14,3 [ a16.~ _V-3 a32 _V3 ]3 [ a8 a16 a16~ a16~ _V-3 a16 _V3 a8 ]2 a8 a16 a16~ a2~ _V-2 a8 _V-2 a8 _V4 V7 g8. g8~ _V-2 g16 _V2 e8.~ _V-4 e16 _V4 g8 g8 e8 b8 g16 b8 g16 g8~ g4~ _V-4 g8 _V4 D1 r16 g8 [ > c8~ _V-4 c16 _V4 < a8~ _V-4 g+16 _V4 g16.~ _V-4 g32 _V4 ]2 > c8 d8 e8 d8~ d8 c8~ < _V-4 a8 _V4 g8 a8 > [ c16. _V-4 c32 _V4 ]3 < b8 a16 g8~ _V-4 g16 _V4 g16 g16 > [ d16.~ _V-4 d32 _V4 ]3 e16.~ _V-4 e32 _V4 d8 c16 c16 _V-4 c8 _V4 < a8 > c8.~ < _V-4 a16 _V4 a8 > c4 e8. _V-4 e16 _V4 e16 PX D0 YLR V7 O2 @1 E90,100,60,38,38 Y.R d8 YL. _V-3 d16 _V3 Y.R e8 _V-3 YL. e16 _V3 Y.R f8 _V-3 YL. f16 _V3 Y.R d8 _V-3 YL. d16 _V3 Y.R e8 g24 a24 b24 V7 O3 @@3,2,1 E100,90,60,23,38 P11,14,3 Y.R g8. g8~ _V-2 g16 _V2 e8.~ _V-4 e16 _V4 g8 g8 e8 b8 g16 b8 g16 g8~ g4~ _V-4 g8 _V4 D1 r16 g8 [ > c8~ _V-4 c16 _V4 < a8~ _V-4 g+16 _V4 g16.~ _V-4 g32 _V4 ]2 > c8 d8 e8 d8~ d8 c8~ < _V-4 a8 _V4 g8 a8 > [ c16.~ _V-4 c32 _V4 ]3 c8 < a16 g8~ _V-4 g16 _V4 g16 g16 > [ d16~ _V-2 d16 _V2 ]3 e8 d8 c16 c8~ _V-4 c16 _V4 < a16 a16 > c8.~ < _V-3 a16 _V3 a8 > c8.~ _V-4 c16 _V4 d8 e8 e8 d8. PX D0 YLR V7 O2 @1 E90,100,60,38,38 < f4 > d4 > c4 < Y.R a8 _V-4 a8 _V2 > a2. g1 
!2  O3 V9 YLR @2 E100,80,0,8,31 c16 ( Y.R c16 ( YL. c16 _V2 < YLR b16 ( Y.R b16 ( YL. b16 _V2 YLR g16 ( Y.R g16 ( YL. g16 ( Y.R g16 _V3 > YLR c16 ( YL. c16 ) < YLR b16 ( Y.R b16 ) YLR g16 ( YL. g16 ) > YLR d16 ( Y.R d16 ) YLR c16 d16 ( YL. d16 ) YLR c16 e16 ( Y.R e16~ ( YL. e16 ( Y.R e16 ( YL. e16 ( Y.R e16 ( YL. e16 ( Y.R e16 _V7 < YLR g16 ( YL. g16 ) > YLR c16 ( Y.R c16 ( YL. c16 _V2 < YLR a16 ( Y.R a16 ( YL. a16 _V2 YLR g16 ( Y.R g16 ) > YLR c16 ( YL. c16 ( Y.R c16 _V2 < YLR a16 ( YL. a16 ( Y.R a16 _V2 YLR g16 ( YL. g16 ) > YLR c16 ( Y.R c16 ) YLR d16 ( YL. d16 ) YLR e16 ( Y.R e16 ) YLR d16 ( YL. d16 ( Y.R d16 ( YL. d16 _V3 YLR c16 ( Y.R c16 ( YL. c16 ( Y.R c16 _V4 < YLR g16 ( Y.R g16 ) YLR a16 ( YL. a16 ) > YLR c16 ( Y.R c16 ) YLR c16 ( YL. c16 ) YLR c16 ( Y.R c16 ) < YLR b16 ( YL. b16 ) YLR a16 g16 ( Y.R g16 ( YL. g16 _V2 YLR g16 ( Y.R g16 ) > YLR d16 ( YL. d16 ) YLR d16 ( Y.R d16 ) YLR d16 ( YL. d16 ) YLR e16 ( Y.R e16 ) YLR d16 ( YL. d16 ) YLR c16 c16 ( Y.R c16 ( YL. c16 _V2 < YLR a16 ( Y.R a16 ) > YLR c16 ( YL. c16 ( Y.R c16 ( YL. c16 _V3 < YLR a16 ( Y.R a16 ) > YLR c16 ( YL. c16 ( Y.R c16 ( YL. c16 _V3 YLR e16 ( Y.R e16 ( YL. e16 ( Y.R e16 _V3 YLR d16 ( Y.R d16 < YLR a8 ( YL. a8 ( Y.R a8 ( YL. a8 ( Y.R a8 ( YL. a8 ( Y.R a8 ( YL. a16 _V7 > > YLR g32 d32 < g8 ( Y.R g8 ( YL. g8 ( Y.R g8 ( YL. g8 ( Y.R g8 ( YL. g8 _V6 r8 YLR V5 O3 Y.R @1 E90,100,60,38,38 a1 g1 f+1 f2 _V-2 f16 _V2 D-2 < d+16 d16 c16 d16 c8 _V-2 c16 _V2 > D0 a1 g1 L V5 O3 Y.R @1 E90,100,60,38,38 f+1 < c8 _V-3 c16 _V3 c8 _V-3 c16 _V3 c8~ c8~ _V-3 c4. _V3 > YLR V8 O3 @@3,2,1 E100,90,60,23,38 P11,14,3 B6 r8 e16~ _V-4 e16 _V4 e8~ _V-2 e16 _V2 e16~ e8 e16~ _V-4 e16 _V4 d8 c8 d8 e16 e16~ e4~ _V-4 e8 _V4 r8 r8 e8 a8~ _V-4 a8 _V4 e8 e8~ e16~ _V-4 e16 _V4 e8 d8 c8 d8 c16 c16~ c4~ _V-3 c8~ _V-3 c8 _V6 r4 r8 e16~ _V-4 e16 _V4 e8~ _V-2 e16 _V2 e16~ e8 e16~ _V-4 e16 _V4 d8 c8 d8 e16 e16~ e4~ _V-4 e8 _V4 r8 r8 e8 > c8 <~ _V-4 e8 _V4 e8 e8~ _V-4 e8 _V4 e8 d8 c8 d8 c16 d16~ d8 e16~ _V-4 e16 _V4 d8 c16 < a16~ a16 > c8~ _V-4 c16 _V4 r4. d16 _V-4 d16 _V4 d8 c8 d8 e8 f8. e8. d8~ _V-3 c8 _V3 c8 e16 _V-3 d+16 _V3 e8 _V-4 e8 _V4 r4 e16. _V-4 e32 _V3 e8 e16. _V-4 e32 _V4 g8 g16. _V-4 g32 _V4 a8. e8. d8~ _V-4 c8 _V4 c4 _V-4 c8 _V4 r4. a16~ _V-4 a16 _V4 [ a16.~ _V-4 a32 _V4 ]2 [ e16.~ _V-4 e32 _V4 ]2 d8 e16 d16~ d4~ _V-4 d8 _V4 d16.~ _V-4 d32 _V4 c16.~ _V-4 c32 _V4 < b16.~ _V-4 b32 _V4 > [ d8 e16 e16~ e16~ _V-4 e16 _V4 c8 ]2 d8 e16 e16~ e2~ _V-2 e8 _V-2 e8 _V4 > c8. < b8~ _V-2 a16 _V2 g8. _V-4 g16 _V4 > c8 < b8 g8 > d8 c16 d8 c16 e8~ e4 _V-4 e8 _V4 < g8 [ > c8~ _V-4 c16 _V4 < a8~ _V-4 g+16 _V4 g16.~ _V-4 g32 _V4 ]2 > c8 d8 e8 d8~ d8 c8~ < _V-4 a8 _V4 g8 a8 > [ c16. _V-4 c32 _V4 ]3 < b8 a16 g8~ _V-4 g16 _V4 g16 g16 > [ d16.~ _V-4 d32 _V4 ]3 e16.~ _V-4 e32 _V4 d8 c16 c16 _V-4 c8 _V4 < a8 > c8.~ < _V-4 a16 _V4 a8 > c4 e8. _V-4 e16 _V4 e8 d2~ _V-2 d8 _V-2 d8 _V-2 d8 r8 _V6 c8. < b8~ _V-2 a16 _V2 g8. _V-4 g16 _V4 > c8 < b8 g8 > d8 c16 d8 c16 e8~ e4 _V-4 e8 _V4 < g8 [ > c8~ _V-4 c16 _V4 < a8~ _V-4 g+16 _V4 g16.~ _V-4 g32 _V4 ]2 > c8 d8 e8 d8~ d8 c8~ < _V-4 a8 _V4 g8 a8 > [ c16.~ _V-4 c32 _V4 ]3 c8 < a16 g8~ _V-4 g16 _V4 g16 g16 > [ d16~ _V-2 d16 _V2 ]3 e8 d8 c16 c8~ _V-4 c16 _V4 < a16 a16 > c8.~ < _V-3 a16 _V3 a8 > c8.~ _V-4 c16 _V4 d8 e8 e8 d2~ _V-4 d8 _V4 [ c16. _V-4 c32 _V4 ]2 < a8 > c8 < _V-2 g+16~ _V2 a16~ a4~ a8~ _V-4 g8. _V4 e8.~ ( e8~ ( e8~ ( e8~ ( e8~ ( e8~ ( e8 _V6 r4 
!3  V2 @A3 O1 > c1 < b1 a8 e8 a8 b8 g2 c1 f2 g2 e4 g+4 a2 d1 g1~ g1 V3 B11 `9F00 @A3 @B0 @~3 O0 [ a8 ( a16 ) > c8 ( c16 ) d8 ( d16 ) < e16 e8 g8 g+8 ]3 a8 ( a16 ) > c8 ( c16 ) d8 ( d16 ) d+16 d16 c16 d16 c8. < [ a8 ( a16 ) > c8 ( c16 ) d8 ( d16 ) < e16 e8 g8 g+8 ]2 L a8 ( a16 ) > c8 ( c16 ) d8 ( d16 ) < e16 e8 g8 g+8 a8 ( a16 ) > c8 ( c16 ) d8 ( d8 ) d16 c16 d16 e8. < [ a4~ ( e8 ) r8 r8 a16 ( a16 ) r16 a16 ( a16 ) a16 g4~ ( e8 ) r8 r8 g16 ( g16 ) r16 g16 ( g16 ) g16 f+4~ ( e8 ) r8 r8 f+16 ( f+16 ) r16 f+16 ( f+16 ) f+16 f4 ( f8 ) r8 r8 g16 ( g16 ) r16 g16 ( g16 ) g16 ]2 e4 b8 > e4. < b8 e8 f8 f16 ( f16 ) f16 ( f16 ) g8. ( g16 ) g16 ( g16 ) g16 ( g16 ) f8 e8. b8. > e8~ ( g8 ) b16 ( b16 ) > e4 < f8 ( f16 ) c8 ( c16 ) g8~ g16 ( g16 ) g16 a16 g8.~ ( d16 ) < f16 ( f16 ) f16 ( f16 ) e8 [ f16 ( f16 ) ]5 [ g16 ( g16 ) ]4 [ g+16 ( g+16 ) ]4 [ a16 ( a16 ) ]6 > a8~ < ( a8 ) f4. ( f8 ) f4 g4 > c16 ( c16 ) c16 ( c16 ) < b16 > ( c16 ) c16 c16 ( c16 ) c16 c16 ( c16 ) c16 ( c16 ) c16 c16 < a+16 ( b16 ) b16 ( b16 ) b16 ( b16 ) b16 b16 ( b16 ) b16 b16 ( b16 ) b16 ( b16 ) b16 b16 [ a16 ( a16 ) ]3 a16 a16 ( a16 ) a16 a16 ( a16 ) a16 a16 ( a16 ) a16 > c16 ( c16 ) c16 ( c16 ) < a+16 a+16 ( a+16 ) a16 ( a16 ) a16 a16 ( a16 ) g16 ( g16 ) g16 ( g16 ) f16 ( f16 ) f16 ( f16 ) f16 f16 ( f16 ) g16 ( g16 ) g16 g16 ( g16 ) g16 g16 f16 f16 e16 ( e16 ) e16 ( e16 ) g16 g16 g+16 a16 ( a16 ) a16 b16 ( b16 ) > c16 c16 ( c16 ) c+16 c+16 ( d16 ) d16 d16 d16 d16 ( d16 ) d16 ( d16 ) d16 ( d16 ) d16 < e16 e16 f16 f+16 g16 ( g16 ) g16 ( g16 ) a16 a16 ( a16 ) a16 a+16 ( a+16 ) a+16 ( a+16 ) b16 ( b16 ) b16 b16 > c16 ( c16 ) c16 ( c16 ) < b16 > ( c16 ) c16 c16 ( c16 ) c16 c16 ( c16 ) < b16 > ( c16 ) c16 c16 < a+16 ( b16 ) b16 ( b16 ) a+16 ( b16 ) b16 b16 ( b16 ) b16 b16 ( b16 ) b16 ( b16 ) b16 b16 g16 ( a16 ) a16 ( a16 ) a16 ( a16 ) a16 a16 ( a16 ) a16 a16 ( a16 ) a16 a16 ( a16 ) a16 > c16 ( c16 ) c16 ( c16 ) < a+16 a+16 ( a+16 ) a16 ( a16 ) a16 a16 ( a16 ) g16 ( g16 ) g16 ( g16 ) f16 ( f16 ) a16 ( a16 ) > c16 ( c16 ) < f16 f16 ( g16 ) g16 g16 ( g16 ) g16 g16 f16 f16 e16 ( e16 ) e16 ( e16 ) g16 g16 g+16 a16 ( a16 ) a16 b16 ( b16 ) > c16 c16 ( c16 ) c+16 d16 ( d16 ) d16 ( d16 ) < d8 e16 e16 ( e16 ) f16 f16 ( f16 ) f16 f16 f+16 f+16 g4. ( g8 ) g+4 > e8~ < ( g8 ) [ a8 ( a16 ) > c8 ( c16 ) d8 ( d16 ) < e16 e8 g8 g+8 ]2 
!4  [ r1 ]9 @8 x4 [ @7 x8 @6 x16 @5 x16 ]3 [ @7 x8 @6 x16 @5 x16 ]8 @7 x8 @6 x16 x16 @5 x16 @6 x16 @7 x8 @5 x4 x16 @8 Y.R x8. @8 YL. x4 YLR [ @7 x8 @5 x8 ]3 [ @7 x8 @5 x8 ]4 L [ @7 x8 @5 x8 ]4 @8 Y.R x8. YL. x8. YLR x4 @5 x8 x16 @8 x8. @8 x4 [ @7 x8 @5 x8 ]3 [ @7 x8 @5 x8 ]24 [ @7 x8 @5 x8 ]3 x8 x8 @8 x4 @5 x8 @6 x8 @5 x8 @7 x8 @5 x8 @6 x8 [ @5 x8 @6 x8 ]4 @8 x4 [ @5 x8 @7 x8 ]2 @5 x8 @6 x8 [ @5 x8 @6 x8 ]4 @8 x4 [ @7 x8 @5 x8 ]3 [ @7 x8 @5 x8 ]3 @7 x4 @8 x4 @7 x8 @5 x8 @7 x8 @5 x8 x8 x8 @8 x4 @5 x8 @6 x8 @8 Y.R x4 YL. x4 YLR @8 x4 @5 [ x8 ]6 x8 x8 x8 x16 @6 x16 @5 x16 @6 x16 @5 x8 @8 Y.R x4 @8 YL. x4 @5 YLR [ x8 ]6 @8 x4 @5 [ x8 ]4 @8 YL. x4 @8 Y.R x4 @5 YLR [ x8 ]6 @5 [ x8 ]8 @8 x4 @5 [ x8 ]6 @8 x4 @5 [ x8 ]6 @8 x4 @5 [ x8 ]6 @5 [ x8 ]6 @8 YL. x4 @8 Y.R x4 @5 YLR [ x8 ]6 @5 [ x8 ]6 @8 Y.R x4 @8 YL. x4 @5 YLR [ x8 ]6 @8 x4 @5 [ x8 ]6 @5 [ x8 ]8 @8 Y.R x4 @5 YLR x8 x8 @8 YL. x4 @5 YLR x8 x8 @8 x4 [ @7 x8 @5 x8 ]3 [ @7 x8 @5 x8 ]4 
!5  V1 O1 @40 W0,100,0 [ YLR e16 Y.R e16 ]4 [ YLR g16 Y.R g16 ]4 [ YLR d16 Y.R d16 ]4 [ YLR g16 Y.R g16 ]4 [ YLR e16 Y.R e16 ]8 < [ YLR a+16 Y.R a+16 ]3 > [ YLR g16 Y.R g16 ]5 [ YLR a16 Y.R a16 ]4 [ YLR b16 Y.R b16 ]4 [ YLR b16 Y.R b16 ]4 [ YLR a16 Y.R a16 ]4 > [ YLR c16 Y.R c16 ]3 < YLR a16 Y.R a16 [ YLR f16 Y.R f16 ]4 > Y.R c1~ c1 < YLR V1 O1 @0 [ x8. x8. x8. x8. r8 x8 ]3 @0 x8. x8. x8 x16 @1 [ x16 ]4 @0 x8 @1 x16 [ @0 x8. x16 @1 x8 @0 x8. x8. @1 x8 @0 x8 ]2 L @0 x8. x16 @1 x8 @0 x8 r16 x8. @1 x8 @0 x8 [ @0 x8 @1 x16 ]2 @0 x8. @1 [ x16 ]4 @0 x8 @1 x16 @0 x4 @1 x4. @0 x8 @1 x16 @0 x8. [ @0 x4 @1 x8. x8. @0 x8 @1 x16 @0 x8. ]3 @0 x4 @1 x8. x8. @0 x8 @1 x16 @0 x8. [ @0 x4 @1 x8. x8. @0 x8 @1 x16 @0 x8 @1 x16 ]2 @0 x4 @1 x8. x16 @0 x8 @1 x8 x16 x16 @2 d8 @0 x4. x4 x8 @1 x4 @0 x8. x8. x8 @2 Y.R g16 g16 YL. d16 d16 YLR @1 x8 x16 x16 @0 x8. x8. x4 x8 @1 x4 @0 x8. x8. x8 @1 Y.R b16 b16 YLR g16 g16 e16 e16 YL. c16 c16 YLR [ @0 x4 @1 x4 @0 x8 x8 @1 x4 ]2 @0 x4 @1 x8. x16 @0 x8 @1 [ x16 ]4 @2 Y.R g8 YLR @0 x4 @1 x16 x16 @2 g8 @0 x8 @2 g8 Y.R e16 e16 YL. c16 c16 YLR @0 x8 x8 @1 x8 @0 x16 x16 r16 @1 x16 @0 x8 @1 x8 @0 x16 @1 x16 @0 x8 x8 @1 x8. @0 x8 x8 x16 @1 x8 @0 x16 @1 x16 @0 x8 x8 @1 x8 @0 x16 x16 r16 @1 x16 @0 x8 @1 x8 @0 x16 @1 x16 @0 x4 @1 x16 @0 x8 x8 @1 x16 @0 x8 @1 [ x16 ]4 [ @0 x8 x8 @1 x8. @0 x8 @1 x16 @0 x8 @1 x8. x16 ]3 @0 x8 x8 @1 x8. @0 x16 @1 x8 [ x16 ]4 @2 Y.R g16 YL. d16 YLR @0 x8 x8 @1 x8 @0 x16 x16 r16 @1 x16 @0 x8 @1 x8 @0 x16 @1 x16 @0 x8 x8 @1 x8. @0 x8 x8 x16 @1 x8 @0 x16 @1 x16 @0 x8 x8 @1 x8 @0 x16 x16 r16 @1 x16 @0 x8 @1 x8 @0 x16 @1 x16 @0 x8 x8 @1 x8. @0 x8 @1 x16 @0 x8 @1 x8 x16 x16 [ @0 x8 x8 @1 x8. @0 x8 @1 x16 @0 x8 @1 x16 x16 ( x16 ) x16 ]2 @0 x8 x8 @1 x8. @0 x8 @1 x16 @0 x8 @1 x16 x16 @2 g8 @0 x8 @2 Y.R g8 YLR @1 x16 x16 e16 YL. c16 YLR @1 x16 x16 @2 Y.R g16 g16 YLR d16 d16 YL. c16 c16 YLR [ @0 x8. x16 @1 x8 @0 x8. x8. @1 x8 @0 x8 ]2 
!6  V1 O0 @40 W0,100,0 [ YLR g16 YL. g16 ]4 > [ YLR c16 YL. c16 ]4 < [ YLR b16 YL. b16 ]4 > YLR e16 YL. e16 YLR d16 YL. d16 YLR c16 YL. c16 < YLR b16 YL. b16 [ YLR a16 YL. a16 ]4 [ YLR g16 YL. g16 ]4 [ YLR e16 YL. e16 ]3 [ YLR a+16 YL. a+16 ]2 > YLR c16 YL. c16 YLR d16 YL. d16 YLR e16 YL. e16 [ YLR f16 YL. f16 ]4 [ YLR g16 YL. g16 ]4 YLR g16 YL. g16 YLR f16 YL. f16 YLR e16 YL. e16 YLR d16 YL. d16 [ YLR e16 YL. e16 ]4 [ YLR a16 YL. a16 ]3 YLR c16 YL. c16 < [ YLR a16 YL. a16 ]4 YL. f1~ f1 YLR O1 @62 W0,100,33 B12 YLR a8 ( Y.R a16 ) > YLR c8 ( YL. c16 ) YLR d8~ d4 ( Y.R d8 ) < YL. g16 g16 YLR a8 ( Y.R a16 ) > YLR c8 ( YL. c16 ) YLR d8~ d8 < Y.R g16 g16 > YLR d16 c8 ( c16 ) < YLR a8 ( Y.R a16 ) > YLR c8 ( YL. c16 ) YLR d8~ d4. ( Y.R d8 ) < YLR a8 ( Y.R a16 ) > YLR c8 ( YL. c16 ) YLR d8~ ( d16 ) > d+16 d16 c16 d16 c8 ( c16 ) < < YLR a8 ( Y.R a16 ) > YLR c8 ( YL. c16 ) YLR d8~ d4 ( Y.R d8 ) < YL. g16 g16 YLR a8 ( Y.R a16 ) > YLR c8 ( YL. c16 ) YLR d8~ d8 < Y.R g16 g16 > YLR d16 c8 ( c16 ) < L YLR a8 ( Y.R a16 ) > YLR c8 ( YL. c16 ) YLR d8~ d4. ( Y.R d8 ) < YLR @8 < a8 ( YL. a16 ) > YLR c8 ( Y.R c16 ) YLR d8 ( YL. d8 ) > YLR @62 W0,100,33 > d16 c16 d16 e8~ ( < e16 ) < > [ YL. a4~ ( e8 r4 ) YL. a8 Y.R ( a16 ) YL. a8. g4~ ( e8 r4 ) YL. g8 Y.R ( g16 ) YL. g8. f+4~ ( f+8 r4 ) YL. f+8 Y.R ( f+16 ) YL. f+8. f4~ ( f8 r4 ) YL. g8 Y.R ( g16 ) YL. g8. ]2 e1 YL. f8 [ YL. f16 Y.R ( f16 ) ]2 YL. g8 [ YL. g16 Y.R ( g16 ) ]2 YL. g8 f8 e1 YL. f8 [ YL. f16 Y.R ( f16 ) ]2 YL. g8 [ YL. g16 Y.R ( g16 ) ]2 YL. g8 g8 [ YL. f16. ( Y.R f32 ) ]4 [ YL. f32 ( Y.R f32 ) ]2 YL. f8 [ YL. f16. ( Y.R f32 ) ]2 YL. g8 [ YL. g16. ( Y.R g32 ) ]3 YL. g+8 [ YL. g+16. ( Y.R g+32 ) ]3 YL. a8 [ YL. a16. ( Y.R a32 ) ]5 YL. a8 a8 f4. Y.R ( f8 ) YL. f4 g4 > [ YL. c16. ( Y.R c32 ) ]2 YL. c8 ( Y.R c16 ) YL. c16~ c16.~ ( Y.R c32 ) YL. c16 Y.R ( c16 ) YL. c8 c8 < [ YL. b16. ( Y.R b32 ) ]2 YL. b8 ( Y.R b16 ) YL. b16~ b16.~ ( Y.R b32 ) YL. b16 Y.R ( b16 ) YL. b8 b8 [ YL. a16. ( Y.R a32 ) ]2 YL. a16. Y.R ( a32 ) YL. a8 [ YL. a16. ( Y.R a32 ) ]2 YL. a16. Y.R ( a32 ) YL. g8 > [ YL. c16. ( Y.R c32 ) ]2 [ YL. c8 [ YL. c32 ( Y.R c32 ) ]2 ]3 < [ YL. f16. ( Y.R f32 ) ]2 YL. f16. ( Y.R f32 ) YL. f16 g16~ g16. ( Y.R g32 ) YL. g16. ( Y.R g32 ) YL. g8 g8 [ YL. e16. ( Y.R e32 ) ]2 YL. e8 g16 a16~ YL. a16. ( Y.R a32 ) YL. a16. ( Y.R a32 ) YL. a8 a8 > [ YL. d8 [ YL. d32 ( Y.R d32 ) ]2 YL. d8 d32 ( Y.R d32 ) YL. d16 ]2 < [ YL. g8 [ YL. g32 ( Y.R g32 ) ]2 ]4 > [ YL. c16. ( Y.R c32 ) ]2 YL. c8 ( Y.R c16 ) YL. c16~ c16.~ ( Y.R c32 ) YL. c16 Y.R ( c16 ) YL. c8 c8 < [ YL. b16. ( Y.R b32 ) ]2 YL. b8 ( Y.R b16 ) YL. b16~ b16.~ ( Y.R b32 ) YL. b16 Y.R ( b16 ) YL. b8 b8 [ YL. a16. ( Y.R a32 ) ]2 YL. a16. Y.R ( a32 ) YL. a8 [ YL. a16. ( Y.R a32 ) ]2 YL. a16. Y.R ( a32 ) YL. g8 > [ YL. c16. ( Y.R c32 ) ]2 [ YL. c8 [ YL. c32 ( Y.R c32 ) ]2 ]3 < [ YL. f16. ( Y.R f32 ) ]2 YL. f16. ( Y.R f32 ) YL. f16 g16~ g16. ( Y.R g32 ) YL. g16. ( Y.R g32 ) YL. g8 g8 [ YL. e16. ( Y.R e32 ) ]2 YL. e8 g16 a16~ YL. a16. ( Y.R a32 ) YL. a16. ( Y.R a32 ) YL. a8 a8 > [ YL. d8 [ YL. d32 ( Y.R d32 ) ]2 YL. d8 d32 ( Y.R d32 ) YL. d16 ]2 < g2 g+2 < YLR a8 ( Y.R a16 ) > YLR c8 ( YL. c16 ) YLR d8~ d4 ( Y.R d8 ) < YL. g16 g16 YLR a8 ( Y.R a16 ) > YLR c8 ( YL. c16 ) YLR d8~ d8 < Y.R g16 g16 > YLR d16 c8 ( c16 ) < 
