;010 0031B2AA
!1  T170 L V6 O3 @1 E95,100,50,32,39 YL. b4 _V-3 Y.R b4 _V3 YL. b2 [ _V-3 Y.R b4 _V3 YL. b4 ]2 [ _V-3 Y.R b6 _V3 YL. b12 b4 ]2 _V-3 Y.R b6 _V3 YL. b12 [ b12 _V-3 Y.R b12 _V3 YL. b12 ]3 b12 _V-3 Y.R b12 _V3 YL. b12 [ b12 ]3 [ b12 ]3 b12 _V-3 Y.R b12 _V3 YL. b12 [ [ b12 ]3 ]4 O2 V4 D1 YLR b12~ ( Y.R b24~ YL. b24~ ( Y.R b24~ YL. b24 _V2 YLR g+12~ ( Y.R g+24~ YL. g+24~ ( Y.R g+24~ YL. g+24 _V2 > YLR g+12~ ( Y.R g+24~ YL. g+24~ ( Y.R g+24~ YL. g+24~ _V2 YLR g12~ Y.R ( g24~ YL. g24 ) YLR a+12 YLR g+12 ( Y.R g+12 YL. g+12 ) < YLR g+12 ( Y.R g+12 YL. g+12 ) > YLR d+12 ( Y.R d+12 YL. d+12 ) YLR f12 ( Y.R f12 YL. f12 ) YLR f+16 ( Y.R f+16 ) YLR f16 ( YL. f16 ) YLR d+6 ( Y.R d+12 ) YLR d16 ( YL. d16 ) < YLR b16 ( Y.R b16 ) YLR g+6 ( YL. g+12 ) YLR g16 ( Y.R g16 ) YLR d+16 ( YL. d+16 ) < YLR b6 ( Y.R b12 ) > YLR c+6 ( YL. c+12 ) YLR d+6 ( Y.R d+12 ) [ O1 @0 E95,100,50,32,39 [ YL. g+4 Y.R g+4 ]4 YLR _V-3 g+4 _V3 O3 @2 YL. g24 g+24 a+24 b24 > c+24 d+24 c+24 d+24 e24 g24 g+24 a+24 g24 g+24 a+24 b24 > c+24 d+24 ]2 V7 O3 @1 E95,100,50,32,39 P9,13,3 D-1 r16 [ Y.R d+4 d8 _V-3 YL. d8 _V3 ]2 Y.R d+4 d8 _V-3 YL. d8 _V3 Y.R c+4 c8 _V-3 YL. c8 _V3 [ Y.R c+4 c8 _V-3 YL. c8 _V3 ]2 Y.R c+4 c8 _V-3 YL. c8 _V3 < Y.R b4 a+8 _V-3 YL. a+8 _V3 > [ Y.R d+4 d8 _V-3 YL. d8 _V3 ]2 Y.R d+4 e8 _V-3 YL. e8 _V3 Y.R f4 f+8 _V-3 YL. f+8 _V3 [ Y.R g+4 g8 _V-3 YL. g8 _V3 ]2 Y.R g+4 a8 _V-3 YL. a8 _V3 Y.R a+4 b8 _V-3 YL. b16 _V3 PX O3 @1 E95,100,50,32,39 Y.R f+16 _V-3 YL. f+16 _V3 Y.R e16 _V-3 YL. e16 _V3 Y.R d16 _V-3 YL. d16 _V3 Y.R c16 _V-3 YL. c16 _V3 < Y.R a+16 _V-3 YL. a+16 _V3 Y.R g+16 _V-3 YL. g+16 _V3 Y.R f+16 _V-3 YL. f+16 _V3 Y.R e16 _V-3 YL. e16 _V3 Y.R b16 _V-3 YL. b16 _V3 Y.R a16 _V-3 YL. a16 _V3 Y.R g16 _V-3 YL. g16 _V3 Y.R f16 _V-3 YL. f16 _V3 Y.R d+16 _V-3 YL. d+16 _V3 Y.R c+16 _V-3 YL. c+16 _V3 < Y.R b16 _V-3 YL. b16 _V3 Y.R a16 _V-3 YL. a16 _V3 V4 O4 @2 YLR r4 f16 ( c16 < g+16 f16 g+16 a+16 > c24 d+24 f24 ) g+16 _V-3 g+16 _V3 r8 
!2  L V6 O4 @1 E95,100,50,32,39 Y.R c4 _V-3 YL. c4 _V3 Y.R c2 [ _V-3 YL. c4 _V3 Y.R c4 ]2 [ _V-3 YL. c6 _V3 Y.R c12 c4 ]2 _V-3 YL. c6 _V3 Y.R c12 [ c12 _V-3 YL. c12 _V3 Y.R c12 ]3 c12 _V-3 YL. c12 _V3 Y.R c12 [ c12 ]3 [ c12 ]3 c12 _V-3 YL. c12 _V3 Y.R c12 [ [ c12 ]3 ]4 O1 V5 YLR b12~ ( Y.R b24~ YL. b24~ ( Y.R b24~ YL. b24 _V2 YLR g+12~ ( Y.R g+24~ YL. g+24~ ( Y.R g+24~ YL. g+24 _V2 > YLR g+12~ ( Y.R g+24~ YL. g+24~ ( Y.R g+24~ YL. g+24~ _V2 YLR g12~ Y.R ( g24~ YL. g24 ) YLR a+12 YLR g+12 _V-3 Y.R g+12 YL. g+12 _V3 < YLR g+12 _V-3 Y.R g+12 YL. g+12 _V3 > YLR d+12 _V-3 Y.R d+12 YL. d+12 _V3 YLR f12 _V-3 Y.R f12 YL. f12 _V3 YLR f+16 _V-3 Y.R f+16 _V3 YLR f16 _V-3 YL. f16 _V3 YLR d+6 _V-3 Y.R d+12 _V3 YLR d16 _V-3 YL. d16 _V3 < YLR b16 _V-3 Y.R b16 _V3 YLR g+6 _V-3 YL. g+12 _V3 YLR g16 _V-3 Y.R g16 _V3 YLR d+16 _V-3 YL. d+16 _V3 < YLR b6 _V-3 Y.R b12 _V3 > YLR c+6 _V-3 YL. c+12 _V3 YLR d+6 _V-3 Y.R d+12 _V3 [ O2 @1 E95,100,50,32,39 [ Y.R d+4 YL. d+4 ]4 YLR _V-3 d+4 _V3 O3 @2 Y.R a+24 b24 > c+24 d+24 e24 f+24 e24 g24 g+24 a+24 b24 > c+24 < b24 > c+24 d+24 e24 f+24 g24 ]2 V7 O3 @0 E95,100,50,32,39 P9,13,3 [ YL. d+4 d8 _V-3 Y.R d8 _V3 ]2 YL. d+4 d8 _V-3 Y.R d8 _V3 YL. c+4 c8 _V-3 Y.R c8 _V3 [ YL. c+4 c8 _V-3 Y.R c8 _V3 ]2 YL. c+4 c8 _V-3 Y.R c8 _V3 < YL. b4 a+8 _V-3 Y.R a+8 _V3 > [ YL. d+4 d8 _V-3 Y.R d8 _V3 ]2 YL. d+4 e8 _V-3 Y.R e8 _V3 YL. f4 f+8 _V-3 Y.R f+8 _V3 [ YL. g+4 g8 _V-3 Y.R g8 _V3 ]2 YL. g+4 a8 _V-3 Y.R a8 _V3 YL. a+4 b8 _V-3 Y.R b8 _V3 PX O4 @1 E95,100,50,32,39 YL. c16 _V-3 Y.R c16 _V3 < YL. a+16 _V-3 Y.R a+16 _V3 YL. g+16 _V-3 Y.R g+16 _V3 YL. f+16 _V-3 Y.R f+16 _V3 YL. e16 _V-3 Y.R e16 _V3 YL. d16 _V-3 Y.R d16 _V3 YL. c16 _V-3 Y.R c16 _V3 < YL. a+16 _V-3 Y.R a+16 _V3 > YL. g16 _V-3 Y.R g16 _V3 YL. f16 _V-3 Y.R f16 _V3 YL. d+16 _V-3 Y.R d+16 _V3 YL. c+16 _V-3 Y.R c+16 _V3 < YL. b16 _V-3 Y.R b16 _V3 YL. a16 _V-3 Y.R a16 _V3 YL. g16 _V-3 Y.R g16 _V3 YL. f16 _V-3 Y.R f16 _V3 V4 O5 @2 YLR r4 f16 ( c16 < g+16 f16 > c16 d+16 f16 g16 ) g+16 _V-3 g+16 _V3 r8 
!3  L V3 `9F00 @A3 @B0 @~3 O0 r1 e1~ e1 [ r1 ]3 `9F00 @A13 @B13 @~254 O1 YLR b6~ ( b12 ) g+6~ ( g+12 ) < g+4 > > g12~ ( g12 ) a+12 g+6~ ( g+12 ) < g+6~ ( g+12 ) > d+6~ ( d+12 ) f6~ ( f12 ) f+16~ ( f+16 ) f16~ ( f16 ) d+6~ ( d+12 ) d16~ ( d16 ) < b16~ ( b16 ) g+6~ ( g+12 ) g16~ ( g16 ) d+16~ ( d+16 ) < b6~ ( b12 ) > c+6~ ( c+12 ) d+6~ ( d+12 ) `9F00 @A3 @B0 @~3 O0 YLR [ g+1~ g+1~ ( g+4 ) > e6 ( e12 ) d6 ( d12 ) c6 ( c12 ) < ]2 `9F00 @A8 @B8 @~9 O3 r4 YL. d+24 f24 g24 a24 b24 > c+24 d+4 < Y.R d+24 f24 g24 a24 b24 > c+24 d+4 < YL. c+24 d+24 f24 g24 a24 b24 > c+8 d+8 < ( d+8 ) r8 r4 Y.R c+24 d+24 f24 g24 a24 b24 > c+4 c+8 < r8 r4 YL. g+24 a+24 > c24 d24 e24 f24 ( f8 ) < r8 Y.R c24 d24 e24 f+24 g+24 a+24 ( a+8 ) r8 YL. d+24 f24 g24 a24 b24 > c+24 d+4 < Y.R d+24 f24 g24 a24 b24 > c+24 d+4 < YL. c24 d24 e24 f+24 g+24 a+24 Y.R d+24 f24 g24 a24 b24 > c+24 d+4~ d+4 YL. < b16 > c+16 d+8 Y.R f16 g16 a8 YL. d+24 f24 g24 a24 b24 > c+24 d+4 Y.R < f24 g24 a24 b24 > c+24 d+24 YL. c+24 d+24 f24 g24 a24 b24 > c+8 ( Y.R c+8 ) `9F00 @A3 @B0 @~3 O1 YLR c16 ( c16 ) c+16 ( c+16 ) d16 ( d16 ) d+16 ( d+16 ) e16 ( e16 ) f16 ( f16 ) f+16 ( f+16 ) g16 ( g16 ) g+16 ( g+16 ) a16 ( a16 ) a+16 ( a+16 ) b16 ( b16 ) > c16 ( c16 ) c+16 ( c+16 ) d16 ( d16 ) d+16 ( d+16 ) r1 
!4  L [ r1 ]3 r12 r12 @4 x12 [ @3 x12 r12 @4 x12 ]3 @3 x12 r12 @4 x12 [ @3 x12 @4 x12 @3 x12 ]2 @3 x12 r12 @4 x12 [ [ @3 x12 ]3 ]4 x4 r2. [ r1 ]3 r2 @3 x4 r6 @4 x12 [ @3 x6 @4 x12 ]4 @3 x1 r2 @3 x4 r6 @4 x12 [ @3 x6 @4 x12 ]4 @3 x2. r4 @8 x2. @3 [ x16 ]4 @3 x2 [ x16 ]8 @3 x2 [ x16 ]4 x4 r4 @3 [ x16 ]4 x2 @3 [ x16 ]4 x2 [ x16 ]4 @3 x2 [ x16 ]8 @3 x2 [ x16 ]4 x4 r8 @3 x16 x16 x4 [ x16 ]8 r1 @4 [ x8 ]8 @4 [ x24 ]18 @3 x4 
!5  L V1 O2 YLR @64 W0,100,54 YLR x4 ( Y.R x12 YL. x12 Y.R x12 ) YLR x2 ( YL. x12 Y.R x12 YL. x12 ) YLR x4 ( Y.R x12 YL. x12 Y.R x12 ) YLR x4 [ ( Y.R x12 YL. x12 ) YLR x12 x4 ]2 ( Y.R x12 YL. x12 ) YLR x12 x12 ( Y.R x12 ) YLR x12 x12 ( YL. x12 ) YLR x12 x12 ( Y.R x12 ) YLR x12 x12 ( YL. x12 ) YLR x12 [ x12 ]3 [ x12 ]3 x12 ( Y.R x12 ) YLR x12 [ [ x12 ]3 ]4 ( YL. x12 Y.R x12 YL. x12 ) @4 O1 YLR r4 g+2 r1 r1 r2. d+4 g+4 @40 W0,100,0 YL. > g+4 g+12 ( g+12 ) e12 d+12 ( d+12 ) < b12 g+2 @38 W0,100,72 Y.R g+12 ( g+12 ) e12 d+12 ( d+12 ) < b12 g+8 ( g+8 ) > YLR g12 ( YL. g6 ) YLR f12 ( YL. f6 ) YLR d+12 ( YL. d+12 ) @4 O1 YLR d+24 d+24 g+4 @40 W0,100,0 YL. > g+4 g+12 ( g+12 ) e12 d+12 ( d+12 ) < b12 g+2 @38 W0,100,72 Y.R g+12 ( g+12 ) e12 d+12 ( d+12 ) < b12 g+8 ( g+8 ) > YLR g12 ( YL. g6 ) YLR f12 ( YL. f6 ) YLR d+12 ( YL. d+6 ) @4 O2 YLR e16 ( e16 ) e16 e16 e8 ( e8 ) r4 [ e16 ]4 e8 ( e8 ) r2 [ e16 ]4 c+16 ( c+16 ) c+16 c+16 < g+16 ( g+16 ) > c+8 ( c+8 ) r8 [ c+16 ]4 c+8 ( c+8 ) r4 [ c+16 ]6 < g+16 > c+16 d+8 ( d+8 ) r4. < a+16 ( a+16 ) > d+16 ( d+16 ) < a+16 ( a+16 ) > d+8 ( d+8 ) r8 < a+16 ( a+16 ) > d+16 ( d+16 ) < a+16 ( a+16 ) > d+8 ( d+8 ) < r4 [ g+16 ]4 > g8 ( g8 ) < r4 [ g+16 ]4 > g8 ( g8 ) < r4 [ g+16 ]4 d+4 r2 r8. @15 W0,100,60 O2 Y.R e16 e8 ( YL. e16 ) Y.R d+16 d+8 ( YL. d+16 ) Y.R d16 d8 ( YL. d16 ) Y.R c+16 c+8 ( YL. c+8 ) e8 ( e8 ) d8 ( d8 ) c8 ( c8 ) < a+8 ( a+8 ) 
!6  L V1 O2 YLR @83 W0,100,51 YLR g4 ( YL. g12 Y.R g12 YL. g12 ) YLR g2 ( Y.R g12 YL. g12 Y.R g12 ) YLR g4 ( YL. g12 Y.R g12 YL. g12 ) YLR g4 [ ( YL. g12 Y.R g12 ) YLR g12 g4 ]2 ( YL. g12 Y.R g12 ) YLR g12 g12 ( YL. g12 ) YLR g12 g12 ( Y.R g12 ) YLR g12 g12 ( YL. g12 ) YLR g12 g12 ( Y.R g12 ) YLR g12 [ g12 ]3 [ g12 ]3 g12 ( YL. g12 ) YLR g12 [ [ g12 ]3 ]4 ( Y.R g12 YL. g12 Y.R g12 ) r4 < < < YLR g+2 r1 r1 r2. g8 ( g8 ) > > > [ O2 YLR g+1 ( Y.R g+12 YL. g+12 ) YLR e12 d+12 ( Y.R d+12 ) < YLR b12 g+2 ( Y.R g+8 YL. g+8 ) YLR b12 ( Y.R b6 ) YLR a12 ( Y.R a6 ) YLR g12 ( Y.R g6 ) ]2 O2 H-7 @66 W0,100,50 [ Y.R g8 ( YL. g8 Y.R g8 ) ]4 r2 [ Y.R a8 ( YL. a8 Y.R a8 ) ]4 Y.R b8 ( YL. b8 Y.R b8 ) r8 r8 Y.R g8 ( YL. g8 Y.R g8 ) [ Y.R g8 ( YL. g8 ) ]2 r8 Y.R g8 ( YL. g8 Y.R g8 ) r4 a16 b16 a16 g16 ) [ Y.R a8 ( YL. a8 Y.R a8 ) ]4 r2 H0 r2. r8. O2 @15 W0,100,60 YL. c16 c8 ( Y.R c16 ) YL. b16 < b8 ( Y.R b16 ) YL. a+16 a+8 ( Y.R a+16 ) YL. a16 a8 ( Y.R a8 ) > c8 ( c8 ) < a+8 ( a+8 ) g+8 ( g+8 ) f+8 ( f+8 ) 
