;011 0031C082
!1  T150 B3 O2 V8 @2 E80,100,70,3,9 EP-4,0,0,3,0 O2 V3 r32. Y.R d24 @0 d+24 e24 f24 f+24 g24 YLR ) g+24 a24 a+24 b24 > c24 c+24 ) YL. d24 d+24 e24 f24 g24 g24 @@2,2,0 O3 E80,100,30,3,18 EP-4,0,-24,6,18 V8 Y.R a8. _V-2 YL. a8. _V-2 Y.R a8. r16 r4 r4. @@2,2,0 E80,100,70,3,9 EP-4,0,0,3,0 P29,12,6 YLR V6 r8 a8 g8 _V-3 Y.R a8 YL. g4. P0,12,6 Y.R g8 YL. g4 r8 _V2 P29,12,6 YLR f16 e16 ) d8. c8. < b8 > d16 _V-2 @0 c16 < b16 @@2,2,0 _V2 g16~ g4. a4 _V-2 a4. _V2 r8 a8~ b8 >~ c8~ d8~ e8~ f8~ g8~ a8~ b8 > _V2~ c8~ d8 EP-4,0,4,3,18 P21,15,4 e4~ e4 EPX e8. r32. @2 E100,60,20,3,9 O2 Y.R V6 a16 > d16 e16 g16 YL. a16 > d16 e16 g16 < YLR _V-5 EX a16 > d16 e16 g32 @@2,2,0 E80,100,70,3,9 _V6 EP-4,0,0,18,18 P21,15,1 O3 e2~ e8 _V-4 e8 _V4 E80,100,70,3,9 EP-4,0,0,3,0 @@2,0,3 O2 [ d16 d16 _V-4 d16 _V4 d16 _V-4 d16 _V4 d16 _V-4 d16 _V-2 d16 _V6 H2 ]2 H0 [ r4 ]4 L E100,80,60,3,18 @@2,2,1 P18,12,4 V4 O3 EP0,0,0,3,0 D-1 r16 r8 e8 d8 c16 d8. < a8 a8 b16 > c8. d8 e8 _V-2 g16 _V2 f+8. g8 _V-2 f+8 d8 _V2 d8 c16 V6 @2 E80,100,80,4,9 EPX O2 @@2,1,3 D0~ f+4~ d8~ a4~ e8~ > c4 <~ a8 >~ e4~ d8~ a4 E100,80,60,3,18 @@2,2,1 P18,12,4 V4 O3 EP0,0,0,3,0 D-1 r16 r8 e8 d8 c16 d8. < a8 a8 g8 b8 _V-2 b8 _V2 b8 > c16 < b8. > c8 < _V-2 b8 g8 _V2 g8 a16 V6 @2 E80,100,80,4,9 EPX O2 @@2,1,3 D0~ f+4~ < _V-3 a8 _V3~ > > e4~ < _V-3 g8 _V3~ > g4 <~ _V-3 a8 _V3 >~ b4~ > d8~ e4 E100,80,60,3,18 @@2,2,1 P18,12,4 V4 O3 EP0,0,0,3,0 D-1 r16 r8 e8 d8 c16 d8. < a8 a8 b16 > c8. d8 e8 _V-2 g16 _V2 f+8. g8 _V-2 f+8 d8 _V2 d8 c16 V6 @2 E80,100,80,4,9 EPX O2 @@2,1,3 D0~ f+4~ d8~ a4~ e8~ > c4 <~ a8 >~ e4~ d8~ a4 E100,80,60,3,18 @@2,2,1 P18,12,4 V4 O3 EP0,0,0,3,0 D-1 r16 r8 e8 d8 c16 d8. < a8 a8 g8 b8 _V-2 b8 _V2 b8 > c16 < b8. > c8 < _V-2 b8 g8 _V2 g8 a16 V6 @2 E80,100,80,4,9 EPX O2 @@2,1,3 D0~ f+4~ < _V-3 a8 _V3~ > > e4~ < _V-3 g8 _V3~ > g4 <~ _V-3 a8 _V3 >~ b4~ > d8~ e4 E100,80,60,3,18 @@2,2,1 P18,12,4 V6 O2 EP0,0,0,3,0 YLR D0 YLR f8 f8 f8 g16 a8 _V-2 a8 _V-2 a8 r16 _V2 d8 _V-2 d8 _V2 g8 _V-2 g8 _V2 b8 _V-2 b8 _V2 > d8 _V-2 d8 _V2 c2~ c8 E70,100,70,6,24 V6 O3 @@2,3,0 P0,9,4 D0 YLR c2 d2 g4.~ g16 _V-4 g16 E100,80,50,3,9 @@2,2,1 P18,12,4 V6 O2 EP0,0,0,3,0 a8. g8. a8 _V-2 a4 _V2 a8 a8 b8. > c4. r16 < a8 b8 a8 > c8. < b8. > c8 d8. c8. d8 E100,80,50,3,9 @@2,2,1 P18,12,4 V6 O3 EP0,0,0,3,0 D0 YLR d8. e8. f+8 g+4 _V-4 g+4 _V4 E100,80,60,3,18 @@2,2,1 D0 P18,12,4 V6 O3 EP0,0,0,3,0 YLR r8 c8 c8 c16 c8. e8 _V-2 e8 _V-2 e8 ( e8 _V5 < b8 b8 b16 b8. > e8 g8 a8 g8. f8. c4 _V-2 c8 _V2 < a8 a8 b8. > d8. < b4. _V-2 b8 _V-2 b8 _V4 r8 a8 a8 f16 a8. b8 > c8 d8 _V-2 d8 _V2 c8 < b8 g8 _V-4 g8 _V4 g8 a8 > E100,50,50,28,0 d4. E50,20,100,9,18 d4 E100,80,50,3,9 r8 d8 c8 < b16 _V-2 g+16 @@2,2,0 E80,100,70,3,9 EP0,0,0,3,0 P29,12,6 O3 V6 d8 V4 O2 f+8~ g+4~ a4~ b4 E100,80,60,3,18 @@2,2,1 P18,12,4 V6 O3 EP0,0,0,3,0 D0 YLR r8 c8 c8 c16 c8. e8 _V-2 e8 _V-2 e8 ( e8 _V5 < b8 b8 b16 b8. > e8 g8 a8 g8. e8. c8 _V-2 c8 _V-2 c8 r8 _V2 g8 _V2~ b8 a4 g4 d4 d8 E60,100,60,12,18 EP0,0,-12,4,10 e8. EP-12,0,0,9,0 e8 _V-4 EP0,0,0,3,0 E100,80,50,3,9 e16 _V2 c8 _V-2 c8 _V-2 c8 ( c8 _V5 d8 e8. EP-12,0,0,9,0 e8 _V-4 EP0,0,0,3,0 E100,80,50,3,9 e16 _V2 c8 _V-2 c8 _V-2 c8 _V4 g8 f4. P0,12,4 EX EPX @2 _V-2 f4. _V2 E50,20,100,9,18 f4. E100,80,60,3,18 @@2,2,1 P18,12,4 V6 O3 EP0,0,0,3,0 D-1 YLR _V-4 f8. _V2 g8 _V2 g8 _V-2 e8 _V2 g8 _V-2 e8 b8 a16 D0 @@2,2,0 E80,100,70,3,9 EP-4,0,0,6,0 V8 O2 e4 _V-4 e8 _V4 d4 _V-4 d8 _V4 f+4 _V-4 r2 V4 d8 _V-2 d8 _V2 < a8 _V-2 a8 _V2 b4 _V-2 b8 _V2 > d4 _V-2 d8 _V2 e4 _V-2 e8 _V2 a4 _V-2 a8 _V2 g8 _V-2 g8 _V2 f+8 _V-2 f+8 _V2 O1 b4 _V-2 b8 _V2 a4 _V-2 a8 _V2 > d4 _V-2 d8 _V2 d4 _V-2 d8 _V2 d8 _V-2 d8 _V2 < a8 _V-2 a8 _V2 b4 _V-2 b8 _V2 > d4 _V-2 d8 _V2 e4 _V-2 e8 _V2 a4 _V-2 a8 _V2 g8 _V-2 g8 _V2 f+8 _V-2 f+8 _V2 
!2  B3 @2 E80,100,70,3,9 EP-4,0,0,3,0 P29,12,6 O2 V4 d24 @0 d+24 e24 f24 f+24 g24 ) g+24 a24 a+24 b24 > c24 c+24 ) d24 d+24 e24 f24 f+24 g24 @@2,2,0 O3 E80,100,30,3,18 EP-4,0,-36,6,18 V12 a8. Y.R _V-4 a8. YL. _V-2 a8. Y.R _V-2 a8. r8. r16 r4 @@2,2,0 E80,100,70,3,9 EP-4,0,0,3,0 P29,12,6 YLR V10 r8 a8 g4. _V-4 P0,12,6 g4. _V-2 g4 r8 _V2 P29,12,6 f16 e16 _V2 d8. c8. < b8 > d16 _V-2 @0 c16 < b16 @@2,2,0 _V2 g16~ g4. a4 _V-6 a4. _V4 r8 a8~ b8~ > c8~ d8~ e8~ f8 g8~~ a8~ b8 > _V2~ c8~ d8 EP-4,0,4,3,18 P21,15,4 e4 e4 EPX P0,15,4 e2 _V-6 e4 _V8 r4 EP-4,0,0,18,18 P21,15,2 V8 a2~ a8 _V-6 a8 _V6 EP-4,0,0,3,0 @@2,0,3 < [ g16 g16 _V-4 g16 _V4 g16 _V-4 g16 _V4 g16 _V-4 g16 _V-2 g16 _V6 H2 ]2 H0 [ r4 ]4 L E100,80,60,3,18 @@2,2,1 P18,12,4 V8 O3 EP0,0,0,3,0 D0 YLR r8 e8 d8 c16 d8. < a8 a8 b16 > c8. d8 e8 _V-2 g16 _V2 f+8. g8 _V-2 f+8 d8 _V2 d8 c16 e8. V3 @2 E80,100,80,4,9 EPX O2 @@2,1,3 D-2 Y.R~ f+4~ d8~ a4~ e8~ > c4 <~ a8 >~ e4~ d8~ a8 E100,80,60,3,18 @@2,2,1 P18,12,4 V8 O3 EP0,0,0,3,0 D0 YLR r8 e8 d8 c16 d8. < a8 a8 g8 b8 _V-2 b8 _V2 b8 > c16 < b8. > c8 < _V-2 b8 g8 _V2 g8 a8. r16 V3 @2 E80,100,80,4,9 EPX O2 @@2,1,3 D-2 YL.~ f+4~ < _V-2 a8 _V2~ > > e4~ < _V-2 g8 _V2~ > g4 <~ _V-2 a8 _V2 >~ b4~ > d8~ e8 E100,80,60,3,18 @@2,2,1 P18,12,4 V8 O3 EP0,0,0,3,0 D0 YLR r8 e8 d8 c16 d8. < a8 a8 b16 > c8. d8 e8 _V-2 g16 _V2 f+8. g8 _V-2 f+8 d8 _V2 d8 c16 e8. V3 @2 E80,100,80,4,9 EPX O2 @@2,1,3 D-2 Y.R~ f+4~ d8~ a4~ e8~ > c4 <~ a8 >~ e4~ d8~ a8 E100,80,60,3,18 @@2,2,1 P18,12,4 V8 O3 EP0,0,0,3,0 D0 YLR r8 e8 d8 c16 d8. < a8 a8 g8 b8 _V-2 b8 _V2 b8 > c16 < b8. > c8 < _V-2 b8 g8 _V2 g8 a8. r16 V3 @2 E80,100,80,4,9 EPX O2 @@2,1,3 D-2 YL.~ f+4~ < _V-2 a8 _V2~ > > e4~ < _V-2 g8~ _V2 > g4 <~ _V-2 a8 _V2 >~ b4~ > d8~ e8 E100,80,60,3,18 @@2,2,1 P18,12,4 V8 O2 EP0,0,0,3,0 D0 YLR a8 a8 a8 b16 > c8 _V-4 c8 _V-2 c8 r16 _V6 < b8 _V-4 b8 _V4 > d8 _V-4 d8 _V4 g8 _V-4 g8 _V4 a8 _V-4 a8 _V4 e4.~ e4~ e16. EX V2 O3 @@2,3,0 P0,9,2 D-2 Y.R c2 YL. d2 Y.R g32 YLR D0 E100,80,60,3,18 @@2,2,1 P18,12,4 V8 O3 EP0,0,0,3,0 _V-2 d8 _V2 d8 _V-2 e8 _V2 c8. < b8. > c8 _V-4 c4 _V4 c8 c8 _V2 d8. e4. r16 _V-2 c8 d8 c8 _V2 e8. d8. e8 f8. e8. f8 f+8. g+8. a8 b4 _V-6 b4 _V6 V8 r8 e8 e8 e16 e8. a8 _V-4 a8 _V-2 a8 ( a8 _V7 e8 e8 e16 e8. a8 b8 > c8 < b8. a8. e4 _V-4 e8 _V4 c8 c8 d8. g8. d4. _V-4 d8 _V-2 d8 _V6 r8 c8 c8 < a16 > c8. d8 e8 f8 _V-4 f8 _V4 e8 d8 c8 _V-6 c8 _V6 < b8 > c8 E100,50,50,28,0 g4. E50,20,100,9,18 g4 E100,80,50,3,9 r8 f8 e8 f16 _V2 e16~ e8 @@2,2,0 E80,100,70,3,9 EP0,0,0,3,0 P29,12,6 O3 V6 d8~ e4~ f+4~ g+4 E100,80,60,3,18 @@2,2,1 P18,12,4 V10 O3 EP0,0,0,3,0 D0 YLR r8 e8 e8 e16 e8. a8 _V-4 a8 _V-2 a8 ( a8 _V7 e8 e8 e16 e8. a8 b8 > c8 < b8. a8. e8 _V-4 e8 _V-2 e8 r8 _V4 b8 _V2 >~ d8 c4 < b4 g4 g8 E60,100,60,12,18 EP0,0,-12,4,10 a8. EP-12,0,0,9,0 a8 _V-4 EP0,0,0,3,0 E100,80,50,3,9 a16 _V4 e8 _V-4 e8 _V-2 e8 ( e8 _V7 g8 a8. EP-12,0,0,9,0 a8 _V-4 EP0,0,0,3,0 E100,80,60,3,18 a16 _V4 e8 _V-4 e8 _V-2 e8 _V6 b8 > c4. P0,12,4 EX EPX @2 _V-4 c4. _V4 E50,20,100,9,18 c4. E100,80,60,3,18 @@2,2,1 P18,12,4 V8 O3 EP0,0,0,3,0 D0 YLR _V-6 > c8 < _V8 g8 _V2 g8 _V-2 e8 _V2 g8 _V-2 e8 b8 a8~ a2. _V-4 a8 _V-2 a8 @@2,2,0 E80,100,70,3,9 EP-4,0,0,6,0 V4 O2 f+8 _V4 g4 _V-4 g8 _V4 f+8 _V-4 f+8 _V4 d8 _V-4 d8 _V4 e4 _V-4 e8 _V4 f+4 _V-4 f+8 _V4 a4 _V-4 a8 _V4 > d4 _V-4 d8 _V4 c8 _V-4 c8 _V4 < b8 _V-4 b8 _V4 O2 e4 _V-4 e8 _V4 d4 _V-4 d8 _V4 f+4 _V-4 f+8 _V4 g4 _V-4 g8 _V4 f+8 _V-4 f+8 _V4 d8 _V-4 d8 _V4 e4 _V-4 e8 _V4 f+4 _V-4 f+8 _V4 a4 _V-4 a8 _V4 > d4 _V-4 d8 _V4 c8 _V-4 c8 _V4 < b8 _V-4 b8 _V4 
!3  @A0 `AE00 `2E63 B3 O4 P35,18,2 EPX V1 e1 f1 g1~ g1 e1 f1 g1~ g2 PX O2 PX E100,20,20,3,0 @A8 EPX V3 a16 > d16 e16 g16 a16 > d16 e16 g16 < V1 Y.R a16 > d16 e16 g16 YLR @A3 B1 V3 YLR PX E100,70,70,6,0 EPX V3 O0 a4 ( a4 ( r4 O3 [ V3 a16 a16 V1 a16 V3 a16 V1 a16 V3 a16 V1 a16 r16 H2 ]2 H0 [ r4 ]4 L O0 @A3 E100,60,60,9,0 P27,12,16 [ V3 a4 V3 a8 V2 g16 V2 a8 V3 a16 r16 V2 e16 V3 g8 g+8 ]16 H-12 @A3 E100,70,0,6,24 EPX O1 V3 f8 f8 O2 f8~ V2 f16~ V3 O1 f8~ O2 V2 f8~ e16 V3~ e8 V2~ f8~ O1 V3 f8 f8 O2~ f8 V2~ f16 V3 O1~ f8~ f8 V2~ f16 O2 V3~ f8 V2~ f8 O1 V3 f8 f8 O2 V3 e16~ V3 f8~ V2 c8~ V2 c16~ c8 V3 e8~ V2 f8~ O1 V3 f8 V2 f16~ f16~ O2 V2 d8 V2 d16 V1 d16 V2~ g8 g16 V1 g16 V2 g8 g16 V1 g16 O1 V3 d8 V2 d16 O2 V3 d8 V2~ c16 O1 V3~ a8 V2 a16 O2 V3~ d8 V2 d16 V3~ c16 V2 c16 V3~ d16 V2 d16 O1 V3 e8 V2 e16 V3~ g8 V2 g16 O2 V3~ c8 V2 c16 O1 V3~ b8 V2 b16 O2 V3~ e16 V2 e16~ V3 c16~ V2 O1 g16~ O1 [ V3 e8 V2 e8 V3~ a8~ b8~ ]2 O2 V3~ e8 V2 e8 V3~ d8 O1 V2~ b16 O2 V3~ e16 V2 e16 V3 e16 V2 e16 O1~ b16 O2 V3~ e8 V2~ d8 H0 @A3 B1 V3 YLR PX E100,70,70,6,0 EPX [ O0 a8 >~ a8~ ]4 [ O0 g8 >~ g8~ ]4 [ O0 f8 >~ f8~ ]4 [ O0 e8 >~ e8~ ]4 [ O0 d8 >~ d8~ ]4 [ O0 c8 >~ c8~ ]4 [ O0 d8~ b8~ ]4 O0 d8 >~ d8~ O0 g+8 >~ g+8~ O0 a8 >~ a8~ O0 b8 >~ b8~ [ O0 a8 >~ a8~ ]4 [ O0 g8 >~ g8~ ]4 [ O0 f8 >~ f8~ ]4 [ O0 e8 >~ e8~ ]4 [ O0 d8 >~ d8~ ]4 [ O0 e8 >~ e8~ ]4 [ O0 f8 >~ f8~ ]4 V3 g8. V1 g8. g8. r16 r4 r8 @A8 V2 E70,100,70,4,10 EP-8,0,0,4,0 P18,12,6 O2 D1 a4 ( a8 ) g4 ( g8 ) a4 ( a8 ) > c4 ( c8 ) < a8 ( a8 ) g8 ( g8 ) a4 ( a8 ) a4 ( a8 ) > d4 ( d8 ) g4 ( g8 ) D2 e8 ( e8 ) e8 ( e8 ) < D1 a4 ( a8 ) g4 ( g8 ) a4 ( a8 ) > c4 ( c8 ) < a8 ( a8 ) g8 ( g8 ) a4 ( a8 ) a4 ( a8 ) > d4 D0 EPX E100,30,30,6,0 @A2 O4 YLR V3 [ a16 g+16 g16 f+16 V1 EX YL. g16 Y.R f+16 H-4 YLR V3 E100,30,30,6,0 ]2 H0 c+16 c16 < b16 a+16 
!4  [ @6 x8 @5 x8 @6 x8 @5 x8 @9 x4. @6 x8 ]8 x16 x16 x16 x16 @8 x4. @6 x4 x8 @5 x4 @6 x4 @5 x4 @6 x4 @6 x4 x4 x4 x4 L [ @8 x4. @6 x8 [ @5 x8 @6 x8 ]2 [ [ @5 r8 @6 x8 ]4 ]3 ]2 [ @8 x4. @6 x8 @5 x8 @9 x4. [ [ @5 x8 @6 x8 ]2 @5 x8 @9 x4. ]3 ]2 @8 x4. @6 x16 x16 @5 x16 @6 x16 x16 x16 @5 x16 @6 x16 x16 x16 [ @5 x16 @6 x16 x16 x16 ]28 [ @5 x16 @6 x16 @7 x8 ]60 @8 x4. @6 x4 x4 x8 [ @5 x16 @6 x16 x16 x16 ]32 
!5  [ @42 V1 c8 c16 @32 V0 c16 [ V1 c16 V0 c16 c16 c16 ]2 @31 V1 c8 c16 V0 c16 ]8 @32 V1 c16 V0 c16 c16 c16 @0 V1 c16 @32 V0 c16 c16 c16 @32 V1 c16 V0 c16 c16 c16 @32 V1 c16 V0 c16 @1 c32 c32. c32. [ @1 V1 c16 c16 @32 V0 c16 @1 V1 c16 @32 V0 c16 @1 V1 c16 @32 V1 c16 c16 ]2 O2 r8 @1 V1 c32. V0 c32 c32. V1 c16 c8 @2 YL. V0 c16 V1 c8 YLR V0 < a+16 V1 a+8 Y.R V0 d+16 V1 e8 L O2 YLR @0 [ c4 c4 c4 c4 ]3 c4 c4 c8. @2 YLR < V0 a+16 V1 a+8 YL. d+8 O2 YLR @0 [ c4 c4 c4 c4 ]3 c4 c8. @1 V0 c16 V1 c8. V0 c16 V1 c8 V0 c16 c16 V1 [ @0 V1 c8 @32 V0 c16 V1 c16 @31 e8 @32 c16 V1 c16 @0 c8 @32 V0 c16 V1 c16 @31 c8 V0 c16 c16 ]3 @0 V1 c8 @32 V0 c16 V1 c16 @31 e8 @32 c16 V1 c16 @0 c8 @32 V0 c16 V0 @2 < Y.R e16 > YL. V1 c8 @31 YLR c8 [ @0 V1 c8 @32 V0 c16 V1 c16 @31 e8 @32 c16 V1 c16 @0 c8 @32 V0 c16 V1 c16 @31 c8 V0 c16 c16 ]3 @0 V1 c8 @32 V0 c16 V1 c16 @31 e8 @32 c16 V1 c16 @0 c8 @32 V0 c16 V0 @2 < Y.R c16 YLR V1 g+8 YL. d+8 YLR O2 [ V1 @0 c16 V0 @32 c16 @0 c16 @32 c16 @1 V1 c16 V0 @32 c16 c16 c16 V1 @32 c16 V0 c16 V1 @0 c16 V0 @32 c16 @1 V1 c16 V0 @32 c16 c16 c16 ]3 V1 @0 c16 V0 @32 c16 @0 c16 @32 c16 @1 V1 c16 V0 @32 c16 c16 c16 V1 @32 c16 V0 c16 V1 @0 c16 V0 @32 c16 @2 V1 < Y.R g+16 YLR > V0 @32 c16 < YL. @2 d+16 d+16 YLR O2 [ V1 @0 c16 V0 @32 c16 @0 c16 @32 c16 @1 V1 c16 V0 @32 c16 c16 c16 V1 @32 c16 V0 c16 V1 @0 c16 V0 @32 c16 @1 V1 c16 V0 @32 c16 c16 c16 ]3 V1 @0 c16 V0 @32 c16 @0 c16 @32 c16 @1 V1 c16 V0 @32 c16 c16 c16 V1 @32 c16 V0 c16 V1 @0 c16 V0 @32 c16 @1 V1 c16 V0 @32 c16 V1 @1 c16 V0 @32 c16 [ [ V1 @41 c8 @32 V0 c16 V1 c16 @31 c8 @32 V0 c16 V1 c16 ]2 ]3 V1 @41 c8 @32 V0 c16 V1 c16 @31 c8 @32 V0 c16 V1 c16 V1 @41 c8 @31 V0 c16 V1 c16 V1 @41 c8 @2 < V0 c16 V1 Y.R d+16 > YLR [ [ V1 @41 c8 @32 V0 c16 V1 c16 @31 c8 @32 V0 c16 V1 c16 ]2 ]3 V1 @41 c8 @32 V0 c16 V1 c16 @31 c8 @32 V0 c16 V1 c16 @31 c16 V0 c16 c16 c16 V1 c16 c16 @2 Y.R c16 < YL. d+16 > YLR [ [ V1 @41 c8 @32 V0 c16 V1 c16 @31 c8 @32 V0 c16 V1 c16 ]2 ]3 V1 @41 c8 @32 V0 c16 V1 c16 @31 c8 @32 V0 c16 V1 c16 V1 @41 c8 @31 V0 c16 V1 c16 c16 c16 V0 c16 V1 c16 [ [ V1 @41 c8 @32 V0 c16 V1 c16 @31 c8 @32 V0 c16 V1 c16 ]2 ]2 V1 @41 c8 @32 V0 c16 V1 c16 @31 c8 @32 V0 c16 V1 c16 V1 @41 c8 @31 V0 c16 V1 c16 c16 c16 V0 c16 V1 c16 @41 V1 c4 r4 @1 c8 @0 c8 @1 c32. @2 V0 Y.R c32. < YL. g+32 > YLR @0 c8 YLR [ [ [ @0 V1 c8 @32 V0 c16 c16 ]3 @1 V1 c8 @32 V0 c16 c16 ]3 [ @0 V1 c8 @32 V0 c16 c16 ]2 @0 V1 c8 @32 V0 c16 @1 c16 V1 c8 @2 V0 YL. < g+16 d+16 > YLR ]2 V1 
!6  @54 W0,98,0 V1 O2 b1 b1 b1~ b1 @55 W0,98,0 b1~ b1~ b1~ b2 r2~ r8 O2 @14 W0,33,6 r24 r24 e24~ V1 a4. V0 W33,33,6 EP0,0,-20,13,13 a4. @52 O2 V1 EPX g16 g16 Y.R V0 g16 V1 YLR g16 V0 YL. g16 V1 YLR g16 r16 r16 a16 a16 Y.R V0 a16 V1 YLR a16 V0 YL. a16 V1 YLR a16 r16 r32 r32. O2 r8 @1 V0 Y.R c32. YL. c32 Y.R c32. Y.R c16 YLR V1 c8 @2 Y.R V0 c16 V1 c8 YL. V0 < a+16 V1 a+8 YL. V0 d+16 V1 e16 r32. @53 V1 O2 e6 V0 Y.R e6 YL. e6 Y.R e6 YL. r3 YLR L V1 O2 f+6 V0 Y.R f+6 YL. f+6 Y.R f+6 YL. r3 YLR V1 O2 e6 V0 Y.R e6 YL. e6 Y.R e6 YL. r3 YLR r1 V1 O2 e6 V0 Y.R e6 YL. e6 Y.R e6 YL. r3 YLR V1 O2 f+6 V0 Y.R f+6 YL. f+6 Y.R f+6 YL. r3 YLR V1 O2 e6 V0 Y.R e6 YL. e6 Y.R e6 YL. r3 YLR r1 V0 e4 @14 O2 YLR a4 V0 @39 O1 Y.R a16 YL. d16 Y.R e16 YL. a16 O2 Y.R d16 O1 YL. g16 Y.R a16 O2 YL. d16 Y.R e16 O1 YL. a16 Y.R O2 d16 YL. e16 Y.R a16 YL. d16 Y.R e16 YL. a16 @27 Y.R d16 YL. O1 g16 Y.R @39 O2 a16 YL. d16 Y.R e16 YL. O1 Y.R a16 O2 YL. f+16 O1 Y.R a16 YLR @53 O2 V0 O2 e6 V0 Y.R e6 YL. e6 Y.R e6 YL. r3 YLR r4. O1 @14 V0 a16 a+16 V1 b16 > d16 r16 d+16 r16 e8 r16 @53 O2 V0 e4 @14 YLR a4 V0 @39 O1 Y.R a16 YL. d16 Y.R e16 YL. a16 O2 Y.R d16 O1 YL. g16 Y.R a16 O2 YL. d16 Y.R e16 O1 YL. a16 Y.R O2 d16 YL. e16 Y.R a16 YL. d16 Y.R e16 YL. a16 @27 Y.R d16 YL. O1 g16 Y.R @39 O2 a16 YL. b16 Y.R e16 YL. O1 Y.R a16 O2 YL. f+16 O1 Y.R a16 YLR @53 O2 V0 O2 e6 V0 Y.R e6 YL. e6 Y.R e6 YL. r3 YLR r4. O1 V0 @14 a16 > c16 V1 d16 e16 r16 f+16 r16 g8 r16 @46 W0,98,0 [ O0 [ YLR V1 f32 Y.R V0 f32 YLR V1 g32 YL. V0 g32 YLR V1 a32 Y.R V0 a32 > YLR V1 c32 YL. V0 c32 ]3 YLR V1 g32 Y.R V0 g32 YLR V1 f32 YL. V0 f32 YLR V1 c32 Y.R V0 c32 < YLR V1 a32 YL. V0 a32 [ YLR V1 g32 Y.R V0 g32 YLR V1 f32 YL. V0 f32 YLR V1 d32 Y.R V0 d32 < YLR V1 b32 YL. V0 b32 ]2 ]2 O0 [ YLR V1 d32 Y.R V0 d32 YLR V1 f32 YL. V0 f32 YLR V1 a32 Y.R V0 a32 > YLR V1 c32 YL. V0 c32 ]3 [ YLR V1 g32 Y.R V0 g32 YLR V1 e32 YL. V0 e32 YLR V1 d32 Y.R V0 d32 < YLR V1 b32 YL. V0 b32 ]3 O0 [ YLR V1 d32 V0 Y.R d32 YLR V1 f32 V0 YL. f32 YLR V1 a32 V0 YL. a32 > YLR V1 c32 V0 YL. c32 ]3 [ YLR V1 f32 Y.R V0 f32 YLR V1 d32 YL. V0 d32 YLR V1 c32 Y.R V0 c32 < YLR V1 a32 YL. V0 a32 ]3 O0 [ YLR V1 e32 Y.R V0 e32 YLR V1 a32 YL. V0 a32 YLR V1 b32 Y.R V0 b32 > YLR V1 d32 YL. V0 d32 ]4 [ YLR V1 e32 Y.R V0 e32 YLR V1 d32 YL. V0 d32 < YLR V1 b32 Y.R V0 b32 YLR V1 g+32 YL. V0 g+32 ]3 YLR V1 e32 Y.R V0 e32 YLR V1 d32 YL. V0 d32 < YLR V1 b32 Y.R V0 b32 YLR V1 g+32 YL. V0 g+32 @13 V0 O1 YLR [ r8 a16 r8 a8 r16 a8 r16 a8 r16 a8 H-2 ]2 H0 r8 f16 r8 f8 r16 f8 r16 f8 r16 f8 r8 e16 r8 e8 r16 O1 V1 g8 V0 g16 g16 > V1 d8 V0 d16 d16 r4 O1 V1 a4 V0 a8 a8 r4 V1 r8 g4 V0 g8 V1 g16 g16 r16 V0 g16 > [ V1 c16 V0 c16 ]2 r4 O2 V1 d4 V0 d8 d8 r4 r8 V1 e16 < b16 > d16 e16 r16 e16 r16 e16 r16 < b16 > r16 d16 r16 e16 @13 V1 O1 r4 a4 V0 a8 a8 r4 r8 g16 r8 g8 r16 g8 r16 g8 r16 g8 r8 f16 r8 f8 r16 f8 r16 f8 r16 f8 r8 f16 r8 f8 r16 O1 V1 g8 V0 g16 g16 > V1 d8 V0 d16 d16 @14 V1 [ r8 c16 r8 c16 r8 c8 r16 c8 r16 c8 H2 ]2 H0 r8 V0 e8 V1 e8 e8 d16 c+16 r16 e16 r16 f16 r16 f+16 V1 g8 V0 Y.R g8 YL. g8 YLR r4. r4 @48 W0,96,52 O0 V0 [ a8 > a8 < a8 d8 > d8 < d8 e8 > e8 < e8 a8 > a8 < a8 d8 > d8 < e8 > e8 < ]4 @39 V0 O1 a4 @53 V1 O2 V0 O2 e6 V0 Y.R e6 YL. e6 Y.R e12~ e24 YLR r8 
