;014 0031F448
!1  T175 YL. D-1 V6 O3 @@3,2,1 E100,90,60,22,38 P11,11,4 B5 r16 r4 e8 e8 e8 g8~ _V-2 g8 _V2 g8 g16~ _V-2 g16 _V2 g8 f+16~ _V-2 f+16 _V2 f+8 e8 d8 e8 e8~ e1~ e8~ _V-5 e4 _V5 r4 e8 d8 c8~ c4 c4 c8 a+16~ b16~ b8 b8~ a4 a+16~ b16 a8~ a4 g8 a8~ a8 g8 e2.~ e2~ _V-4 e8~ _V-2 d+8 _V6 r4 r4 e4 e4 f+8 g8~ g16~ _V-2 g16 _V2 g8 f+16~ _V-2 f+16 _V2 f+8 e8 d8 e8 d+16~ e16~ e1~ e8~ _V-4 e4 _V4 r4 e8 d8 c8~ c4 c4 c8 a+16~ b16~ b8 b8~ a8. _V-3 a16 _V3 a8 g16~ _V-2 g16 _V2 a+16~ b16 a8 g8 a16 V9 O1 D0 @@5,0,3 E100,80,50,25,38 [ e8 YL. > e8 Y.R a8 YL. _V-3 a8 _V3 Y.R g8 YL. _V-3 g8 _V3 Y.R f+8 YL. _V-3 f+8 _V3 Y.R g8 YL. _V-3 g8 _V3 Y.R f+8 YL. _V-3 f+8 _V3 Y.R e8 YL. < d8~ d8 Y.R e8~ ]3 e8 YL. > e8 Y.R a8 YL. _V-3 a8 _V3 Y.R g8 YL. _V-3 g8 _V3 Y.R f+8 YL. _V-3 f+8 _V3 Y.R g8 YL. _V-3 g8 _V3 Y.R f+8 YL. _V-3 f+8 _V3 Y.R e8. L YL. D-1 V6 O3 @@3,2,1 E100,90,60,22,38 P11,11,4 B5 e8 f+8 g8~ g4 g4 g8 a+16~ b16~ b8 b8~ a4.~ _V-4 a8 _V4 r8 f+8 e8 d8~ d8.~ _V-2 d16 _V2 d8~ _V-2 c8 _V2 < b16~ _V-2 b16 _V2 b16~ _V-2 b16 _V2 b8 > a8~ a8 g8 f+8 g8~ g16~ _V-3 g16 _V3 e4 f+8 g8. f+8. e8~ e8~ _V-3 e8 _V3 r8 e8 a8 a8 g8.~ _V-3 g16 _V3 f+8 e8 f+8 g8~ g4~ _V-3 g8 _V3 < b8~ b4. > b8~ b16~ a+16~ b8~ b8~ _V-4 b8 _V4 r8 e8 f+8 g8 g8.~ _V-3 g16 _V3 g8 g8 g8 g8 b8 a8~ a8 g4 a8~ _V-3 a8 _V3 r8 a8 a+16~ b16~ b4 > c8 < b8~ b8 a8.~ _V-3 a16 _V3 a8~ g+4.~ _V-4 g+8 _V4 r8 g+8 f+8 e8~ e4 e4 e8 a+16~ b16~ b8 a8~ a16~ _V-2 a16 _V2 g+4 a8~ a8 g8 f+8 e8~ e2~ _V-4 e8 _V4 r4 r16 V6 O3 YL. @2 D1 EX PX B25 d8 g8 b8 > e8~ e4~ c4 < YLR D0 V7 O3 @@3,2,1 E100,90,60,22,38 P11,11,4 B5 f+16~ g16~ g2.~ _V-4 g8 _V4 g16~ _V-2 g16 _V2 g4 g8~ g8 e4 f8~ f8 e8 c4~ c2~ c4. _V-4 c8 _V4 r4. f+16~ g16~ g2 e2 e8~ _V-3 e8 _V3 d8 e8~ e8 e4 f8~ f2. _V-4 f8 _V4 r8 r1 a16~ a+16~ a+8~ a+4 g2 g8~ _V-3 g8 _V3 f8 g8~ g8 g4 g+8~ g+8 g8 d+4~ d+2~ d+4. _V-4 d+8 _V4 r4. a16~ a+16~ a16~ a+16~ a+8~ a+4 g2 g8~ _V-3 g8 _V3 f8 g8~ g8 g4 g+8~ g+1~ g+2.~ _V-5 g8 _V5 V9 O1 YL. @@5,0,3 E100,80,50,25,38 e8 [ e8 YL. > e8 Y.R a8 YL. _V-3 a8 _V3 Y.R g8 YL. _V-3 g8 _V3 Y.R f+8 YL. _V-3 f+8 _V3 Y.R g8 YL. _V-3 g8 _V3 Y.R f+8 YL. _V-3 f+8 _V3 Y.R e8 YL. < d8~ d8 Y.R e8~ ]3 e8 YL. > e8 Y.R a8 YL. _V-3 a8 _V3 Y.R g8 YL. _V-3 g8 _V3 Y.R f+8 YL. _V-3 f+8 _V3 Y.R g8 YL. _V-3 g8 _V3 Y.R f+8 YL. _V-3 f+8 _V3 Y.R e8. 
!2  YLR V7 O3 @@3,2,1 E100,90,60,22,38 P11,11,4 B5 r4 e8 e8 e8 g8~ _V-2 g8 _V2 g8 g16~ _V-2 g16 _V2 g8 f+16~ _V-2 f+16 _V2 f+8 e8 d8 e8 e8~ e1~ e8~ _V-5 e4 _V5 r4 e8 d8 c8~ c4 c4 c8 a+16~ b16~ b8 b8~ a4 a+16~ b16 a8~ a4 g8 a8~ a8 g8 e2.~ e2~ _V-4 e8~ _V-2 d+8 _V6 r4 r4 e4 e4 f+8 g8~ g16~ _V-2 g16 _V2 g8 f+16~ _V-2 f+16 _V2 f+8 e8 d8 e8 d+16~ e16~ e1~ e8~ _V-4 e4 _V4 r4 e8 d8 c8~ c4 c4 c8 a+16~ b16~ b8 b8~ a8. _V-3 a16 _V3 a8 g16~ _V-2 g16 _V2 a+16~ b16 a8 g8 g+16~ a16~ a8 g8 e2.~ _V-4 e4 _V4 r4 r8 e8~ _V-2 d+8 _V2 f16~ f+16~ f+1~ g2~ > ( c+16~ _V-2 d16 _V3 < e8 _V-3 e8 _V3 e8~ e4 d2.~ d2 _V-4 d4 _V4 r4 r1 r2 r8 e8 f+8 L g8~ g4 g4 g8 a+16~ b16~ b8 b8~ a4.~ _V-4 a8 _V4 r8 f+8 e8 d8~ d8.~ _V-2 d16 _V2 d8~ _V-2 c8 _V2 < b16~ _V-2 b16 _V2 b16~ _V-2 b16 _V2 b8 > a8~ a8 g8 f+8 g8~ g16~ _V-3 g16 _V3 e4 f+8 g8. f+8. e8~ e8~ _V-3 e8 _V3 r8 e8 a8 a8 g8.~ _V-3 g16 _V3 f+8 e8 f+8 g8~ g4~ _V-3 g8 _V3 < b8~ b4. > b8~ b16~ a+16~ b8~ b8~ _V-4 b8 _V4 r8 e8 f+8 g8 g8.~ _V-3 g16 _V3 g8 g8 g8 g8 b8 a8~ a8 g4 a8~ _V-3 a8 _V3 r8 a8 a+16~ b16~ b4 > c8 < b8~ b8 a8.~ _V-3 a16 _V3 a8~ g+4.~ _V-4 g+8 _V4 r8 g+8 f+8 e8~ e4 e4 e8 a+16~ b16~ b8 a8~ a16~ _V-2 a16 _V2 g+4 a8~ a8 g8 f+8 e8~ e2~ _V-4 e8 _V4 r4. r1 b16~ > c16~ c2.~ _V-4 c8 _V4 < b16~ _V-2 b16 _V2 b4 > c8~ c8 < g4 a8~ a8 g8 f4~ f2~ f4. _V-4 f8 _V4 r4. b16~ > c16~ c2.~ c8 _V-4 c8 _V4 < b8~ _V-3 b8 _V3 b8 > c8~ c8 < g4 a8~ a2. _V-4 a8 _V4 r8 r1 H> H> H> b16~ > c16~ c2.~ _V-4 c8 _V4 < b8~ _V-3 b8 _V3 b8 > c8~ c8 < g4 a8~ a8 g8 f4~ f2~ f4.~ _V-4 f8 _V4 r4. b16~ > c16~ c2.~ c8 _V-4 c8 _V4 < b8~ _V-3 b8 _V3 b8 > c8~ c8 < g4 a8~ a1~ a2.~ _V-5 g+8 _V5 r8 H< H< H< [ r1 ]3 r2 r8 e8 a16~ _V-2 a16 _V2 g8~ g8~ _V-4 b8~ _V2 > g8~ _V-4 g8 _V6 < r2 [ r1 ]2 r2 r8 e8 f+8 
!3  V3 O1 `9F00 @A3 @B0 @~3 [ c2.~ c8~ ( c8 ) d2.~ d8~ ( d8 ) < e1~ e2.~ ( e4 ) > ]3 c2.~ ( c4 ) d2.~ ( d8 ) < e8~ e16~ ( e16 ) [ e16~ ( e16 ) ]12 > d16~ ( d16 ) < r8 e8~ e16~ ( e16 ) [ e16~ ( e16 ) ]12 > d16~ ( d16 ) < r8 e8~ e16~ ( e16 ) [ e16~ ( e16 ) ]12 > d16~ ( d16 ) < r8 e8~ e16~ ( e16 ) [ e16~ ( e16 ) ]12 > d8~ ( d8 ) L c8~ c16~ ( c16 ) [ c16~ ( c16 ) ]6 d8~ d16~ ( d16 ) [ d16~ ( d16 ) ]5 c16~ ( c16 ) < b8~ b16~ ( b16 ) [ b16~ ( b16 ) ]6 e8~ e16~ ( e16 ) e16~ ( e16 ) [ f+16~ ( f+16 ) ]2 [ g16~ ( g16 ) ]2 a16~ ( a16 ) > c8~ c16~ ( c16 ) [ c16~ ( c16 ) ]6 d8~ d16~ ( d16 ) [ d16~ ( d16 ) ]6 e8~ e8 < e8 > d8 < e8 > d8 e8 < b16~ ( b16 ) > e8~ e8 < e8 > d8 < e8 > e8 d8~ ( d8 ) c8~ c16~ ( c16 ) [ c16~ ( c16 ) ]6 d8~ d16~ ( d16 ) [ d16~ ( d16 ) ]5 c16~ ( c16 ) < b8~ b16~ ( b16 ) [ b16~ ( b16 ) ]6 < e8~ e8 e8 > e8 < e8 > d8 e8 < e8 > c8~ c16~ ( c16 ) [ c16~ ( c16 ) ]6 d8~ d16~ ( d16 ) [ d16~ ( d16 ) ]6 < e8~ e16~ ( e16 ) [ e16~ ( e16 ) ]7 [ e16~ ( e16 ) ]8 > [ c16~ ( c16 ) ]15 < f8~ f16~ ( f16 ) [ f16~ ( f16 ) ]14 > c8~ c16~ ( c16 ) [ c16~ ( c16 ) ]14 < f8~ f16~ ( f16 ) [ f16~ ( f16 ) ]7 > r1 [ d+16~ ( d+16 ) ]15 < g+8~ g+16~ ( g+16 ) [ g+16~ ( g+16 ) ]14 > d+8~ d+16~ ( d+16 ) [ d+16~ ( d+16 ) ]14 < g+8~ g+16~ ( g+16 ) [ g+16~ ( g+16 ) ]14 e8~ e16~ ( e16 ) [ e16~ ( e16 ) ]12 > d16~ ( d16 ) < r8 e8~ e16~ ( e16 ) [ e16~ ( e16 ) ]12 > d16~ ( d16 ) < r8 e8~ e16~ ( e16 ) [ e16~ ( e16 ) ]12 > d16~ ( d16 ) < r8 e8~ e16~ ( e16 ) [ e16~ ( e16 ) ]12 > d8~ ( d8 ) 
!4  [ @8 x2 @5 x2 ]3 @5 x2 x4 @8 x4 [ @8 x2 @5 x2 ]3 @5 x2 x2 [ @8 x2 x2 x2 @5 x2 ]2 @8 x2 @5 x2 @5 x2 x4. @8 x8~ x8 @5 x8 @8 x4 @5 [ x8 ]4 @5 [ x8 ]5 @7 x8 @5 x8 @8 x8~ x8 @5 x8 @8 x4 @5 x8 x8 @8 x4 @5 [ x8 ]5 @7 x8 @5 x8 @8 x8~ x8 @5 x8 @8 x4 @5 x8 x8 @8 x4 x8 @5 x8 @8 x4 @5 x8 @7 x8 @5 x8 @8 x8~ x8 @5 x8 @8 [ x4 ]3 [ x4 ]3 @5 x8 L @8 x8~ x8 @5 [ x8 ]7 [ x8 ]7 @7 x8 @6 x8 @5 [ x8 ]7 [ x8 ]5 @7 x8 @5 x8 @8 x8~ x8 @5 [ x8 ]7 [ x8 ]7 @7 x8 @6 x8 @5 x8 @8 x4 @5 x8 x8 @8 x4 @5 [ x8 ]5 @7 x8 @5 x8 @8 x8~ x8 @5 [ x8 ]7 [ x8 ]7 @7 x8 @6 x8 @5 [ x8 ]7 [ x8 ]5 @7 x8 @5 x8 @8 x8~ x8 @5 [ x8 ]7 [ x8 ]7 @7 x8 @6 x8 @5 x8 @8 x4 @5 x8 x8 @8 x4 x4 @5 [ x8 ]6 @8 x4 @5 [ x8 ]6 @5 [ x8 ]5 @7 x8 @5 x8 @8 x8~ x8 @5 [ x8 ]7 [ x8 ]7 @8 x8~ x8 @5 [ x8 ]3 @8 x4 @5 x8 x8 @5 [ x8 ]5 @7 x8 @5 x8 @8 x8~ x8 @5 [ x8 ]6 @7 x8 @5 x2. @8 x4 @8 x4 @5 [ x8 ]6 @5 [ x8 ]5 @7 x8 @5 x8 @8 x8~ x8 @5 [ x8 ]7 [ x8 ]7 @8 x8~ x8 @5 [ x8 ]3 @8 x4 @5 x8 x8 @5 [ x8 ]5 @7 x8 @5 x8 @8 x8~ x8 @5 [ x8 ]7 [ x8 ]7 @8 x8~ x8 @5 x8 @8 x4 @5 [ x8 ]4 @5 [ x8 ]5 @7 x8 @5 x8 @8 x8~ x8 @5 x8 @8 x4 @5 x8 x8 @8 x4 @5 [ x8 ]5 @7 x8 @5 x8 @8 x8~ x8 @5 x8 @8 x4 @5 x8 x8 @8 x4 x8 @5 x8 @8 x4 @5 x8 @7 x8 @5 x8 @8 x8~ x8 @5 x8 @8 [ x4 ]3 [ x4 ]3 @5 x8 
!5  V1 O1 @0 [ x1 ]3 r2 r8 x8 @1 x4 @0 [ x1 ]3 r4. @2 b8 r8 g8 d8 @0 x8 @0 x4. x8 @1 x8 @0 x4 x8 @0 x4. @1 x4 @0 x8 @2 b8 g8 @1 x8 @0 x8 x8 x8 @1 x8 @0 x4 x8 @1 x8 @0 x8 x8 @2 b8 @0 x8 x8 @2 g8 d8 @0 x2 @1 [ x8 ]4 [ @1 x16 @2 b16 g16 d16 ]3 @1 x8 @0 x8 [ r8 @0 x8 @1 x4 @0 x8 x8 @1 x4 @0 x8 x8 @1 x8. x16 x8 @0 x8 @1 x8 @0 x8 ]2 r8 @0 x8 [ @1 x8 @0 x8 ]3 @1 x8 @0 x8 @1 x8 @0 x16 @1 x16 x8 @0 x8 @1 x8 @0 x8 r8 @0 x8 @1 x8 @0 x16 x16 [ @1 x16 @0 [ x16 ]3 ]2 [ @1 x16 @0 [ x16 ]3 ]2 @1 x8 @2 g4 L @0 x8 r8 @0 x8 @1 x4. @0 x8 @1 x8 @0 x8 r8 @0 x8 @1 x8 @0 x4 x8 @1 x8 @0 x8 r8 @0 x8 @1 x4. @0 x8 @1 x8 @0 x8 r8 @0 x8 @1 x4 @0 x8 x8 @1 x8 @0 x8 r8 @0 x8 @1 x4. @0 x8 @1 x8 @0 x8 r8 @0 x8 @1 x8 @0 x4 x8 @1 x8 @0 x8 r8 @0 x8 @1 x4 @0 x8 x8 @1 x4 @0 x8 x8 @1 x8. x16 x8 @0 x8 @1 x8 @0 x8 r8 @0 x8 @1 x4. @0 x8 @1 x8 @0 x8 r8 @0 x8 @1 x4. @0 x16 x16 @1 x8 @0 x8 r8 @0 x8 @1 x4. @0 x8 @1 x8 @0 x8 r8 @0 x8 @1 x4 @0 x8 x8 @1 x8 @0 x8 r8 @0 x8 @1 x4. @0 x8 @1 x8 @0 x8 r8 @0 x8 @1 x8 @0 x4 x8 @1 x8 @0 x8 r8 @0 x8 @1 x4 @0 x8 x8 @1 x8. x16 @0 x8 @1 x4 x8 @2 g8. @1 x16 x8 @2 d8 @0 x4 @1 x4. @0 x8 @1 x4 @0 x8 x8 @1 x4 @0 x8 x8 @1 x8 @0 x8 r8 @0 x8 @1 x4. @0 x8 @1 x4 @0 x8 x8 @1 x4 @0 x8 x8 @1 x8 @0 x8 r8 @0 x8 @1 x8 x8 @0 x4 @1 x8 @0 x8 @0 x8 x8 @1 x4 @0 x8 x8 @1 x8 @0 x8 r8 @0 x8 @1 x8. x16 x8 @2 g8 d8 @1 x8 r2~ r8 @0 x16 x16 @1 x8 @0 x8 @0 x8 x8 @1 x4. @0 x8 @1 x4 @0 x8 x8 @1 x4 @0 x8 x8 @1 x8 @0 x8 r8 @0 x8 @1 x4. @0 x8 @1 x4 @0 x8 x8 @1 x4 @0 x8 x8 @1 x8 @0 x8 r8 @0 x8 @1 x8 x8 @0 x4 @1 x4 @0 x8 x8 @1 x4 @0 x8 x8 @1 x8 @0 x8 r8 @0 x8 @1 x4 @0 x8 x8 @1 x8 @0 x16 x16 @1 [ x8 ]7 @0 x8 [ r8 @0 x8 @1 x4 @0 x8 x8 @1 x4 @0 x8 x8 @1 x8. x16 x8 @0 x8 @1 x8 @0 x8 ]2 r8 @0 x8 [ @1 x8 @0 x8 ]3 @1 x8 @0 x8 @1 x8 @0 x16 x16 @1 x8 @0 x8 @1 x8 @0 x8 r8 @0 x8 @1 x8 @0 x16 x16 [ @1 x16 @0 [ x16 ]3 ]2 @1 x16 @0 [ x16 ]3 @1 x8 @0 x16 x16 @1 x8 @2 g8 d8 
!6  O2 @62 W0,100,33 B10 [ [ YLR c8~ Y.R c8~ YLR c8~ YL. c8 ]2 [ YLR d8~ YL. d8~ YLR d8~ YL. d8 ]2 [ YLR e8~ Y.R e8~ YLR e8~ YL. e8 ]3 YLR e8~ Y.R e8~ YLR e8~ < b8 > ]3 [ YLR c8~ Y.R c8~ YLR c8~ YL. c8 ]2 YLR d8~ Y.R d8~ YLR d8~ YL. d8~ YLR d8~ Y.R d8~ YLR d8 < e8~ [ [ YLR e16 Y.R ( e16 ) YLR e16 YL. ( e16 ) ]6 YLR e16 ( e16 ) > d8 ( d8 < ) e8~ ]3 [ YLR e16 Y.R ( e16 ) YLR e16 YL. ( e16 ) ]6 YLR > e8 d8 ( d8 ) L c8~ c8. ( c16 ) c8 Y.R c16 YL. c16 ( Y.R c16 YL. c16 ) YLR c8 ( Y.R c16 YL. c16 ) YLR d8~ d8. ( d16 ) d8 Y.R d16 YL. d16 ( Y.R d16 YL. d16 ) YLR d8 c8 < b8~ b8. ( b16 ) b8 Y.R b16 YL. b16 ( Y.R b16 YL. b16 ) YLR b8 ( Y.R b16 YL. b16 ) > YLR e8~ e8. ( e16 ) e8 Y.R e16 YL. e16 ( Y.R e16 YL. e16 ) YLR e8 ( Y.R e16 YL. e16 ) YLR c8~ c8. ( c16 ) c8 Y.R c16 YL. c16 ( Y.R c16 YL. c16 ) YLR c8 ( Y.R c16 YL. c16 ) YLR d8~ d8. ( d16 ) d8 Y.R d16 YL. d16 ( Y.R d16 YL. d16 ) YLR d8 ( Y.R d16 YL. d16 ) YLR e8~ e8 < Y.R e16 YL. e16 > YLR d8 < Y.R e16 YL. e16 > YLR d8 e8 < Y.R e16 YL. e16 > YLR e8~ e8 < Y.R e16 YL. e16 > YLR d8 < Y.R e16 YL. e16 > YLR e8 d8 ( d8 ) c8~ c8. ( c16 ) c8 Y.R c16 YL. c16 ( Y.R c16 YL. c16 ) YLR c8 ( Y.R c16 YL. c16 ) YLR d8~ d8. ( d16 ) d8 Y.R d16 YL. d16 ( Y.R d16 YL. d16 ) YLR d8 c8 < b8~ b8. ( b16 ) b8 Y.R b16 YL. b16 ( Y.R b16 YL. b16 ) YLR b8 ( Y.R b16 YL. b16 ) > YLR e8~ e8. ( e16 ) e8 Y.R e16 YL. e16 ( Y.R e16 YL. e16 ) YLR e8 ( Y.R e16 YL. e16 ) YLR c8~ c8. ( c16 ) c8 Y.R c16 YL. c16 ( Y.R c16 YL. c16 ) YLR c8 ( Y.R c16 YL. c16 ) YLR d8~ d8. ( d16 ) d8 Y.R d16 YL. d16 ( Y.R d16 YL. d16 ) YLR d8 ( Y.R d16 YL. d16 ) YLR e8~ e8. ( e16 ) e8 Y.R e16 YL. e16 ( Y.R e16 YL. e16 ) YLR e8 Y.R e16 YL. e16 ( Y.R e16 YL. e16 ) YLR e8 Y.R e16 YL. e16 ( Y.R e16 YL. e16 ) YLR e8 )~ e8 ( e8 ) YLR e16 Y.R e16 ( YLR e16 YL. e16 ) YLR c8. ( c16 ) c8 Y.R c16 YL. c16 ( Y.R c16 YL. c16 ) YLR c8 ( Y.R c16 YL. c16 ) YLR d8 ( Y.R d16 YL. d16 ) YLR d8 c8 f8~ f8 e8 ( e8 ) < f8~ ( f8 ) f16 ( f16 ) f16 Y.R ( f16 ) YLR f16 YL. ( f16 ) Y.R f16 YL. f16 > YLR f8 ( f8 ) > c8~ ( c8 ) c8 < f8 a+16 a+16 a+8 a8 ( f8 ) c8~ c16 ( c8. ) c8 Y.R c16 YL. c16 ( Y.R c16 YL. c16 ) YLR c8 ( Y.R c16 YL. c16 ) YLR d8 ( Y.R d16 YL. d16 ) YLR d8 c8 f8~ f8 e8 ( e8 ) < f8~ ( f8 ) f16 ( f16 ) > f8 < Y.R f16 YL. f16 YLR ( f8 ) > f8 ( f8 ) f8 r1 H> H> H> YLR c8. ( c16 ) c8 Y.R c16 YL. c16 ( Y.R c16 YL. c16 ) YLR c8 ( Y.R c16 YL. c16 ) YLR d8 ( Y.R d16 YL. d16 ) YLR d8 c8 f8~ f8 e8 ( e8 ) < f8~ ( f8 ) f16 ( f16 ) f16 Y.R ( f16 ) YLR f16 YL. ( f16 ) Y.R f16 YL. f16 > YLR f8 ( f8 ) > c8~ ( c8 ) c8 < f8 a+16 a+16 a+8 a8 ( f8 ) c8~ c16 ( c8. ) c8 Y.R c16 YL. c16 ( Y.R c16 YL. c16 ) YLR c8 ( Y.R c16 YL. c16 ) YLR d8 ( Y.R d16 YL. d16 ) YLR d8 c8 f8~ f8 e8 ( e8 ) < f8~ ( f8 ) f16 ( f16 ) f16 Y.R ( f16 ) YLR f16 YL. ( f16 ) Y.R f16 YL. f16 > YLR f8 ( f8 ) > c8~ ( c8 ) c8 < f8 a+16 a+16 a+8 a8 ( f8 ) H< H< H< < e8~ [ [ YLR e16 Y.R ( e16 ) YLR e16 YL. ( e16 ) ]6 YLR e16 ( e16 ) > d8 ( d8 < ) e8~ ]3 [ YLR e16 Y.R ( e16 ) YLR e16 YL. ( e16 ) ]6 YLR > e8 d8 ( d8 ) 
