;015 003208DA
!1  T140 YLR V5 O2 B5 D-1 @@3,3,0 E100,90,60,28,47 P9,14,4 [ e8 > d8 e4 c+8. d8. < g16~ _V-2 g+16 _V2 ]2 e8 > d8 e4 c+8. d8. < g16~ _V-3 g16 _V3 YL. _V2 b8 > d16 < b16 > g16 f+16 d16 e16 < YLR g8.~ _V-2 g16 _V2 a8.~ _V-2 a16 L Y.R V6 O3 @@4,2,1 E100,90,60,28,47 P11,15,4 B5 r16 r8 [ e16 _V-3 e16 _V3 ]3 g8 e16 e8~ _V-3 e16 _V3 e8 g8 a8 b8 a8~ a8 g4 _V-4 g8 _V4 r8 d8 [ e16 _V-3 e16 _V3 ]2 g8 e16 _V-3 e16 _V3 e8 d8~ d8 e8~ e4. _V-4 e8 _V4 r4 r8 [ e16 _V-3 e16 _V3 ]3 g8 e16 e8~ _V-3 e16 _V3 e8 g8 a8 b16 _V-3 b16 _V3 b8 a8 g8 _V-4 g8 _V4 e8 b8 a4 g8~ _V-3 g8 _V3 e8 b8 a8~ a2 _V-4 a8 _V4 r4 r16 r16 r8 g16. _V-3 g32 _V3 a16. _V-3 a32 _V3 g16. _V-3 g32 _V3 a16 g16 a8 _V-4 a8 _V4 g8 [ a16. _V-3 a32 _V3 g16. _V-3 g32 _V3 ]3 a+16~ b16 g8~ g2 _V-4 g8 _V4 r4 r16 YLR V6 O2 B5 @@3,3,0 E100,90,60,28,47 P9,14,4 [ e16. _V-2 e32 _V2 ]2 [ f+16. _V-2 f+32 _V2 ]2 [ g16. _V-2 g32 _V2 ]2 [ g+16. _V-2 g+32 _V2 ]2 Y.R V6 O3 @@4,2,1 E100,90,60,28,47 P11,14,5 B6 r16 r8 a16. _V-3 a32 _V3 a8 g16 a16~ a4 _V-4 a8 _V4 g8 [ a16. _V-3 a32 _V3 g16. _V-3 g32 _V3 ]2 a16. _V-3 a32 _V3 a4 _V-3 a8 _V3 r8 [ b16. _V-3 b32 _V3 ]2 b16 b16~ b16. _V-3 b32 _V3 [ b16. _V-3 b32 _V3 ]3 [ b8 _V-3 b16 _V3 ]2 b8~ b4. _V-4 b16 _V4 YLR V6 O3 @@4,2,1 E100,90,60,28,47 P11,14,5 B6 r8 f+32~ g16. f+8 e8 f+8 e8~ _V-3 e8 _V3 f+32~ g16.~ g8 g8 f+8 e8~ _V-3 e8 _V3 r8 [ g16.~ _V-2 g32 _V2 ]2 f+8 e8~ e4~ _V-3 e8 _V3 r8 c+8 c+8 e8 e8 f+32~ g16. f+8~ f+4.~ _V-4 f+8 _V4 r8 f+32~ g16. f+8 e8 f+8 e8~ _V-3 e8 _V3 b8 f+32~ g16. g8 f+8 e8~ _V-3 e8 _V3 < b8 > g8~ f+8~ f+8 e8 g8~ f+8~ f+8 e8 f+8 f+16~ g16~ g2~ _V-4 g8 _V4 r4. r8 f+32~ g16. f+8 e8 f+8 e8~ _V-3 e8 _V3 f+32~ g16.~ g8 g8 f+8 e8~ _V-3 e8 _V3 r8 [ g16.~ _V-2 g32 _V2 ]2 f+8 e8~ e4.~ _V-3 e8 _V3 r8 c+8 g+32~ a16.~ a16 g8. f+8~ f+8 e8~ e8 _V-3 e8 _V3 r8 f+32~ g16. f+8 e8 f+8 e8~ _V-3 e8 _V3 b8 f+32~ g16. g8 f+8 e8~ _V-3 e8 _V3 < b8 > g8~ f+8~ f+8 e8 g8~ f+8~ f+8 e8 f+16.~ _V-2 f+32 _V2 f+16 g16~ g2~ _V-5 g4 _V5 r4 YL. V8 O1 B5 D-1 @@3,3,0 E100,90,60,28,47 P9,14,4 [ e8 > d8 e4 c+8. d8. < g16~ _V-2 g+16 _V2 ]2 Y.R _V-2 > > b4. a4. g4~ g8 a4. b8 _V-3 b8 _V3 > c+8 _V-3 c+8 _V3 < < _V2 
!2  YLR V7 O1 B5 @@3,3,0 E100,90,60,28,47 P9,14,4 [ e8 > d8 e4 c+8. d8. < g16~ _V-2 g+16 _V2 ]3 Y.R > b8 > d16 < b16 > g16 f+16 d16 e16 YLR _V2 c8.~ _V-2 c16 _V2 d8.~ _V-2 d16 L YLR V7 O3 @@4,2,1 E100,90,60,28,47 P11,15,4 B5 r8 [ e16 _V-3 e16 _V3 ]3 g8 e16 e8~ _V-3 e16 _V3 e8 g8 a8 b8 a8~ a8 g4 _V-4 g8 _V4 r8 d8 [ e16 _V-3 e16 _V3 ]2 g8 e16 _V-3 e16 _V3 e8 d8~ d8 e8~ e4. _V-4 e8 _V4 r4 r8 [ e16 _V-3 e16 _V3 ]3 g8 e16 e8~ _V-3 e16 _V3 e8 g8 a8 b16 _V-3 b16 _V3 b8 a8 g8 _V-4 g8 _V4 e8 b8 a4 g8~ _V-3 g8 _V3 e8 b8 a8~ a2 _V-4 a8 _V4 r4. r8 g16. _V-3 g32 _V3 a16. _V-3 a32 _V3 g16. _V-3 g32 _V3 a16 g16 a8 _V-4 a8 _V4 g8 [ a16. _V-3 a32 _V3 g16. _V-3 g32 _V3 ]3 a+16~ b16 g8~ g2 _V-4 g8 _V4 r4. YLR V6 O1 B5 @@3,3,0 E100,90,60,28,47 P9,14,4 [ e16. _V-2 e32 _V2 ]2 [ f+16. _V-2 f+32 _V2 ]2 [ g16. _V-2 g32 _V2 ]2 [ g+16. _V-2 g+32 _V2 ]2 YLR V7 O3 @@4,2,1 E100,90,60,28,47 P11,14,5 B6 r8 a16. _V-3 a32 _V3 a8 g16 a16~ a4 _V-4 a8 _V4 g8 [ a16. _V-3 a32 _V3 g16. _V-3 g32 _V3 ]2 a16. _V-3 a32 _V3 a4 _V-3 a8 _V3 r8 [ b16. _V-3 b32 _V3 ]2 b16 b16~ b16. _V-3 b32 _V3 [ b16. _V-3 b32 _V3 ]3 [ b8 _V-3 b16 _V3 ]2 b8~ b4. _V-4 b8 _V4 r8 a+32~ b16. a8 g8 a8 g8~ _V-3 g8 _V3 a+32~ b16.~ b8 b8 a8 g8~ _V-3 g8 _V3 r8 [ b16.~ _V-2 b32 _V2 ]2 a8 g8~ g4~ _V-3 g8 _V3 r8 e8 e8 g8 a8 a+32~ b16. a8~ a4.~ _V-4 a8 _V4 r8 a+32~ b16. a8 g8 a8 g8~ _V-3 g8 _V3 e8 a+32~ b16. b8 a8 g8~ _V-3 g8 _V3 e8 b8~ a8~ a8 g8 b8~ a8~ a8 g8 a8 a+16~ b16~ b2~ _V-4 b8 _V4 r4. r8 a+32~ b16. a8 g8 a8 g8~ _V-3 g8 _V3 a+32~ b16.~ b8 b8 a8 g8~ _V-3 g8 _V3 r8 [ b16.~ _V-2 b32 _V2 ]2 a8 g8~ g4.~ _V-3 g8 _V3 r8 e8 > c+32~ d16.~ d16 < b8. a8~ a8 g8~ g8 _V-3 g8 _V3 r8 a+32~ b16. a8 g8 a8 g8~ _V-3 g8 _V3 e8 a+32~ b16. b8 a8 g8~ _V-3 g8 _V3 e8 b8~ a8~ a8 g8 b8~ a8~ a8 g8 a16.~ _V-2 a32 _V2 a16 b16~ b2~ _V-5 b4 _V5 _V2 [ e16~ _V-2 e16 _V2 ]2 g16 _V-3 g16 _V3 e16 e16~ e2.~ e4 _V-5 e4 _V5 r4 a+16~ b16 b8 > d16 _V-3 d16 _V3 < b8~ b2.~ b2. _V-5 b4 _V5 _V-2 
!3  V3 O0 `9F00 @A3 @B0 @~4 B5 [ e16~ ( e16 ) e16 e16 [ e16 ]4 ]2 [ g16~ ( g16 ) g16 g16 [ g16 ]4 ]2 a16~ ( a16 ) a16 a16 [ a16 ]4 a16~ ( a16 ) a16 a16 a16 a16 a8 b8 > d16 < b16 > g16 f+16 d16 e16 c4 d4 < L [ e16~ ( e16 ) e16 e16 > e16 e16 d16 e16 < [ e16~ ( e16 ) ]2 a+16 a16 g16 a16 e16~ ( e16 ) e16 e16 > e16 e16 d16 e16~ ( e16 ) < b16~ ( b16 ) a16~ ( a16 ) g16~ ( g16 ) f+16 ]2 e16~ ( e16 ) e16 e16 > e16 e16 d16 e16~ ( e16 ) e16~ ( e16~ ) e16 < a+16 a16 g16 a16 e16~ ( e16 ) e16 e16 > e16 e16 d16 e16~ ( e16 ) < b16~ ( b16 ) a16~ ( a16 ) g16~ ( g16 ) f+16 e16~ ( e16 ) e16 e16 > e16 e16 d16 e16~ ( e16 ) e16~ ( e16~ ) e16 < a+16 a16 g16 a16 e16~ ( e16 ) e16 e16 > e16 e16 d16 e16~ ( e16 ) < e16~ ( e16 ) f+16~ ( f+16 ) g16~ ( g16 ) g+16 [ [ a16~ ( a16 ) ]2 g16~ ( g16 ) a16~ ( a8. ) r4. ]2 [ e16~ ( e16 ) ]2 g8 e8~ ( e8 ) e8 g8 e8 [ e16~ ( e16 ) ]2 [ f+16~ ( f+16 ) ]2 [ g16~ ( g16 ) ]2 [ g+16~ ( g+16 ) ]2 [ a16~ ( a16 ) ]2 g16~ ( g16 ) a16~ ( a8. ) r4. [ a16~ ( a16 ) ]2 g16~ ( g16 ) a8~ ( g16~ e16 ) r4. a+16~ b16 b16 b16 [ b16 b16 b8 ]3 > a16~ a+16 b16 b16 [ a16 ]4 [ g16 ]4 [ f+16 ]4 < [ e16~ ( e16 ) ]6 e16 e16 e16 f+16 [ g16~ ( g16 ) ]6 g16 g16 g16~ g+16 [ a16~ ( a16 ) ]3 a16 a16 [ a16~ ( a16 ) ]2 a16 a16 a16 b16 > c16~ ( c16 ) c16 c16 [ c16 ]4 [ d16 ]4 d16 d16 c16 d16 < [ e16~ ( e16 ) ]6 e16 e16 e16 f+16 [ g16~ ( g16 ) ]6 > c+16~ d16 c+16~ d16 < [ a16~ ( a16 ) ]6 > c+16~ d16 c+16~ d16 [ c16~ ( c16 ) ]3 c16 c16 [ d16~ ( d16 ) ]3 d16 d16 [ e16~ ( e16 ) ]5 < e8 e16 > e16 d16 e16 [ d16~ ( d16 ) ]6 d16 d16 < b16 b16 > c+16 c+16 c+16 ( c+16 ) [ c+16~ ( c+16 ) ]4 c+16 c+16 < a16 b16 > [ c16~ ( c16 ) ]4 [ d16~ ( d16 ) ]4 d+16 e16 < e16 ( e16 ) > [ e16~ ( e16 ) ]2 < e16~ ( e16 ) e16 e16 g16 a16 b16 > d16 [ d16~ ( d16 ) ]6 d16 d16 < b16 b16 > c+16 c+16 c+16 ( c+16 ) [ c+16~ ( c+16 ) ]4 c+16 c+16 < a16 b16 > c16 c16 c16~ ( c16 ) [ c16~ ( c16 ) ]2 [ d16~ ( d16 ) ]4 < e16~ ( e16 ) e16 e16 > e16 e16 d16 e16 < e16~ ( e16 ) e16 e16 a+16 a16 g16 a16 e16~ ( e16 ) e16 e16 > e16 e16 d16 e16~ ( e16 ) < b16~ ( b16 ) a16~ ( a16 ) g16~ ( g16 ) f+16 e4. f+4. g4~ g8 a4 ( a8 ) b8~ ( b8 ) > c+8~ ( c+8 ) < 
!4  @8 x4 @5 [ x8 ]6 @5 [ x8 ]16 @5 x8 @7 x8 @5 x8 x8 @8 Y.R x4 YL. x4 YLR L @8 x4 @5 x8 x8 x8 @7 x8 @5 x8 x8 [ @5 [ x8 ]7 @7 x8 @5 [ x8 ]5 @7 x8 @5 x8 x8 ]3 @5 x8 x8 x8 x16 @7 x16 @5 x8 x8 x8 x16 @7 x16 @8 x8 @7 x8 @5 x8 x8 [ x24 ]3 @7 x8 @5 x8 @7 x8 @5 [ x8 ]6 @7 x8 @5 x8 @8 x4 @5 x8 @7 x8 @5 x8 x8 x8 @7 x8 @5 x8 x8 x8 @7 x8 @5 x4 x4 @8 x8 @7 x8 @5 x8 x8 [ x24 ]3 @7 x8 @5 x8 @7 x8 @5 x8 x8 x8 [ x16 ]4 @7 x8 @8 x4 @8 x4 @7 [ x8 ]6 @5 x8 x16 @7 x16 @5 [ x4 ]3 @8 x4 @5 [ x8 ]29 @7 x8 @8 x4 @5 [ x8 ]27 @7 x8 Y.R @8 x4 YL. @8 x4 YLR @5 [ x8 ]27 @7 x8 Y.R @8 x4 YL. @8 x4 YLR @5 [ x8 ]24 Y.R @8 x4 YL. @8 x4 YLR @5 [ x16 ]4 @8 x4 @5 [ x8 ]5 x16 @7 x16 @8 x4 @5 [ x8 ]6 @8 x8 @7 x8 @5 x8 @8 x4 @5 x8 @8 x4~ x8 @7 x8 @5 x8 x8 @8 Y.R x4 YL. x4 
!5  V1 O1 [ [ @0 x8 x16 x16 @1 x16 @0 x8. ]2 ]3 @0 x8 @1 x16 @0 x16 @2 b16 g16 d16 @0 x16 @1 x8 @0 x8 @1 x8 x16 x16 L [ @0 x8 x16 x16 @1 x16 @0 x8. @0 x8 x8 @1 x4 @0 x8 x16 x16 @1 x8. @0 x16 r16 x16 r16 x16 @1 x4 ]3 @0 x8 x16 x16 @1 x16 @0 x8. @0 x8 x8 @1 x4 @0 x8 x16 x16 @1 x8 x8 @0 x16 @1 ( x32 x32 ) x16 x16 x16 @2 g8. @0 x8 x8 @1 x8 @0 x8 r4 @1 x4 @0 x8 x8 @1 x8 @0 x8 r16 @0 x16 x8 @1 x8 x16 x16 @0 x8 x16 x16 @1 x16 @0 x8. @0 x16 @1 ( x16 ) @0 x8 @1 x16 @0 x8. @0 x8 x16 x16 @1 x4 x8 x8 x16 @2 Y.R g16 YL. d8 YLR @0 x8 x8 @1 x8 @0 x8 r4 @1 x4 @0 x8 x8 @1 x8 @0 x8 r4 @1 x8 x16 x16 @0 x8 x16 x16 @1 x16 @0 x8. @0 x16 @1 ( x16 ) @0 x8 @1 x4 @1 x8 x8 @0 x16 @1 x16 x16 x16 x16 x16 @0 x16 @1 x16 x16 @0 x16 x16 @1 x16 [ [ @0 x8 x16 x16 @1 x16 @0 x8. ]2 ]3 @0 x8 x16 x16 @1 x16 @0 x8. x16 @1 x16 @0 x16 x16 @1 x4 [ [ @0 x8 x16 x16 @1 x16 @0 x8. ]2 ]3 @0 x8 x16 x16 @1 x16 @0 x8. @0 x8 x8 @1 x8 @0 x16 @1 x16 [ [ @0 x8 x16 x16 @1 x16 @0 x8. ]2 ]3 @0 x8 x16 x16 @1 x16 @0 x8. x16 @1 x16 @0 x16 x16 @1 x4 [ [ @0 x8 x16 x16 @1 x16 @0 x8. ]2 ]3 @0 x8 x16 x16 @1 x8 x8 @0 x8 @1 x8 x8 x16 x16 @0 x8 x16 x16 @1 x16 @0 x8. x8 x16 x16 @1 x4 @0 x8 x16 x16 @1 x8. @0 x16 r16 @1 x16 r16 x16 x16 x16 x8 @0 x4 @1 x8 @0 x8 r8 x8 @1 x4 @1 x8 @0 x4 x16 x16 [ @1 x8 @0 x8 ]2 
!6  V1 O1 @62 W0,100,33 [ Y.R e8~ YL. e8~ ]4 [ Y.R g8~ YL. g8~ ]4 [ Y.R a8~ YL. a8~ ]4 YLR b8 > d16 < b16 > g16 f+16 d16 e16 > @69 W0,100,0 g4 @68 W0,100,0 f+4 L V1 O2 @62 W0,100,33 e8 < [ YLR e16 ( Y.R e32 YL. e32 ) ]5 YLR > e8 < e16 ( Y.R e32 YL. e32 ) [ YLR > e8 < [ YLR e16 ( Y.R e32 YL. e32 ) ]2 ]2 YLR > a8 g8 < [ YLR > e8 < [ YLR e16 ( Y.R e32 YL. e32 ) ]5 YLR > e8 < e16 ( Y.R e32 YL. e32 ) [ YLR > e8 < [ YLR e16 ( Y.R e32 YL. e32 ) ]2 ]2 YLR > e8 < e16 ( Y.R e32 YL. e32 ) ]3 > [ YL. a16.~ Y.R ( a32 ) ]2 YL. g16.~ Y.R ( g32 ) YL. a8 ( a8 ) r4 < ( g16 g16 ) > [ YL. a16.~ Y.R ( a32 ) ]2 YL. g16.~ Y.R ( g32 ) YL. a8 ( a8 ) r4. [ YL. e16.~ Y.R ( e32 ) ]2 YL. g8 e8 Y.R ( e8 ) YL. e8 g8 e8 [ YL. e16.~ Y.R ( e32 ) ]2 [ YL. f+16.~ Y.R ( f+32 ) ]2 [ YL. g16.~ Y.R ( g32 ) ]2 [ YL. g+16.~ Y.R ( g+32 ) ]2 [ YL. a16.~ Y.R ( a32 ) ]2 YL. g16.~ Y.R ( g32 ) YL. a8 ( a8 ) r4 < ( g16 g16 ) > [ YL. a16.~ Y.R ( a32 ) ]2 YL. g16.~ Y.R ( g32 ) YL. a8 ( a8 ) r4 < ( b16 b16 ) [ YL. b16 Y.R b16 ]16 > [ [ Y.R e16~ YL. e16~ ]8 [ Y.R g16~ YL. g16~ ]8 [ Y.R a16~ YL. a16~ ]8 > [ Y.R c16~ YL. c16~ ]4 [ Y.R d16~ YL. d16~ ]4 < ]2 [ [ Y.R e16~ YL. e16~ ]8 [ Y.R d16~ YL. d16~ ]8 [ Y.R c+16~ YL. c+16~ ]8 [ Y.R c16~ YL. c16~ ]4 [ Y.R d16~ YL. d16~ ]4 ]2 < [ Y.R e8~ YL. e8~ ]4 [ Y.R g8~ YL. g8~ ]4 YL. > e4. f+4. g4~ g8 a4 Y.R ( a8 ) YL. b8~ Y.R ( b8 ) > YL. c+8~ Y.R ( c+8 ) 
