;016 003218AE
!1  T137 YLR V5 O2 P0,19,1 D-1 @1 E100,90,85,8,49 [ r4 YLR a8~ Y.R _V-2 a16 _V2 YLR a16~ Y.R _V-2 a16 _V2 r16 YLR a16~ Y.R _V-2 a16 _V2 r16 YLR g16~ Y.R _V-2 g16 _V2 r16 YLR f8~ Y.R _V-2 f16 _V2 YLR f16~ Y.R _V-2 f16 _V2 r16 YLR g8~ g4.~ Y.R _V-2 g8 _V2 ]4 L Y.R D-1 V6 O3 @@2,2,1 E100,90,60,28,49 P14,14,4 B6 r16 r8 d16. _V-3 d32 _V3 d8 f16 e16~ e16. _V-3 e32 _V3 c16~ _V-3 c16 _V3 c8 < a8 > e8~ _V-3 e8 _V3 e8 f8~ f4 f8~ _V-4 > c16 < _V4 r16 r8 d8~ d8 f16 e16~ e8 c16~ _V-3 c16 _V3 c16~ _V-3 c16 _V3 < a16~ _V-3 a16 _V3 > a8. > c8. < g8~ g4 g+16~ a16 g8~ g8 f16~ _V-3 f16 _V3 f4.~ _V-4 f8 _V4 r8 f8 [ f16.~ _V-3 f32 _V3 f16~ _V-3 f16 _V3 ]2 > c4 c+32~ d16. < a8~ a1~ _V-4 c16 _V4 r8. r2 r8. D0 r8 f16. _V-3 f32 _V3 f8 a16 g16~ g16. _V-3 g32 _V3 e16~ _V-3 e16 _V3 e8 c8 g8~ _V-3 g8 _V3 g8 a8~ a4.~ _V-3 a8 _V3 D-1 r16 r8 d16. _V-3 d32 _V3 d8 f16 e16~ e16. _V-3 e32 _V3 c16~ _V-3 c16 _V3 c8 < a8 > a8. > c8. < g8~ g4 g+16~ a16 g8~ g8 f16~ _V-3 f16 _V3 f4.~ _V-4 f8 _V4 r8 e8 [ f16.~ _V-3 f32 _V3 f16~ _V-3 f16 _V3 ]2 > c4 c+32~ d16. < a8~ a1~ a4~ _V-5 a4 _V5 r4 > c+32~ d16.~ d8 c2~ c8~ _V-4 c8 _V4 c+32~ d16.~ d8 c4 < a+8.~ _V-4 b16 _V4 f4 g8.~ _V-3 g16 _V3 g8. a8. g16~ _V-2 g16 _V2 g8 _V-4 g8 _V4 a16 _V-3 a16 _V3 e8~ e8 f8~ f4 _V-4 f8 _V4 r8 > c+32~ d16.~ d8 c2~ c8~ _V-4 c8 _V4 c+32~ d16.~ d8 c4 < a+8.~ _V-4 b16 _V4 f4 g16~ _V-3 g16 _V3 g8 a8~ ( a16 ) a16~ _V-2 a8 _V2 a16~ _V-2 a16 _V2 a8 a16 a16~ _V-2 a8 _V2 a8 > d8~ _V-2 d16 _V2 d8~ _V-2 d16 _V2 d8 e8. e16~ e8~ _V-4 e8 _V4 < f2.~ _V-4 f8 _V4 f8 e4 f8 g8~ g8 > c8~ _V-3 c8 _V3 c+16~ d16~ d4~ < _V-2 a8 _V2 a8~ a8 _V-4 a8 _V4 > c+16~ d16~ d8 [ c8~ _V-2 c16 _V2 ]2 d8~ d8 < a8~ a8 _V-4 a8 _V4 f2.~ _V-5 > d8 < _V5 f8 e4 f8 g8~ g8 > c8~ _V-4 c8 _V4 c8 d8.~ _V-2 c16 _V2 < a8 > c8.~ < _V-2 g16 _V2 g8 a8.~ _V-3 > c16 < _V3 f8 g8~ g2 _V-5 g8. _V5 
!2  YLR V5 O2 P0,16,1 @1 E100,90,85,8,49 [ r4 YLR f8~ YL. _V-2 f16 _V2 YLR f16~ YL. _V-2 f16 _V2 r16 YLR f16~ YL. _V-2 f16 _V2 r16 YLR c16~ YL. _V-2 c16 _V2 r16 < YLR a+8~ YL. _V-2 a+16 _V2 YLR a+16~ YL. _V-2 a+16 _V2 > r16 YLR c8~ c4.~ YL. _V-2 c8 _V2 ]4 L YLR V7 O3 @@2,2,1 E100,90,60,28,49 P14,14,4 B6 r8 d16. _V-3 d32 _V3 d8 f16 e16~ e16. _V-3 e32 _V3 c16~ _V-3 c16 _V3 c8 < a8 > e8~ _V-3 e8 _V3 e8 f8~ f4 f8~ _V-4 > c16 < _V4 r16 r8 d8~ d8 f16 e16~ e8 c16~ _V-3 c16 _V3 c16~ _V-3 c16 _V3 < a16~ _V-3 a16 _V3 > a8. > c8. < g8~ g4 g+16~ a16 g8~ g8 f16~ _V-3 f16 _V3 f4.~ _V-4 f8 _V4 r8 f8 [ f16.~ _V-3 f32 _V3 f16~ _V-3 f16 _V3 ]2 > c4 c+32~ d16. < a8~ a1~ _V-4 c16 _V4 r8. r2. r8 d16. _V-3 d32 _V3 d8 f16 e16~ e16. _V-3 e32 _V3 c16~ _V-3 c16 _V3 c8 < a8 > e8~ _V-3 e8 _V3 e8 f8~ f4 f8~ _V-4 > c16 < _V4 r16 r8 d16. _V-3 d32 _V3 d8 f16 e16~ e16. _V-3 e32 _V3 c16~ _V-3 c16 _V3 c8 < a8 > a8. > c8. < g8~ g4 g+16~ a16 g8~ g8 f16~ _V-3 f16 _V3 f4.~ _V-4 f8 _V4 r8 e8 [ f16.~ _V-3 f32 _V3 f16~ _V-3 f16 _V3 ]2 > c4 c+32~ d16. < a8~ a1~ a4~ _V-5 a4 _V5 r4 > c+32~ d16.~ d8 c2~ c8~ _V-4 c8 _V4 c+32~ d16.~ d8 c4 < a+8.~ _V-4 b16 _V4 f4 g8.~ _V-3 g16 _V3 g8. a8. g16~ _V-2 g16 _V2 g8 _V-4 g8 _V4 a16 _V-3 a16 _V3 e8~ e8 f8~ f4 _V-4 f8 _V4 r8 > c+32~ d16.~ d8 c2~ c8~ _V-4 c8 _V4 c+32~ d16.~ d8 c4 < a+8.~ _V-4 b16 _V4 f4 g16~ _V-3 g16 _V3 g8 a8~ ( a16 ) a16~ _V-2 a8 _V2 a16~ _V-2 a16 _V2 a8 a16 a16~ _V-2 a8 _V2 a8 > d8~ _V-2 d16 _V2 d8~ _V-2 d16 _V2 d8 e8. e16~ e8~ _V-4 e8 _V4 < f2.~ _V-4 f8 _V4 f8 e4 f8 g8~ g8 > c8~ _V-3 c8 _V3 c+16~ d16~ d4~ < _V-2 a8 _V2 a8~ a8 _V-4 a8 _V4 > c+16~ d16~ d8 [ c8~ _V-2 c16 _V2 ]2 d8~ d8 < a8~ a8 _V-4 a8 _V4 f2.~ _V-5 > d8 < _V5 f8 e4 f8 g8~ g8 > c8~ _V-4 c8 _V4 c8 d8.~ _V-2 c16 _V2 < a8 > c8.~ < _V-2 g16 _V2 g8 a8.~ _V-3 > c16 < _V3 f8 g8~ g2 _V-5 g4 _V5 
!3  V3 O1 `9F00 @A3 @B0 @~4 B10 d1~ d4. < a8 > d8. f8. e8~ e16 c8. < g8. d16~ d2~ d2. ( d4 ) > d8.~ < a16~ < d16~ ( d16 ) r8 r4 [ d32~ ( d32 ) ]2 > c16~ ( c16 ) d8 < d8 > [ ( d32 r32 ) ]4 < r4 a16 a16 > c16 c16 d8.~ < a16~ < d16~ ( d16 ) r8 r4 [ d32~ ( d32 ) ]2 > c8 d8 < d8~ ( d16 ) d8. f8 ( f8 ) g8 a8 > L d8.~ < a16~ < d16~ ( d16 ) ( > c16 c+16 d32 r32 < a32 r32 [ d32 r32 ]2 ) r8. c16 d8. ( d16 ) r4 ( d32 r32 < f32 r32 g32 r32 f32 r32 a16 > c8. ) d8.~ < a16~ < d16~ ( d16 ) ( > c16 c+16 d32 r32 < a32 r32 [ d32 r32 ]2 ) r8. c16 d8. ( d16 ) r4 ( < a32 r32 > c32 r32 < a32 r32 > f32 r32 g16 a16 c8 ) d8.~ < a16~ < d16~ ( d16 ) ( > c16 c+16 d32 r32 < a32 r32 [ d32 r32 ]2 ) r8. c16 d8. ( d16 ) r4 ( > d32 r32 < f32 r32 ) [ > c16 < ( a32 r32 ) ]2 > c16 < ( a16 ) > d8.~ < a16~ < d16~ ( d16 ) ( > c16 c+16 d32 r32 < a32 r32 [ d32 r32 ]2 ) r8. > c16 d16 < a16 d8~ d16 ( d16 ) f8~ f8 g16 ( g16 ) g8 a8 > d8.~ < a16~ < d16~ ( d16 ) ( > c16 c+16 d32 r32 < a32 r32 [ d32 r32 ]2 ) r8. c16 d8. ( d16 ) r4 < d16 > d16 c16 < a16 > c16 c16 < ( c16 ) f16 > d8.~ < a16~ < d16~ ( d16 ) ( > c16 c+16 d32 r32 < a32 r32 [ d32 r32 ]2 ) r8. c16 d8 < d8 ( d16 ) d8 ( d16 ) f8. g8. a8 > d8.~ < a16~ < d16~ ( d16 ) ( > c16 c+16 d32 r32 < a32 r32 [ d32 r32 ]2 ) r8. c16 d8 < d8 ( d8. ) d16 f8 g8 a8 ( a8 ) > d8.~ < a16~ < d16~ ( d16 ) ( > c16 c+16 d32 r32 < a32 r32 [ d32 r32 ]2 ) r8 < a8 > d8. d8. < b8~ b16~ ( b16 ) b8 f8 b8 a+4~ ( a+8 ) r8 > f8 a+8~ ( a+16 ) a+16 f16 d16 < a+4~ ( a+8 ) r8 g8 a+8 ( a+16 ) a+8 g16 a4~ ( a8 ) r16 e16 g16 e16 a16 ( a16 ) r8. a16 > d8 < d8~ d16 e8. f8. a8. > c8 < a+4~ ( a+8 ) r16 a16 a+16 a16 a+16 ( a+16 ) r8. f16 a+4~ ( a+8 ) r16 > f16 > c16 < f16 a+8~ a+16 f8 < a+16 [ a8. ( a16 ) ]3 a8 a16 > e16 a16 e16 a8 < a8 a8 > g16 ( g16 ) f16 ( f16 ) g16 ( g16 ) f16 e16 d8.~ ( d16 ) r8. < a16 > c16 < a16 > d16 < d16~ ( d16 ) d8. > d8~ ( d16 ) < f16 > c8 d8~ ( d16 ) d16 < f8 g8 a8 d8.~ ( d16 ) r8. < a16 > d16 < a16 d8~ d16 a16 > c8 d8 d16 < a16 f8 g8~ g16 a8. > c16 < a16 > c8 d8.~ ( d16 ) r8. < a16 > d16 < a16 d8~ d16 a16 > c8 d8 d8 < f8 g8~ ( g16 ) g+8. a8 > c8 d8.~ ( d16 ) r8. < a16 > d16 ( d16 ) < d8~ d16 f8. g8. g16 a8 g16 g+16 [ a16 ( a16 ) ]2 > [ c16 ( c16 ) ]2 
!4  @8 x4 [ @5 x16 @6 x16 x16 x16 ]2 @5 x16 @6 x16 @4 x16 x16 @5 x16 @6 x16 x16 @4 x16 x16 @6 x16 x16 x16 x16 @5 x16 x16 @6 x16 @5 x16 @6 x16 x16 @4 x16 [ @5 x16 @6 x16 x16 x16 ]3 @5 x16 @6 x16 @4 x16 x16 @5 x16 @6 x16 x16 @4 x16 x16 @6 x16 x16 x16 x16 @5 x16 x16 @6 x16 @8 x8. @5 x16 @8 x8 @6 x16 x16 @5 x24 @6 x24 x24 x16 @5 x16 [ @5 x16 @6 x16 x16 x16 ]2 @6 [ x24 ]3 @5 x16 @6 x16 @5 x16 @6 x16 x16 x16 [ @5 x16 @6 x16 ]2 @5 x16 @6 x16 x16 @5 x16 @5 x16 @6 x16 x16 x16 @5 x24 @6 x24 x24 x16 @5 x16 [ @5 x16 @6 x16 x16 x16 ]2 @6 [ x24 ]3 @5 x16 @6 x16 @5 x16 @6 x16 x16 x16 [ @5 x16 @6 x16 ]2 @5 x16 @6 x16 x16 @5 x16 L @8 x4 @6 [ x24 ]3 @5 x16 x16 x4 x8 x8 @6 [ x24 ]3 @5 x16 @6 x16 @5 x4 [ r16 @6 x16 @5 x16 @6 x16 ]2 [ @5 x4 @6 [ x24 ]3 @5 x16 x16 x4 x8 x8 @6 [ x24 ]3 @5 x16 @6 x16 @5 x4 [ r16 @6 x16 @5 x16 @6 x16 ]2 ]3 @8 x4 @6 [ x24 ]3 @5 x16 x16 x4 x8 x8 @6 [ x24 ]3 @5 x16 @6 x16 @5 x4 [ r16 @6 x16 @5 x16 @6 x16 ]2 [ @5 x4 @6 [ x24 ]3 @5 x16 x16 x4 x8 x8 @6 [ x24 ]3 @5 x16 @6 x16 @5 x4 [ r16 @6 x16 @5 x16 @6 x16 ]2 ]2 @5 x4 @6 [ x24 ]3 @5 x16 x16 x4 x8 x8 @6 [ x24 ]3 @7 x8 @5 x4 [ r16 @6 x16 @5 x16 @6 x16 ]2 @8 x4 [ @5 x8 @7 x8 ]3 [ @5 x8 @7 x8 ]12 @8 x4 [ @5 x8 @7 x8 ]3 [ @5 x8 @7 x8 ]3 @5 x8 @8 x8 [ @7 x8 @5 x8 ]6 @5 x4 x8 x8 @8 x4 [ @7 x8 @5 x16 x16 ]3 [ @7 x8 @5 x16 x16 ]12 @8 x4 [ @7 x8 @5 x16 x16 ]3 [ @7 x8 @5 x16 x16 ]10 @5 [ x8 ]4 
!5  V1 O1 @0 x4 r2. r1 r1 r4 r16 @2 b32 b32 b16 b16 Y.R b16 b16 g16 YLR g16 e16 e16 YL. c16 c16 YLR @0 x4 @24 x8. @23 ( x16 ) @0 x16 @23 x8. @24 x8. @23 x16 @0 x8. @23 ( x16 ) @24 x8. @23 ( x16 ) @0 x16 @23 x8. @24 x8. @23 x16 @0 x4 @24 x8. @23 ( x16 ) @0 x16 @23 x8. @24 x8. @23 x16 @0 x8. @23 ( x16 ) @24 x8. @23 ( x16 ) @2 [ b24 ]3 b16 Y.R g16 g16 YLR e16 e16 YL. c16 YLR L [ @0 x4 @24 x4 @0 x4 @24 x8. @23 x16 @0 x8. @23 ( x16 ) @24 x4 @0 x4 @24 x8. @23 ( x16 ) ]3 @0 x4 @24 x4 @0 x4 @24 x8. @23 ( x16 ) @0 x8. @23 ( x16 ) @24 x4 @0 x16 @2 b32 b32 b16 b16 g16 g16 c8 [ @0 x4 @24 x4 @0 x4 @24 x8. @23 x16 @0 x8. @23 ( x16 ) @24 x4 @0 x4 @24 x8. @23 ( x16 ) ]3 @0 x4 @24 x4 @0 x4 @24 x8. @23 ( x16 ) @0 x8. @23 ( x16 ) @24 x4 @0 x16 @2 b32 b32 b16 b16 g16 g16 c16 c16 [ @0 x4 @24 x8. @23 x16 @0 x16 @23 x8. @24 x8. @23 x16 ]6 [ @24 x8 @0 x8 ]6 @0 x8 @2 Y.R b24 b24 b24 YLR g24 g24 g24 YL. d24 d24 d24 YLR [ @0 x4 @24 x4 @0 x4 @24 x8. @23 x16 @0 x8. @23 ( x16 ) @24 x4 @0 x4 @24 x8. @23 ( x16 ) ]3 @0 x4 @24 x4 @0 x4 @24 x8. @23 ( x16 ) @0 x8. @23 ( x16 ) @24 x8. @24 ( x16 ) @2 c16 @23 ( x16 ) c8 c8. @23 ( x16 ) 
!6  V1 O2 @62 W0,100,33 ( d1~ d4. < a8 > d8. f8. e8~ e16 c8. < g8. > d16~ d2~ d2. ) @8 r16 < a16 > c16 ( c16 ) d4 @63 W0,100,30 B4 Y.R c+32~ d32 d16 c16 < a16 > c8 d16 ( d16 ) r4 YL. c+32 d32 d16 c16 < a16 > c8 d16 ( d16 ) r4 @8 YLR < a16 > c16 d16 g16 f16 c16 d16 ( d16 ) @63 W0,100,30 B4 YL. c+32~ d32 d16 c16 < a16 > c8 d16 ( d16 ) r4 Y.R c+32 d32 d16 c16 < a16 > c8 d16 ( d16 ) r4 @8 YLR r16 < a16 > c16 ( c16 ) L d4 < @72 W0,100,0 a8. a16 r8 a8 r4 @71 W0,100,0 > c4. < a+8~ a+2 @72 W0,100,0 r4 a8. a16 r8 a8 r4 @71 W0,100,0 > c4. @72 W0,100,0 < b8~ b2 @71 W0,100,0 a+2 @43 W0,100,0 ( c2~ c2 r2 ) @73 W0,100,0 r4 g8. g16 r8 g8 r8 g8 @71 W0,100,0 a+4. @73 W0,100,0 g8~ g2 @72 W0,100,0 r4 a8. a16 r8 a8 r4 @71 W0,100,0 > c4. < a+8~ a+2 @72 W0,100,0 r4 a8. a16 r8 a8 r4 @71 W0,100,0 > c4. @72 W0,100,0 < b8~ b2 @71 W0,100,0 a+2 @43 W0,100,0 ( c2~ c2 r2 ) @73 W0,100,0 r4 g8. g16 r8 g8 r8 g8 g4. f8~ f2 @40 W0,100,0 O1 YLR r8 d4 e4. f4 g4. a4. a+4 c2 d4 c8 g8 g8 a8 f4 > e4 f4 e8 < a8 > c2. c2 < g2 d2 c+2 a+2 > c4. O2 @8 YLR < c8 d4 > @72 W0,100,0 ( a8. a16 r8 a8 r4 @71 W0,100,0 > c4. < a+8~ a+2 @72 W0,100,0 r4 a8. a16 r8 a8 r4 @73 W0,100,0 f2 g4 ) @8 YLR r16 < < a16 > c16 ( c16 ) d4 > @72 W0,100,0 ( a8. a16 r8 a8 r4 @71 W0,100,0 > c4. < a+8~ a+2 @72 W0,100,0 r4 a8. a16 r8 a8 r4 @73 W0,100,0 f2 g4 ) @8 YLR r16 < a16 > c16 ( c16 ) 
