;017 00322844
!1  T140 V3 O2 @3 E0,100,100,47,0 r4 f+1~ f+4 r2 V4 O2 P9,14,3 B6 YL. @@2,1,0 E100,90,70,16,47 r16 g16~ a8.~ a2~ a8~ _V-2 a16 _V2 L r16 g4. a4~ _V-2 e8 _V2 a+8 a8~ a2~ a8~ _V-2 f8 _V2 c8 < a+8~ a+2~ _V-2 b8~ _V2 >~ c8 d8 f16 YLR _V2 f4. f4. f8.~ _V-2 f16 _V2 e8.~ _V-2 e16 _V2 e16. _V-2 e32 _V2 e8~ e8~ _V-2 e8. YL. > c16~ d16 c8~ c2 d+16~ e16 g16~ a16 g8 f8~ f2.~ f8~ < _V-3 a16 _V3 V4 O3 Y.R D-1 @1 E100,90,60,28,47 P14,13,2 B5 r16 r4. c16.~ _V-2 c32 _V2 c4 f8 g8~ g2~ g8~ _V-2 g8 _V2 r8 f16 g16 a8 a+8 a8 f8~ f8~ _V-2 f8 _V2 c8 < a+8~ a+2~ ( a+8~ ( a+8 _V2 > r4 r4. c16.~ _V-2 c32 _V2 c4 f8 g8~ g2~ g8~ _V-2 g8 _V2 r8 f16 g16 a8 a+8 a8 f8~ f8 _V-2 f8 _V2 a8 g8~ g2~ ( g8~ ( g8 _V2 r8. @2 V4 EX Y.R B13 _V-2 c4 _V2 g4~ f4~ g4~ ( g8 ( g8 _V2 @0 E100,70,40,32,40 ) < [ g8 ( f8 ) ]11 > ( @2 EX _V-2 c4 _V2 g4~ f4~ g4~ ( g8 ( g8 _V2 @0 E100,70,40,32,40 ) < [ g8 ( f8 ) ]11 > ( @0 _V3 < [ YL. [ f16 e16 ]2 Y.R [ f16 e16 ]2 ]2 > _V-3 V5 O3 YLR D-1 @1 E100,90,60,28,47 P14,13,2 B5 c8.~ _V-3 c16 _V3 c8~ _V-2 c8 _V2 c8 c8 d8 c8~ c4~ _V-2 c16 _V2 r16 < a32~ a+16.~ a+8 a8 g8 a8~ a4.~ _V-3 a8 _V3 > r8. _V-2 f8 f8 > c8~ c16.~ _V-2 c32 _V2 < f16~ _V-3 f16 _V3 f4. _V-3 f8 _V3 r8. _V2 c8.~ _V-3 c16 _V3 c8~ _V-2 c8 _V2 c8 c8 d8 e32~ f16.~ f4~ _V-2 f8 _V2 f8 f4 e8 c8~ c2~ c8~ _V-4 c8 _V4 r8. _V-2 f8 a+8 a8 a+8 a8~ a8 g4 _V-3 g16 _V5 c8.~ _V-3 c16 _V3 c8~ _V-2 c8 _V2 c8 c8 d8 c8~ c4.~ _V-2 c8 _V2 r2 @0 V5 O1 Y.R r8 a+8 > f8 < f8 a+8 f8 > f8 < a+8~ _V-2 a+8 _V2 a+8 > f8 < f8 a+8 f8 > f8 < f8 V7 O2 P9,14,4 B6 YLR @@2,1,0 E100,90,70,16,47 ( g16~ ) a8.~ a2~ a8~ _V-3 a8 _V3 V4 YL. 
!2  V3 O1 @3 E0,100,100,47,0 b1~ b2 r2 V6 O2 P9,14,4 B6 YLR @@2,1,0 E100,90,70,16,47 ( g16~ ) a8.~ a2~ a8~ _V-3 a8 _V3 L g4. a4~ _V-2 e8 _V2 a+8 a8~ a2~ a8~ _V-3 f8 _V3 c8 < a+8~ a+2~ _V-3 b8~ _V3 >~ c8 d8 f8 a4. a+4. > c8.~ _V-2 c16 _V2 c8.~ _V-2 c16 _V2 < g16. _V-2 g32 _V2 g8~ g8~ _V-3 a8 _V3 > ( c16 )~ d16 c8~ c2 ( d+16~ e16 ) g16~ a16 g8 f8~ f2.~ f8~ < _V-4 a8 _V4 V7 O3 YLR @@2,2,1 E100,90,60,28,47 P14,13,2 B5 r4. c16.~ _V-2 c32 _V2 c4 f8 g8~ g2~ g8~ _V-4 g8 _V4 r8 f16 g16 a8 a+8 a8 f8~ f8~ _V-3 f8 _V3 c8 < a+8~ a+2~ _V-2 a+8~ _V-3 a+8 _V5 > r4 r4. c16.~ _V-2 c32 _V2 c4 f8 g8~ g2~ g8~ _V-4 g8 _V4 r8 f16 g16 a8 a+8 a8 f8~ f8 _V-3 f8 _V3 a8 g8~ g2~ _V-2 g8~ _V-2 g8 _V4 r4 r4. f16. _V-2 f32 _V2 f4 e8 f8~ f8~ _V-3 f8 _V3 r8 f16. _V-2 f32 _V2 f4 e8 f8~ f8~ _V-3 f8 _V3 r8 f16 f16 f4 g8 a8~ a4~ g16. _V-2 g32 _V2 g16 _V-3 g16 _V3 g4. _V-3 g8 _V3 r4. f16. _V-2 f32 _V2 f4 e8 f8~ f8~ _V-3 f8 _V3 r8 f16. _V-2 f32 _V2 f4 > c8 c8~ c2~ _V-2 c8~ _V-3 c8 _V5 r8 < f16 g16 a8 a+8 a8 g8~ g2~ g4 _V-4 g8 _V4 r8 r2 a8.~ _V-3 a16 _V3 a8~ _V-2 g8 _V2 f8 g8 a8 b32~ > c16.~ c4~ _V-2 c16 _V2 r16 < f32~ g16.~ g8 f8 e8 f8~ f4.~ _V-3 f8 _V3 r8 f8 f8 > c8~ c16.~ _V-2 c32 _V2 < f16~ _V-3 f16 _V3 f4. _V-3 f8 _V3 r4 a8.~ _V-3 a16 _V3 a8~ _V-2 g8 _V2 f8 g8 a8 b32~ > c16.~ c4~ _V-2 c8 _V2 c8 d4 c8 < f8~ f2~ f8~ _V-4 f8 _V4 r8 f8 a+8 a8 a+8 a8~ a8 g4 _V-3 g8 _V3 a8.~ _V-3 a16 _V3 a8~ _V-2 g8 _V2 f8 g8 a8 b32~ > c16.~ c4.~ _V-2 c8 _V2 r8 [ c16. _V-2 c32 _V2 ]3 c4 < a+16~ _V-2 a+16 _V2 a+4 a16~ _V-2 a16 _V2 f4~ f8 _V-3 f8 _V3 r8 a+16~ _V-2 a+16 _V2 a+8 a8 g8 a8 g8 f8~ f2 _V-2 f8 _V-2 f8 _V4 V6 O2 P9,14,4 B6 YLR @@2,1,0 E100,90,70,16,47 
!3  V2 @A8 O1 g+1~ g+2 r4 V3 O1 `9F00 @A3 @B0 @~4 B24 a16~ < ( a8. ) B5 [ f16~ ( f16 ) ]4 f8 a8 a+8 > c8~ L c8 < g8 a8 > c4 < a8 > c8 c+8 [ d16~ ( d16 ) ]3 d4 e8 f8 c8 < [ a+16~ ( a+16 ) ]2 a8 a+4 a8 g8 f8 [ f16~ ( f16 ) ]4 f8 a8 a+8 > c8~ c8 < g8 a8 > c8.~ ( g16 ) < e8 f8 f+8 g4 f8 a4 f8 a+4~ a+2. B24 > a16~ < ( a8. ) B5 f8.~ ( f16 ) [ f16~ ( f16 ) ]6 e8.~ ( e16 ) [ e16~ ( e16 ) ]4 > c8 c+8 [ d16~ ( d16 ) ]3 d16 d16 d8 e8 f8 c8 < [ a+16~ ( a+16 ) ]3 a8 a+8 b8 > c8.~ < ( g16 ) f8.~ ( f16 ) [ f16~ ( f16 ) ]2 f8~ ( g16~ a+16~ ) > c8 f8 [ e16~ ( e16 ) ]4 e8.~ ( d16 ) c8 c+8 d8 < a8 > d8 c8.~ ( c16 ) c8 < g8 g+8 a8 a+8 b8 > c+8~ c+16~ ( a16 ) < e8 f8 f+8 [ g16 ( g16 ) ]4 g8 f8 g8 g+8 [ a16 ( a16 ) ]6 g8 a8 [ a+16 ( a+16 ) ]4 a+8 a8 a+8 b8 > [ c16 ( c16 ) ]4 c8 < a+8 a8 f8 [ g16 ( g16 ) ]4 g8 f8 g8 g+8 [ a16 ( a16 ) ]6 g8 a8 [ a+16 ( a+16 ) ]4 a+8 a8 a+8 b8 > [ c16 ( c16 ) ]8 c8 < a+8 b8 > c4 < a+8 a8 g8 [ f16~ ( f16 ) ]4 f8 a8 a+8 b8 > [ c16 ( c16 ) ]6 g8 e8~ e8 [ d16~ ( d16 ) ]3 d8 e8 f8 c8 < [ a+16~ ( a+16 ) ]4 a+8 a8 [ g16 ( g16 ) ]2 [ f16~ ( f16 ) ]4 f8 a8 a+8 b8 > c8 < g8 a8 > c8 c8 < g8 > c8 c+8 [ d16~ ( d16 ) ]4 d8 e8 f8 c8 < [ a+16~ ( a+16 ) ]4 a+8 a8 [ g16 ( g16 ) ]2 [ f16~ ( f16 ) ]4 f8 a8 a+8 b8 > [ c16 ( c16 ) ]4 c16~ ( g16 ) < e8 f8 f+8 g4~ ( f8 ) a4~ ( g8 ) a+4~ a+2. B24 > a16~ < ( a8. ) B5 [ f16~ ( f16 ) ]4 f8 a8 a+8 > c8~ 
!4  r1 r2. Y.R @8 x4 YL. @8 x4 YLR [ @5 x16 @6 x16 ]6 L [ [ @5 x16 @6 x16 ]8 ]2 [ @5 x16 @6 x16 ]6 Y.R @8 x4 YL. @8 x4 YLR [ @5 x16 @6 x16 ]6 [ @5 x16 @6 x16 ]8 Y.R @8 x4. YL. x4. YLR x4~ x4 r2. @8 x4 @5 [ x8 ]28 Y.R @8 x4 YL. @8 x4 YLR @5 [ x8 ]30 @8 x4 @5 [ x8 ]28 Y.R @8 x4 YL. @8 x4 YLR @5 [ x8 ]22 @8 x4 @5 [ x8 ]6 @5 x8 @8 x4 @5 [ x8 ]5 @8 x4 [ @5 x16 @6 x16 ]28 @8 Y.R x4 YL. @8 x4 YLR [ @5 x16 @6 x16 ]14 @8 x4 [ @5 x16 @6 x16 ]14 @8 x4 [ @5 x16 @6 x16 ]14 Y.R @8 x4. YL. x4. YLR x4~ x4 r2. YL. @8 x4 YLR [ @5 x16 @6 x16 ]6 
!5  V0 O3 B158 P0,16,50 @54 W0,100,0 c+16~ > >~ c+16~ c+1~ c+4. B0 PX V1 O1 @1 x16 @2 Y.R b16 YLR g16 YL. d16 YLR @0 x4 @0 x4 @1 x8. ( x16 ) r8 @0 x8 @1 x8 @0 x8 L r8 @0 x8 @1 x4 r8 @0 x8 @1 x8 @0 x8 @0 x4 @1 x8. ( x16 ) r8 @0 x8 @1 x8 @0 x8 r8 @0 x8 @1 x4 r8 @0 x8 @1 x8 @0 x8 @0 x4 @1 x8. ( x16 ) r8 @0 x8 @1 x8 @0 x8 r8 @0 x8 @1 x4 r8 @0 x8 @1 x16 @2 g8. @0 x8 @1 x8 x8 @0 x8 r8 x8 @1 x8 @0 x8 r8 @1 x8 x8 @2 g8 @1 x8 @0 x16 @1 x16 x8 @2 YL. d8 YLR @0 x4 @1 x4 r8 @0 x8 @1 x8 @0 x8 @0 x4 @1 x4 r8 @0 x8 @1 x4 @0 x4 @1 x4 r8 @0 x8 @1 x8 @0 x8 @0 x4 @1 x4 r8 @0 x8 @1 x8 @0 x8 @0 x4 @1 x4 r8 @0 x8 @1 x8 @0 x8 @0 x4 @1 x4 r8 @0 x8 @1 x4 @0 x4 @1 x8 @0 x8 r8 @0 x8 @1 x8 @0 x8 @0 x4 @1 x8 @0 x8 @1 x8 @0 x8 @1 x16 @2 YLR g16 YL. d8 YLR [ @0 x4 @1 x4 r8 @0 x8 @1 x8 @0 x8 ]8 @0 x8 @1 x8 x4 @2 g8 @0 x16 @1 x16 x8 @2 g8 @0 x4 @1 x8 @0 x16 @1 ( x16 ) r8 @0 x8 @1 x4 @0 x4 @1 x8 @0 x8 r8 x8 @1 x8 @0 x8 @0 x4 @1 x8 @0 x16 @1 ( x16 ) r8 @0 x8 @1 x4 @0 x4 @1 x4 r8 @0 x8 @1 x8 @0 x8 @0 x4 @1 x8 @0 x16 @1 ( x16 ) r8 @0 x8 @1 x4 @0 x4 @1 x8 @0 x8 r8 x8 @1 x8 @0 x8 @0 x4 @1 x8 @0 x16 @1 ( x16 ) r8 @0 x8 @1 x4 @0 x4 @1 x4 r8 @0 x8 @1 x16 ( x16 x16 ) x16 @0 x4 @1 x8 @0 x16 @1 ( x16 ) r8 @0 x8 @1 x4 @0 x4 @1 x8 @0 x8 r8 x8 @1 x8 @0 x8 @0 x8 @1 x8 x8 @0 x8 r8 x8 @1 x8 @0 x8 r8 @1 x8 x8 @2 g8 @1 x8 @0 x16 @1 x16 @1 x8 @2 YL. d8 YLR @0 x4 @1 x8. ( x16 ) r8 @0 x8 @1 x8 @0 x8 
!6  V0 O3 B158 P0,16,50 @54 W0,100,0 c16~ > >~ c16~ c1~ c4. r2 B0 PX V1 O2 @71 W0,100,0 [ Y.R f8 YL. f8 ]4 L @72 W0,100,0 [ Y.R e8 YL. e8 ]4 @71 W0,100,0 [ Y.R f8 YL. f8 ]4 @73 W0,100,0 [ Y.R f8 YL. f8 ]4 @71 W0,100,0 [ Y.R f8 YL. f8 ]4 @72 W0,100,0 [ Y.R e8 YL. e8 ]4 @72 W0,100,0 YLR ( d8 ) Y.R d8 YL. d8 YLR ( e8 ) Y.R e8 YL. e8 @73 W0,100,0 Y.R f8 YL. f8 [ Y.R f8 YL. f8 ]2 ( [ Y.R f8 YL. f8 ]2 ) YL. @73 W0,100,0 c2~ c16. ( c32 ) c16.~ ( c32 ) c4 @72 W0,100,0 e2~ e16. ( e32 ) e16.~ ( e32 ) e4 @71 W0,100,0 f2~ f8~ f16. ( f32 ) f4 @72 W0,100,0 d4 @71 W0,100,0 < a+16. ( a+32 ) a+4 @72 W0,100,0 > d8 @71 W0,100,0 a+4 @71 W0,100,0 f2~ f16. ( f32 ) f16.~ ( f32 ) f4 @72 W0,100,0 e2~ e16. ( e32 ) e16.~ ( e32 ) e4 @71 W0,100,0 f4~ f16.~ ( f32 ) f4.~ f4 @71 W0,100,0 d4. @72 W0,100,0 c+8~ c+16. ( c+32 ) c+8 @73 W0,100,0 e8 @72 W0,100,0 c+8 [ @73 W0,100,0 [ f4~ f16. ( f32 ) ]2 f8. ( f16 ) @71 W0,100,0 [ f4~ f16. ( f32 ) ]2 f8. ( f16 ) ]3 @73 W0,100,0 [ f4~ f16. ( f32 ) ]2 f8. ( f16 ) @71 W0,100,0 f4~ f16. ( f32 ) @72 W0,100,0 e8~ e2~ ( e4 YLR @73 W0,100,0 g4 @72 W0,100,0 a4 @73 W0,100,0 a+4 ) @71 W0,100,0 [ Y.R f8 YL. f8 ]4 [ Y.R a8 YL. a8 ]2 @73 W0,100,0 Y.R g8 YL. g8 Y.R g8 YL. ( g8 ) @72 W0,100,0 [ Y.R a8 YL. a8 ]4 Y.R a8 YL. ( a8 ) @71 W0,100,0 > Y.R c8 YL. c8 < Y.R a+8 YL. a+8 Y.R f8 YL. f16~ ( f16 ) @71 W0,100,0 [ Y.R f8 YL. f8 ]4 [ Y.R a8 YL. a8 ]2 @73 W0,100,0 Y.R g8 YL. g8 Y.R g8 YL. ( g8 ) @72 W0,100,0 [ Y.R a8 YL. a8 ]4 @71 W0,100,0 [ Y.R f8 YL. f8 ]3 Y.R f8 YL. ( f8 ) @71 W0,100,0 [ Y.R f8 YL. f8 ]4 [ Y.R a8 YL. a8 ]2 @73 W0,100,0 Y.R g8 YL. g8 Y.R g8 YL. ( g8 ) @71 W0,100,0 g4. @72 W0,100,0 a4. @73 W0,100,0 a+4~ a+2.~ a+8~ ( a+8 ) @71 W0,100,0 [ Y.R f8 YL. f8 ]4 
