;018 003236AA
!1  T170 L V8 O1 YLR @0 E95,100,70,32,32 P9,10,3 H< H< H< H< H< [ a+1 > c2.~ c8~ _V-3 c8 _V3 c+4 c8 c+8~ _V-3 c+8 _V3 r4. r4 c+4 c4 < b4 ]2 H> H> H> H> H> [ a+1 > c2.~ c8~ _V-3 c8 _V3 c+4 c8 c+8~ _V-3 c+8 _V3 r4. r4 c+4 c4 < b4 ]2 V9 O1 Y.R @0 E95,100,60,26,32 PX r4 g24 a24 a+24 > c24 d24 d+24 d24 d+24 f24 g24 a24 a+24 > c24 d24 d+24 f24 g24 g+24 a2.~ a8~ _V-3 a8 _V3 a8. a+8. a8 g8. f8. c8 d2.~ d8~ _V-3 d8 _V3 V5 Y.R @2 D-1 < f4. e8~ _V-4 Y.R e8~ YL. e8 _V4 Y.R r4 f4. e4. c4 d8 < g8~ g2.~ g2. _V-3 g4 _V3 V9 O1 Y.R @0 E95,100,60,26,32 D0 r4 g24 a24 a+24 > c24 d24 d+24 d24 d+24 f24 g24 a24 a+24 > c24 d24 d+24 f24 g24 g+24 a2.~ a8~ _V-3 a8 _V3 a8. a+8. a8 g8. f8. c8 d2.~ d8~ _V-3 d8 _V3 V4 YL. @1 < < g8 > c8 f8 e8~ e8 c8 < g8 _V-2 g8 _V2 a+4.~ _V-2 a+8 _V2 > c4.~ _V-2 c8 _V2 d8~ _V-2 d8 _V2 g16~ _V-2 g16 _V2 g8~ g2~ g2.~ ( Y.R g8~ ( YL. g8 _V2 
!2  L V10 O1 YLR @0 E95,100,70,32,32 P9,10,3 [ a+1 > c2.~ c8~ _V-3 c8 _V3 c+4 c8 c+8~ _V-3 c+8 _V3 r4. r4 c+4 c4 < b4 ]2 > [ d1 e2.~ e8~ _V-3 e8 _V3 f4 e8 f8~ _V-3 f8 _V3 r4. r4 f4 e4 d+4 ]2 V8 O2 YL. @1 E95,100,60,26,32 PX r4 g24 a24 a+24 > c24 d24 d+24 d24 d+24 f24 g24 a24 a+24 > c24 d24 d+24 f24 g24 g+24 a2.~ a8~ _V-4 a8 _V4 a8. a+8. a8 g8. f8. c8 d2.~ d8~ _V-4 d8 _V4 V6 O3 YLR @@2,2,1 E100,90,60,19,32 f4. e8~ _V-4 Y.R e8~ YL. e8 _V4 YLR r4 f4. e4. c4 d2.~ _V-4 Y.R d8~ YL. d8 _V4 YLR f8 g8~ _V-2 Y.R g8~ _V-2 YL. g8 _V4 YLR ( f8 g8~ _V-2 Y.R g8 YL. g8 _V3 V8 O2 YL. @1 E95,100,60,26,32 r4 g24 a24 a+24 > c24 d24 d+24 d24 d+24 f24 g24 a24 a+24 > c24 d24 d+24 f24 g24 g+24 a2.~ a8~ _V-4 a8 _V4 a8. a+8. a8 g8. f8. c8 d2.~ d8~ _V-4 d8 _V4 V6 O2 YLR @@2,2,1 E100,90,60,19,32 g8 > c8 f8 e8~ e8 c8 < g8 _V-2 g8 _V2 a+4.~ _V-3 a+8 _V3 > c4.~ _V-3 c8 _V3 d8~ _V-3 d8 _V3 g16~ _V-3 g16 _V3 g8~ g2~ g2.~ _V-2 Y.R g8~ _V-2 YL. g8 _V4 
!3  L V3 O0 `9F00 @A3 @B0 @~3 [ [ g16 ( g16 ) ]8 [ a16 ( a16 ) ]8 [ a+16 ( a+16 ) ]8 [ a+16 ( a+16 ) ]4 [ a16 ( a16 ) ]2 [ g+16 ( g+16 ) ]2 ]2 [ [ g16 ( g16 ) ]8 [ a16 ( a16 ) ]8 [ a+16 ( a+16 ) ]8 [ a+16 ( a+16 ) ]4 [ a16 ( a16 ) ]2 [ g+16 ( g+16 ) ]2 ]2 [ g16 ( g16 ) ]16 [ d+16 ( d+16 ) ]4 [ f16 ( f16 ) ]4 [ g16 ( g16 ) ]8 > [ c16 ( c16 ) ]16 < [ g16 ( g16 ) ]16 [ g16 ( g16 ) ]16 [ d+16 ( d+16 ) ]4 [ f16 ( f16 ) ]4 [ g16 ( g16 ) ]8 > [ c16 ( c16 ) ]8 [ d+16 ( d+16 ) ]4 [ f16 ( f16 ) ]4 [ g16 ( g16 ) ]16 < 
!4  L [ r8 @5 x8 ]2 @6 x8 @5 x8 x8 x8 [ r8 @5 x8 ]3 @5 x8 @7 x8~ x8 @5 x8 r8 x8 @6 x8 @5 x8 x8 x8 [ r8 @5 x8 ]3 x8 @7 x8~ x8 @5 x8 r8 x8 @6 x8 @5 x8 x8 x8 [ r8 @5 x8 ]3 x8 @7 x8~ x8 @5 x8 r8 x8 @6 x8 @5 x8 x8 x8 [ r8 @5 x8 ]3 x8 @7 x8~ x8 @5 x8 r8 x8 @6 x8 @5 x8 x8 x8 [ r8 @5 x8 ]3 x8 @7 x8~ x8 @5 x8 r8 x8 @6 x8 @5 x8 x8 x8 [ r8 @5 x8 ]3 x8 @7 x8~ x8 @5 x8 r8 x8 @6 x8 @5 x8 x8 x8 [ r8 @5 x8 ]3 x8 @7 x8~ x8 @5 x8 r8 x8 @6 x8 @5 x8 x8 x8 [ r8 @5 x8 ]3 x8 @7 x8 r8 @5 x8 @6 x8 @5 x16 @6 x16 [ @6 x8 @5 x8 ]2 r8 @5 x8 @6 x8 @5 x16 @6 x16 @6 x8 @5 x8 @6 x8 @7 x8~ x8 @5 x8 @6 x8 @5 x16 @6 x16 [ @6 x8 @5 x8 ]2 [ @6 x8 @5 x8 ]3 @6 x8 @7 x8~ x8 @5 x8 @6 x8 @5 x16 @6 x16 [ @6 x8 @5 x8 ]2 r8 @5 x8 @6 x8 @5 x16 @6 x16 @6 x8 @5 x8 @6 x8 @7 x8~ x8 @5 x8 @6 x8 @5 x16 @6 x16 [ @6 x8 @5 x8 ]2 [ @6 x8 @5 x8 ]3 @6 x8 @7 x8~ r8 @5 x8 @6 x8 @5 x16 @6 x16 [ @6 x8 @5 x8 ]2 r8 @5 x8 @6 x8 @5 x16 @6 x16 @6 x8 @5 x8 @6 x8 @7 x8~ x8 @5 x8 @6 x8 @5 x16 @6 x16 [ @6 x8 @5 x8 ]2 [ @6 x8 @5 x8 ]3 @6 x8 @7 x8~ [ @6 x8 @5 x8 ]4 @5 x8 @5 x8 @6 x8 @5 x16 @6 x16 @6 x8 @5 x8 @6 x8 @7 x8~ x8 @5 x8 [ @6 x8 @5 x8 ]3 [ @6 x8 @5 x8 ]3 @6 x8 @7 x8~ 
!5  L V1 O1 @4 g8. @0 ( x16 ) x8 ( [ x8 ]3 ) @1 x8 @0 ( x16 ) x16 @0 x8. ( x16 ) x8 ( x8 ) x16 ( x16 x8 ) @1 x8 @0 ( x16 ) x16 [ @0 x8. ( x16 ) x8 ( [ x8 ]3 ) @1 x8 @0 ( x16 ) x16 @0 x8. ( x16 ) x8 ( x8 ) x16 ( x16 x8 ) @1 x8 @0 ( x16 ) x16 ]2 @0 x8. ( x16 ) x8 ( [ x8 ]3 ) @1 x8 @0 ( x16 ) x16 @0 x8. ( x16 ) x8 ( x8 ) x16 ( x16 x8 ) @1 x8 @0 ( x16 ) @4 ( g32 ) g32 @4 g8. @0 ( x16 ) x8 ( [ x8 ]3 ) @1 x8 @0 ( x16 ) x16 @0 x8. ( x16 ) x8 ( x8 ) x16 ( x16 x8 ) @1 x8 @0 ( x16 ) x16 [ @0 x8. ( x16 ) x8 ( [ x8 ]3 ) @1 x8 @0 ( x16 ) x16 @0 x8. ( x16 ) x8 ( x8 ) x16 ( x16 x8 ) @1 x8 @0 ( x16 ) x16 ]2 @0 x8. ( x16 ) x8 ( [ x8 ]3 ) @1 x8 @0 ( x16 ) x16 @0 x8. ( x16 ) x8 ( x8 ) x16 ( x16 x8 ) @1 x8 @0 ( x16 ) @4 ( g32 ) g32 @4 g4 @1 x4 @0 x4 @1 x8. @0 ( x16 ) @0 x4 @1 x4 @0 x4 @1 x8 @0 x16 ( x16 ) @0 x4 @1 x4 @0 x4 @1 x8. @0 ( x16 ) @0 x4 @1 x4 @0 x4 @1 x8 @4 > c16 ( c16 ) @4 c4 < @1 x4 @0 x4 @1 x8. @0 ( x16 ) @0 x4 @1 x4 @0 x4 @1 x8 @0 x16 ( x16 ) @0 x4 @1 x4 @0 x4 @1 x8. @0 ( x16 ) @0 x4 @1 x4 @0 x4 @1 x16 @4 g16 g16 g16 @4 g4 @1 x4 @0 x4 @1 x8. @0 ( x16 ) @0 x4 @1 x4 @0 x4 @1 x8 @0 x16 ( x16 ) [ @0 x4 @1 x4 @0 x4 @1 x8. @0 ( x16 ) @0 x4 @1 x4 @0 x4 @1 x8 @0 x16 ( x16 ) ]2 @0 x4 @1 x4 @0 x4 @1 x8. @0 ( x16 ) @4 g16 ( g16 g16 g16 ) @1 x16 @4 ( [ g16 ]7 ) @1 x16 @4 [ g16 ]3 
!6  L V1 O2 YLR @3 ( g8 ) @70 W0,100,0 O1 Y.R g32 YL. g32 Y.R a32 YL. a32 Y.R a+32 YL. a+32 > Y.R c32 YL. c32 Y.R d32 YL. d32 YLR ( d16 ) < Y.R g32 YL. g32 Y.R a32 YL. a32 Y.R a+32 YL. a+32 > Y.R c32 YL. c32 Y.R d32 YL. d32 < Y.R a+32 YL. a+32 Y.R a32 YL. a32 Y.R a+32 YL. a+32 r8 Y.R g32 YL. g32 Y.R a32 YL. a32 Y.R a+32 YL. a+32 > Y.R c32 YL. c32 Y.R d32 YL. d32 YLR ( d16 ) < Y.R g32 YL. g32 Y.R a32 YL. a32 Y.R a+32 YL. a+32 > Y.R c32 YL. c32 Y.R d32 YL. d32 < Y.R a+32 YL. a+32 Y.R a32 YL. a32 Y.R a+32 YL. a+32 < ( g+4 g8 g+8~ g+8 r4. r4 g+4 g4 f+4 ) > [ r8 Y.R g32 YL. g32 Y.R a32 YL. a32 Y.R a+32 YL. a+32 > Y.R c32 YL. c32 Y.R d32 YL. d32 YLR ( d16 ) < Y.R g32 YL. g32 Y.R a32 YL. a32 Y.R a+32 YL. a+32 > Y.R c32 YL. c32 Y.R d32 YL. d32 < Y.R a+32 YL. a+32 Y.R a32 YL. a32 Y.R a+32 YL. a+32 ]2 < ( g+4 g8 g+8~ g+8 r4. r4 g+4 g4 f+4 ) > @61 W0,100,50 O2 YLR g16. Y.R ( g32 ) YLR g16. YL. ( g32 ) YLR f16. Y.R ( f32 ) YLR g16. YL. ( g32 ) YLR ( g8 g8 f8 g8 ) ( [ Y.R g8 g8 f8 g8 YL. g8 g8 f8 g8 ]2 ) r1 YLR a+16. Y.R ( a+32 ) YLR a+16. YL. ( a+32 ) YLR a16. Y.R ( a32 ) YLR a+16. YL. ( a+32 ) YLR ( a+8 a+8 a8 a+8 ) ( [ Y.R a+8 a+8 a8 a+8 YL. a+8 a+8 a8 a+8 ]2 YLR ) r4 a+8. ( a+16 ) a8. ( a16 ) g+8. ( g+16 ) @3 ( g4 ) @68 W0,100,0 d2.~ d2.~ d8~ ( d8 ) @67 W0,100,0 d+2 f2 @68 W0,100,0 d2.~ d8~ ( d8 ) @67 W0,100,0 f4. @68 W0,100,0 e8~ e4. ( e8 ) @67 W0,100,0 f4. @68 W0,100,0 e4. @67 W0,100,0 c4 d8~ ( d8 ) < g2.~ g2.~ g8~ ( g8 ) > @68 W0,100,0 d1~ d2.~ d8~ ( d8 ) @67 W0,100,0 d+2 f2 @68 W0,100,0 d2.~ d8~ ( d8 ) @67 W0,100,0 f4. @68 W0,100,0 e8~ e4. ( e8 ) d2 @69 W0,100,0 c2 @67 W0,100,0 c1~ c2.~ c8 ( c8 ) 
