;019 003241CC
!1  T140 V5 O1 Y.R P11,14,2 D-1 @@3,2,1 E100,90,60,24,40 f8~ _V-2 f16~ _V-2 f16 _V4 f8~ _V-2 f16~ _V-2 f16~ f8 _V4 f16~ _V-3 f16 _V3 f8~ _V-2 f8~ _V-2 f4 _V4 r2. f8~ _V-2 f16~ _V-2 f16 _V4 f8~ _V-2 f16~ _V-2 f16~ f8 _V4 f16~ _V-3 f16 _V3 f8~ _V-2 f8 _V2 c1 L O1 V5 YL. D0 @0 E80,100,60,24,40 c4~ _V-2 c8 _V2 c8~ c4.~ _V-3 c8 _V3 g16~ _V-2 g16 _V2 f4 d8~ d4.~ _V-3 d8 _V3 f4~ _V-2 f8 _V2 c8~ c4.~ _V-3 c8 _V3 d+16~ _V-2 d+16 _V2 d+4 d8~ d4.~ _V-3 d8 _V3 g8. g16 a16~ _V-2 a16 _V2 g8~ g4. _V-3 g8 _V3 e16~ _V-2 e16 _V2 f4 g8~ g8 e16~ _V-2 e16 _V2 e8 _V-3 e8 _V3 f8. f16 g16~ _V-2 g16 _V2 f8~ f4. _V-3 f8 _V3 d+16~ _V-2 d+16 _V2 f4 g8~ g16~ _V-2 g16 _V2 g16~ _V-2 g16 _V2 g16~ _V-2 g16 _V2 r8 V4 O2 P9,14,4 B6 YLR D-1 @@1,1,0 E100,90,70,16,47 r16 f8 d16~ _V-3 d16 _V3 g8 f8 > c+32~ d16.~ c+32~ d16.~ d8~ < _V-2 d8~ f12~ a12 > ) d12 ) d12 < a12 > e12 f12 e12 < a12 g12 > e12 d12 < g16 _V-2 f16 _V2 > c16~ d16~ c8~ < _V-2 g8 _V2 g+16~ a16~ > ( c24~ ( d24 _V2 f24 [ a24 ( f24 ) d24 ]2 c24 < ( a24 ) > c24 d24 c24 < a24 g12 f24 d24 g24 f24 d24 f24 d24 c16 < a16 g4~ _V-2 d8~ < g8 _V2 > > c16 < a16 > d16 < a16 > c8 d16 c16 f16 _V-2 < a+16 > _V2 d16 f16 e16 d16 c16 < a16 > c16 c+32~ d16. c16 < g24 a24 g24~ g16 f16 g16 f16 d24 f24 g24 f4 _V-2 f8 _V2 > a24 > c24 d24 f16~ g16~ f8 f16~ < a16~ > ( d16~ ( f16 _V2 r8 b16~ > c16~ c4 < a+12 a12 g+12 f12 ( d12 ( g48 _V2 O2 V6 YL. D0 @@3,2,1 E100,90,60,24,40 g8~ _V-2 g16 _V2 g16 d+16~ _V-2 d+16 _V2 g8~ g4.~ _V-3 g8 _V3 f16~ _V-2 f16 _V2 d+8~ ( d+8 ) c8~ c4~ _V-3 c4 _V3 < a+8~ _V-2 a+16 _V2 > d+16 f16~ _V-2 f16 _V2 g8~ g4.~ _V-3 g8 _V3 > d+16~ _V-2 d+16 _V2 c+8~ ( c+8 ) c8~ c4~ _V-3 c4 _V3 < g8~ _V-2 g16 _V2 g16 d+16~ _V-2 d+16 _V2 g8~ g4.~ _V-3 g8 _V3 f16~ _V-2 f16 _V2 d+8~ ( d+8 ) c8~ c4~ _V-3 c4 _V3 D-1 f+8~ _V-2 f+16 _V2 b16 > c+16~ _V-2 c+16 _V2 f+8~ f+2~ f+2 _V-4 f+4 _V4 r4 
!2  V5 O1 YL. P11,14,2 @@3,2,1 E100,90,60,24,40 f8~ _V-2 f16~ _V-2 f16 _V4 f8~ _V-2 f16~ _V-2 f16~ f8 _V4 f16~ _V-3 f16 _V3 f8~ _V-2 f8~ _V-2 f4 _V4 r2. f8~ _V-2 f16~ _V-2 f16 _V4 f8~ _V-2 f16~ _V-2 f16~ f8 _V4 f16~ _V-3 f16 _V3 f8~ _V-2 f8 _V2 c1 L O1 V5 Y.R @0 E80,100,60,24,40 a4~ _V-2 a8 _V2 a8~ a4.~ _V-3 a8 _V3 a+16~ _V-2 a+16 _V2 a+4 a+8~ a+4.~ _V-3 a+8 _V3 a4~ _V-2 a8 _V2 f8~ f4.~ _V-3 f8 _V3 > c16~ _V-2 c16 _V2 < a+4 a+8~ a+4.~ _V-3 a+8 _V3 > e8. c16 f16~ _V-2 f16 _V2 e8~ e4. _V-3 e8 _V3 c16~ _V-2 c16 _V2 d4 e8~ e4.~ _V-3 e8 _V3 d8. < a+16 > d+16~ _V-2 d+16 _V2 d8~ d4. _V-3 d8 _V3 < g+16~ _V-2 g+16 _V2 a+4 > c8~ c16~ _V-2 c16 _V2 c16~ _V-2 c16 _V2 c16~ _V-2 c16 _V2 r8 V8 O2 P9,14,4 B6 YLR @@1,1,0 E100,90,70,16,47 f8 d16~ _V-3 d16 _V3 g8 f8 > c+32~ d16.~ c+32~ d16.~ d8~ < _V-2 d8~ f12~ a12 > ) d12 ) d12 < a12 > e12 f12 e12 < a12 g12 > e12 d12 < g16 _V-2 f16 _V2 > c16~ d16~ c8~ < _V-2 g8 _V2 g+16~ a16~ > ( c24~ ( d24 _V2 f24 [ a24 ( f24 ) d24 ]2 c24 < ( a24 ) > c24 d24 c24 < a24 g12 f24 d24 g24 f24 d24 f24 d24 c16 < a16 g4~ _V-2 d8~ < g8 _V2 > > c16 < a16 > d16 < a16 > c8 d16 c16 f16 _V-2 < a+16 > _V2 d16 f16 e16 d16 c16 < a16 > c16 c+32~ d16. c16 < g24 a24 g24~ g16 f16 g16 f16 d24 f24 g24 f4 _V-2 f8 _V2 > a24 > c24 d24 f16~ g16~ f8 f16~ < a16~ > ( d16~ ( f16 _V2 r8 b16~ > c16~ c4 < a+12 a12 g+12 f12 ( d12 ( g12 _V2 O3 V7 Y.R @@3,2,1 E100,90,60,24,40 d+8~ _V-2 d+16 _V2 d+16 < a+16~ _V-2 a+16 _V2 > d+8~ d+4.~ _V-3 d+8 _V3 c+16~ _V-2 c+16 _V2 c8~ ( c8 ) < g+8~ g+4~ _V-3 g+4 _V3 g8~ _V-2 g16 _V2 g+16 a+16~ _V-2 a+16 _V2 > d+8~ d+4.~ _V-3 d+8 _V3 f+16~ _V-2 f+16 _V2 f8~ ( f8 ) d+8~ d+4~ _V-3 d+4 _V3 d+8~ _V-2 d+16 _V2 d+16 < a+16~ _V-2 a+16 _V2 > d+8~ d+4.~ _V-3 d+8 _V3 c+16~ _V-2 c+16 _V2 c8~ ( c8 ) < g+8~ g+4~ _V-3 g+4 _V3 f+8~ _V-2 f+16 _V2 b16 > c+16~ _V-2 c+16 _V2 f+8~ f+2~ f+2 _V-4 f+4 _V4 r4 
!3  V3 O0 `9F00 @A3 @B0 @~3 [ f8~ ( f8 ) ]2 ( f8 ) f16~ ( f16 ) f8~ ( f8~ f16 ) r8. r2. [ f8~ ( f8 ) ]2 ( f8 ) f16~ ( f16 ) f8~ ( f8 ) c2.~ ( c4 ) L f4~ ( f8 ) f8~ f4~ ( f4 ) > d+16~ ( d+16 ) < a+8~ ( a+8 ) g8~ ( g8 ) g16~ ( g16 ) g4 a4~ ( a8 ) > d8~ ( d8 ) d16~ ( d16 ) d4 g+16~ ( g+16 ) d+8~ ( d+8 ) < a+8~ ( a+8 ) a+16~ ( a+16 ) a+4 > c8. < a16 > c16~ ( c16 ) c8~ ( c8 ) c16~ ( c16 ) c4 c16~ ( c16 ) < d4 e8~ e8 g16~ ( g16 ) > c8 < g8 a+8~ ( a+16 ) a+16 f16~ ( f16 ) a+8~ ( a+8 ) a+16~ ( a+16 ) a+4 g+16~ ( g+16 ) a+4 > c8~ ( c8 ) c16~ ( c16 ) c8 c8 [ [ d16~ ( d16 ) ]2 c8 d8~ ( d8 ) c8~ ( c8 ) < a+8~ a+16~ ( a+16 ) a+16~ ( a+16 ) a+8 > c8~ c16 ( c16 ) [ c16~ ( c16 ) ]3 ]3 [ d16~ ( d16 ) ]2 c8 d8~ ( d8 ) c8~ ( c8 ) < a+8~ ( a+8 ) a+8~ ( a+8 ) > c8~ ( c8 ) d4 ( d8 ) d+8~ ( d+16 ) d+16 < a+16~ ( a+16 ) > d+8~ ( d+8 ) d+16~ ( d+16 ) d+4 c+16~ ( c+16 ) < g+8~ ( g+8 ) f8~ f16~ ( f16 ) f16~ ( f16 ) f4 g8~ ( g16 ) g16 g16~ ( g16 ) > c8~ ( c8 ) c16~ ( c16 ) c4 < f+16~ ( f+16 ) > c+8~ ( c+8 ) < g+8~ g+16~ ( g+16 ) g+16~ ( g+16 ) g+4 > d+8~ ( d+16 ) d+16 < a+16~ ( a+16 ) > d+8~ ( d+8 ) d+16~ ( d+16 ) d+4 c+16~ ( c+16 ) < g+8~ ( g+8 ) f8~ f16~ ( f16 ) f16~ ( f16 ) f4 f+8~ ( f+16 ) f+16 f+16~ ( f+16 ) f+8~ ( f+8 ) > c+8 f+8 c16 f+16 < [ f+16~ ( f+16 ) ]8 
!4  [ @4 x8 @5 x16 x16 ]2 @5 x16 x16 @4 x8 x8 @5 x16 x16 [ @4 x8 @5 x16 x16 ]2 r16 x16 @4 x16 r16 @4 x8 @5 x16 x16 [ @4 x8 @5 x16 x16 ]2 @5 x16 x16 @4 x8 x8 @5 x16 x16 @4 x8 @5 x16 x16 x16 @4 x16 @5 x16 x16 x16 x16 @4 x8 @5 [ x32 ]8 L @8 x4 @5 x16 x16 @8 x4 @5 x16 x16 @7 x8 @5 x16 x16 @7 x8 x8 @5 x16 x16 @7 x8 @5 x16 x16 @7 x8 x8 @5 x16 x16 [ @7 x8 @5 x16 x16 @7 x8 x8 @5 x16 x16 @7 x8 x8 @5 x16 x16 @7 x8 x8 @5 x16 x16 @7 x8 @5 x16 x16 @7 x8 x8 @5 x16 x16 ]2 @7 x8 @5 x16 x16 @7 x8 x8 @5 x16 x16 @7 x8 x8 @5 x16 x16 r8 @8 x4 x4. r4 @8 x4 [ @7 x8 @5 x8 ]14 @3 x8 @6 x8 @8 x4 [ @7 x8 @5 x8 ]10 @7 x8 @8 x8~ x8 Y.R x4 YL. x4 r4. YLR [ @7 x8 @5 x16 x16 @7 x8 x8 @5 x16 x16 @7 x8 x8 @5 x16 x16 @7 x8 x8 @5 x16 x16 @7 x8 @5 x16 x16 @7 x8 x8 @5 x16 x16 ]3 @7 x8 @5 x16 x16 @7 x8 x8 @5 x16 x16 @7 x8 x8 @5 x16 x16 @7 x8 x8 @5 x16 x16 @7 x8 @5 x16 x16 @7 x8 x8 @5 x16 x16 
!5  V1 O2 YLR @26 [ Y.R f8 ( Y.R f16 YL. f16 ) ]2 r8 f8 f8 ( Y.R f16 YL. f16 ) YLR @2 r2 r8 < b16 b16 g4 > @26 [ Y.R f8 ( Y.R f16 YL. f16 ) ]2 r8 f8 f8 ( Y.R f16 YL. f16 ) YLR @4 c24 ( [ c24 ]17 [ c24 ]6 ) L V1 O2 YLR @38 W0,100,72 f8~ ( f16 ) f16 c16~ ( c16 ) f8~ f4. ( f8 ) d+16~ ( d+16 ) d8~ d16~ ( d16 ) < a+8~ a+4 ( a+4 ) a8~ ( a16 ) a+16 > c16~ ( c16 ) f8~ f4. ( f8 ) g+16~ ( g+16 ) g8~ g16~ ( g16 ) f8~ f4 ( f4 ) g8~ ( g16 ) c16 a16~ ( a16 ) g8~ g4. ( g8 ) e16~ ( e16 ) f8~ f16~ ( f16 ) g8~ g4 ( g4 ) f8~ ( f16 ) < a+16 > g16~ ( g16 ) f8~ f4. ( f8 ) d+16~ ( d+16 ) d8~ d16~ ( d16 ) c8~ c16~ ( c16 ) c16~ ( c16 ) c8 ( c8 ) O1 @0 x4 @1 x8 @0 x8 r8 x8 @1 x8 @0 x8 r8 x8 @1 x8 @0 x8 r8 x8 @1 x8 @0 x8 @0 x4 @1 x8 @0 x8 r8 x8 @1 x8 @0 x8 r8 x16 x16 @1 x8 @0 x8 r8 x8 @2 c8 @0 x8 @0 x4 @1 x8 @0 x8 r8 x8 @1 x8 @0 x8 r8 x8 @1 x8 @0 x8 r8 x8 @1 x8 @0 x8 @0 x4 @1 x8 @0 x8 r8 x8 @1 x8 @0 x8 r8 x8 r8 x8 r8 @2 Y.R b16 b16 YLR g8 YL. d8 YLR O2 @68 W0,100,0 g4~ ( g8 ) g8~ g4.~ ( g8 ) @69 W0,100,0 g+8 @67 W0,100,0 g+4 f8~ f4.~ ( f8 ) d+4~ ( d+8 ) d+8 ( d+8 ) d+16 ( d+16 ) d+4 @69 W0,100,0 c+8 @67 W0,100,0 c+4 @68 W0,100,0 c8~ c4. ( c8 ) @68 W0,100,0 g4~ ( g8 ) g8~ g4.~ ( g8 ) @69 W0,100,0 g+8 @67 W0,100,0 g+4 f8~ f4.~ ( f8 ) f+4~ ( f+8 ) f+8~ f+4.~ ( f+8 ) [ f+16 ( f+16 ) ]8 
!6  V1 O1 @1 x4 x4 r8 x8 x4 [ x8 ( x16 x16 ) ]2 r16 ( x16 ) x16 r16 x8 ( x16 x16 ) @1 x4 x4 r8 x8 x4 @1 x8 ( x16 x16 x16 ) x16 ( x16 x16 ) x16 ( x16 ) x8 x32 ( [ x32 ]7 ) L @0 x8. @1 ( x16 ) x16 ( x16 ) @0 x8 r8 @1 ( x8 ) x8 ( x16 x16 ) r8 @0 x8 r8 x8 r8 x16 @1 ( x16 ) @0 x8 @1 ( x16 x16 ) @0 x8 @1 ( x16 x16 ) @0 x16 @1 ( x16 ) @0 x8 r8 @0 x8 @1 x8 ( x16 x16 ) @0 x8 x8 r8 x8 r8 @0 x8 @1 x8 @4 g16 g16 > c8. < @1 ( x16 ) @0 x8 x8 r8 @0 x8 @1 x8 ( x16 x16 ) @0 x8 x8 r8 x8 r8 @0 x8 @1 x8 ( x16 x16 ) @0 x8 @1 ( x16 x16 ) @0 x16 @1 ( x16 ) @0 x8 r8 @0 x8 @1 x8 ( x16 x16 ) @1 x8 @0 x4 x4 @1 x8 x16 @2 g16 d16 c16 O2 @60 W0,100,33 [ d8 d8 c8 d8~ ( Y.R d16 YL. d16 ) YLR c8~ ( Y.R c16 YL. c16 ) < YLR a+8~ a+8 a+16~ Y.R ( a+16 ) YLR a+16~ YL. ( a+16 ) YLR > c4 c16~ Y.R ( c16 ) YLR c16~ YL. ( c16 ) YLR c8 ]3 d8 d8 c8 d8~ ( Y.R d16 YL. d16 ) YLR c8~ ( Y.R c16 YL. c16 ) < YLR a+8~ ( a+8 ) a+8 ( a+8 ) > c8 ( c8 ) d4. O1 @0 x8. @1 ( x16 ) @0 ( x8 ) x8 r8 @1 ( x8 ) x16 ( x16 x16 x16 ) @1 x8 @0 x8 r8 x8 r8 x16 @1 ( x16 ) @1 x8 ( x8 ) @0 x8. @1 ( x16 ) @0 ( x8 ) x8 r8 @1 ( x8 ) x16 ( x16 x16 x16 ) @0 x8 x8 r8 x8 r8 @0 x8 @1 x16 x16 x16 x16 @0 x8 @1 ( x16 ) x16 @0 ( x8 ) x8 r8 @1 ( x16 ) x16 x8 ( x16 ) x16 @1 x8 @0 x8 r8 x8 r8 x16 @1 ( x16 ) @1 x8 ( x16 x16 ) @0 x8 @1 ( x16 ) x16 @0 ( x8 ) x8 r8 @1 ( x16 ) x16 x8 ( x16 ) x16 @1 x8 ( x16 x16 x16 ) x16 ( x16 x16 ) x16 ( x16 ) x8 x32 ( [ x32 ]7 ) 
