;020 00324F48
!1  T155 r4. V6 O3 P12,14,5 B6 Y.R @@2,2,1 E100,90,60,25,43 c+4 e8 c+8 e4 f+16~ f+16 e16 e16 g32~ g16.~ g8 f+8 g8 f+8 e8 c+8 < b8 > e8 c+8~ c+4 _V-4 c+8 _V4 r4. V5 O2 P12,14,5 D-1 Y.R @@4,3,0 E100,90,60,25,43 r16 g8~ ( g+8 ) g+8 g+8 g16~ f+16 e8 c+8 < b8~ > c+8 e8 c+4.~ < b16 b16 > c+8 e8 YL. g8~ ( g+8 ) g+8 g+8 g16~ f+16 e8 c+16 c+16 a+16~ b16~ b2. _V-2 b8 _V-2~ a+8 _V4 Y.R g8~ ( g+8 ) g+8 g+8 g16~ f+16 e8 c+8 < b8~ > c+8 e8 c+4.~ < b16 b16 > c+8 e8 YL. g8~ ( g+8 ) g+8 g+8 g16~ f+16 e8 c+16 c+16 a+16~ b16~ b2. _V-2 b8 _V-2~ a+16 _V4 L V5 O3 P13,11,5 B6 Y.R @@2,2,1 E100,90,60,25,43 r16 [ e16~ _V-2 e16 _V2 ]4 e8 c+8 < b8 > c+8~ _V-3 c+8 _V3 < g+32~ g+16. b16~ _V-2 b16 _V2 b8~ b4.~ _V-4 b8 _V4 > r8 e32~ e16~ _V-2 e32 _V2 e8 c+8 e8. c+16~ _V-3 c+8 _V3 c+8 g8 f+16~ _V-2 f+16 _V2 f+8 e8 f+8 e8~ _V-3 e8 _V3 f+8 e8 c+8~ c+2~ _V-2 c+8~ _V-2 c+8 _V4 r4 < b8~ _V-2 b8 _V2 b4 g+8 > e32~ e16. e8 c+8~ c+4.~ _V-2 c+8~ _V-2 c+16 _V4 @2 YLR PX d+4.~ _V-2 Y.R d+16~ YL. d+16 _V2 YLR c+4~ _V-2 Y.R c+16~ YL. c+16 _V2 YLR d+4 @@2,2,1 E100,90,60,25,43 P13,11,5 Y.R r8. [ e16~ _V-2 e16 _V2 ]3 e16~ e16 c+16 _V-2 c+16 _V2 < b8 > c+8~ _V-3 c+8 _V3 < g+32~ g+16. b16~ _V-2 b16 _V2 b8~ b4.~ _V-4 b8 _V4 > r8 e32~ e16~ _V-2 e32 _V2 e8 c+8 e8. c+16~ _V-3 c+8 _V3 c+8 g8 f+16~ _V-2 f+16 _V2 f+8 e8 f+8 e8~ _V-3 e8 _V3 f+8 e8 c+8~ c+2~ _V-2 c+8~ _V-2 c+8 _V4 r4 < b8 g+8 b4 g+8 > e16 @2 PX > _V-2 [ YLR c+8~ _V-2 Y.R c+16~ ( YL. c+16 _V3 ]8 _V2 < Y.R < e4. a4. > c+4 < f+4. b4 > d+4. < g+4. > g+4 < g+4. f+4. g+4. f4 e4. a2 b8~ b8 f+4 g+8~ g+4 V6 O2 P13,11,5 B6 YLR @@2,2,1 E100,90,60,25,43 g+16~ _V-2 g+16 _V2 g+8 > c+16~ _V-2 c+16 _V2 c+4 c+8~ c+4~ _V-3 c+8 _V3 r8 < [ b8 _V-3 b8 _V3 ]2 g+4.~ _V-3 g+8 _V3 r8 > [ c+16~ _V-2 c+16 _V2 ]3 [ c+16~ _V-2 c+16 _V2 ]3 c+8 < [ b16~ _V-2 b16 _V2 ]3 b8 b4.~ _V-3 b8 _V3 V5 r16 Y.R > r4 c+8.~ _V-2 c+16 _V2 c+8 d+8 e8 f+8~ f+8 e8 _V-3 e8 _V3 e8 d+8 e8 f+8 e8 f+32~ f+16.~ f+8 e8 g+32~ g+16.~ g+4. _V-3 g+8 _V3 V6 f+32~ f+16.~ f+8 e8 g+32~ g+16.~ g+8~ _V-3 g+16 _V3 YLR < g+16~ _V-2 g+16 _V2 g+8 > c+16~ _V-2 c+16 _V2 c+4 c+8~ c+4~ _V-3 c+8 _V3 r8 < [ b8 _V-3 b8 _V3 ]2 g+4.~ _V-3 g+8 _V3 r8 > [ c+16~ _V-2 c+16 _V2 ]3 [ c+16~ _V-2 c+16 _V2 ]3 c+8 < [ b16~ _V-2 b16 _V2 ]3 b8 b4.~ _V-3 b8 _V3 r1 Y.R @2 E100,80,50,7,43 r4. > > [ b32 H< ]20 [ H> ]20 V6 O2 P12,14,5 B4 Y.R @@2,2,1 E100,90,60,25,43 c+4 e8 c+8 e4 f+16~ f+16 e16 e16 g32~ g16.~ g8 f+8 g8 f+8 e8 c+8 < b8 > e8 g8. f+8. f8. e8. c+8 V6 YLR @2 O2 r2 r8 [ f+32~ _V-2 f+32 _V2 ]2 a16 > a8~ _V-3 a16 _V3 
!2  r4. V8 O2 P12,14,5 B6 @@2,2,1 E100,90,60,25,43 c+4 e8 c+8 e4 f+16~ f+16 e16 e16 g32~ g16.~ g8 f+8 g8 f+8 e8 c+8 < b8 > e8 c+8~ c+8~ _V-4 c+8 _V4 > r8 g16~ _V-2 f+16~ _V2 g8.~ < _V-4 g16 _V4 O2 P12,14,5 @@4,3,0 E100,90,60,25,43 [ g8~ ( g+8 ) g+8 g+8 g16~ f+16 e8 c+8 < b8~ > c+8 e8 c+4.~ < b16 b16 > c+8 e8 g8~ ( g+8 ) g+8 g+8 g16~ f+16 e8 c+16 c+16 a+16~ b16~ b2. _V-2 b8 _V-2~ a+8 _V4 ]2 L V8 O3 P13,11,5 B6 @@2,2,1 E100,90,60,25,43 [ e16~ _V-2 e16 _V2 ]4 e8 c+8 < b8 > c+8~ _V-3 c+8 _V3 < g+32~ g+16. b16~ _V-2 b16 _V2 b8~ b4.~ _V-4 b8 _V4 > r8 e32~ e16~ _V-2 e32 _V2 e8 c+8 e8. c+16~ _V-3 c+8 _V3 c+8 g8 f+16~ _V-2 f+16 _V2 f+8 e8 f+8 e8~ _V-3 e8 _V3 f+8 e8 c+8~ c+2~ _V-2 c+8~ _V-2 c+8 _V4 r4 < b8~ _V-2 b8 _V2 b4 g+8 > e32~ e16. e8 c+8~ c+4.~ _V-2 c+8~ _V-2 c+8 _V4 @2 PX _V-4 b4.~ _V-2 YL. b16~ Y.R b16 _V2 YLR a4~ _V-2 YL. a16~ Y.R a16 _V2 YLR b4 _V4 @@2,2,1 E100,90,60,25,43 P13,11,5 r8 [ e16~ _V-2 e16 _V2 ]3 e16~ e16 c+16 _V-2 c+16 _V2 < b8 > c+8~ _V-3 c+8 _V3 < g+32~ g+16. b16~ _V-2 b16 _V2 b8~ b4.~ _V-4 b8 _V4 > r8 e32~ e16~ _V-2 e32 _V2 e8 c+8 e8. c+16~ _V-3 c+8 _V3 c+8 g8 f+16~ _V-2 f+16 _V2 f+8 e8 f+8 e8~ _V-3 e8 _V3 f+8 e8 c+8~ c+2~ _V-2 c+8~ _V-2 c+8 _V4 r4 < b8 g+8 b4 g+8 > e8~ e8 c+8~ c+2~ _V-3 c+8 _V3 @2 PX < _V-4 a+4.~ _V-2 Y.R a+16~ YL. a+16 _V2 YLR g+4~ _V-2 Y.R g+16~ YL. g+16 _V2 YLR f+4 _V4 > @@2,2,1 E100,90,60,25,43 P13,11,5 r4 [ c+16~ _V-2 c+16 _V2 ]2 c+8 d+8 e8 d+8~ _V-4 d+4 _V4 [ d+16~ _V-2 d+16 _V2 ]2 d+8 e8 f+8 g+8~ g+16~ _V-2 g+16 _V2 f+8.~ _V-3 f+16 _V3 e4 d+4~ _V-3 d+8 _V3 f+4. f4. c+4~ _V-4 c+8 _V4 r8 [ c+16~ _V-2 c+16 _V2 ]2 c+8 d+8 e8 f+8~ f+8 e8 f+8 g+8~ g+8~ _V-3 g+8 _V3 c+16~ _V-2 c+16 _V2 e8 g+16~ _V-2 g+16 _V2 g+4 a8~ a4~ _V-3 a8 _V3 r8 [ f+8 _V-3 f+8 _V3 ]2 e4.~ _V-3 e8 _V3 r8 [ g+16~ _V-2 g+16 _V2 ]3 [ a16~ _V-2 a16 _V2 ]3 g+8 [ f+16~ _V-2 f+16 _V2 ]3 e8 d+4.~ _V-3 d+8 _V3 r4 c+8.~ _V-2 c+16 _V2 c+8 d+8 e8 f+8~ f+8 e8 _V-3 e8 _V3 e8 d+8 e8 f+8 e8 f+32~ f+16.~ f+8 e8 g+32~ g+16.~ g+4. _V-3 g+8 _V3 _V-2 YL. f+32~ f+16.~ f+8 e8 g+32~ g+16.~ g+8.~ _V-3 g+16 _V3 YLR _V2 c+16~ _V-2 c+16 _V2 e8 g+16~ _V-2 g+16 _V2 g+4 a8~ a4~ _V-3 a8 _V3 r8 [ f+8 _V-3 f+8 _V3 ]2 e4.~ _V-3 e8 _V3 r8 [ g+16~ _V-2 g+16 _V2 ]3 [ a16~ _V-2 a16 _V2 ]3 g+8 [ f+16~ _V-2 f+16 _V2 ]3 e8 d+4.~ _V-3 d+8 _V3 r4 c+8.~ _V-2 c+16 _V2 c+8 d+8 e8 f+8~ f+8 e8 d+8 c+16~ c+16~ c+4 _V-4 c+8 _V4 r8 c+4 e8 c+8 e4 f+16~ f+16 e16 e16 g32~ g16.~ g8 f+8 g8 f+8 e8 c+8 < b8 > e8. c+16~ c+4~ c+8.~ _V-4 c+16 _V4 r4 V6 YLR @2 O2 r2 r8 [ a+32~ _V-2 a+32 _V2 ]2 > d16 > d8~ _V-3 d16 _V3 
!3  V3 O1 `9F00 @A3 @B0 @~4 B2 [ c+16~ ( c+16 ) ]2 c+8~ c+1~ c+1~ c+2.~ ( c+4 ) c+8 < f+8 g+8 a8~ a16~ ( a16 ) a8 g+8 a8 [ b16~ ( b16 ) ]4 b8 f+8 g+8 b8 > c+8 < f+8 g+8 a8~ a16~ ( a16 ) a8 g+8 b8~ [ b16~ ( b16 ) ]3 f+8 b8 f+8 g+8 b8 > c+8 < f+8 g+8 a8~ a16~ ( a16 ) a8 g+8 a8 [ b16~ ( b16 ) ]4 b8 f+8 g+8 b8 > c+8 < f+8 g+8 a8~ a16~ ( a16 ) a8 g+8 b8~ B8 > ( d+8~ f+8 ) b2~ ( f+8~ d+8 ) < B2 L b8 > c+8~ ( c+8 ) < g+8 > e8 c+8 < g+8 > f+8~ f+8~ g8~ f+8 e8 f+8 e8 c+8 < g+8 b8 > c+8~ ( c+8 ) < g+8 b8 > c+8~ ( c+8 ) f+8~ f+8~ g16~ f+16 e8 c+8 e8 c+8 < b8 g+8 b8 > c+8~ ( c8 ) < g+8 > e8 c+8~ ( c+8 ) f+8~ f+8~ g8~ f+8 e8 f+8 c+8 < b8 g+8 b8 > c+8~ ( c+8 ) < g16~ g+16 > e8 c+8~ ( c+8 ) < b8~ b8 f+8 g+8 a8~ a4 b4 b8 > c+8~ ( c+8 ) < g+8 > e8 c+8 < g+8 > f+8~ f+8~ g8~ f+8 e8 f+8 e8 c+8 < g+8 b8 > c+8~ ( c+8 ) < g+8 b8 > c+8~ ( c+8 ) f+8~ f+8~ g16~ f+16 e8 c+8 e8 c+8 < b8 g+8 [ f+16~ ( f+16 ) ]8 [ b16~ ( b16 ) ]8 b8 > c+8~ ( c+8 ) < g16~ g+16 > e8 c+8~ ( c+8 ) < f+8~ f+8 b8 > c+8 e8~ e4 d+4 [ c+16~ ( c+16 ) ]8 [ d+16~ ( d+16 ) ]8 [ c16~ ( c16 ) ]8 c+8 g+8 c+8 f4 c+4 < g+8 [ a16~ ( a16 ) ]7 b8~ b8 f+16~ ( f+16 ) f+8 g+8 B11 g+8~ > d+8~ g+8~ < g+8 B2 > c+8 < f+8 g+8 a8~ a16~ ( a16 ) a8 g+8 a8 [ b8~ ( b8 ) ]2 > e4 d+4 c+8 < f+8 g+8 a8~ a16~ ( a16 ) a8 g+8 a8 [ b16~ ( b16 ) ]8 [ a16~ ( a16 ) ]3 > [ c+16~ ( c+16 ) ]3 [ e16~ ( e16 ) ]2 < [ b16~ ( b16 ) ]4 b8 a8 g+8 f+8 [ e16~ ( e16 ) ]3 [ g+16~ ( g+16 ) ]3 [ b16~ ( b16 ) ]2 [ f+16~ ( f+16 ) ]3 g+8~ g+8 ( g+8 ) g+4 > c+8 < f+8 g+8 a8~ a16~ ( a16 ) a8 g+8 a8 [ b8~ ( b8 ) ]2 > e4 d+4 c+8 < f+8 g+8 a8~ a16~ ( a16 ) a8 g+8 a8 b8~ ( b8 ) [ b16~ ( b16 ) ]6 [ a16~ ( a16 ) ]3 > [ c+16~ ( c+16 ) ]3 e8 < b8~ [ b16~ ( b16 ) ]4 b8 g+8 b8 > c8 c+4 e8 c+8 e4 f+8 e8 g4 f+8 g8 f+8 e8 c+8 < b8 > e8 c+8. c8. < b8. a+8. f+8~ ( f+8 ) e16 e16 f+8~ ( f+8 ) e16 e16 f+8~ ( f+8 ) r8 
!4  @8 YL. x8 Y.R x8 YLR x8~ x4 r2. r1 r1 @8 x4 @5 x8 @8 x4 @5 x8 x8 x8 @8 x4 @5 [ x8 ]6 @8 x4 @5 x8 @8 x4 @5 x8 x8 @8 x8~ x8 @5 x8 @8 x4 @5 x4 x4 @8 x4 @5 x8 @8 x4 @5 x8 x8 x8 @8 x4 @5 [ x8 ]6 @8 x4 @5 x8 @8 x4 @5 x8 x8 @8 x8~ x8 @7 x8 @5 x8 @7 x8 @5 x4 @8 x8 x8 L @8 x4 @5 [ x8 ]13 @7 x8 [ @5 [ x8 ]7 @7 x8 ]2 @8 x4 @5 [ x8 ]5 @7 x8 @5 [ x8 ]7 @7 x8 @5 [ x8 ]5 @7 x8 @5 x8 @8 x8~ x8 @5 x8 x8 @7 x8 @5 x8 x8 @8 x8 x8 @8 x4 @5 [ x8 ]13 @7 x8 [ @5 [ x8 ]7 @7 x8 ]2 @8 x4 [ @7 x8 @5 x8 ]3 YL. @8 x4 YLR [ @7 x8 @5 x8 ]2 @7 x8 Y.R @8 x8 YLR @8 x4 [ @7 x8 @5 x8 ]2 @7 x8 @8 x8~ x4 @5 x8 YL. @8 x4 YLR @5 x8 Y.R @8 x4 YLR @8 x4 @5 [ x8 ]5 YL. @8 x8 Y.R @8 x4 YLR @5 [ x8 ]5 YL. @8 x8 Y.R @8 x4 YLR @5 [ x8 ]6 YL. @8 x4 YLR @5 x8 Y.R @8 x4 YLR @5 x8 @8 x4 YL. @8 x4 Y.R x4 YLR @5 x8 x8 x8 @8 x8~ x8 @7 x8 @5 x8 @7 x8 r4 x4 Y.R @8 x8 YLR @7 x8 x8 YL. @8 x4 YLR @7 x8 x8 x8 @8 x4 @7 x4 @8 YL. x4 Y.R x4 YLR Y.R @8 x8 YLR @7 x8 x8 YL. @8 x4 YLR @7 x8 x8 x8 @8 x4 [ @7 x8 @5 x8 ]3 @8 x4 [ @7 x8 @5 x8 ]2 @7 x8 YL. @8 x8 Y.R @8 x4 YLR [ @7 x8 @5 x8 ]3 @8 x4 [ @7 x8 @5 x8 ]3 @8 x8 @7 x8 x8 @8 x8~ x2 Y.R @8 x8 YLR @7 x8 x8 YL. @8 x4 YLR @7 x8 x8 x8 @8 x4 @7 x4 @8 YL. x4 Y.R x4 YLR Y.R @8 x8 YLR @7 x8 x8 YL. @8 x4 YLR @7 x8 x8 x8 @8 x4 [ @7 x8 @5 x8 ]3 @8 x4 [ @7 x8 @5 x8 ]2 @7 x8 @8 x8~ x4 @7 x4 @5 x4 x4 r1 r1 r8 @8 Y.R x8. YL. x8. Y.R x8. YL. x8. YLR x8 [ @7 x8 @5 x8 ]2 @5 x8 @7 x8 @5 x8 r8 
!5  V1 O1 @0 [ x8 ]3 [ r4 @2 d4 r4 @24 x4 ]2 r4 @2 d4 r8 @0 x16 x16 @24 x4 @0 x4 @24 x8 @0 x8 r8 x8 @24 x4 @0 x4 @24 x4 @0 x8 x8 @24 x8 x16 x16 @0 x4 @24 x8 @0 x8 r8 x8 @24 x8 @0 x8 r8 @0 x16 x16 @24 x4 x16 x16 @2 Y.R b16 b16 YLR g16 g16 YL. d16 d16 YLR @0 x4 @24 x8 @0 x8 r8 x8 @24 x8 @0 x8 @0 x4 @24 x4 @0 x8 x8 @24 x8 x16 x16 @0 x4 @24 x8 @0 x8 r8 x8 @24 x8 @0 x8 r4 @24 x4 r8 @0 x16 x16 @24 x8 x8 L [ [ @0 x4 @24 x4 ]3 @0 x8 x8 @24 x8 @0 x8 ]3 @0 x4 @24 x4 @0 x8 x8 @24 x8 @0 x8 r8 x8 @24 x8 @0 x8 r8 x8 @24 x8 x8 [ @0 x4 @24 x4 ]3 @0 x8 x8 @24 x8 @0 x8 [ @0 x4 @24 x4 ]3 @0 x4 @24 x8 x16 x16 [ @0 x4 @24 x4 @0 x8 x8 @24 x8 @0 x8 ]3 r8 @24 x8 x8 @0 x8 @24 x16 ( [ x16 ]3 ) x16 x16 @2 Y.R g16 YL. d16 YLR @0 x4 @24 x4 @0 x8 x8 @24 x8 @0 x8 @0 x4 @24 x4 @0 x8 x8 @24 x8 ( x16 x16 ) @0 x4 @24 x8. ( x16 ) @0 x16 @24 x16 @0 x8 @24 x8 @0 x8 @0 x4 @24 x8 @0 x8 r8 x8 @24 x8 x16 x16 @0 x4 @24 x4 @0 x8 x8 @24 x8 @0 x8 r8 @2 d8 d8 @0 x8 @24 [ x16 ]8 @0 x4 @24 x8 @0 x8 r8 x8 @24 x8 ( x16 x16 ) @0 x4 @24 x4 @0 x8 x8 @24 x8. ( x16 ) @0 x8 x8 @24 x8 @0 x8 r8 x8 @24 x8 ( x16 x16 ) @0 x4 @24 x4 x8 x8 @24 x8 x16 x16 @0 x8 x8 @24 x8 @0 x8 x8 x8 @24 x8 @0 x8 @0 x4 @24 x8 @0 x8 @0 x16 @24 x16 @0 x8 @24 x8 ( x16 ) x16 @0 x8 x8 @24 x4 @0 x8 x8 @24 x8 ( x16 x16 ) @0 x8 x8 @24 x8 @0 x8 @24 [ x16 ]8 @0 x8 x8 @24 x8 @0 x8 r8 x8 @24 x8 ( x16 ) x16 @24 x8 @0 x8 @24 x4 @0 x8 x8 @24 x16 ( x16 x16 ) x16 @0 x8 x8 @24 x8 @0 x8 r8 x8 @24 x8 ( x16 x16 ) @0 x4 @24 x4 x8 x8 @24 x8 x16 x16 @0 x8 x8 @24 x8. ( x16 ) @0 x16 @24 x8. x8 @0 x8 r8 x16 x16 @24 x8 @0 x8 [ @24 x16 @2 Y.R b16 YLR g16 YL. d16 YLR ]2 @24 x4 @2 d4 @0 x4 @2 d8 d8 @0 x4 @2 d4 @0 x4 @2 d8 d8 @24 x16 ( x16 ) @0 x8 @24 x16 @0 x8 @24 x16 @0 x8 @24 x16 @0 x16 r16 @24 x16 @0 x8 @24 x8 @0 ( x16 x16 ) x4 @24 x16 x16 @0 x8 r4 
!6  O2 @62 W0,100,33 B11 YLR c+16 YL. ( c+16 ) YLR c+16 Y.R ( c+16 ) YL. c+8~ c+4 e8 c+8 e4 f16~ f+16 e16 e16 f+32~ g16.~ g8 f+8 g8 f+8 e8 c+8 < b8 > e8 c+8~ c+2~ c+8. < ( g+16 ) e8 f+8 g+8 a8~ [ YL. a16 Y.R a16 ]4 [ YL. b16 Y.R b16 ]5 YL. b16 b16 b8 Y.R b8 e8 f+8 g+8 a8~ [ YL. a16 Y.R a16 ]3 b8~ [ YL. b16 Y.R b16 ]4 YL. b8 f+8 g+8 b8 e8 f+8 g+8 a8~ [ YL. a16 Y.R a16 ]4 [ YL. b16 Y.R b16 ]5 YL. b16 b16 b8 Y.R b8 e8 f+8 g+8 a8~ [ YL. a16 Y.R a16 ]3 YLR b8~ [ YL. b8~ Y.R b8~ ]4 L O1 @60 W0,100,33 YL. b8 > c+8~ ( c+8 ) < g+8 > e8 c+8 < g+8 > f+8~ f+8~ g8~ f+8 e16 Y.R ( e16 ) YL. f+16 Y.R ( f+16 ) YL. e16 Y.R ( e16 ) YL. c+16 Y.R ( c+16 ) YL. < g+16 Y.R ( g+16 ) YL. b8 > c+8~ ( c+8 ) < g+8 b8 > c+8~ ( c+8 ) f+8~ f+8~ g16~ f+16 e8 c+16 Y.R ( c+16 ) YL. e16 Y.R ( e16 ) YL. c+16 Y.R ( c+16 ) YL. < b16 Y.R ( b16 ) YL. g+16 Y.R ( g+16 ) YL. @67 W0,100,0 [ YL. a8~ Y.R a8 ]4 [ YL. b8~ Y.R b8 ]4 > [ YL. c+8~ Y.R c+8 ]3 YL. ( c+8 ) < Y.R b8~ YL. b8 Y.R b8 YL. ( b8 ) Y.R a8 YL. a8 Y.R a8 YL. b8 Y.R b8 @60 W0,100,33 YL. b8 > c+8~ ( c+8 ) < g+8 > e8 c+8 < g+8 > f+8~ f+8~ g8~ f+8 e16 Y.R ( e16 ) YL. f+16 Y.R ( f+16 ) YL. e16 Y.R ( e16 ) YL. c+16 Y.R ( c+16 ) YL. < g+16 Y.R ( g+16 ) YL. b8 > c+8~ ( c+8 ) < g+8 b8 > c+8~ ( c+8 ) f+8~ f+8~ g16~ f+16 e8 c+16 Y.R ( c+16 ) YL. e16 Y.R ( e16 ) YL. c+16 Y.R ( c+16 ) YL. < b16 Y.R ( b16 ) YL. g+16 Y.R ( g+16 ) YL. @68 W0,100,0 [ YL. a+8~ Y.R a+8 ]4 @67 W0,100,0 [ YL. b8~ Y.R b8 ]4 > [ YL. c+8~ Y.R c+8 ]3 YL. ( c+8 ) < @68 W0,100,0 Y.R a+8~ YL. a+8 Y.R a+8 YL. ( a+8 ) Y.R g+8 YL. g+8 Y.R g+8 @69 W0,100,0 YL. f+8 Y.R f+8 @60 W0,100,33 > [ YL. a8~ Y.R a8 ]4 [ YL. b8~ Y.R b8 ]4 [ YL. g+8~ Y.R g+8 ]4 [ YL. c+4~ Y.R c+8 ]2 YL. c+4 [ YL. a8~ Y.R a8 ]3 YL. a8 < @62 W0,100,33 B11 b4 [ YL. f+16 Y.R ( f+16 ) ]2 YL. g+8~ g+4 ( > d+8 <~ g+8 ) YL. > c+8 < f+8 g+8 a8~ [ YL. a16 Y.R ( a16 ) ]4 [ YL. b8 Y.R ( b8 ) ]2 YL. > e4 d+4 < > c+8 < f+8 g+8 a8~ [ YL. a16 Y.R ( a16 ) ]4 [ YL. b16 Y.R ( b16 ) ]6 YL. b8 Y.R b8 YL. a4 ) [ YL. a16~ Y.R ( a16 ) ]4 YL. a8~ Y.R ( a8 ) YL. b4 [ YL. b16~ Y.R ( b16 ) ]4 YL. b8~ Y.R ( b8 ) > [ YL. e4~ Y.R ( e8 ) ]2 YL. d+8 <~ g+8 [ YL. f+16~ Y.R ( f+16 ) ]3 YL. g+8~ g+4 ( > d+8~ < g+8 ) > c+8 < f+8 g+8 a8~ [ YL. a16 Y.R ( a16 ) ]4 [ YL. b8 Y.R ( b8 ) ]2 YL. > e4 d+4 < > c+8 < f+8 g+8 a8~ [ YL. a16 Y.R ( a16 ) ]4 [ YL. b8 [ YL. b16 Y.R ( b16 ) ]2 ]2 YL. b4 YL. a4 ) [ YL. a16~ Y.R ( a16 ) ]4 YL. a8 b8~ b16~ ( b16 ) b8~ ( b8 ) b16~ ( b16 ) b8 g+8 b8 > c8 c+4 e8 c+8 e4 f16~ f+16 e16 e16 f+32~ g16.~ g8 f+8 g8 f+8 e8 c+8 < b8 > e8 c+8. c8. < b8. a+8. f+8~ ( f+8 ) e16 e16 f+8~ ( f+8 ) e16 e16 f+8~ ( f+8 ) r8 > 
