;021 00326460
!1  T165 V5 O2 P12,11,4 @2 E90,100,80,23,40 a1 a1 b1 b1 a1 a1 b1 [ g+32 ( g+32 ) ]2 [ g+16 _V-2 g+16 _V2 ]2 [ g+32 ( g+32 ) ]2 g+16 _V-2 g+16 _V2 r8 V6 O3 P12,11,6 B9 @@2,2,1 E100,90,60,23,40 Y.R c+32 d32 e32 f+32 g+32 a32 b32 > c32 c+8~ _V-2 c+8 _V2 c+8 < b8~ b16~ _V-3 b16 _V3 g+8~ a16~ _V-2 a16 _V2 a8~ a2~ a8.~ _V-5 f+16 _V5 > c+24 < b24 a24 g+24 f+24 f24 e8 [ c+16.~ _V-3 c+32 _V3 ]5 [ e16.~ _V-3 e32 _V3 ]2 [ e16.~ _V-3 e32 _V3 ]2 f+8 g+8~ g+8~ _V-4 e8 _V4 c+32 d32 e32 f+32 g+32 a32 b32 > c32 c+8 < b8 a8 a+32~ b16.~ b8 g+8 b8 a8~ a2 > d16 c+16 < b16 a16 > c+16 < b16 a16 g+16 a8 [ d16.~ _V-3 d32 _V3 ]3 d8~ _V-2 d16 _V2 e8~ _V-2 e16 _V2 f+8 g32~ g+16.~ _V-4 g+16 _V4 ( b32 > c32 c+8 < ) d+16~ e16~ e8 d8 c+8 < b8 b1~ a+2~ a+4~ _V-5 a+8 _V5 r8 L V6 O2 YLR P9,12,2 @@2,2,1 E100,90,50,20,27 D-1 r4. d16 e16 f+8~ ( f+16 ) g+8~ ( g+16 ) a16~ ( a16 ) a4. g+4. e4 _V-2 b4 _V2 < b8 a+8~ a+2 g+4 > c+8 < f+8~ f+4.~ _V-4 f+8 _V4 > r8 a8 g+8 f+8 e16~ _V-2 e16 _V2 e16 d16~ _V-2 d16 _V2 d16 c+16~ _V-2 c+16 _V2 < b4~ ( b8 ) g+16 a16 g+8 a16~ _V-2 a16 _V2 b8 > c+16~ _V-2 c+16 _V2 d+4~ ( d+8 ) f+8~ f+4~ _V-3 f+8 _V3 [ d+32 _V-2 d+32 _V2 ]2 f4~ ( f8 ) g+8~ g+4.~ _V-4 g+8 _V4 V4 O2 Y.R @2 EX [ a2.~ ( a4 ) ]2 a2 g+2 a8 _V-2 a8 _V2 YLR @1 V7 c+8 _V-2 c+8 _V2 < a8. f+8. e8~ e2.~ _V-2 e4 _V2 > Y.R @2 V4 a1 f+2 g+2 a4. b8~ b2 V7 O3 Y.R P9,12,1 @0 E80,100,60,27,33 c1 < b2 a8 b8 > c8 g8 f2. g4 f4. e8~ e2 d4 < a+4 > d4 f4 e8 d+8 e8 a8 > c2 < a2. b8 > c8 < b2~ b8 d+16 e16 f+16 g+16 a16 b16 > [ c+16 d16 c+16 c16 ]6 V6 O3 P12,11,6 B9 @@2,2,1 E100,90,60,23,40 Y.R > c+16 < f16 f+16 g+16 a24 b24 > c+24 d24 e24 f24 c+8~ _V-2 c+8 _V2 c+8 < b8~ b16~ _V-3 b16 _V3 g+8~ a16~ _V-2 a16 _V2 a8~ a2~ _V-5 a8 _V5 e8 d8 c+8 < a8 > [ c+16.~ _V-3 c+32 _V3 ]5 [ e16.~ _V-3 e32 _V3 ]2 [ e16.~ _V-3 e32 _V3 ]2 f+8 g+8~ g+8~ _V-4 e8 _V4 a8 b8 > c+8 < b8 a8 a+32~ b16.~ b8 g+8 b8 a8~ a2~ a8~ _V-3 a8 _V3 r4 d8~ _V-3 d8 _V3 d8~ _V-3 d8 _V3 d8~ _V-3 d8 _V3 d8 f+8~ f+4~ _V-2 f+8 _V2 f4 _V-2 f8 _V2 c+32 d32 e32 f+32 g+32 a32 b32 > c32 c+8~ _V-2 c+8 _V2 c+8 < b8~ b16~ _V-3 b16 _V3 g+8~ a16~ _V-2 a16 _V2 a8~ a2~ a8.~ _V-5 f+16 _V5 > c+24 < b24 a24 g+24 f+24 f24 e8 [ c+16.~ _V-3 c+32 _V3 ]5 [ e16.~ _V-3 e32 _V3 ]2 [ e16.~ _V-3 e32 _V3 ]2 f+8 g+8~ g+8~ _V-4 e8 _V4 c+32 d32 e32 f+32 g+32 a32 b32 > c32 c+8 < b8 a8 a+32~ b16.~ b8 g+8 b8 a8~ a2 > d16 c+16 < b16 a16 > c+16 < b16 a16 g+16 a8 [ d16.~ _V-3 d32 _V3 ]3 d8~ _V-2 d16 _V2 e8~ _V-2 e16 _V2 f+8 g32~ g+16.~ _V-4 g+16 _V4 ( b32 > c32 c+8 < ) d+16~ e16~ e8 d8 c+8 < b8 b1~ a+2~ a+4~ _V-5 a+8 _V5 r8 
!2  V6 O3 P12,11,4 @2 E90,100,40,23,40 c+1 d1 e1 d+1 c+1 d1 d1 [ c+32 ( c+32 ) ]2 [ c+16 _V-2 c+16 _V2 ]2 [ c+32 ( c+32 ) ]2 c+16 _V-2 c+16 _V2 r8 V8 O3 P12,11,6 B9 @@2,2,1 E100,90,60,23,40 f+8 g+8 a8~ _V-2 a8 _V2 a8 g+8~ g+16~ _V-3 g+16 _V3 e8~ f+16~ _V-2 f+16 _V2 f+8~ f+2~ f+8.~ _V-5 d16 _V5 r4 r8 [ e16.~ _V-3 e32 _V3 ]5 [ a16.~ _V-3 a32 _V3 ]2 [ g+16.~ _V-3 g+32 _V3 ]2 a8 b8~ b8~ _V-4 a8 _V4 f+8 g+8 a8 g+8 f+8 g32~ g+16.~ g+8 e8 g+8 f+8~ f+2~ f+8.~ _V-5 d16 _V5 r4 r8 [ f+16.~ _V-3 f+32 _V3 ]3 f+8~ _V-2 f+16 _V2 g+8~ _V-2 g+16 _V2 a8 a+32~ b16.~ _V-4 b16 _V4 YL. _V-3 < b32 > c32 c+8 _V3 YLR a+16~ b16~ b8 a8 g+8 e8 f+1~ f+2~ f+8.~ _V-5 d16 _V5 r4 L V7 O3 YLR P9,12,2 @@3,2,0 E100,90,50,20,27 r4. d16 e16 f+8~ _V-2 f+16 _V2 g+8~ _V-2 g+16 _V2 a16~ _V-2 a16 _V2 a4. g+4. e4 c+2. f+4 < g+4. a+8~ a+4. _V-4 a+8 _V4 > r8 a8 g+8 f+8 e16~ _V-4 e16 _V4 e16 d16~ _V-4 d16 _V4 d16 c+16~ _V-4 c+16 _V4 < b4~ _V-2 b8 _V2 g+16 a16 b8 > c+16~ _V-3 c+16 _V3 d8 e16~ _V-3 e16 _V3 f+4~ _V-2 f+8 _V2 b8~ b4~ _V-4 b8 _V4 [ f+32 _V-2 f+32 _V2 ]2 g+4~ _V-2 g+8 _V2 > c+8~ c+4.~ _V-4 c+8 _V4 V8 O2 P12,11,6 B5 @@2,2,1 E100,90,60,23,40 r8 f+8 > c+8 < b8 > [ c+16. _V-2 c+32 _V2 ]3 d8 d+32~ e16.~ e8 d8 c+8~ c+8 _V-3 c+8 _V3 r8 < [ a32~ _V-2 a32 _V2 ]2 b8 > c+8~ _V-3 c+8 _V3 < g+8 [ e16.~ _V-2 e32 _V2 ]2 g+16. _V-2 g+32 _V2 g+8~ f+2~ _V-2 f+8~ _V-2 f+8 _V4 r4 r8 f+8 > c+8 < b8 > [ c+16. _V-2 c+32 _V2 ]3 d8 d+32~ e16.~ e8 d8 c+8~ c+8 _V-3 c+8 _V3 r4 < a+32~ b16.~ b8 a4 _V-4 a8 _V4 g+8 a8 b8 > c+4 _V-4 c+8 _V3 < b16. _V-2 b32 _V2 b4 _V-2 b8 _V-2 b8 _V4 a4~ _V-2 a8 _V2 > e16. _V-2 e32 _V2 e4~ _V-4 e8 _V4 e8 d8~ _V-2 d8 _V2 g8~ d8 d4 _V-2 d8 _V-2 d8 _V4 < a8~ ( a8 ) > c8~ ( c8 ) < b4 > g8 f16.~ _V-2 f+32 _V2 f4. e8~ e8~ _V-3 e8 _V3 d8 e8 d16.~ _V-2 d32 _V2 d16.~ _V-2 d16. _V2 r16 d8~ d8 f8 e8 d8 c8 < a8 > c8 e8 a8.~ _V-3 a8 _V3 r16 [ b32~ _V-2 b32 _V2 ]2 > c4~ _V-3 c8 _V3 < b32 >~ c16.~ c8 <~ b8 a8~ _V-4 a8 _V4 a+16~ b8.~ b2 _V-2 b8 _V-2 b8 _V4 @2 YL. < f+1 f2. YLR V8 O3 P12,11,6 B9 @@2,2,1 E100,90,60,23,40 f+8 g+8 a8~ _V-2 a8 _V2 a8 g+8~ g+16~ _V-3 g+16 _V3 e8~ f+16~ _V-2 f+16 _V2 f+8~ f+2~ f+8.~ _V-5 d16 _V5 r4 r8 [ e16.~ _V-3 e32 _V3 ]5 [ a16.~ _V-3 a32 _V3 ]2 [ g+16.~ _V-3 g+32 _V3 ]2 a8 b8~ b8~ _V-4 a8 _V4 f+8 g+8 a8 g+8 f+8 g32~ g+16.~ g+8 e8 g+8 f+8~ f+2~ f+8~ _V-5 d16 _V5 r16 f+8 g+8 a8~ _V-4 a8 _V4 f+8~ _V-4 f+8 _V4 a8~ _V-4 a8 _V4 f+8 g16~ g+16~ g+2 _V-4 g+8 _V4 r8 f+8 g+8 a8~ _V-2 a8 _V2 a8 g+8~ g+16~ _V-3 g+16 _V3 e8 f+16~ _V-2 f+16 _V2 f+8~ f+2~ f+8.~ _V-5 f+16 _V5 r4 r8 [ e16.~ _V-3 e32 _V3 ]5 [ a16.~ _V-3 a32 _V3 ]2 [ g+16.~ _V-3 g+32 _V3 ]2 a8 b8~ b8~ _V-4 a8 _V4 f+8 g+8 a8 g+8 f+8 g32~ g+16.~ g+8 e8 g+8 f+8~ f+2~ f+8.~ _V-5 d16 _V5 r4 r8 [ f+16.~ _V-3 f+32 _V3 ]3 f+8~ _V-2 f+16 _V2 g+8~ _V-2 g+16 _V2 a8 a+32~ b16.~ _V-4 b16 _V4 YL. _V-3 < b32 > c32 c+8 _V3 YLR a+16~ b16~ b8 a8 g+8 e8 f+1~ f+2~ f+8.~ _V-5 d16 _V5 r4 
!3  V3 O0 @A1 `9F00 @A3 @B0 @~4 B11 [ [ f+16~ ( f+16 ) ]2 > f+8 < f+16 f+16 [ f+16~ ( f+16 ) > f+8 < ]2 ]3 [ f+16~ ( f+16 ) ]2 > f+8 < f+16 f+16 [ f+16 > f+8 < ]2 f+16 > f+16 < [ [ f+16~ ( f+16 ) ]2 > f+8 < f+16 f+16 [ f+16~ ( f+16 ) > f+8 < ]2 ]3 > c+16 c+16 c+16~ ( c+16 ) c+16~ ( c+16 ) c+16 c+16 c+16~ ( c+16 ) r4. < f+4. e4 b8 > e8 d8~ d8 < [ d16~ ( d16 ) ]5 > e8~ < ( e8 ) [ a16~ ( a16 ) ]4 > c+8 < a8 > c+8 d8 e8 < b8 > d8 e8~ e8 < b8 e4 f+8 > c+8 f+8 < g+8~ g+8 b8 > e8 < a8~ a16~ ( a16 ) [ a16~ ( a16 ) ]2 > e8 [ a16~ ( a16 ) ]2 f+8 a8 b8 f+8 < [ b16~ ( b16 ) ]2 > b8 f+8 < b4 > c+8 ( c+8 ) < c+4~ c+8~ e8 > c+8~ < e8 [ f+16~ ( f+16 ) ]2 f+8 b16 > c+16 f+8 c+16 g+16 f+8 c+16 e16 [ f+16~ ( f+16 ) ]3 c+8 < f+16~ ( f+16 ) f+8 a+8 > c+8 L [ d16~ ( d16 ) ]4 d8 < a8 > e8 d8 [ e16~ ( e16 ) ]2 < b8 > e8~ e8 < b8 e4 [ f+16~ ( f+16 ) ]2 > c+8 f+8~ f+8 c+8 g+8 c+8 f+8 c+8 f+8 < f+8~ f+8 g+8 a+8 > c+8 < [ b16~ ( b16 ) ]4 b8 f+8 b8 > c8 [ c+16~ ( c+16 ) ]3 < g+8 > c+8 < g+8 b8 > c+8 [ d+16~ ( d+16 ) ]4 d+8 < b8 d+8 > f+8 [ f16~ ( f16 ) ]3 c+8~ c+8 < g+8 c+4 [ f+16~ ( f+16 ) ]7 g+8 [ a16~ ( a16 ) ]8 [ e16~ ( e16 ) ]6 > e8 d+8 d8 < [ d16~ ( d16 ) ]2 a8 d8 e8 f+8 a8 [ f+16~ ( f+16 ) ]7 g+8 [ a16~ ( a16 ) ]4 a8 e8 b8 a8 [ b16~ ( b16 ) ]4 > [ c+16~ ( c+16 ) ]4 d8 < a8 d8 e8~ e8 g+16 b16 > e16 f+16 e8 < [ a16~ ( a16 ) ]3 > d16 e16 [ a16~ ( a16 ) ]2 g8 a8 e4~ ( e8 ) < b8 e8 f+8 g8 b8 d4 < a8 > d8 g4 > d8 < g8 c8 g8 > c8 < c8~ c8 < g8 > d8 c8 < [ a+16~ ( a+16 ) ]2 f8 a+16~ ( a+16 ) a+8 f8 > c8 < a+8 [ a16~ ( a16 ) ]2 [ g16~ ( g16 ) ]2 [ f+16~ ( f+16 ) ]4 > [ f16~ ( f16 ) ]4 < f8 g8 a8 > c8 [ e16~ ( e16 ) ]4 < [ e16~ ( e16 ) ]4 > [ c+16~ ( c+16 ) ]3 < g+8 b8 > c+8 f+8 g+8 > [ c+16~ ( c+16 ) ]6 < g+8 c+8 < [ f+16 ( f+16 ) ]2 > f+8 < e8 ( e8 ) e8 > e8 < d8~ d16~ ( d16 ) d16~ ( d16 ) a8 d8 > d8 < a8 > e8 d8 < [ a16~ ( a16 ) ]4 a8 e8 f+8 a8 [ e16~ ( e16 ) ]2 b8 > e8~ e8 < a+16 b16 > e8 < b8 [ f+16~ ( f+16 ) ]3 g+8~ g+16~ ( g+16 ) [ g+16~ ( g+16 ) ]2 a8~ [ a16~ ( a16 ) ]4 > d8 < a8 b8 > d8 < [ b16~ ( b16 ) ]4 [ a16~ ( a16 ) ]3 g+8~ g+8 > d+8 d8 c+8~ c+8 < a8 > c+8 < a8 > f+8 c+8 f+8 < e4 b8 > e8 d8~ d8 < a8 [ d16~ ( d16 ) ]2 e8 d8 f+8 g+8 [ a16~ ( a16 ) ]4 > c+8 < a8 > c+8 d8 e8 < b8 > d8 e8~ e8 < b8 e4 f+8 > c+8 f+8 < g+8~ g+8 b8 > e8 < a8~ a16~ ( a16 ) [ a16~ ( a16 ) ]2 > e8 [ a16~ ( a16 ) ]2 f+8 a8 b8 f+8 < [ b16~ ( b16 ) ]2 > b8 f+8 < b4 > c+8 ( c+8 ) < c+4~ c+8~ e8 > c+8~ < e8 [ f+16~ ( f+16 ) ]2 f+8 b16 > c+16 f+8 c+16 g+16 f+8 c+16 e16 [ f+16~ ( f+16 ) ]3 c+8 < f+16~ ( f+16 ) f+8 a+8 > c+8 
!4  @8 x4 [ @7 x8 @6 x8 ]7 @8 x4 [ @7 x8 @6 x8 ]5 [ @6 x16 @8 x8 ]2 @6 x16 @7 x16 @8 YL. x4 Y.R x4 YLR @7 x8 @6 x8 @7 x8 x8 @8 x4 [ @7 x8 @6 x8 ]2 @7 x8 @8 Y.R x8 @8 YL. x4 YLR [ @7 x8 @6 x8 ]2 @6 x4 r2. @8 x4 @8 x4 @6 x8 @8 Y.R x4 YLR @6 x8 x8 @8 YL. x8~ x4 YLR @6 x4 x4 @8 x4 @8 x4 [ @7 x8 @6 x8 ]3 @7 x8 x8 @6 x8 @8 x8~ x16 @7 x16 @6 x8 @7 x8 @6 x8 @8 x4 @6 x8 @8 Y.R x4 YLR @6 x8 x8 @8 YL. x8~ x4 YLR [ @7 x8 @6 x8 ]2 @7 x8 x8 @8 x4 [ @7 x8 @6 x8 ]3 @6 x4 @8 x2. @8 x4 [ @7 x8 @6 x8 ]2 @7 x8 @6 x16 @8 Y.R x16 YL. x4 YLR @7 x8 @6 x8 x4 r16 x16 @8 YL. x8 YLR L @8 x4 @6 [ x8 ]9 @8 x4 @6 [ x8 ]3 [ @8 x4 @6 x8 @8 x4 @6 [ x8 ]3 ]2 [ @8 x4 @6 [ x8 ]6 ]2 @8 x4 @6 [ x8 ]5 x16 @7 x16 @8 Y.R x4 @6 x8 @8 YL. x4 @6 YLR [ x8 ]3 @8 x4 [ @6 x8 @5 x8 ]3 [ @6 x8 @5 x8 ]8 [ @6 x8 @5 x8 ]3 @7 x8 x8 @8 x4 [ @6 x8 @5 x8 ]6 @6 x8 @7 x8 @8 x4 [ @6 x8 @5 x8 ]2 @6 x8 @7 x8 @8 x4 @6 x8 @8 x4 @7 x8 @6 x8 x8 @8 x4 @6 [ x8 ]25 @8 x4 @6 [ x8 ]3 @8 x4 @6 [ x8 ]6 [ @8 x4 @6 x8 x8 ]2 @8 x4 @6 [ x8 ]6 @8 x4 @6 [ x8 ]5 @7 x8 @8 x4 @6 [ x8 ]6 @8 x4 @7 Y.R x8 @8 YLR x4. @6 x8 x8 @8 x4 @6 x8 @8 Y.R x4 YLR @6 x8 x8 @8 YL. x8~ x4 YLR @6 x4 x4 @8 x4 @8 x4 [ @7 x8 @6 x8 ]3 @7 x8 @6 x8 @7 x8 @8 x4 @7 x8 @6 x4 @8 x4 @6 x8 @8 Y.R x4 YLR @6 x8 x8 @8 YL. x8~ x4 YLR [ @7 x8 @6 x8 ]2 @7 x8 x8 @8 YL. x4 YLR [ @7 x8 @6 x8 ]2 @7 x8 @8 Y.R x8~ x8 @6 YLR x8 x8 @8 YL. x4 @6 YLR [ x8 ]3 @8 x4 @6 x8 @8 Y.R x4 YLR @6 x8 x8 @8 YL. x8~ x4 YLR [ @7 x8 @6 x8 ]2 @8 Y.R x8 x8 Y.R @8 x4 YLR [ @7 x8 @6 x8 ]3 @7 x8 @6 x8 x8 @8 x4 @6 x8 @7 x4 @8 x4 @6 x8 @8 Y.R x4 YLR @6 x8 x8 @8 YL. x8~ x4 YLR [ @7 x8 @6 x8 ]2 @6 x16 @8 Y.R x8. @8 YL. x4 YLR @7 x8 @6 x8 x4 x4 @6 x4 @8 x2. @8 x4 [ @7 x8 @6 x8 ]2 @7 x8 @6 x16 @8 Y.R x16 YL. x4 YLR @7 x8 @6 x8 x4 r16 x16 @8 YL. x8 YLR 
!5  V0 O2 @65 W0,100,0 YL. V1 O1 YLR [ @0 x4 @24 x4 @0 x8 x8 @24 x4 ]3 @0 x4 @24 x8 ( [ x24 ]3 ) x16 @0 x8 @24 x16 @0 x8 @24 x16 @0 x16 @0 x8 x8 @24 x4 @0 x8 ( x16 ) x16 @24 x4 @0 x8 x8 @24 x4 @0 x8 ( x16 ) x16 @24 x8 @0 x8 @0 x4 @24 x4 @0 x8 @24 x16 x16 @2 Y.R g16 g16 YL. d16 d16 YLR @24 x16 x16 x8 x8 x16 x16 x8 @0 x16 x16 x4 @0 x4 @24 x8 @0 x8 r8 @2 g8 d8 @0 x8 r8 @24 x8 x8 x8 x8 @2 d8 @24 x4 @0 x4 @24 x8. ( x16 ) @0 x8 x8 @24 x4 @0 x8 x8 @24 x8 @0 x8 r16 @24 ( x16 ) @0 x8 @24 x8 ( x16 x16 ) @0 x8 x8 @24 x8 @0 x8 r8 x8 @24 x8 @0 x8 r8 @0 x8 @24 x8 @0 x8 x8 ( x16 ) x16 @24 x16 @0 x8. @0 x4 @24 x4 @24 x16 x16 @2 g8 @24 x16 x16 @2 g16 d16 @24 x8 @2 g16 d16 @0 x4 r8 @24 x8 x8 x16 x16 @0 x8 x8 @24 x8. x16 @0 x8 x8 @24 x4 @0 x8. ( x16 ) @24 x8 ( x16 ) x16 @2 b16 b16 g16 g16 d16 @24 x16 @0 x8 L @0 x4 @24 x8. ( x16 ) @0 x8 x8 @24 x4 @0 x8. x16 @24 x8 @0 x8 r8 x8 @24 x4 @0 x8 ( x16 ) x16 @24 x8 @0 x8 r8 x8 @24 x4 @0 x8 @2 b24 g24 d24 @24 x8 @0 x8 r8 x8 @24 x16 ( x16 x16 ) x16 @0 x4 @24 x8. ( x16 ) @0 x8 x8 @24 x4 @0 x4 @24 x8. ( x16 ) @0 x16 @24 ( x16 ) @0 x16 ( x16 ) @24 x8. ( x16 ) @0 x8. x16 @24 x8 @0 x8 r8 x8 @24 x16 @0 x8. @0 x8 ( x16 ) x16 @24 x8 @0 x8 r8 x8 @24 x16 @0 ( x16 ) x8 [ @0 x4 @24 x4 @0 x8 x8 @24 x4 ]3 @0 x4 @24 x8. ( x16 ) @0 x16 @24 x16 @0 x16 ( x16 ) @24 x8 x16 x16 [ @0 x4 @24 x4 @0 x8 x8 @24 x4 ]2 @0 x8 ( x8 ) @24 x8. x16 @0 x8 x8 @24 x4 @0 x8. x16 @24 x8 @0 x8 r8 x8 @24 x16 x16 @2 g8 [ @0 x4 @24 x4 @0 x8 x8 @24 x4 ]3 @0 x8 ( x16 ) x16 @24 x8 @0 x8 r8 x8 @24 x8 ( x16 x16 ) @0 x4 @24 x8. x16 @0 x8 x8 @24 x8 x8 @0 x4 [ @24 x8 @0 x8 ]2 @24 x16 ( x16 ) x16 x16 @0 x4 @24 x4 @0 x8 x8 @24 x4 @0 x4 @24 x8. ( x16 ) @0 x8 x8 @24 x4 @0 x4 @24 x8 @0 x16 @24 ( x16 ) @0 x16 @24 ( x16 ) @0 x16 ( x16 ) @24 x8. ( x16 ) @0 x8 @24 x8 x8 x16 x16 @0 x8 @2 b16 b16 g16 g16 d16 @0 x16 @0 x8 x8 @24 x8 @0 x8 r8 x8 @24 x8 @0 x8 r8 @0 x8 @24 x4 @0 x8. x16 @24 x8 x16 x16 @0 x4 @24 x8. ( x16 ) @0 x8 x8 @24 x4 @0 x8 x8 @24 x8 @0 x8 r8 x8 @24 x16 ( x16 ) x16 x16 @0 x8 x8 @24 x8 @0 x8 r8 x8 @24 x8 @0 x8 r8 @0 x8 @24 x4 @0 x8. ( x16 ) @24 x8 @0 x8 @0 x4 @24 x4 @0 x8 x8 @24 x8 @0 x8 r8 @2 Y.R b24 YLR g24 YL. d24 YLR @24 x8 @0 x8 r8 @24 x16 x16 @2 b16 b16 g16 d16 @0 x8 x8 @24 x8 @0 x8 r8 x8 @24 x8 @0 x8 r8 @0 x8 @24 x4 @0 x8. ( x16 ) @24 x8 x8 @0 x4 @24 x8. ( x16 ) @0 x8 x8 @24 x4 @0 x8 x8 @24 x8 @0 x8 r16 @24 x16 @0 x8 @24 x8 x16 x16 @0 x8 x8 @24 x8 @0 x8 r8 x8 @24 x8 @0 x8 r8 @0 x8 @24 x4 @0 x8 ( x16 ) x16 @24 x16 @0 x8. @0 x4 @24 x4 @0 x16 @24 x16 @0 x16 ( x16 ) @24 x16 @2 Y.R b16 YLR g16 YL. d16 YLR @24 x8 @2 Y.R b24 YLR g24 YL. d24 YLR @0 x4 r8 x8 @24 x8 x16 x16 @0 x4 @24 x8. ( x16 ) @0 x8 x8 @24 x8 @0 x8 @0 x8. ( x16 ) @24 x8 ( x16 ) x16 @2 b16 b16 g16 g16 d16 @24 x16 @0 x8 
!6  V1 O2 @67 W0,100,0 Y.R O1 @62 W0,100,33 B9 [ [ YLR f+16~ ( Y.R f+32~ YL. f+32 ) ]2 YLR > f+8 < f+32~ Y.R ( f+32 ) YLR f+32~ YL. ( f+32 ) YLR f+16 ( f+16 ) > f+8 < f+32~ Y.R ( f+32 ) YLR f+32~ YL. ( f+32 ) YLR > f+8 < ]3 [ YLR f+16~ ( Y.R f+32~ YL. f+32 ) ]2 YLR > f+8 < f+32~ Y.R ( f+32 ) YLR f+32~ YL. ( f+32 ) YLR f+32~ Y.R ( f+32 ) YLR > f+8 < f+32~ YL. ( f+32 ) YLR > f+8 < YLR f+32~ ( f+32 ) > f+16 < [ [ YLR f+16~ ( Y.R f+32~ YL. f+32 ) ]2 YLR > f+8 < f+32~ Y.R ( f+32 ) YLR f+32~ YL. ( f+32 ) YLR f+16 ( f+16 ) > f+8 < f+32~ Y.R ( f+32 ) YLR f+32~ YL. ( f+32 ) YLR > f+8 < ]3 > c+32~ Y.R ( c+32 ) YLR c+32~ YL. ( c+32 ) YLR c+16~ Y.R ( c+16 ) YLR c+16~ YL. ( c+16 ) YLR c+32~ Y.R ( c+32 ) YLR c+32~ YL. ( c+32 ) YLR c+16~ ( c+16 ) r8 YL. c+8~ < ( g+8 ) O2 f+4. e2 d8~ d2.~ d8~ < a8 [ YL. a16~ Y.R ( a16 ) ]8 > YL. e8 e8~ Y.R ( e8 ) YL. e8~ e4.~ < ( b8 ) > f+4. g+2 a8~ a2.~ a8~ ( e8 ) b4 [ YL. b16~ Y.R ( b16 ) ]5 > YL. c8 c+8 ( c+8 ) < c+2~ g+8~ ( c+8 ) [ YL. f+16~ Y.R ( f+16 ) ]13 YL. c+8 <~ ( a8~ f+8 ) L > [ YL. d8~ Y.R d8 ]4 YL. e8~ Y.R e8 YL. ( e8 )~ Y.R e8 [ YL. e8~ Y.R e8 ]2 YL. f+8~ Y.R f+8 YL. ( f+8 )~ Y.R f+8 [ YL. f+8~ Y.R f+8 ]2 YL. f+8~ Y.R f+8 YL. ( f+8 )~ Y.R f+8 YL. f+8~ Y.R f+8 ( f+8~ c+8 ) < [ YL. b8~ Y.R b8 ]4 > [ YL. c+16~ Y.R ( c+16 ) ]8 < [ YL. b16~ Y.R ( b16 ) ]8 > [ YL. c+16~ Y.R ( c+16 ) ]8 < YL. f+8~ ( f+8 ) [ YL. f+16~ Y.R ( f+16 ) ]4 YL. f+8 g+8 YL. a8~ ( a8 ) [ YL. a16~ Y.R ( a16 ) ]4 YL. a8~ ( f+8 ) YL. e8~ ( e8 ) [ YL. e16~ Y.R ( e16 ) ]4 YL. e8 d+8 YL. d8~ ( d8 ) [ YL. d16~ Y.R ( d16 ) ]4 YL. d4 YL. f+8~ ( f+8 ) [ YL. f+16~ Y.R ( f+16 ) ]4 YL. f+8 g+8 YL. a8~ ( a8 ) [ YL. a16~ Y.R ( a16 ) ]4 YL. a8~ ( a+8 ) YL. b8 [ YL. b16~ Y.R ( b16 ) ]3 YL. > c+8 [ YL. c+16~ Y.R ( c+16 ) ]3 [ YL. d16~ Y.R ( d16 ) ]3 YL. e8~ ( e8 ) e8 ( e8~ < b8 ) @60 W0,100,33 [ YL. a8~ Y.R a8 ]4 > [ YL. e8~ Y.R e8 ]4 [ YL. d8~ Y.R d8 ]2 < [ YL. g8~ Y.R g8 ]2 > YL. c8~ Y.R c8~ YL. ( c8 ) Y.R c8 [ YL. c8~ Y.R c8 ]2 < [ YL. a+8~ Y.R a+8 ]4 YL. a8~ Y.R a8 YL. g8~ Y.R g8 [ YL. f+8~ Y.R f+8 ]2 [ YL. f8~ Y.R f8 ]4 > YL. e8~ Y.R e8~ YL. e8 Y.R < b8 [ YL. e8~ Y.R e8 ]2 YLR > c+2.~ c+8 ( c+16 c+16 ) c+2. < O2 @62 W0,100,33 B9 [ YLR c+16~ Y.R c+32~ YL. c+32 ]2 YL. f+4. e2 d8~ d2.~ d8~ < a8 [ YL. a16~ Y.R ( a16 ) ]8 > YL. e8 e8~ Y.R ( e8 ) YL. e8~ e4.~ < ( b8 ) > f+4. g+2 a8~ a2.~ a8~ ( e8 ) [ YL. b16~ Y.R ( b16 ) ]4 [ YL. a16~ Y.R ( a16 ) ]4 YL. g+8 > d+8 d8 c+8~ c+8 [ YL. c+16~ Y.R ( c+16 ) ]3 < YL. f+4. e2 d8~ d2.~ d8~ < a8 [ YL. a16~ Y.R ( a16 ) ]8 > YL. e8 e8~ Y.R ( e8 ) YL. e8~ e4.~ < ( b8 ) > f+4. g+2 a8~ a2.~ a8~ ( e8 ) b4 [ YL. b16~ Y.R ( b16 ) ]5 > YL. c8 c+8 ( c+8 ) < c+2~ g+8~ ( c+8 ) [ YL. f+16~ Y.R ( f+16 ) ]13 YL. c+8 <~ ( a8~ f+8 ) 
