;024 003295CC
!1  T164 V5 O2 YLR P9,12,2 D-1 @@3,2,1 E100,90,60,20,34 r8. b8 > e2~ _V-2 e8~ ( YL. e8~ Y.R e8 _V3 YLR d8 g2~ _V-2 g8~ ( YL. g8~ Y.R g8 _V3 YLR g8 > c2~ _V-2 c8~ ( YL. c8~ Y.R c8 _V3 YLR < e8 a2~ _V-2 YL. a8~ ( Y.R a16 _V3 < YL. r2 r8 a16 _V-2 a16 _V2 b8 _V-3 b8 _V3 O1 V5 Y.R @@2,2,0 E100,80,50,13,20 r16 < ( b16 _V-3 b16 _V4 > e8 d16~ ( e16 ) g8 < ( b16 _V-3 b16 _V4 > ( d8 ) e8 g8 < ( b16 _V-3 b16 _V4 > e8 d16~ ( e16 ) g8 < ( b16 _V-3 b16 _V4 > ( d8 ) e8 g8 < ( b16 _V-3 b16 _V4 > e8 d16~ ( e16 ) g8 < ( b16 _V-3 b16 _V4 > ( d8 ) e8 g8 L [ < ( b16 _V-3 b16 _V4 > e8 d16~ ( e16 ) g8 < ( b16 _V-3 b16 _V4 > ( d8 ) e8 g8 ]7 [ ( d16 _V-3 d16 _V4 g8 f16~ ( g16 ) b8 ( d16 _V-3 d16 _V4 ( f8 ) g8 b8 ]2 [ ( e16 _V-3 e16 _V4 a8 g16~ ( a16 ) > c+8 < ( e16 _V-3 e16 _V4 ( g8 ) a8 > c+8 < ]2 [ ( d16 _V-3 d16 _V4 g8 f16~ ( g16 ) b8 ( d16 _V-3 d16 _V4 ( f8 ) g8 b8 ]2 ( e16 _V-3 e16 _V4 a8 g16~ ( a16 ) > c+8 < ( e16 _V-3 e16 _V4 ( g8 ) a8 > c+8 < ( e16 _V-3 e16 _V4 a8 g16~ ( a16 ) > c+8 < ( e16 _V-3 e16 _V4 ( g8 ) a8 > c+16 < V6 O2 YLR P9,12,2 D0 @@3,2,1 E100,90,60,20,34 [ f+16 ]4 f+16 _V-3 f+16 _V3 [ f+16 ]4 f+16 _V-3 f+16 _V3 [ f+16 ]4 f+16 _V-3 f+16 _V3 YL. D-1 r16 b8. _V-3 b16 _V3 > c+8. _V-3 c+16 _V3 d8. _V-3 d16 _V3 d+16 e16 _V-2 e16 _V2 O1 V5 Y.R @@2,2,0 E100,80,50,13,20 r16 e8 d16~ ( e16 ) g8 < ( b16 _V-3 b16 _V4 > ( d8 ) e8 g8 [ < ( b16 _V-3 b16 _V4 > e8 d16~ ( e16 ) g8 < ( b16 _V-3 b16 _V4 > ( d8 ) e8 g8 ]7 [ [ ( d16 _V-3 d16 _V4 g8 f16~ ( g16 ) b8 ( d16 _V-3 d16 _V4 ( f8 ) g8 b8 ]2 [ ( e16 _V-3 e16 _V4 a8 g16~ ( a16 ) > c+8 < ( e16 _V-3 e16 _V4 ( g8 ) a8 > c+8 < ]2 ]2 V5 O2 YLR P9,12,2 D-1 @@3,2,1 E100,90,60,20,34 r8 b8 > e2~ _V-2 e8~ ( YL. e8~ Y.R e8 _V3 YLR d8 g2~ _V-2 g8~ ( YL. g8~ Y.R g8 _V3 YLR g8 > c2~ _V-2 c8~ ( YL. c8~ Y.R c8 _V3 YLR < e8 a2~ _V-2 YL. a8~ ( Y.R a16 _V3 < YL. r2 r8 a16 _V-2 a16 _V2 b8 _V-3 b8 _V3 [ a16 _V-2 a16 _V2 ]3 b8 _V-3 b8 _V3 r4. YLR O2 D0 c+2.~ c+8 _V-2 c+8 _V2 c+8 d8.~ _V-2 d16 _V2 e8.~ _V-2 e16 _V2 c+8.~ _V-2 c+16 _V2 a8~ _V-2 a8 _V2 > c+8.~ _V-2 c+16 _V2 d8~ d4.~ _V-2 d8. _V2 @2 E100,80,40,20,27 V4 D-1 YL. b8 > c+8 d8 a8~ a4. _V-3 a16 _V3 V6 O3 YLR P9,12,2 @@3,2,1 E100,90,60,20,34 D0 c2.~ c8 _V-2 c8 _V2 < a8 a8.~ _V-2 a16 _V2 > c8.~ _V-2 c16 _V2 e8~ e8~ _V-2 e8 _V2 V6 O3 YLR P9,12,2 D0 @@3,2,1 E100,90,60,20,34 [ f+16 ]4 f+16 _V-3 f+16 _V3 [ f+16 ]4 f+16 _V-3 f+16 _V3 [ f+16 ]4 f+16 _V-3 f+16 _V3 YL. D-1 r16 < b8. _V-3 b16 _V3 > c+8. _V-3 c+16 _V3 d8. _V-3 d16 _V3 d+16 e16 _V-2 e16 _V2 O1 V5 Y.R @@2,2,0 E100,80,50,13,20 r16 e8 d16~ ( e16 ) g8 < ( b16 _V-3 b16 _V4 > ( d8 ) e8 g8 
!2  V6 O2 YLR P9,12,2 @@3,2,1 E100,90,60,20,34 r8 b8 > e2~ _V-2 e8~ ( Y.R e8~ YL. ( e8 _V4 YLR d8 g2~ _V-2 g8~ ( Y.R g8~ YL. ( g8 _V4 YLR g8 > c2~ _V-2 c8~ ( Y.R c8~ YL. ( c8 _V4 YLR < e8 a2~ _V-2 Y.R a8~ ( YL. a8 _V3 Y.R r2 r8 d16 _V-2 d16 _V2 e8 _V-3 e8 _V3 O1 V9 YLR @@2,2,0 E100,80,50,13,20 [ < ( b16 _V-3 b16 _V4 > e8 d16~ ( e16 ) g8 < ( b16 _V-3 b16 _V4 > ( d8 ) e8 g8 ]2 < ( b16 _V-3 b16 _V4 > e8 d16~ ( e16 ) g8 < ( b16 _V-3 b16 _V4 > ( d8 ) e8 g8 L [ < ( b16 _V-3 b16 _V4 > e8 d16~ ( e16 ) g8 < ( b16 _V-3 b16 _V4 > ( d8 ) e8 g8 ]7 [ [ ( d16 _V-3 d16 _V4 g8 f16~ ( g16 ) b8 ( d16 _V-3 d16 _V4 ( f8 ) g8 b8 ]2 [ ( e16 _V-3 e16 _V4 a8 g16~ ( a16 ) > c+8 < ( e16 _V-3 e16 _V4 ( g8 ) a8 > c+8 < ]2 ]2 V6 O2 YLR P9,12,2 @@3,2,1 E100,90,60,20,34 [ b16 ]4 b16 _V-3 b16 _V3 [ b16 ]4 b16 _V-3 b16 _V3 [ b16 ]4 b16 _V-3 b16 _V3 b8. _V-3 b16 _V3 > c+8. _V-3 c+16 _V3 d8. _V-3 d16 _V3 d+8 e16 _V-2 e16 _V2 O1 V9 @@2,2,0 E100,80,50,13,20 e8 d16~ ( e16 ) g8 < ( b16 _V-3 b16 _V4 > ( d8 ) e8 g8 [ < ( b16 _V-3 b16 _V4 > e8 d16~ ( e16 ) g8 < ( b16 _V-3 b16 _V4 > ( d8 ) e8 g8 ]7 [ [ ( d16 _V-3 d16 _V4 g8 f16~ ( g16 ) b8 ( d16 _V-3 d16 _V4 ( f8 ) g8 b8 ]2 [ ( e16 _V-3 e16 _V4 a8 g16~ ( a16 ) > c+8 < ( e16 _V-3 e16 _V4 ( g8 ) a8 > c+8 < ]2 ]2 V6 O2 YLR P9,12,2 @@3,2,1 E100,90,60,20,34 r8 b8 > e2~ _V-2 e8~ ( Y.R e8~ YL. ( e8 _V4 YLR d8 g2~ _V-2 g8~ ( Y.R g8~ YL. ( g8 _V4 YLR g8 > c2~ _V-2 c8~ ( Y.R c8~ YL. ( c8 _V4 YLR < e8 a2~ _V-2 Y.R a8~ ( YL. a8 _V3 Y.R r2 r8 d16 _V-2 d16 _V2 e8 _V-3 e8 _V3 [ d16 _V-2 d16 _V2 ]3 e8 _V-3 e8 _V3 r4. YLR O2 a2.~ a8 _V-2 a8 _V2 a8 b8.~ _V-2 b16 _V2 > c+8.~ _V-2 c+16 _V2 < a8.~ _V-2 a16 _V2 > d8~ _V-2 d8 _V2 e8.~ _V-2 e16 _V2 f+8~ f+4.~ _V-2 f+8 _V2 @2 E100,80,40,20,27 V4 Y.R b8 > c+8 d8 a8~ a4. _V-3 a8 _V3 V6 O3 YLR P9,12,2 @@3,2,1 E100,90,60,20,34 g2.~ g8 _V-2 g8 _V2 e8 f+8.~ _V-2 f+16 _V2 g8.~ _V-2 g16 _V2 a8~ a8~ _V-2 a8 _V2 V6 O3 YLR P9,12,2 @@3,2,1 E100,90,60,20,34 [ b16 ]4 b16 _V-3 b16 _V3 [ b16 ]4 b16 _V-3 b16 _V3 [ b16 ]4 b16 _V-3 b16 _V3 < b8. _V-3 b16 _V3 > c+8. _V-3 c+16 _V3 d8. _V-3 d16 _V3 d+8 e16 _V-2 e16 _V2 O1 V9 @@2,2,0 E100,80,50,13,20 e8 d16~ ( e16 ) g8 < ( b16 _V-3 b16 _V4 > ( d8 ) e8 g8 
!3  V3 O0 `9F00 @A3 @B0 @~4 B5 e2.~ ( e4 ) g2. ( a+8~ b8 ) > c2.~ < ( b8~ a+8 ) a2.~ ( a4 ) > e16 d16 c16 < b16 a16 g16 f+16 e16 r8 > d8 e8~ ( e16 ) r16 < [ e16~ ( e16 ) > e16~ ( e16 ) < ]6 b8 > d8 e8 g8 < L [ [ e16~ ( e16 ) > e16~ ( e16 ) < ]4 ]8 [ [ g16~ ( g16 ) > g16~ ( g16 ) < ]8 [ a16~ ( a16 ) > a16~ ( a16 ) < ]8 ]2 [ b16 ]5~ ( b16 ) [ b16 ]5~ ( b16 ) [ b16 ]4 b16~ ( b16 ) b8.~ ( b16 ) a8.~ ( a16 ) g8.~ ( g16 ) f+8 [ [ e16~ ( e16 ) > e16~ ( e16 ) < ]4 ]8 [ [ g16~ ( g16 ) > g16~ ( g16 ) < ]8 [ a16~ ( a16 ) > a16~ ( a16 ) < ]8 ]2 e1 g1 > c1 < a1 > e16 d16 c16 < b16 a16 g16 f+16 e16 r8 > d8 e8~ ( e16 ) r16 [ d16~ ( d16 ) ]3 e4 ( e8 ) < r4 [ a16 ( a16 ) ]8 [ g16 ( g16 ) ]8 [ f+16 ( f+16 ) ]8 [ b16 ( b16 ) ]8 > [ c16 ( c16 ) ]8 < [ a16 ( a16 ) ]8 [ b16 ]5~ ( b16 ) [ b16 ]5~ ( b16 ) [ b16 ]4 b16~ ( b16 ) b8.~ ( b16 ) a8.~ ( a16 ) g8.~ ( g16 ) f+8 
!4  @8 [ x1 ]4 r2 @6 x2 @8 x4 [ @6 x8 @5 x8 ]7 L @8 x4 @6 [ x8 ]5 @5 x16 x16 [ @5 x8 @6 [ x8 ]6 @5 x16 x16 ]6 @5 x8 @6 [ x8 ]5 @8 x4 [ @5 [ x8 ]7 x16 x16 ]7 @5 [ x8 ]7 @7 x8 @5 [ x4 ]4 [ @5 x8 @7 x8 ]2 @5 x8 @7 x4. @8 x4 @6 [ x8 ]5 @5 x16 x16 [ @5 x8 @6 [ x8 ]6 @5 x16 x16 ]6 @5 x8 @6 [ x8 ]6 @7 x8 [ @5 [ x8 ]7 x16 x16 ]7 @5 [ x8 ]6 @7 x8 @5 x8 @8 [ x1 ]4 r2 @6 x2 r2. @19 x4 @8 x4 @5 [ x16 ]6 @7 x8 @5 [ x16 ]4 @5 [ x16 ]16 @5 [ x16 ]10 @7 x8 @5 [ x16 ]4 @5 [ x16 ]16 @5 [ x16 ]10 @7 x8 @5 [ x16 ]4 @5 [ x16 ]14 @7 x8 @5 [ x4 ]4 [ @5 x8 @7 x8 ]2 @5 x8 @7 x4. 
!5  V1 O1 @0 [ x1 ]4 @2 Y.R b16 b16 YLR g16 g16 d16 YL. d16 c16 c16 r8 YLR @24 x8 x4 [ @0 x4 @24 x4 ]3 @0 x8 @24 [ x8 ]3 L [ @0 x4 @24 x4 ]15 @0 x8 x8 @24 x4 [ @0 x4 @24 x4 ]16 @24 [ x16 ]4 x8 [ x16 ]4 x8 [ x16 ]4 @24 x8 @0 x4 x4 x4 @24 x16 x16 [ @0 x4 @24 x4 ]15 @0 x8. @24 x16 x4 [ @0 x4 @24 x4 ]16 @0 [ x1 ]4 @2 Y.R b16 b16 YLR g16 g16 d16 YL. d16 c16 c16 r8 YLR @24 x8 x4 [ x8 ]4 r2 @0 [ x4 ]24 @24 [ x16 ]4 x8 [ x16 ]4 x8 [ x16 ]4 @24 x8 @0 x4 x4 x4 @24 x16 x16 
!6  V1 O1 @62 W0,100,33 YLR [ Y.R e8~ YL. e8~ ]4 [ Y.R g8~ YL. g8~ ]4 > [ Y.R c8~ YL. c8~ ]4 < [ Y.R a8~ YL. a8~ ]4 O2 @60 W0,100,33 > e16 d16 c16 < b16 a16 g16 f+16 e16 r8 > d8 e8~ ( e16 ) r16 < O1 @74 W0,100,74 YL. b1~ b2. ( b4 ) L O1 @81 W0,100,74 YL. [ b1~ b2. ( b8 ) > c+8~ c+1~ c+2. ( c+4 ) < ]2 [ b1~ b2. ( b8 ) > c+8~ c+1~ c+2. ( c+4 ) < ]2 O1 @62 W0,100,33 YLR [ b16 ]5~ ( b16 ) [ b16 ]5~ ( b16 ) [ b16 ]4 b16~ ( b16 ) Y.R b8.~ ( b16 ) a8.~ ( a16 ) g8.~ ( g16 ) f+8 O1 @81 W0,100,74 YL. [ b1~ b2. ( b8 ) > c+8~ c+1~ c+2. ( c+4 ) < ]2 [ b1~ b2. ( b8 ) > c+8~ c+1~ c+2. ( c+4 ) < ]2 V1 O1 @62 W0,100,33 [ Y.R e8~ YL. e8~ ]4 [ Y.R g8~ YL. g8~ ]4 > [ Y.R c8~ YL. c8~ ]4 < [ Y.R a8~ YL. a8~ ]4 O2 @60 W0,100,33 YLR > e16 d16 c16 < b16 a16 g16 f+16 e16 r8 > d8 e8~ ( e16 ) r16 < d8 d8 d8 e8 ( e8 ) r4. [ YLR a16 Y.R ( a16 ) YLR a16 YL. ( a16 ) ]4 [ YLR g16 Y.R ( g16 ) YLR g16 YL. ( g16 ) ]4 [ YLR f+16 Y.R ( f+16 ) YLR f+16 YL. ( f+16 ) ]4 [ YLR b16 Y.R ( b16 ) YLR b16 YL. ( b16 ) ]4 > [ YLR c16 Y.R ( c16 ) YLR c16 YL. ( c16 ) ]4 < [ YLR a16 Y.R ( a16 ) YLR a16 YL. ( a16 ) ]4 O1 @62 W0,100,33 YLR [ b16 ]5~ ( b16 ) [ b16 ]5~ ( b16 ) [ b16 ]4 b16~ ( b16 ) Y.R b8.~ ( b16 ) a8.~ ( a16 ) g8.~ ( g16 ) f+8 
