;025 0032A346
!1  T170 V7 O1 Y.R D1 @0 E80,100,60,26,32 r32 g16 _V-2 g16 _V2 a16 _V-2 a16 _V2 a+16 _V-2 a+16 _V2 > c+16 _V-2 c+16 _V2 d16 _V-2 d16 _V2 g16 _V-2 g16 _V2 a+16 _V-2 a+16 _V2 > c+16 _V-2 c+16 _V2 r16. g8 _V-3 g8 _V-3 g8 r2 _V6 V4 O2 P9,12,2 D0 @@3,2,1 E100,90,60,19,32 Y.R r8 a+8~ _V-3 a+8 _V3 r8 a+8~ _V-3 a+8 _V3 r8 a+8~ _V-3 a+8 _V3 a+8 @2 > [ g8 ( ]4 < _V4 r4 L @@3,2,1 E100,90,60,19,32 Y.R r8 a+8 _V-3 a+8 _V3 r8 a+8~ _V-3 a+8 _V3 r8 a+8~ _V-3 a+8 _V3 a+8 @2 > [ g8 ( ]4 < _V4 r4 V4 O2 P9,12,2 D0 @@3,2,1 E100,90,60,19,32 Y.R r8 a+8~ _V-3 a+8 _V3 r8 a+8~ _V-3 a+8 _V3 r8 a+8~ _V-3 a+8 _V3 a+8 @2 > [ g8 ( ]4 < _V4 r4 @@3,2,1 E100,90,60,19,32 Y.R r8 a+8 _V-3 a+8 _V3 r8 a+8~ _V-3 a+8 _V3 r8 a+8~ _V-3 a+8 _V3 a+8 @2 > [ g8 ( ]4 < _V4 r4 V5 O2 @2 D-1 [ a+4~ ( ]4 a+1 _V4 [ a4~ ( ]4 a1 _V4 [ a+4~ ( ]4 a+1 _V4 [ a4~ ( ]4 a1 _V4 [ a+4~ ( ]4 a+1 _V4 [ a4~ ( ]4 a1 _V4 [ g4~ ( ]4 _V4 > [ c4~ ( ]4 _V4 [ d4~ ( ]4 d1 _V4 V8 O1 P9,12,2 @@3,2,1 E100,90,60,19,32 Y.R r2 f4.~ _V-2 f8 _V2 g4.~ _V-2 g8 _V2 a4.~ _V-2 a8 _V2 d+4.~ _V-2 d+8 _V2 YL. > d+4.~ _V-2 d+8 _V2 f4.~ _V-2 f8 _V2 g4.~ _V-2 g8 _V2 f4.~ _V-2 f8 _V2 Y.R < f4.~ _V-2 f8 _V2 g4.~ _V-2 g8 _V2 a4.~ _V-2 a8 _V2 g1~ g2 _V-3 g4 _V3 r4 Y.R r2 f4.~ _V-2 f8 _V2 g4.~ _V-2 g8 _V2 a4.~ _V-2 a8 _V2 d+4.~ _V-2 d+8 _V2 YL. > d+4.~ _V-2 d+8 _V2 f4.~ _V-2 f8 _V2 g4.~ _V-2 g8 _V2 f4.~ _V-2 f8 _V2 Y.R < f4.~ _V-2 f8 _V2 g4.~ _V-2 g8 _V2 a4.~ _V-2 a8 _V2 g1~ g2 _V-3 g4 _V3 r4 @0 E80,100,60,26,32 Y.R V6 > g4~ _V-3 g8 _V3 > d8~ d2~ _V-3 d8 _V3 < r8 g8~ _V-3 g8 _V3 > d8~ _V-3 d8 _V3 < a+8~ _V-3 a+8 _V3 > c4~ _V-2 c8 _V2 f8~ f2~ f2~ _V-3 f8 _V3 r8 a+16~ ( a+16 ) a16~ ( a16 ) g4.~ _V-3 g4 _V3 r8 g16~ ( g16 ) a16~ ( a16 ) f4.~ _V-3 f4 _V3 r8 a16~ ( a16 ) f16~ ( f16 ) < V5 O2 P9,12,2 D0 @@3,2,1 E100,90,60,19,32 Y.R r8 a+8~ _V-3 a+8 _V3 r8 a+8~ _V-3 a+8 _V3 r8 a+8~ _V-3 a+8 _V3 a+8 @2 YLR > [ g8 ( ]4 < _V4 r4 
!2  V7 O1 YL. D-1 @0 E80,100,60,26,32 r32 g16 _V-2 g16 _V2 a16 _V-2 a16 _V2 a+16 _V-2 a+16 _V2 > c+16 _V-2 c+16 _V2 d16 _V-2 d16 _V2 g16 _V-2 g16 _V2 a+16 _V-2 a+16 _V2 > c+16 _V-2 c+16 _V2 r16. g8 _V-3 g8 _V-3 g8 r2 _V6 V4 O2 P9,12,2 D0 @@3,2,1 E100,90,60,19,32 YL. r8 g8~ _V-3 g8 _V3 r8 g8~ _V-3 g8 _V3 r8 g8~ _V-3 g8 _V3 g8 @2 > [ a+8 ( ]4 < _V4 r4 L @@3,2,1 E100,90,60,19,32 YL. r8 g8~ _V-3 g8 _V3 r8 g8~ _V-3 g8 _V3 r8 g8~ _V-3 g8 _V3 g8 @2 > [ a+8 ( ]4 < _V4 r4 V4 O2 P9,12,2 D0 @@3,2,1 E100,90,60,19,32 YL. r8 g8~ _V-3 g8 _V3 r8 g8~ _V-3 g8 _V3 r8 g8~ _V-3 g8 _V3 g8 @2 > [ a+8 ( ]4 < _V4 r4 @@3,2,1 E100,90,60,19,32 YL. r8 g8~ _V-3 g8 _V3 r8 g8~ _V-3 g8 _V3 r8 g8~ _V-3 g8 _V3 g8 @2 > [ a+8 ( ]4 < _V4 r4 V9 O1 P9,12,2 YLR @@3,2,1 E100,90,60,19,32 g4~ _V-2 g8 _V2 > d8~ d2~ _V-4 d8 _V4 r8 < g8~ _V-3 g8 _V3 > d8~ _V-3 d8 _V3 < a+8~ _V-3 a+8 _V3 > c4~ _V-2 c8 _V2 f8~ f2~ f2~ _V-3 f4 _V3 r4 < g4~ _V-2 g8 _V2 a+8~ a+2~ _V-3 a+8 _V3 r8 g8~ _V-3 g8 _V3 a+8~ _V-3 a+8 _V3 > c8~ _V-3 c8 _V3 < a4~ _V-2 a8 _V2 f8 f2~ f2~ _V-3 f4 _V3 r4 g4~ _V-3 g8 _V3 > d8~ d2~ _V-3 d8 _V3 r8 d8~ _V-3 d8 _V3 g8~ _V-3 g8 _V3 a+8~ _V-3 a+8 _V3 > c4~ _V-2 c8 _V2 < f8~ f2~ f2~ _V-3 f8 _V3 r8 g16~ ( g16 ) a16~ ( a16 ) a+4.~ _V-3 a+4 _V3 r8 a16~ ( a16 ) a+16~ ( a+16 ) a4.~ _V-3 a4 _V3 r8 g16~ ( g16 ) f16~ ( f16 ) g1~ g4 _V-3 g8 _V3 r8 @1 E80,100,60,26,32 V6 > g8~ ( g8 ) > d8~ ( d8 ) c8~ ( c8 ) < a+8 a8~ a2~ a4~ _V-4 a4 _V4 f8~ ( f8 ) > c8~ ( c8 ) < a+8~ ( a+8 ) a8 g8~ g2~ g4~ _V-4 g4 _V4 f8~ ( f8 ) g8~ ( g8 ) a8~ ( a8 ) a+8 a8~ a2~ a4~ _V-4 a4 _V4 a8~ ( a8 ) f8~ ( f8 ) g8~ ( g8 ) a8 g8~ g2~ g4~ _V-4 g4 _V4 g8~ ( g8 ) > d8~ ( d8 ) c8~ ( c8 ) < a+8 a8~ a2~ a4~ _V-4 a4 _V4 f8~ ( f8 ) > c8~ ( c8 ) < a+8~ ( a+8 ) a8 g8~ g2~ g4~ _V-4 g4 _V4 f8~ ( f8 ) g8~ ( g8 ) a8~ ( a8 ) a+8 a8~ a2~ a4~ _V-4 a4 _V4 f8~ ( f8 ) a8~ ( a8 ) g1~ g4 _V-4 g8 _V4 r8 < < @@3,2,1 E100,90,60,19,32 V9 _V-2 f2 _V2 g4~ _V-3 g8 _V3 > d8~ d2~ _V-3 d8 _V3 < r8 g8~ _V-3 g8 _V3 > d8~ _V-3 d8 _V3 < a+8~ _V-3 a+8 _V3 > c4~ _V-2 c8 _V2 f8~ f2~ f2~ _V-3 f8 _V3 r8 a+16~ ( a+16 ) a16~ ( a16 ) g4.~ _V-3 g4 _V3 r8 g16~ ( g16 ) a16~ ( a16 ) f4.~ _V-3 f4 _V3 r8 a16~ ( a16 ) f16~ ( f16 ) g1~ g8~ _V-3 g8 _V3 V5 O2 @2 > [ a+8 ( ]4 < _V4 r4 
!3  V3 O0 `9F00 @A3 @B0 @~3 B6 r1 r8 > g8 ( g4 ) < r2 g8 ( g8 ) > ( [ g8 ]5 ) < g8 ( g8 ) g8 > ( [ g8 ]6 ) < L [ g8 ( g8 ) > ( [ g8 ]5 ) < g8 ( g8 ) g8 > ( [ g8 ]6 ) < ]3 g8 ( g8 ) > ( [ g8 ]5 ) < g8 ( g8 ) g8 > ( [ g8 ]6 ) < f8 ( f8 ) > ( [ f8 ]5 ) < f8 ( f8 ) f8 > ( [ f8 ]6 ) < d+8 ( d+8 ) > ( [ d+8 ]5 ) < d+8 ( d+8 ) d+8 > ( [ d+8 ]6 ) < d8 ( d8 ) > ( [ d8 ]5 ) < d8 ( d8 ) d8 > ( [ d8 ]6 ) < g8 ( g8 ) > ( [ g8 ]5 ) < g8 ( g8 ) g8 > ( [ g8 ]6 ) < f8 ( f8 ) > ( [ f8 ]5 ) < f8 ( f8 ) f8 > ( [ f8 ]6 ) < d+8 ( d+8 ) > ( [ d+8 ]5 ) < f8 ( f8 ) f8 > ( [ f8 ]6 ) < g8 ( g8 ) > ( [ g8 ]5 ) < g8 ( g8 ) g8 > ( [ g8 ]6 ) < f8 ( f8 ) > f8 < f8 > ( f8 f8 f8 ) f8 < f8 ( f8 f8 ) f8 ( [ f8 ]4 ) < d+8 ( d+8 ) > d+8 < d+8 > ( d+8 d+8 d+8 ) d+8 < d+8 ( d+8 d+8 ) d+8 ( [ d+8 ]4 ) < d8 ( d8 ) > d8 < d8 > ( d8 d8 d8 ) d8 < d8 ( d8 d8 ) d8 ( [ d8 ]4 ) < d+8 ( d+8 ) > d+8 < d+8 > ( d+8 d+8 d+8 ) d+8 < d+8 ( d+8 d+8 ) d+8 ( [ d+8 ]4 ) < f8 ( f8 ) > f8 < f8 > ( f8 f8 f8 ) f8 < f8 ( f8 f8 ) f8 ( [ f8 ]4 ) < d+8 ( d+8 ) > d+8 < d+8 > ( d+8 d+8 d+8 ) d+8 < d+8 ( d+8 d+8 ) d+8 ( [ d+8 ]4 ) < d8 ( d8 ) > d8 < d8 > ( d8 d8 d8 ) d8 < d8 ( d8 d8 ) d8 ( [ d8 ]4 ) < d+8 ( d+8 ) > d+8 < d+8 > ( d+8 d+8 d+8 ) d8 < d+8 ( d+8 d+8 ) d+8 d8 d8 ) > d8~ < ( a8 ) g8 ( g8 ) > ( [ g8 ]5 ) < g8 ( g8 ) g8 > ( [ g8 ]6 ) < f8 ( f8 ) > ( [ f8 ]5 ) < f8 ( f8 ) f8 > ( [ f8 ]6 ) < d+8 ( d+8 ) > ( [ d+8 ]5 ) < f8 ( f8 ) f8 > ( [ f8 ]6 ) < g8 ( g8 ) > ( [ g8 ]5 ) < g8 ( g8 ) g8 > ( [ g8 ]6 ) < 
!4  r1 r8 @8 x4. r8 @3 x8 x8 x8 @8 x4 @3 x8 @5 x16 @6 x16 @5 x8 x16 @6 x16 @3 x8 @5 x16 @6 x16 [ @5 x8 x16 @6 x16 @3 x8 @5 x16 @6 x16 ]2 L [ [ @5 x8 x16 @6 x16 @3 x8 @5 x16 @6 x16 ]2 ]6 @8 x4 @3 x8 @5 x16 @6 x16 @5 x8 x16 @6 x16 @3 x8 @5 x16 @6 x16 [ [ @5 x8 x16 @6 x16 @3 x8 @5 x16 @6 x16 ]2 ]7 [ [ @5 x8 x16 @6 x16 @3 x8 @5 x16 @6 x16 ]2 ]6 @8 x4 @3 x8 @5 x16 @6 x16 @5 x8 x16 @6 x16 @3 x8 @5 x16 @6 x16 @5 x8 x16 @6 x16 @3 x8 @5 x16 @6 x16 @5 x8 x16 @6 x16 @3 [ x16 ]4 [ @8 x4 @3 x8 @5 x16 @6 x16 @5 x8 x16 @6 x16 @3 x8 @5 x16 @6 x16 [ [ @5 x8 x16 @6 x16 @3 x8 @5 x16 @6 x16 ]2 ]7 ]2 @8 x4 @3 x8 @5 x16 @6 x16 @5 x8 x16 @6 x16 @3 x8 @5 x16 @6 x16 [ [ @5 x8 x16 @6 x16 @3 x8 @5 x16 @6 x16 ]2 ]5 @8 x4 @3 x8 @5 x16 @6 x16 @5 x8 x16 @6 x16 @3 x8 @5 x16 @6 x16 [ @5 x8 x16 @6 x16 @3 x8 @5 x16 @6 x16 ]2 
!5  V0 O1 r1 r8 @20 x4. r8 @23 x8 x8 x8 @4 g4 @33 x4 @20 x4 @33 x8 @4 g8~ g8 g8 @33 x4 @20 x4 @33 x4 L [ @4 g4 @33 x4 @20 x4 @33 x8 @4 g8~ g8 g8 @33 x4 @20 x4 @33 x4 ]3 [ [ @20 x4 @33 x4 ]2 ]15 @20 x4 @33 x4 @20 x8 @4 g8 g8 g8 @4 f4 @33 x4 @20 x4 @33 x4 [ [ @20 x4 @33 x4 ]2 ]6 @20 x4 @33 x8 @4 d+8 @20 x8 @4 g8 g8 g8 @4 f4 @33 x4 @20 x4 @33 x4 [ [ @20 x4 @33 x4 ]2 ]7 [ [ @20 x4 @33 x4 ]2 ]6 @4 g4 @33 x4 @20 x4 @33 x8 @4 g8~ g8 g8 @33 x4 @20 x4 @33 x4 
!6  V1 O2 YLR @65 W0,100,0 g16 ( g16 ) a16 ( a16 ) a+16 ( a+16 ) > c+16 ( c+16 ) d16 ( d16 ) g16 ( g16 ) a+16 ( a+16 ) > c+16 ( c+16 ) r8 c+8 ( c+8 ) r8 r2 < < O3 @15 W0,100,66 r8 d8~ ( d8 ) r8 c+8~ ( c+8 ) r8 d8~ ( d8 ) d8 @10 W0,100,50 Y.R g8 YL. g8 YLR @8 < g8 Y.R ( g8 ) YLR g8 YL. ( g8 ) YLR > L @15 W0,100,66 r8 d8~ ( d8 ) r8 c+8~ ( c+8 ) r8 g8~ ( g8 ) c+8 @10 W0,100,50 g8 Y.R g8 YL. g8 YLR @8 < g8 c+8 ( c+8 ) > @15 W0,100,66 r8 d8~ ( d8 ) r8 c+8~ ( c+8 ) r8 d8~ ( d8 ) d8 @10 W0,100,50 Y.R g8 YL. g8 YLR @8 < g8 Y.R ( g8 ) YLR g8 YL. ( g8 ) YLR > @15 W0,100,66 r8 d8~ ( d8 ) r8 c+8~ ( c+8 ) r8 f+8~ ( f+8 ) c+8 @10 W0,100,50 g8 Y.R g8 YL. g8 YLR @8 < g8 c+8 ( c+8 ) > O2 @68 W0,100,0 [ Y.R d16~ YL. d16~ ]16 @69 W0,100,0 [ Y.R c16~ YL. c16~ ]16 < [ Y.R a+16~ YL. a+16~ ]16 @68 W0,100,0 [ Y.R a16~ YL. a16~ ]16 > @68 W0,100,0 [ Y.R d16~ YL. d16~ ]16 @69 W0,100,0 [ Y.R c16~ YL. c16~ ]16 < [ Y.R a+16~ YL. a+16~ ]8 > [ Y.R c16~ YL. c16~ ]8 @68 W0,100,0 [ Y.R d16~ YL. d16~ ]12 @40 W0,100,0 YLR < g4 > d4 c4 < a+8 a8~ a2~ a4~ ( a4 ) f4 > c4 < a+4 a8 g8~ g2~ g4~ ( g4 ) f4 g4 a4~ a+8 a8~ a2~ a4~ ( a4 ) a4 f4 g4 a8 g8~ g2~ g4~ ( g4 ) g4 > d4 c4 < a+8 a8~ a2~ a4~ ( a4 ) f4 > c4 < a+4 a8 g8~ g2~ g4~ ( g4 ) f4 g4 a4 a+8 a8~ a2~ a4~ ( a4 ) f4 a4 g1~ g2~ ( g4 ) r4 > @68 W0,100,0 [ Y.R d16~ YL. d16~ ]16 @69 W0,100,0 [ Y.R c16~ YL. c16~ ]16 < [ Y.R a+16~ YL. a+16~ ]8 > [ Y.R c16~ YL. c16~ ]8 O3 YLR @15 W0,100,66 r8 d8~ ( d8 ) r8 c+8~ ( c+8 ) r8 d8~ ( d8 ) d8 @10 W0,100,50 Y.R g8 YL. g8 YLR @8 < g8 Y.R ( g8 ) YLR g8 YL. ( g8 ) YLR > 
