;026 0032B196
!1  T130 L V4 O2 YLR P12,15,2 D1 @0 E80,100,60,34,43 YL. ( < f+1 > ) YLR r12 > f+12 _V-2 f+12 _V2 < c+24 _V-2 f+24 _V2 a2. < a12 > c12 d+12 a2. f+8 _V-3 f+8 _V3 r6 Y.R _V2 > c2 d+2 c2 < _V-2 YLR r12 > f+12 _V-2 f+12 _V2 < c+24 _V-2 f+24 _V2 a2~ a6 YL. ) a12 > c12 e12 d+2.~ d+2 < ( YLR [ [ YLR g12 _V-3 Y.R g12 YL. g12 _V3 YLR [ g24 _V-3 g24 _V3 ]3 ]2 [ YLR g12 _V-3 Y.R g12 YL. g12 _V3 ]2 r2 ]2 V7 [ [ YLR g12 _V-3 Y.R g12 YL. g12 _V3 YLR [ g24 _V-3 g24 _V3 ]3 ]2 [ YLR g12 _V-3 Y.R g12 YL. g12 _V3 ]2 r2 ]2 [ [ YLR f12 _V-3 Y.R f12 YL. f12 _V3 YLR [ f24 _V-3 f24 _V3 ]3 ]2 [ YLR f12 _V-3 Y.R f12 YL. f12 _V3 ]2 r2 ]2 [ [ YLR d+12 _V-3 Y.R d+12 YL. d+12 _V3 YLR [ d+24 _V-3 d+24 _V3 ]3 ]2 [ YLR d+12 _V-3 Y.R d+12 YL. d+12 _V3 ]2 r2 ]2 [ [ YLR d12 _V-3 Y.R d12 YL. d12 _V3 YLR [ d24 _V-3 d24 _V3 ]3 ]2 [ YLR d12 _V-3 Y.R d12 YL. d12 _V3 ]2 r2 ]2 [ [ YLR g12 _V-3 Y.R g12 YL. g12 _V3 YLR [ g24 _V-3 g24 _V3 ]3 ]2 [ YLR g12 _V-3 Y.R g12 YL. g12 _V3 ]2 r2 ]2 [ [ YLR f12 _V-3 Y.R f12 YL. f12 _V3 YLR [ f24 _V-3 f24 _V3 ]3 ]2 [ YLR f12 _V-3 Y.R f12 YL. f12 _V3 ]2 r2 ]2 V6 _V-4 a+4~ ) a+4~ ) a+4~ ) a+4~ ) a+2.~ ( a+4 ( > c4~ ) c4~ ) c2~ c2.~ ( c4 ) < [ YLR g12 _V-3 Y.R g12 YL. g12 _V3 YLR [ g24 _V-3 g24 _V3 ]3 ]9 [ g32 _V-2 g32 _V2 ]2 g8~ _V-3 g8 _V3 r8 
!2  L V5 O2 YLR P12,15,2 @0 E80,100,60,34,43 Y.R _V-2 < f+1 > _V2 YLR > f+12 _V-2 f+12 _V2 < c+24 _V-2 f+24 _V2 a2. < a12 > c12 d+12 a2. f+8 _V-3 f+8 _V3 r4 YL. _V2 < a2 > c2 < a2 > _V-2 YLR > f+12 _V-2 f+12 _V2 < c+24 _V-2 f+24 _V2 a2. Y.R _V2 a12 > c12 e12 d+2.~ d+2 < _V-2 YLR [ r1 ]4 V6 YLR D-1 r12 g2~ _V-2 g4 _V2 > d4~ d1~ ( d4 ( d4 _V2 < g4~ ( g4 ) > d4~ ( d4 ) < a+4~ ( a+4 ) > c2~ _V-2 c4 _V2 f4~ f1~ f2.~ ( f4~ ( f4~ ( f4 _V3 r2 < g2~ _V-2 g4 _V2 a+4~ a+1~ ( a+4 ( a+4 _V2 g4~ ( g4 ) a+4~ ( a+4 ) > c4~ ( c4 ) < a2~ _V-2 a4 _V2 f4~ f1~ f2. ( f4~ ( f4~ ( f4 _V3 r4 r6 < r2 d4.~ _V-2 d8 _V2 g4. _V-2 g8 _V2 a4. _V-2 a8 _V2 a+1~ a+4 (~ a+4 (~ a+4 (~ a+4 _V3 r2 c4.~ _V-2 c8 _V2 f4. _V-2 f8 _V2 g4. _V-2 g8 _V2 a1~ a4 (~ a4 (~ a4 (~ a4 _V3 _V-4 > d+4~ ) d+4~ ) d+4~ ) d+4~ ) d+2.~ ( d+4 ( f4~ ) f4~ ) f2~ f2.~ ( f4 ) < V4 d1~ d1~ d1~ d1~ d2 [ d32~ ( d32 ) ]2 d8~ _V-2 d8 _V2 r8 
!3  L V3 O0 `9F00 @A3 @B0 @~3 r1 f+8~ ( f+8 ) r2. r1 f+8~ ( f+8 ) r4 a4.~ ( a8 ) > c4.~ ( c8 ) < a4.~ ( a8 ) f+8~ ( f+8 ) r2. ( f+1~ f+2 ) [ [ g12~ ( g12 ) r12 r4 ]2 [ g12~ ( g12 ) r12 ]2 r2 ]2 [ [ g12~ ( g12 ) r12 r4 ]2 [ g12~ ( g12 ) r12 ]2 r2 ]2 [ [ f12~ ( f12 ) r12 r4 ]2 [ f12~ ( f12 ) r12 ]2 r2 ]2 [ [ d+12~ ( d+12 ) r12 r4 ]2 [ d+12~ ( d+12 ) r12 ]2 r2 ]2 [ [ d12~ ( d12 ) r12 r4 ]2 [ d12~ ( d12 ) r12 ]2 r2 ]2 [ [ g12~ ( g12 ) r12 r4 ]2 [ g12~ ( g12 ) r12 ]2 r2 ]2 [ [ f12~ ( f12 ) r12 r4 ]2 [ f12~ ( f12 ) r12 ]2 r2 ]2 [ d+12~ ( d+12 ) r12 r4 ]2 [ d+12~ ( d+12 ) r12 ]2 r2 [ f12~ ( f12 ) r12 r4 ]2 [ f12~ ( f12 ) r12 ]2 r2 [ [ g12~ ( g12 ) r12 r4 ]2 [ g12~ ( g12 ) r12 ]2 ( g12 r6 g4 ) ]2 g4~ g6~ ( g12 ) [ g32~ ( g32 ) ]2 g8~ ( g8 ) r8 
!4  L r1 @8 [ x1 r1 ]2 x1 r1. @8 x4 @4 [ x12 ]3 @3 x4 @4 [ x12 ]3 @3 x4 x4 r8 @4 x8 @3 x32 @4 [ x32 ]7 @3 x4 @4 [ x12 ]3 @3 x4 @4 [ x12 ]3 @3 x4 x4 r8 @4 x8 @3 x32 @4 [ x32 ]7 [ @3 x4 @4 [ x12 ]3 @3 x4 @4 [ x12 ]3 @3 x4 x4 r8 @4 x8 @3 x32 @4 [ x32 ]7 ]8 @8 x4 @4 [ x12 ]3 @3 x4 @4 [ x12 ]3 @3 x4 x4 r8 @4 x8 @3 x32 @4 [ x32 ]7 [ @3 x4 @4 [ x12 ]3 @3 x4 @4 [ x12 ]3 @3 x4 x4 r8 @4 x8 @3 x32 @4 [ x32 ]7 ]5 @8 x4 @4 [ x12 ]3 @3 x4 @4 [ x12 ]3 @3 x4 @4 [ x12 ]3 @3 x4 @3 x32 @4 [ x32 ]7 @8 x4 @4 [ x12 ]3 @3 x4 @4 [ x12 ]3 @3 x4 @4 [ x12 ]3 @3 x4 @4 [ x12 ]3 [ @3 x12 @4 x12 x12 ]2 @3 [ x16 ]3 r16 r4 
!5  L V1 O1 @4 ( [ f+32 ]32 ) f+6 @38 W0,100,73 Y.R c+24 ( f+24 ) a2. < a12 > c12 d+12 a2. @4 YLR f+2 @38 W0,100,73 ( > e2 g2 e2 < ) @4 f+6 @38 W0,100,73 Y.R c+24 ( f+24 ) a2. @4 YLR ( [ f+32 ]48 ) g4 @40 W0,100,0 YLR [ g24 ( g24 ) ]3 YLR g12 ( Y.R g12 YL. g12 ) YLR [ g24 ( g24 ) ]3 [ YLR g12 ( Y.R g12 YL. g12 ) ]2 r2 [ YLR g12 ( Y.R g12 YL. g12 ) YLR [ g24 ( g24 ) ]3 ]2 [ YLR g12 ( Y.R g12 YL. g12 ) ]2 r2 YLR g2. > d4~ d1~ d4 ( d4 ) < g2 > d2 < a+2 > c2. f4~ f1~ f1~ f4~ ( f4 ) r2 < g2. a+4~ a+1~ a+4 ( a+4 ) g2 a+2 > c2 < a2. f4~ f1~ f1~ f4~ ( f4 ) r2 g2. > d4~ d1~ d4 ( d4 ) d2 g2 a+2 > c2. < f4~ f1~ f1~ f4~ ( f4 ) g4 a4 a+1~ a+4~ ( a+4 ) a4 a+4 a1~ a4~ ( a4 ) g4 f4 g6 ( g12 ) < @38 W0,100,73 g12 a+12 > d12 c+12~ ( c+12 ) r12 < g12 a+12 > d12 c+2~ c+8~ ( c+8 ) Y.R g8.~ ( g16 ) g12 ( g6 ) YLR < g12 a+12 > d12 c+12~ ( c+12 ) r12 < g12 a+12 > d12 c+1~ c+4~ ( c+4 ) @4 < g16 g16 g8~ g4 > 
!6  L V1 O1 r1 @8 f+6 @38 W0,100,73 D-1 YL. c+24 ( f+24 ) a2. < a12 > c12 d+12 a2. @8 D0 YLR f+4 r4 @38 W0,100,73 a2 > c2 < a2 @8 f+6 @38 W0,100,73 D-1 YL. c+24 ( f+24 ) a4 f+12 a12 > c+12 c4~ c1~ c2 < YLR @8 g4 O2 @68 W0,100,0 ( d2.~ d1~ d1~ d1 ) ( d1~ d1~ d1~ d1 @69 W0,100,0 c1~ c1~ c1~ c1 < a+1~ a+1~ a+1~ a+1 @68 W0,100,0 a1~ a1~ a1~ a1 > d1~ d1~ d1~ d1 @69 W0,100,0 c1~ c1~ c1~ c1 < a+1~ a+1 > c1 < @4 ( [ f32 ]32 ) g4 @38 W0,100,73 YL. r2 g4 g32 a+32 > c+8.~ c+2 D0 d8.~ ( d16 ) d12 ( d6 ) r2 D-1 < g4 g32 a+32 > c+8.~ c+2.~ c+4~ ( c+4 ) D0 YLR @8 < [ g32 ( g32 ) ]2 g8 ( g8 ) r8 > 
