;027 0032BA44
!1  T182 E100,80,70,5,0 @@1,2,1 P14,10,4 V6 O3 EP0,0,0,2,0 YLR r1 L r2 V6 O1 r8. b8 > e8 r8 ) f+2~ f+8. r16 V7 e16. r32 ) f+16 r16 g4. r8 ) e4~ e16. r32 ( g16. r32 ) a4.~ a16 r16 g4~ g16 r16 ) a8.~ a32 r32 b2~ b8 ( a16 r16 ( g16 r16 V6 a4. r8 g4~ g16 r16 ( f+8. r16 g8 ) f+8. r16 ) e1~ e4~ e8 r2. V6 > c16 r16 ) e8. r16 d4~ d16 r16 c8. r16 < b8. r16 > c8 r8 d4~ d16 r16 < g8. r16 f+16 r16 ) g2~ g8 r8 V6 a8. r16 V8 b8. r16 V6 > c8. r16 ( < b8 ) a2.~ a8. r16 ) g8.~ g32 r32 a8.~ a32 r32 b1~ b8 r1 ( g8.~ g32 r32 d16. r32 ( g8. r16 ) a8. r16 ) > c4 r8 ) < b8 r8 ( > d8. r16 ( < g8 r8 g8. r16 d8 ( g8. r16 ) a8. r16 ) > c4~ c16 r16 < b8. r16 > d8 r8 ( < g16. r32 ) > e2~ e16 r8. ( e16. r32 ( d16. r32 ) c16. r32 ) d4~ d16 r16 ) < g4.~ g16 r16 ( > c8. r16 ( c16. r32 ) < b8. r16 ) > c16. r32 ( c+16. r32 r8 ) d8 r1 V6 < g8. r16 d16. r32 ( g8. r16 ) a8. r16 ) > c4 r8 ) < b8 r8 ( > d8. r16 ( < g8 r8 g8. r16 d8 ( g8. r16 ) a8. r16 ) > c4~ c16 r16 < b8. r16 > d8. r16 ( < g8 r8 ( > e4~ e16 r16 e8.~ e32 r32 ( d16. r32 ) c8. r16 ) d4~ d16 r16 < g4. r8 V8 > c8 r8 ( c16. r32 ) < b16. r32 > c8. r8. r1 r8 c8. r16 V6 c8 ) < b8 r8 g8. r16 r8 V5 > c8. r16 V7 c8 V5 < b16 r16 ) g8. r16 ( g16 r16 ) a8 g8 a8 V8 g1~ g8 r2 r16 
!2  E100,80,70,6,0 @@1,2,1 P14,10,4 V6 O3 EP0,0,0,2,0 YLR r1~ L r2~ V11 O1 b8 > e8 r8 ) f+2~ f+8. r16 V10 e16. r32 ) f+16 r16 g4. r8 ) e4~ e16. r32 ( g16. r32 ) a4.~ a16 r16 g4~ g16 r16 ) a8.~ a32 r32 b2~ b8 ( a16 r16 ( g16 r16 V13 a4. r8 g4~ g16 r16 ( f+8. r16 g8 ) f+8. r16 ) e1~ e4~ e8 r2. V11 > c16 r16 ) e8. r16 d4~ d16 r16 c8. r16 < b8. r16 > c8 r8 d4~ d16 r16 < g8. r16 f+16 r16 ) g2~ g8 r8 V11 a8. r16 V13 b8. r16 V11 > c8. r16 ( < b8 ) a2.~ a8. r16 ) g8.~ g32 r32 a8.~ a32 r32 b1~ b8 r1 ( g8.~ g32 r32 d16. r32 ( g8. r16 ) a8. r16 ) > c4 r8 ) < b8 r8 ( > d8. r16 ( < g8 r8 g8. r16 d8 ( g8. r16 ) a8. r16 ) > c4~ c16 r16 < b8. r16 > d8 r8 ( < g16. r32 ) > e2~ e16 r8. ( e16. r32 ( d16. r32 ) c16. r32 ) d4~ d16 r16 ) < g4.~ g16 r16 ( > c8. r16 ( c16. r32 ) < b8. r16 ) > c16. r32 ( c+16. r32 r8 ) d8 r1 V11 < g8. r16 d16. r32 ( g8. r16 ) a8. r16 ) > c4 r8 ) < b8 r8 ( > d8. r16 ( < g8 r8 g8. r16 d8 ( g8. r16 ) a8. r16 ) > c4~ c16 r16 < b8. r16 > d8. r16 ( < g8 r8 ( > e4~ e16 r16 e8.~ e32 r32 ( d16. r32 ) c8. r16 ) d4~ d16 r16 < g4. r8 V13 > c8 r8 ( c16. r32 ) < b16. r32 > c8. r8. r1 r8 c8. r16 V11 c8 ) < b8 r8 g8. r16 r8 V10 > c8. r16 V12 c8 V10 < b16 r16 ) g8. r16 ( g16 r16 ) a8 g8 a8 V13 g1~ g8 r2. 
!3  @A3 `9F00 `AE00 E100,95,90,12,0 V3 O0 r1 L O1 [ V3 e16 V1 e16 ]7 < [ V3 b16 V1 b16 ]8 > [ V3 c16 V1 c16 ]8 [ V3 d16 V1 d16 ]7 [ V3 d+16 V1 d+16 ]2 [ V3 e16 V1 e16 ]7 < [ V3 b16 V1 b16 ]9 V3 a16 V1 a16 > V3 a16 V1 a16 < [ V3 a16 V1 a16 ]2 V3 b16 V1 b16 > V3 b8 < [ V3 b16 V1 b16 ]2 > V3 c16 V1 c16 > V3 c8 < [ V3 c16 V1 c16 ]2 V3 d16 V1 d16 > V3 d8 < [ V3 d16 V1 d16 ]2 V3 c2. < g8 > c8. r16 c8. r16 r4 c4~ c16 r16 < b2~ b8. r16 > e1 r4 f4. r4. > c16. r32 f8. r16 < f16 r16 f4~ f16 r16 f16 r16 r4 f+2.~ f+8. r16 d+16 r16 d+8. r16 e8. r16 f+8. r8. [ V3 g16 V1 g16 ]7 [ V3 d16 V1 d16 ]8 V3 d+16 V1 d+16 [ V3 e16 V1 e16 ]7 < [ V3 b16 V1 b16 ]9 > [ V3 c16 V1 c16 ]7 < [ V3 b16 V1 b16 ]4 > [ V3 e16 V1 e16 ]4 < [ V3 a16 V1 a16 ]9 > [ V3 d16 V1 d16 ]8 [ V3 g16 V1 g16 ]7 [ V3 d16 V1 d16 ]8 V3 d+16 V1 d+16 [ V3 e16 V1 e16 ]7 < [ V3 b16 V1 b16 ]9 > [ V3 c16 V1 c16 ]7 < [ V3 b16 V1 b16 ]4 > [ V3 e16 V1 e16 ]4 [ V3 f16 V1 f16 ]16 [ V3 d16 V1 d16 ]10 r8 r8 V3 d16 V1 d16 r8 V3 d16 V1 d16 r8 V3 c1~ c2~ c8 r2 
!4  YLR @20 x4 @12 x2. L @6 [ x8 ]50 @7 x8 @6 x8 x8 x8 @7 x8 @6 [ x8 ]6 @7 x8 @6 x8 @7 x8 @6 [ x16 r16 r16 r16 ]3 x16 r16 @7 x8 [ @6 [ x16 r16 r16 r16 ]7 x16 r16 @7 x8 ]2 @6 [ x16 r16 r16 r16 ]4 [ x16 r16 ]7 @7 x8 @6 [ x16 r16 ]6 @12 x4 [ @6 x16 r16 x16 r16 @7 x8 @6 [ x16 r16 ]3 @7 x8 @6 x16 r16 ]17 [ @7 x8 @6 x16 r16 ]2 r16 r16 x16 r16 [ x16 ]4 [ x16 r16 r16 r16 [ x16 r16 ]5 @7 x8 ]2 
!5  YLR V1 @8 O2 g8 f+8 V0 YL. f+16 Y.R f+8. V1 YLR e8 V0 YL. e16 Y.R e8. YLR < d8 L @8 V1 O1 YLR e8. V0 YL. e8. V1 YLR e8 V0 Y.R e8. r16 r4 V1 @62 YL. b4. Y.R b8 r8 ( YL. b8 r8 ( Y.R b8 V1 @8 YLR e8. V0 YL. e8. V1 YLR e8 V0 Y.R e8. r16 r4 V1 YLR f+8 V0 Y.R f+8. r16 r4 @8 V1 YLR d+8. V0 YL. d+8. @8 V1 YLR e8. V0 YL. e8. V1 YLR e8 V0 Y.R e8. r16 r4 @8 V1 YLR f+8. V0 YL. f+8. V1 YLR f+8 V0 Y.R f+8. r16 r4 YLR < a8 @8 V1 YLR a8. V0 YL. a8. YLR b8 @8 V1 YLR b8. V0 Y.R b8. YLR > c8 @8 V1 YLR c8. V0 YL. c8. YLR d8 @8 V1 YLR d8. V0 Y.R d8. V1 YLR @40 W0,100,20 g2~ g8 > g4. f+4 e4 d4 e4 f+2. < b2. > c4 d4 e4 d8 c1~ c8 d4 e8 f+1~ f+8 YLR V0 @62 W0,100,20 > b8 < b8 > f+8 b8 a8 g8 f+4 YLR V1 @40 W0,100,20 O2 g8 < g8 YL. g8 YLR > g8 < g8 YL. g8 YLR > g8 < g8 r8 > g8 < g8 > a8 YL. a8 YLR g8 a8 YL. a8 YLR g8 < g8 YL. g8 YLR > g8 < g8 YL. g8 YLR > g8 < g8 r8 > g8 < g8 > a8 YL. a8 YLR b8 a8 g1 f+2 b2 a2. b8 a8 g4 g8 f+4 e4 d4 YLR d2 > d8 YL. d8 Y.R d8 YLR < f+2. g8 a8 g2~ g8 > d8 YL. d8 Y.R d8 YLR < f+2. g8 a8 b2. a8 g8 f+2 b2~ b8 a2 b2 > c2 e4. YLR d1~ d16 < d16 > d8 < d8 YL. d8 YLR d8 YL. d8 YLR c8 < b8 > c1~ c8 r1 
!6  YLR r2 V1 O2 @1 [ c16 ]8 L [ @0 c8 @32 r8 @1 c8 @0 c8 @32 r8 @0 c8 @1 c8 @32 r8 ]7 @0 c8 @32 r8 @1 c8 @0 c8 @1 c8 @1 c4. @0 c4 @32 r4 @1 c4 @32 r8 @0 c4 @0 c4. @1 c8 @32 r8 @1 c4 @0 c4 @32 r4 @1 c4 @32 r8 @0 c4 @0 c4. @1 c8 @32 r8 @1 c8 @0 c4. @32 r4 @1 c4 @32 r8 @1 c8 @32 r8 @0 c4 @32 r8 @1 c2 @0 c4 @32 r4 @1 c4 @32 r8 @1 c4. @0 c8 @1 c8 @1 [ c16 ]8 [ @0 c8 @32 r8 @1 c8 @0 c8 @32 r8 @0 c8 @1 c8 @32 r8 ]4 @0 c8 @32 r8 @1 c8 @0 c8 @32 r8 @0 c8 @1 c8 @0 c8 @32 r4 @1 c8 @0 c4 @0 c8 @1 c4 @0 c8 @32 r8 @1 c8 @0 c8 @32 r8 @0 c8 @1 c8 @32 r8 @0 c8 @32 r8 @1 c8 @0 c8 @1 [ c16 ]8 [ @0 c8 @32 r8 @1 c8 @0 c8 @32 r8 @0 c8 @1 c8 @32 r8 ]4 @0 c8 @32 r8 @1 c8 @0 c8 @32 r8 @0 c8 @1 c8 @0 c8 @32 r4 @1 c8 @0 c4 @0 c8 @1 c4 [ @0 c8 @32 r8 @1 c8 @0 c8 @32 r8 @0 c8 @1 c8 @32 r8 ]2 @0 c8 @32 r8 @1 c8 @0 c8 @32 r8 @0 c8 @1 c8 @0 c4. @1 c8 @0 c4 @1 c8 @1 [ c16 ]2 @1 c8 @0 c4 @1 c8 @0 c4 @0 c8 @1 c8 @0 c2~ @0 c8 @1 [ c16 ]8 
