;028 0032C46E
!1  T160 L @2 E95,100,90,21,35 O3 Y.R V4 r8. [ f8 > f8 < ]31 f8 > f12 < Y.R r48 a12 c12 f12 c12 g12 c12 a4 r4 a24. r48 c24. r48 f24. r48 c24. r48 g24. r48 c24. r48 a24. r48 c24. r48 < f24. r48 c24. r48 f24. r48 > c24. r48 a24. r48 c24. r48 f24. r48 c24. r48 g24. r48 c24. r48 a4 a+6 r12 a24. r48 c24. r48 f24. r48 c24. r48 < c24. g24. > c24. < g24 r48 > c24 r48 g24 r48 > c24. r24. V5 YLR @0 E100,90,60,21,35 P19,10,3 r4 r16 O2 d8 g8 d8 f8 d8 r8 f8 r8 d8 c8 d8 r2 r8 d8 g8 d8 f8 d8 r8 a8. r16 a16 r16 a16 r16 b8. r8. r4 r8 d8 g8 d8 f8 d8 r8 f8 r8 d8 c8 c+16 d4 r8 [ f4 g16 r16 ]4 g+8. r16 g8 r8 Y.R V5 r2 r16 O3 c8 d8 f16 r16 f16 r16 g4 f16 r16 a4 g16 r16 f8 r16 [ f4 g8 ]2 a2 g8 f8 e8 d8. r8. r2 r16 c8 d8 f8 d8 g4 f8. r16 c4. r4 r8. O2 f8 a+8 > d8 f8 f8 @2 E95,100,90,21,35 V4 YLR O1 a+16 > c16 e16 g16 a+16 > c16 e16 g16 a+16 > c16 e16 g16 a+16 > c16 e16 g16 V6 O3 YL. V5 @0 E100,90,60,21,35 P19,10,3 c2 < a4. > c2.~ c8. r16 [ c32 r32 ]2 [ d8.~ d32 r32 ]4 c1 < a+4 a+16 r16 a+2~ a+16 r16 > [ c8.~ c32 r32 ]2 < a+4 a+8. r16 > c+4 c+8 e8. r16 e8 d2. r4 c8 c8 c2 < a4. > c2.~ c8 r8 c16 c32 r32 [ d8.~ d32 r32 ]4 c1 < a+4 a+16 r16 a+1~ a+2 r8 g4 > e16 r16 e2 r8 @2 E95,100,90,21,35 YLR O2 V4 r16 e16 g16 a+16 > c16 e16 g16 a+16 > c16 e16 g16 a+16 > c16 e16 g16 a+16 O2 YL. V5 a+8 a+8 r16 > [ f16 r16 > f16 r16 < f16 r8. ]7 f16 r16 > f16 
!2  L @2 E95,100,90,21,35 O3 YL. V6 [ f8 > f8 < ]32 YLR a12 c12 f12 c12 g12 c12 a4 r4 a24. r48 c24. r48 f24. r48 c24. r48 g24. r48 c24. r48 a24. r48 c24. r48 < f24. r48 c24. r48 f24. r48 > c24. r48 a24. r48 c24. r48 f24. r48 c24. r48 g24. r48 c24. r48 a4 a+4 a24. r48 c24. r48 f24. r48 c24. r48 g24. r48 c24. r48 a24. r48 c24. r48 f24. r48 c24. r48 g24. r48 c24. r48 V8 @0 E100,90,60,21,35 P19,10,3 r8 < d8 g8 d8 f8 d8 r8 f8 r8 d8 c8 d8 r2 r8 d8 g8 d8 f8 d8 r8 a8. r16 a16 r16 a16 r16 b8. r8. r4 r8 d8 g8 d8 f8 d8 r8 f8 r8 d8 c8 c+16 d4 r16 c8 d8 [ a4 b16 r16 ]4 > c8. r16 < b8 r8 r4. > c8 d8 f16 r16 f16 r16 g4 f16 r16 a4 g16 r16 f8. r8. [ a4 a+8 ]2 > c2 < a+8 a8 g8 f8. r8. r4. c8 d8 f8 d8 g4 f8. r16 c4. r4 r4. c8 d8 f8 > d8 d4 c2~ c8 < d8 e8 f2 c4. g2.~ g8. r16 g16 a16 a+8. r16 a8.~ a32 r32 g8.~ g32 r32 a8.~ a32 r32 f2.~ f8. r16 d4 g16 r16 g2~ g16 r16 f8.~ f32 r32 e8.~ e32 r32 d8.~ d32 r32 c8. r16 a4 a+8 a8. r16 g8 f2. r4 d8 e8 f2 c4. g2.~ g8 r8 g16 a16 a+8. r16 a8.~ a32 r32 g8.~ g32 r32 a8.~ a32 r32 f1 d4 g16 r16 g1~ g2 r8 c4 a+16 r16 a+2~ a+16 r16 a+4 a8. r16 f16. r32 g4 f8 @2 V7 E95,100,90,21,35 g8 [ f16 r16 > f16 r16 < f16 r8. ]7 f16 r16 > f16 r16 < f16 r16 
!3  L @A3 `9F00 `AE00 E100,95,90,14,0 YLR B1 V3 O1 f8 f8 f8 f8 f8 f8 f8 f8 f8 f8 f8 f8 f8 f8 f8 f8 f8 f8 f8 f8 f8 f8 f8 f8 f8 f8 f8 f8 f8 f8 f8 f8 a+8 a+8 a+8 a+8 a+8 a+8 a+8 a+8 a8 a8 a8 a8 a8 a8 a8 a8 g8 g8 g8 g8 g8 g8 g8 g8 > c8 c8 c8 c8 c8 c8 c8 c8 < a+8 a+8 a+8 a+8 a+8 a+8 a+8 a+8 a8 a8 a8 a8 a8 a8 a8 a8 g8 g8 g8 g8 g8 g8 g8 g8 > c8 c8 c8 c8 c8 c8 c8 c8 < d8 d8 d8 d8 d8 d8 d8 d8 d8 d8 d8 d8 f8 f8 g8 g8 d8 d8 d8 d8 d8 d8 d8 d8 d8 d8 d8 d8 f8 f8 g8 g8 d8 d8 d8 d8 d8 d8 d8 d8 d8 d8 d8 d8 f8 f8 g8 g8 d8 d8 d8 d8 d8 d8 d8 d8 d8 d8 d8 d8 f8 f8 g8 g8 a+8 a+8 a+8 a+8 a+8 a+8 a+8 a+16 a+16 a+8 a+8 a+8 a+8 a+8 a+8 a+8 a+16 a+16 a4 a8 > c+4 c+8 d4. d8 d8 d8 c+8 c+8 c+8 c+8 < g8 g8 g8 g8 g8 g8 g8 a16 a16 a8 a8 a8 a8 a8 a8 a8 a8 a+8 a+8 a+8 a+8 a+8 a+8 a+8 b16 b16 > c8 c8 c8 c8 c8 c8 c8 c8 < f8 f8 f8 f8 f8 f8 f8 f16 f16 e8 e8 e8 e8 e8 e8 e8 e8 d8 d8 d8 d8 d8 d8 d8 d8 c8 c8 c8 c8 c8 c8 c8 c8 a+8 a+8 a+8 a+8 a+8 a+8 a+8 a+16 b16 c8 c8 c8 c8 a+8 a+8 a+8 a+8 a4 a8 c+4 c+8 d4. d8 d8 d8 c8 c8 c8 c16 c16 f8 f8 f8 f8 f8 f8 f8 f16 f16 e8 e8 e8 e8 e8 e8 e8 e8 d8 d8 d8 d8 d8 d8 d8 d8 c8 c8 c8 c8 c8 c8 c8 c8 a+8 a+8 a+8 a+8 a+8 a+8 a+8 a+16 a+16 a+8 a+8 a+8 a+8 a+8 a+8 a+8 a+8 c8 c8 c8 c8 c8 c8 c8 c16 c16 c8 c4. c8 c4. a+8 a+8 a+8 a+8 a+8 a+8 a+8 a+16 a+16 a+8 a+8 a+8 a+8 a+8 a+8 a+8 a+8 a+8 a+8 a+8 a+8 a+8 a+8 a+8 a+8 a+8 a+8 a+8 a+8 a+8 a+8 a+8 a+8 
!4  L V8 YLR r1~ r1~ r1~ r1 @7 [ x32 r32 ]120 @20 x2 @1 x8 @7 x8 @15 x8 @7 x8 @1 x8 @7 x8 @15 x8 @7 x8 @1 x8 @7 x8 @15 x8 @7 x8 @1 x8 @7 x8 @15 x8 @7 x8 @1 x8 @7 x8 @15 x8 @7 x8 @1 x8 @7 x8 @15 x8 @7 x8 @1 x8 @7 x8 @15 x8 @7 x8 @1 x8 @7 x8 @15 x8 @7 x8 @1 x8 @7 x8 @15 x8 @7 x8 @1 x8 @7 x8 @15 x8 @7 x8 @1 x8 @7 x8 @15 x8 @7 x8 @1 x8 @7 x8 @15 x8 @7 x8 @1 x8 @7 x8 @15 x8 @7 x8 @1 x8 @7 x8 @15 x8 @7 x8 @1 x8 @7 x8 @15 x8 @7 x8 @1 x8 @7 x8 @15 x8 @7 x8 @1 x8 @7 x8 @15 x8 @7 x8 @1 x8 @7 x8 @15 x8 @7 x8 @1 x8 @7 x8 @15 x8 @7 x8 @1 x8 @7 x8 @15 x8 @7 x8 @1 x8 @7 x8 @15 x8 @1 x8 @7 x4 @15 x4 x8 @7 x8 @1 x8 @7 x16 x16 @1 x8 @7 x8 @15 x8 @7 x8 @1 x8 @7 x8 @15 x8 @7 x8 @1 x8 @7 x8 @15 x8 @7 x8 @1 x8 @7 x8 @15 x8 @7 x8 @1 x8 @7 x8 @15 x8 @7 x8 @1 x8 @7 x8 @15 x8 @7 x8 @1 x8 @7 x8 @15 x8 @7 x8 @1 x8 @7 x8 @15 x8 @7 x8 @20 x2 @1 x8 @7 x8 @15 x8 @7 x8 @1 x8 @7 x8 @15 x8 @7 x8 @1 x8 @7 x8 @15 x8 @7 x8 @1 x8 @7 x8 @15 x8 @7 x8 @1 x8 @7 x8 @15 x8 @7 x8 @1 x8 @7 x8 @15 x8 @7 x8 @1 x8 @7 x8 @15 x8 @7 x8 @1 x8 @7 x8 @15 x8 @7 x8 @1 x8 @7 x8 @15 x8 @7 x8 @1 x8 @7 x8 @15 x8 @7 x8 @1 x8 @7 x8 @15 x8 @7 x8 @1 x8 @7 x8 @15 x8 @7 x8 @1 x8 @7 x8 @15 x8 @1 x4 @15 x8 @1 x8 @7 x8 @1 x8 @7 x8 @15 x4 @1 x8 @15 x8 @1 x8 @7 x8 @1 x8 @7 x8 @15 x8 @7 x8 @1 x8 @7 x8 @15 x8 @7 x8 @1 x8 @7 x8 @15 x8 @7 x8 @1 x8 @7 x8 @15 x8 @7 x8 @1 x8 @7 x8 @15 x8 @7 x8 @1 x8 @7 x8 @15 x8 @7 x8 @1 x8 @7 x8 @15 x8 @7 x8 @1 x8 @7 x8 @15 x8 @7 x8 @1 x8 @7 x8 @15 x8 @7 x8 @1 x8 @7 x8 @15 x8 @7 x8 @1 x8 @7 x8 @15 x8 @7 x8 @1 x8 @7 x8 @15 x8 @7 x8 @1 x8 @7 x8 @15 x8 @7 x8 @1 x8 @7 x8 @15 x8 @7 x8 @15 x8 @7 x4 x4 x8 @15 x8 @7 x8 @1 x8 @7 x8 @15 x8 @7 x8 @1 x8 @7 x8 @15 x8 @7 x8 @1 x8 @7 x8 @15 x8 @7 x8 @1 x8 @7 x8 @15 x8 @7 x8 @1 x8 @7 x8 @15 x8 @7 x8 @1 x8 @7 x8 @15 x8 @7 x8 @1 x8 @7 x8 @15 x8 @7 x8 @1 x8 @7 x8 @15 x8 @7 x8 
!5  L YLR V1 @4 O1 f2. c12 c12 c12 f1. c2 f2 c2 @61 W0,100,20 f2 c2 g1~ g2~ g4 g8 a8 a+4 a4 g4 a4 f2. c12 @4 c12 c12 f1. c2 f2 @31 > c16 c16 c16 c16 c16 c16 c16 c4~ c16 c2 c2 c2 c2 c2 c2 c2 c8. c4~ c16 c2 c2 c2 c2 c2 c2 c2 c2 c2 c2 c2 c2 c2 c2 c2 c2 c2 c2 c2 c8. c4~ c16 c2 c4 c16 c8. c8. c8. c8 c16 c16 c16 c4~ c16 c2 c2 c2 c2 c2 c2 c2 c2 c2 c2 c2 c2 c4. c8 c2 c4. c4~ c16 c4~ c16 c2 c2 c2 c2 c2 c2 c2 c2 c2 c2 c2 c2 c4. c4. c2. c8. c4~ c16 c2 c2 c2 c2 c2 c2 c2 c16 c16 c16 c16 
!6  L YLR V1 @40 W0,100,20 O3 c8 < f8 > f8 < f8 > e8 < f8 > f8 < f8 > c8 < f8 > f8 < f8 > e8 < f8 > f8 < f8 > c8 < f8 > f8 < f8 > e8 < f8 > f8 < f8 > g8 < f8 > f8 < f8 > e8 < f8 > f8 < f8 > c8 < f8 > f8 < f8 > e8 < f8 > f8 < f8 > c8 < f8 > f8 < f8 > e8 < f8 > f8 < f8 > c8 < f8 > f8 < f8 > e8 < f8 > f8 < f8 > g8 < f8 > f8 < f8 > e8 < f8 > f8 < f8 > c8 < f8 > f8 < f8 > e8 < f8 > f8 < f8 > c8 < f8 > f8 < f8 > e8 < f8 > f8 < f8 > c8 < f8 > f8 < f8 > e8 < f8 > f8 < f8 > g8 < f8 > f8 < f8 > e8 < f8 > f8 < f8 @60 W0,100,20 Y.R YLR V0 > d8 c8 d4. c8 c+8 d4 c4 c8 f4 g4 d8 c8 d4. c8 c+8 d4 c4 c8 f4 g4 d8 c8 d4. c8 c+8 d4 c4 c8 f4 g4 d8 c8 d4. c8 c+8 d4 c4 c8 f4 g4 @40 V1 W0,100,20 YL. < d8 < f8 a+8 > c4 < f8 > c8 f4 < f8 > c8 e4 < f8 > d8 < f8 > c+8 < g8 a8 > e8 < a8 > c+8 f4. < a8 > d8 f8 e8 < a8 > c+8 e8 < a8 f8 a+8 f8 a8 f8 a+8 > c4 < e8 f8 a8 > c8 e4 f4 < a+8 > d8 < a+8 > f8 < a+8 > d8 f4 < g8 > e8 < g8 > d8 < g8 > c8 < g8 @60 V0 W0,100,20 Y.R O3 c8 < f8 > f8 < f8 > e8 < f8 > f8 < f8 > c8 < f8 > f8 e4 < f8 > f8 < f8 > c8 < f8 > f8 < f8 > e8 < f8 > f8 < f8 > c8 < f8 > f8 g4 f8 e8 f8 < a+8 f8 a+8 > f4 < f8 a+8 > f8 c8 < g8 > c8 g8 f8 e8 d8 c8 c+8 < g8 a+8 > e4 < g8 > d4. < f8 a8 > d8 c8 < e8 g8 > c8 c8 < f8 > f8 < f8 > e8 < f8 > f8 < f8 > c8 < f8 > f8 e4 < f8 > f8 < f8 > c8 < f8 > f8 < f8 > e8 < f8 > f8 < f8 > c8 < f8 > f8 g4 f8 e8 f8 d8 < f8 a+8 > f8 < f8 a+8 > f8 < f8 > e8 < f8 a+8 > f8 < f8 a+8 > f8 < f8 > e8 < g8 g8 > c4 < g8 > c8 f8 e8 < g8 > c8 c16 g16 f8 e8 d8 c8 c8 < f8 > c8 d4 < f8 > c8 f4 < f8 > c8 e4 < f8 > f8 < f8 > c8 < f8 > c8 d4 < f8 > c8 f4 < f8 > c8 e4 < f8 > f8 < f8 
