;029 0032D020
!1  T155 @0 @@2,2,0 E80,100,70,4,17 EP-2,0,0,3,0 P23,10,3 YLR B1 V4 O3 r8. V4 O3 c+2~ c+8 d+8 e4 d+4. e4. d+4 e2~ e8 f+8 g+8 f+2.~ f+8 r16 @0 @@3,2,1 E100,90,60,21,36 P23,11,2 EPX r8. YLR O3 V3 f+8. < a+8 r16 > f+16 r16 f8. < a+16 r8 > f16 f+16 g+8. f+16. r16. f16. r32 f+4 c+4 d+8. f8. f+16 r16 g+4~ g+16 r16 g+8 b8. > c+8. r8 @2 @@X EPX @@X E95,100,90,21,36 YLR O1 V5 YL. a+16 > Y.R d16 YL. f16 Y.R g+16 YL. a+16 > Y.R d16 YL. f16 r16 @0 @@3,2,1 E100,90,60,21,36 P23,11,2 YLR O3 V3 f+8. < a+8 r16 > f+16 r16 f8. < a+16 r16 r16 > f16 f+16 g+8. f+16. r16. f16. r32 f+4 r16 < b8 r16 > c+8 r16 d+8 f8 r16 g+8. r8 a+8. g+8. f+8 r16 a+8 b8 r16 a+8 r16 f+2.~ f+16 r8 r1 L @2 E100,85,60,18,36 P23,14,4 YLR V4 O3 r4 r8. e8 d+8 c+8 < b8 r8 g+2. f+8 b8 r8 g+4 f+8 g+4. r4 > c+4~ c+8.~ c+32 r32 < b4~ b8. r16 r4 a8 > c+4 e4 f+2 d+4. < b4 > g+4 f+8 g+2 r8 e4~ e32 r32 @2 @@X E95,100,90,21,36 YLR V6 O2 r16 YL. f+16 > Y.R c16 YL. d+16 Y.R f+16 YL. a16 Y.R > c16 YL. d+16 @0 @@3,2,1 E100,90,60,21,36 P23,11,2 YLR O3 V4 r8. g+8.~ g32 r32 c+16. r32 c+8. r16 @2 @@X E95,100,90,21,36 YLR O2 V6 YL. b16 > Y.R f+16 YL. b16 YL. f+16 Y.R b16 > YL. d+16 Y.R b16 < [ _V-2 YL. b16 > Y.R d+16 YLR b16 < ]2 @0 @@3,2,1 E100,90,60,21,36 P23,11,2 YLR O3 V5 r16 f+8 e8 d+16 EX @@X P23,6,2 V4 O4 b2~ b8 a8 g+16. r32 a4 g+16. r32 e4 @2 @@X E95,100,90,21,36 YLR O2 V7 YL. b16 > Y.R f+16 YL. b16 Y.R b16 > YL. f+16 Y.R b16 _V-2 < YL. b16 > Y.R f+16 YL. b16 @0 @@3,2,1 E100,90,60,21,36 P23,11,2 YLR V4 O3 r8. r4 r8. c+8 d+8 e16. r32 c+2~ c+8~ c+32 r16. c8 c+16 d+4. c+4. c4 r4. a8 r16 r16 g+8 r16 r16 f+8 r16 @0 @@3,2,1 E100,90,60,21,36 P23,11,2 YLR O3 V4 r8 f+8. < a+8 r16 > f+16 r16 f8. < a+16 r8 > f16 f+16 g+8. f+16. r16. f16. r32 f+4 c+4 d+8. f8. f+16 r16 g+4~ g+16 r16 g+8 b8. > c+8. r8 @2 @@X E95,100,90,21,36 O1 V3 YL. a+16 > Y.R d16 YL. f16 Y.R g+16 YL. a+16 > Y.R d16 YL. f16 r16 @0 @@3,2,1 E100,90,60,21,36 P23,11,2 YLR O3 V4 f+8. < a+8 r16 > f+16 r16 f8. < a+16 r8 > f16 f+16 g+8. f+16. r16. f16. r32 f+4 r16 < b8 r16 > c+8 r16 d+8 f8. g+8. r8 a+8. g+8. f+8 r16 a+8 b8 r16 a+8 d+1~ d+1 
!2  @0 @@2,2,0 E80,100,70,4,17 EP-2,0,0,3,0 P23,10,3 YLR B1 V8 O3 c+2~ c+8 d+8 e4 d+4. e4. d+4 e2~ e8 f+16. r32 g+16. r32 f+1~ f+8 @0 @@3,2,1 E100,90,60,21,36 P23,11,2 EPX YLR O3 V7 f+8. < a+8 r16 > f+16 r16 f8. < a+16 r8 > f16 f+16 g+8. f+16. r16. f16. r32 f+4 c+4 d+8. f8. f+16 r16 g+4~ g+16 r16 g+8 b8. > c+8. < b8 b8 r8 a+8 r8 O3 f+8. < a+8 r16 > f+16 r16 f8. < a+16 r8 > f16 f+16 g+8. f+16. r16. f16. r32 f+4 c+4 d+8. f8. f+16 r16 g+8. r8. f+16 g+16 > c+8. < b8. a+16. r32 b8 r16 a+8 r16 g+32 r32 a+32 r32 f+2.~ f+8 r8 r1 L @2 E100,85,60,18,36 P23,14,4 YLR V9 O3 r4 e8 d+8 c+8 < b8 r8 g+2. f+8 b8 r8 g+4 f+8 g+4. r4 > c+4~ c+8.~ c+32 r32 < b4~ b8. r16 r4 a8 > c+4 e4 f+2 d+4. < b4 > g+4 f+8 g+2 r8 e4~ e8.~ e32 r32 d+4~ d+8~ d+32 r16. g+8.~ g32 r32 c+16. r32 c+8~ c+32 r16. g+16. r32 f+2~ f+16 r8. f+8 e8 d+8 e8 d+8. r16 < b16. r32 b8. r16 > d+8 c+2. r2 r2 c+8 d+8 e16. r32 c+2~ c+8~ c+32 r16. c8 c+8 d+8 f+8.~ f+32 r32 f+8 e8. r16 e8 d+4~ d+16 r8. a4 g+4 f+4 @0 @@3,2,1 E100,90,60,21,36 P23,11,2 YLR O3 V7 f+8. < a+8 r16 > f+16 r16 f8. < a+16 r8 > f16 f+16 g+8. f+16. r16. f16. r32 f+4 c+4 d+8. f8. f+16 r16 g+4~ g+16 r16 g+8 b8. > c+8. < b8 b8 r8 a+8 r8 f+8. < a+8 r16 > f+16 r16 f8. < a+16 r8 > f16 f+16 g+8. f+16. r16. f16. r32 f+4 c+4 d+8. f8. f+16 r16 g+8. r8. f+16 g+16 > c+8. < b8. a+16. r32 b8 r16 a+8 r16 g+32 r32 a+32 r32 f+2.~ f+8 r8 r1 
!3  @A3 E100,60,60,8,0 P26,11,16 YLR B1 V3 O2 c+1 c1 < b1 a+1 O1 d+16 < d+16 d+16 > d+16 < d+16 d+16 > d+16 < d+16 > c+16 < c+16 c+16 > c+16 < c+16 c+16 > c+16 < c+16 b16 < b16 b16 > b16 < b16 b16 > b16 < b16 > a+16 < a+16 a+16 > a+16 < a+16 > a+16 < a+16 > a+16 g+16 < g+16 g+16 > g+16 < g+16 g+16 > g+16 < g+16 > f+16 < f+16 f+16 > f+16 < f+16 f+16 > f+16 < f+16 > e16 e16 > e16 < e16 D0 EPX E100,30,30,6,0 @A2 O3 e16 < b16 g+16 e16 g+16 a+16 > d16 f16 g+16 a+16 > d16 f16 @A3 E100,60,60,8,0 P26,11,16 O1 d+16 < d+16 d+16 > d+16 < d+16 d+16 > d+16 < d+16 > c+16 < c+16 c+16 > c+16 < c+16 c+16 > c+16 < c+16 b16 < b16 b16 > b16 < b16 b16 > b16 < b16 > a+16 < a+16 a+16 > a+16 < a+16 > a+16 < a+16 > a+16 g+16 < g+16 g+16 > g+16 < g+16 g+16 > g+16 < g+16 > f+16 < f+16 f+16 > f+16 < f+16 f+16 > f+16 < f+16 > e16 e16 > e16 < e16 D0 EPX E100,30,30,6,0 @A2 O3 e16 < b16 g+16 e16 @A3 E100,60,60,8,0 P26,11,16 O1 f4 a+4 O1 b16 < b16 b16 > b16 < b16 b16 > b16 < b16 b16 b16 > b16 < b16 b16 b16 > b16 < b16 > b16 < b16 b16 > b16 < b16 b16 > b16 < b16 > c+16 c+16 r8 c+16 c+16 r8 L [ c+16 ]16 [ d+16 ]16 [ e16 ]16 [ f16 ]8 [ c+16 ]8 [ f+16 ]16 [ g+16 ]16 [ a16 ]15 a+16 [ b16 ]8 > [ c16 ]4 < [ g+16 ]4 [ a8. ]3 r8. [ b8. ]2 r2 b8 b8 b8 g+8. g+8. g+8. r8. > c+8. c+8. r4. < b4. r8 [ a8 ]8 [ g8 ]8 [ g+8 ]8 [ g+8. r8. ]2 g+8. r16 O1 d+16 < d+16 d+16 > d+16 < d+16 d+16 > d+16 < d+16 > c+16 < c+16 c+16 > c+16 < c+16 c+16 > c+16 < c+16 b16 < b16 b16 > b16 < b16 b16 > b16 < b16 > a+16 < a+16 a+16 > a+16 < a+16 > a+16 < a+16 > a+16 g+16 < g+16 g+16 > g+16 < g+16 g+16 > g+16 < g+16 > f+16 < f+16 f+16 > f+16 < f+16 f+16 > f+16 < f+16 > e16 e16 > e16 < e16 D0 EPX E100,30,30,6,0 @A2 O3 e16 < b16 g+16 e16 _V-2 e16 _V2 > g+16 a+16 > d16 f16 g+16 b16 > d16 @A3 E100,60,60,8,0 P26,11,16 O1 d+16 < d+16 d+16 > d+16 < d+16 d+16 > d+16 < d+16 > c+16 < c+16 c+16 > c+16 < c+16 c+16 > c+16 < c+16 b16 < b16 b16 > b16 < b16 b16 > b16 < b16 > a+16 < a+16 a+16 > a+16 < a+16 > a+16 < a+16 > a+16 g+16 < g+16 g+16 > g+16 < g+16 g+16 > g+16 < g+16 > f+16 < f+16 f+16 > f+16 < f+16 f+16 > f+16 < f+16 > e16 e16 > e16 < e16 D0 EPX E100,30,30,6,0 @A2 O3 e16 < b16 g+16 e16 @A3 E100,60,60,8,0 P26,11,16 O1 f4 a+4 b16 < b16 b16 > b16 < b16 b16 > b16 < b16 b16 b16 > b16 < b16 b16 b16 > b16 < b16 > b16 < b16 b16 > b16 < b16 b16 > b16 < b16 > d16 d16 r8 < a+16 a+16 r8 
!4  YLR V10 [ @7 x8 @5 [ x16 r16 ]12 @7 x8 @5 [ x16 r16 ]2 ]2 @8 x8 @7 x8 [ @6 x16 x16 @7 x8 ]13 @8 x4 x8 @6 x16 x16 @8 x8 @7 x8 [ @6 x16 x16 @7 x8 ]19 @20 x2 r2 L [ @6 x16 x16 @7 x8 ]32 [ @5 [ x16 r16 ]5 @7 x8 @5 [ x16 r16 ]2 ]4 [ @8 x8 @6 [ x16 r16 ]6 @7 x8 ]2 @8 [ x4 r8 ]2 x4 @20 x2. @19 x4 @8 x8 @7 x8 [ @6 x16 x16 @7 x8 ]13 @8 x4 x8 @6 x16 x16 @8 x8 @7 x8 [ @6 x16 x16 @7 x8 ]19 @20 x1 
!5  YLR V0 @62 W0,100,20 O3 c+4. < g+4. > c+8 d+2 < g+4. > d+4 e4. c+4. e8 f+1~ f+8 @62 V0 YLR W0,100,20 O3 [ d+16 < f+16 a+16 f+16 > ]2 [ f16 < g+16 > c+16 < g+16 > ]2 [ f+16 < b16 > d+16 < f+16 > ]2 [ f16 < g+16 > c+16 < g+16 > ]2 [ d+16 < f+16 b16 f+16 > ]2 [ f16 < a+16 > c+16 < a+16 > ]2 [ f+16 < b16 > d+16 < b16 > ]2 @8 YLR V1 O1 YLR b16 YL. b16 Y.R b16 YL. b16 YLR a+16 YL. a+16 Y.R a+16 YL. a+16 YLR @62 V0 W0,100,20 O3 [ d+16 < f+16 a+16 f+16 > ]2 [ f16 < g+16 > c+16 < g+16 > ]2 [ f+16 < b16 > d+16 < f+16 > ]2 [ f16 < g+16 > c+16 < g+16 > ]2 [ d+16 < f+16 b16 f+16 > ]2 f16 < a+16 > c+16 < a+16 > f16 < a+16 > c+16 f16 g+2 [ YLR a+8 YL. a+16 ]2 b8. @44 V1 O0 YLR d+16 f+16 a+16 b16 > d+16 f+16 a+16 b16 > d+16 f+16 a+16 b16 > d+16 f+16 a+16 < YL. b16 > d+16 f+16 a+16 Y.R < b16 > d+16 f+16 a+16 @8 YLR V1 O2 c+16 c+16 YL. c+16 Y.R c+16 YLR c+16 c+16 YL. c+16 Y.R c+16 L YLR @62 V0 W0,100,20 [ > e16 < g+16 > c+16 < g+16 ]4 [ > f+16 < b16 > d+16 < b16 ]4 [ > g+16 < b16 > e16 < b16 ]4 > [ g+16 c+16 f16 c+16 ]4 [ a16 c+16 e16 c+16 ]4 [ f+16 < b16 > d+16 < b16 > ]4 [ g+16 < b16 > e16 < b16 > ]4 [ e16 < f+16 b16 f+16 > ]2 f+16 c16 d+16 c16 a16 g+16 f+16 d+16 YL. d+16 Y.R d+16 YLR e8 d+8 < b4 > e8 d+4 YL. d+4 Y.R d+4 YL. d+8 d+8 e8 f+8 f+8 YL. f+16 YLR f+8 Y.R f+16 YLR f+8. YL. f+16 YLR g+8 e2. d+4. r8 [ c+16 < e16 a16 e16 > ]4 [ c+16 < e16 g16 e16 > ]4 @8 YLR V1 O2 f+8 YL. f+8 YLR f+8 e8 Y.R e8 YLR e8 d+8 YL. d+8 @44 V1 YLR O0 [ d+16 f+16 g+16 > c16 ]4 @62 YLR V0 W0,100,20 O3 [ d+16 < f+16 a+16 f+16 > ]2 [ f16 < g+16 > c+16 < g+16 > ]2 [ f+16 < b16 > d+16 < f+16 > ]2 [ f16 < g+16 > c+16 < g+16 > ]2 [ d+16 < f+16 b16 f+16 > ]2 [ f16 < a+16 > c+16 < a+16 > ]2 [ f+16 < b16 > d+16 < b16 > ]2 @8 YLR V1 O1 YLR b16 YL. b16 Y.R b16 YL. b16 YLR a+16 YL. a+16 Y.R a+16 YL. a+16 @62 YLR V0 W0,100,20 O3 [ d+16 < f+16 a+16 f+16 > ]2 [ f16 < g+16 > c+16 < g+16 > ]2 [ f+16 < b16 > d+16 < f+16 > ]2 [ f16 < g+16 > c+16 < g+16 > ]2 [ d+16 < f+16 b16 f+16 > ]2 [ f16 < a+16 > c+16 < a+16 > ]2 g+2 [ YLR a+8 YL. a+16 ]2 r8 @44 V1 O0 r16 YLR a+16 b16 > d+16 [ f+16 a+16 b16 > d+16 ]3 < YL. f+16 a+16 b16 > d+16 Y.R < f+16 a+16 b16 > d+16 @8 V1 YLR O2 c+16 c+16 YL. c+16 Y.R c+16 YLR c+16 c+16 YL. c+16 Y.R c+16 
!6  YLR V1 O2 @20 c2 @24 c+8. _V-2 c+8. _V2 @20 c4. c4 @24 c+4. @20 c8 c2 @24 c+8. _V-2 c+8. _V2 @20 c4. c4 c8 @24 c+8 [ c+16 ]4 [ @20 c8 @24 c+8 ]13 r16 c+8 c+16 c+4 c+4 [ @20 c8 @24 c+8 ]13 [ c+16 ]4 @20 c8 @24 c+8 @20 c8 @24 c+16 c+16 [ @20 c8 @24 c+8 ]4 @20 c16 @24 c+8 c+8. [ c+16 ]3 c+8. c+16 c+8. L [ @20 c8 @24 c+8 ]15 @20 c8 @24 c+16 c+16 [ @20 c8 @24 c+8 ]12 @20 c8 @24 c+8. c+8 [ c+16 ]3 @20 c8 @24 [ c+16 ]4 @20 c4 @24 c+8 @20 c4. c8. c8. c8 @24 c+4 @20 c8 c4 @24 c+16 c+16 @20 c4 @24 c+8 @20 c4 c8 @24 c+8. @20 c8. c8 @24 c+4 @20 c8 @24 c+8. [ c+16 ]3 [ @20 c8 @24 c+8 ]8 c+4 c+8 c+4 c+8 c+4 r4 c+4 r4 [ c+16 ]4 [ @20 c8 @24 c+8 ]13 r16 c+8 c+16 c+4 c+4 [ @20 c8 @24 c+8 ]13 [ c+16 ]4 @20 c8 @24 c+8 @20 c8 @24 c+16 c+16 [ @20 c8 @24 c+8 ]4 @20 c16 @24 c+8 c+8. [ c+16 ]3 c+8. c+16 c+8. 
