;030 0032DD72
!1  T168 D1 E100,80,70,4,16 P21,9,3 @1 @@1,1,0 YLR B1 r2~ r8~ r16 V6 O3 c+8. r16 < b16. r32 > c+8. r16 r8. r8. f+4~ f+16 r16 B8 e2 r8 P12,10,6 b4~ b8. r16 P21,9,3 B1 a4 g+4 f+4 r16 L @0 @@1,2,0 E100,90,60,20,33 P21,10,2 D1 V3 YLR O3 r16 c+16 d+16 f8. d+8. f8 a+8. r16 f8. r16 f8. d+8. f8 > c8. r16 r8 < a+16 > c16 c+8. c8. < a+8 g+8. r16 a+8 f8~ f2. r4 f+8. f8. f+8 d+8. r16 a+4 g+8. f+8. g+8 > c+4 r8 < a+16 > c16 c+8. c8. c+8 < a+8 r8 > d+8 c8. E100,80,60,2,16 @@1,2,1 P16,10,4 V6 O3 EP0,0,0,2,0 D-1 YL. O2 c16 d+16 f16 a16 > c16 d+16 f16 Y.R a16 > c16 d+16 f16 r16 @0 @@1,2,0 E100,90,60,20,33 P21,9,3 B1 D0 V6 O3 c+8. c8. c+8 f8. r16 c+8. r16 c+8. c8. c+8 f8 YL. f16 r8. < YLR f+16 > g+16 a+8. g+8. < f+8 f8. r16 f+8 c+8~ c+2. r4 d+8. c+8. d+8 c8. r16 f+8. r16 f8. r16 > a+8 a+8. r16 g+8. r16 a+8. > V4 c+8 E100,80,60,2,16 @@1,2,1 P16,10,4 V6 YL. O3 EP0,0,0,2,0 D-1 r16 O1 g16 a+16 > c+16 e16 g16 a+16 > c+16 Y.R e16 g16 a+16 > c+16 r8 @0 @@1,2,0 E100,90,60,20,33 P21,10,2 B1 YLR D1 V3 O3 a+16 > c16 c+8 r16 c+8 r16 c+8 c8. r16 r4 D0 @@0,1,1 @1 E100,90,90,20,33 P21,9,3 V4 YLR < c+8 r8 < b16 r16 > c+8. r16 < b16 r16 > c+8. r16 r4 c+8. r16 e8. r16 f+8. r16 g+16. r32 c+16 r16 < b16 r16 > c+4 r2 r8 g+4 f+8 g+8 f+16 O2 a8 r8 < a16 r16 > a8. r16 < a16 r16 > a8. r16 r4 r8 a16 r16 > c+8. r16 d+8. r16 r8 g+16 r16 c+16 r16 < b16 r16 > c+4 r4 r4 e4 d+4 e4 r4 e2~ e16 r16 d+8 c+16 r16 e8 d+4 e8. r16 f+4 g+4~ g+16 r16 c+4 d+4 r8 r8. e4 d+4 c+4 r16 r16 O2 f+16 a16 > c+16 e16 f+16 a16 > c+16 e16 c+16 < a16 f+16 e16 c+16 < a16 f+16 r16 g+16 b16 > d+16 f+16 g+16 b16 > d+16 f+16 d+16 < b16 g+16 d+16 < b16 g+16 d+16 r16 > g+16 < a16 > c+16 e16 g+16 a16 > c+16 e16 c+16 < a16 g+16 e16 c+16 < a16 g+16 r16 b16 > d+16 f+16 a16 > c16 d+16 f+16 a16 g+16 f+16 d+16 c16 < g+16 f+16 d+16 
!2  E100,80,70,4,16 P21,9,3 @0 @@1,1,0 YLR B1 r2 V9 O3 c+8. r16 < b16. r32 > c+8. r16 r8. r8. f+4 r8 B8 e2 r8 P12,10,6 b4~ b8. r16 P21,9,3 B1 a4 g+4 f+4 r8 @0 @@1,2,0 E100,90,60,20,33 P21,10,2 c+16 d+16 L @0 @@1,2,0 E100,90,60,20,33 P21,10,2 YLR B1 V8 O3 f8. d+8. f8 a+8. r16 f8. r16 f8. d+8. f8 > c8. r16 r8 < a+16 > c16 c+8. c8. < a+8 g+8. r16 a+8 f8~ f2. r4 f+8. f8. f+8 d+8. r16 a+4 g+8. f+8. g+8 > c+4 r8 < a+16 > c16 c+8. c8. c+8 < a+8 r8 > d+8 c8. E100,80,60,2,16 @@1,2,1 P16,10,4 V6 O3 EP0,0,0,2,0 D-1 YLR O2 c16 d+16 f16 a16 > c16 d+16 f16 a16 > c16 d+16 f16 r8 @0 @@1,2,0 E100,90,60,20,33 P21,10,2 B1 V8 O3 c+16 d+16 f8. d+8. f8 a+8. r16 f8. r16 f8. d+8. f8 > c8 Y.R c16 r8. < YLR a+16 > c16 c+8. c8. < a+8 g+8. r16 a+8 f8~ f2. r4 f+8. f8. f+8 d+8. r16 a+8. r16 g+8. r16 > d+8 c+8. r16 c8. r16 c+8 E100,80,60,2,16 @@1,2,1 P16,10,4 V6 O3 EP0,0,0,2,0 D-1 YLR r16 O1 g16 a+16 > c+16 e16 g16 a+16 > c+16 e16 g16 a+16 > c+16 r8 @0 @@1,2,0 E100,90,60,20,33 P21,10,2 B1 V8 O3 a+16 > c16 c+8 r16 c+8 r16 c+8 c8. r16 r4 @1 @@0,1,1 E100,90,90,20,33 P21,9,3 V8 < c+8 r8 < b16 r16 > c+8. r16 < b16 r16 > c+8. r16 r4 c+8. r16 e8. r16 f+8. r16 g+16. r32 c+16 r16 < b16 r16 > c+4 r2 r8 g+4 f+8 g+8 f+4 O3 c+8 r8 < b16 r16 > c+8. r16 < b16 r16 > c+8. r16 r4 r8 c+16 r16 e8. r16 f+8. r16 g+16. r32 c+16 r16 < b16 r16 > c+4 r8 r2 g+4 f+4 g+4 e2~ e16 r16 d+8 c+8 e8 d+4 e8. r16 f+4.~ f+16 r16 b4~ b16 r16 d+4 f+4 r8 e4 d+4 c+4 < b4 a4. > c+4. e4 f+4. d+4~ d+16 r16 < b8. r16 > g+8. r16 f+16. r32 b8. r16 a8. r16 P17,9,4 g+2 P21,10,2 a16 g+16 f+4. @0 @@1,2,0 E100,90,60,20,33 P21,10,2 c+16 d+16 
!3  `AE00 @A3 E100,60,60,8,0 P24,10,16 YLR B1 V3 O1 a1 b1 > c+1 d+2 e2 L `9F00 `AE01 V3 YLR @A7 @B3 @~2 E70,70,70,0,0 YLR O1 [ a+8 ]8 [ g+8 ]8 [ f+8 ]8 > [ c+8 ]8 < [ d+8 ]8 [ f8 ]4 [ a+8 ]4 [ f+8 ]8 [ a8 ]4 [ f8 ]4 [ a+8 ]8 [ g+8 ]8 [ f+8 ]8 > [ c+8 ]8 < [ d+8 ]8 f8 f8 f8 a+8 a+8 a+8 g+8 g+8 [ g8 ]8 a8. a8. a8 f8 r4. [ a8 ]8 [ a8 ]4 [ b8 ]4 > [ c+8 ]8 [ d+8 ]3 [ e8 ]5 < [ a8 ]8 [ f+8 ]4 [ b8 ]4 > [ c+8 ]8 < [ b8 ]8 a1 b2 a2 g+2 > c2 c+4 c+4 < b4 b4 [ f+8 ]7 g+4 [ g+8 ]7 [ a8 ]8 b8 b8 b8 > c4 c8 < g+8 g+8 
!4  YLR V10 @1 [ x4. x2~ x8 ]3 x2 x2 L [ [ @1 x16 @6 x16 @7 x8 ]4 ]7 @1 x16 @6 x16 @7 x8 x16 @6 x16 @1 x16 r16 @7 x16 @6 x16 @7 x16 r16 @1 x16 @7 x16 x16 x16 [ [ @1 x16 @6 x16 @7 x8 ]4 ]7 @8 x8 @1 x16 r8. x16 r16 @13 x2 [ [ @1 x16 @6 x16 @7 x8 ]4 ]7 @1 x16 @6 x16 @7 x8 x16 @6 x16 @1 x16 r16 @7 x16 @6 x16 @7 x16 r16 @1 x16 @7 x16 x16 x16 [ @8 x8 [ @6 x16 r16 ]7 [ @6 x16 r16 ]8 ]2 [ @8 x16 @6 x16 @7 x8 [ @1 x16 @6 x16 @7 x8 ]3 ]4 
!5  YLR V0 @62 W0,100,20 O3 e2~ e8 c+8 e4 f+1 g+1 a2 b2 L V1 @62 W0,100,20 [ O2 [ Y.R > c+16 < f16 a+16 YL. f16 ]4 [ Y.R > c16 < f16 a+16 YL. f16 ]4 [ Y.R > c+16 < f16 a+16 YL. f16 ]4 [ Y.R > f16 < f16 > c16 < YL. f16 ]4 [ Y.R > f+16 < a+16 > c+16 < YL. a+16 ]4 > [ Y.R g+16 c16 d+16 YL. c16 ]2 [ Y.R g+16 c+16 f16 YL. c+16 ]2 [ Y.R a+16 c+16 f16 YL. c+16 ]4 [ Y.R a16 c16 f16 YL. c16 ]4 ]2 @57 [ V1 YL. O2 b16 Y.R b16 YL. > c+16 Y.R c+16 YL. e16 Y.R e16 YL. < b16 Y.R b16 YL. > c+16 Y.R c+16 YL. f+16 Y.R f+16 YL. < b16 Y.R b16 YL. > c+16 Y.R c+16 ]3 V1 YL. O2 b16 Y.R b16 YL. > c+16 Y.R c+16 YL. f+16 Y.R f+16 YL. < b16 Y.R b16 YL. > e16 Y.R e16 YL. c+16 Y.R c+16 YL. < b16 Y.R b16 YL. > c+16 Y.R c+16 [ YL. V1 O2 b16 Y.R b16 YL. > c+16 Y.R c+16 YL. e16 Y.R e16 YL. < b16 Y.R b16 YL. > c+16 Y.R c+16 YL. f+16 Y.R f+16 YL. < b16 Y.R b16 YL. > c+16 Y.R c+16 ]3 YL. O2 V1 b16 Y.R b16 YL. > c+16 Y.R c+16 YL. b16 Y.R b16 YL. c+16 Y.R c+16 YL. a16 Y.R a16 YL. g+16 Y.R g+16 YL. f+16 Y.R f+16 YL. e16 Y.R e16 V1 @40 O2 W0,100,20 YLR b1~ b2~ b4~ b8 > c+8 < b2 a2 g+4 f+4 e4 d+4 @8 O1 YLR V1 e8 V0 YL. e8 Y.R e8 V1 YLR e8 YL. e8 Y.R e8 V0 YL. e8 Y.R e8 V1 YLR f+8 V0 YL. f+8 Y.R f+8 V1 YLR f+8 V0 YL. f+8 Y.R f+8 V0 YL. f+8 Y.R f+8 V1 YLR g+8 V0 YL. g+8 Y.R g+8 V1 YLR g+8 V0 YL. g+8 Y.R g+8 V0 YL. g+8 Y.R g+8 V1 YLR g+8 V0 YL. g+8 Y.R g+8 V1 YLR g+8 V0 YL. f+8 Y.R f+8 V0 YL. f+8 Y.R f+8 
!6  YL. V1 @40 O2 r8 c+8 e8 a8 > c+8 e8 a8 > c+8 O2 d+8 < f+8 b8 > d+8 f+8 b8 > d+8 f+8 < e8 < g+8 > c+8 e8 g+8 b8 > e8 g+8 a8 < b8 > d+8 a8 YLR @31 O2 [ c+16 ]8 L YLR O2 [ @20 c4 @31 c+4 @20 c4 @31 c+8 d8 @20 c4 @31 c+4 @20 c16 @31 c+8. c+8 d8 ]2 @20 c4 @31 c+4 @20 c4 @31 c+4 @20 c4 @31 c+4 @20 c16 @31 c+8. c+8 d8 @20 c4 @31 c+4 @20 c4 @31 c+8 d8 @8 < YLR a8 Y.R a16 YLR a8 YL. a16 YLR a8 YLR f8 Y.R f8 YLR @31 > c+8 c+16 c+16 [ @20 c4 @31 c+4 @20 c4 @31 c+4 @20 c4 @31 c+4 @20 c16 @31 c+8. c+8 d8 ]2 @20 c4 @31 c+4 @20 c4 @31 c+4 @20 c4 @31 c+4 @20 c16 @31 c+8. c+8 d8 @20 c4 @31 c+4 @20 c16 @31 [ c+16 ]7 @8 < YLR a8 YL. a16 YLR a8 Y.R a16 a8 YLR f8 YL. f8 YLR @31 > c8 c16 c16 @20 c4 @31 c+4 @20 c4 @31 c+8 d8 @20 c4 @31 c+4 @20 c16 @31 c+8. c+8 d8 @20 c4 @31 c+4 @20 c4 @31 c+8 d8 @20 c4 @31 c+4 @20 c8 @31 c+8 c+8 d8 @20 c4 @31 c+4 @20 c4 @31 c+8 d8 @20 c4 @31 c+4 @20 c16 @31 c+8. c+8 d8 @20 c4 @31 c+4 @20 c4 @31 c+8 d8 @20 c4 @31 c+8 @20 c8 @31 c+16 c+16 c+8 c+8 d8 @20 c4 @31 c+4 @20 c8 c4 @31 c+8 @20 c4 @31 c+4 @20 c8. c8. @31 c+8 @20 c4 @31 c+4 @20 c8 c4 @31 c+16 @20 c16 c4 @31 c+4 @20 c8 @31 c+8 c+8 d16 d16 @20 c4 @31 c+4 @20 c4 @31 c+8 d8 @20 c4 @31 c+4 @20 c16 @31 c+8. c+8 d8 @20 c4 @31 c+4 @20 c4 @31 c+8 d8 @20 c4 @31 c+8 @20 c8 @31 c+16 c+16 c+8 c+8 d8 
