;031 0032E884
!1  T150 _-3 @@2,2,0 E80,100,80,3,9 P13,10,2 YLR B2 V6 O3 H-12 D-1 E100,80,80,3,0 P18,18,2 V4 r32 > e16 f+16 g8 a8 b8 a8~ a8 g8 f+8 e8~ e2~ e4 r8 e16 f+16 g8 a8 b8 a8~ a8 > d8 c8 < b8~ b2~ b4 r8 e16 f+16 g8 a8 b8 a8~ a8 g8 f+8 e8~ e2~ e4 r8 e16 f+16 g8 a8 b8 a8~ a8 > d4 f+8~ f+2 r4. r16 r32 L V5 O3 D-1 r4. r32 b8 > g8 g8 g8 f+8~ f+4 g8 a4 g4 f+8 f+8. g8. < b8~ b4 _V-4 Y.R b8 YL. b8 _V4 YLR > f+8. g8. < b8 _V-4 YL. b8 _V4 YLR b8 a8 g8 a4. b8~ b2~ b4~ b8 _V-4 Y.R b8 YL. b8 _V4 YLR b8 a8 g8 a4. b8~ b2~ b8 _V-4 Y.R b8 YL. b16. _V4 V8 D0 YLR b8 _V-4 b8 _V4 > c+8 _V-4 c+8 _V4 d+8 _V-4 d+8 ( d+8 D-1 V5 r8 r32 < b8 > g8 g8 g8 f+8~ f+4 g8 a4 g4 f+8 f+8. g8. < b8~ b4 _V-4 Y.R b8 YL. b8 _V4 YLR > f+8. g8. > d4 < b4 a8 g2. b4 a4 _V-4 a8 _V4 f+4 d4 e8~ e1~ e4 _V-4 Y.R e8 YL. e16. _V4 D0 YLR V6 c8 < b8 a8 g8 a2 _V-4 a8 _V4 f+8 g8 a8 b4 b8 b4 b4 > d+8 d+8. e8. e8 e8. d8. < b8 g2~ g4 _V-4 g8 _V4 > e16 f+16 g8. c8. e8~ e4 _V-4 e8 _V4 e16 f+16 g4 f+4 e4 f+4 d2~ d4 _V-4 d8 d8 _V4 f+16 _V-2 f+16 _V-2 f+16 _V4 f+16 _V-2 f+16 _V-2 f+16 _V4 f+16 _V-2 f+16 _V-2 Y.R f+16 YL. f+16 _V4 r32 YLR < D-1 b8 > c8 d8 e16. < D0 b8 > c8 d8 e8 _V-4 e8 _V4 g4 b4. d4. < b4 > d4. e8~ e2 e4 d4 < b4 g8 > c8~ c4 _V-4 c8 _V4 e8~ e8 d8 < b8 g16 b16~ b4 _V-4 b8 _V4 > e8~ e8 d8 e8 f+8 f+4. g8~ g2~ g2 _V-4 g8 _V4 r32 < D-1 b8 > c8 d8 e16. < D0 b8 > c8 d8 e8 _V-4 e8 _V4 g4 b4. > d4. d4 d4. e8~ e2 e4 d4 < b4 g8 b8~ b4 r8 b8~ b8 a8 g8 f+8~ f+4 r8 f+8~ f+8 e8 d8 e8~ e1~ e2~ e4 _V-4 e8 V4 r32 D-1 e16 f+16 g8 a8 b8 a8~ a8 > d8 c8 < b8~ b2~ b4 _V-4 b8 _V4 e16 f+16 g8 a8 b8 a8~ a8 g8 f+8 e8~ e2~ e4 _V-4 e8 _V4 e16 f+16 g8 a8 b8 a8~ a8 > d4 f+8~ f+2 _V-4 f+8 ( f+8 _V5 r8. r32 < < < 
!2  _-3 @@3,2,3 E100,80,80,3,0 P24,13,2 YLR B1 V7 O3 H-12 E100,80,80,3,0 P18,18,2 V4 O4 g16 a16 b4. a2 g8~ g2~ g4 a4 b4. a2 g8 O5 V5 g16 f+16 d16 < a16 g16 f+16 d16 < a16 _V-2 Y.R a16 YL. a16 Y.R a16 YL. a16 Y.R a16 YL. a16 _V2 O4 YLR V4 g16 a16 b4. a2 g8~ g2~ g4 a4 b4. a2 c8~ c2 _V-2 Y.R c16 YL. c16 Y.R c16 YL. c16 ( Y.R c16 YL. c16 Y.R c16 YL. c16 _V3 YLR < < L V7 O3 r4. b8 > g8 g8 g8 f+8~ f+4 g8 a4 g4 f+8 f+8. g8. < b8~ b4 _V-4 Y.R b8 YL. b8 _V4 YLR > f+8. g8. < b8 _V-4 YL. b8 _V4 YLR b8 a8 g8 a4. b8~ b2~ b4~ b8 _V-4 Y.R b8 YL. b8 _V4 YLR b8 a8 g8 a4. b8~ b2~ b8 _V-4 Y.R b8 YL. b8 _V4 YLR > d+8 _V-4 d+8 _V4 e8 _V-4 e8 _V4 f+8 _V-4 f+8 ( f+8 _V5 r8 < b8 > g8 g8 g8 f+8~ f+4 g8 a4 g4 f+8 f+8. g8. < b8~ b4 _V-4 Y.R b8 YL. b8 _V4 YLR > f+8. g8. > d4 < b4 a8 g2. b4 a4 _V-4 a8 _V4 f+4 d4 e8~ e1~ e4 _V-4 Y.R e8 YL. e8 _V4 YLR e8 d8 c8 < b8 > c2 _V-4 c8 < _V4 a8 b8 > c8 d4 d8 d+8~ d+8 e4 f+8 f+8. g8. g8 g8. f+8. d8 < b2~ b4 _V-4 b8 _V4 > g16 a16 b8. e8. g8~ g4 _V-4 g8 _V4 g16 a16 a+4 a4 g4 a4 f+2~ f+4 _V-4 f+8 f+8 _V4 b16 _V-2 b16 _V-2 b16 _V4 a16 _V-2 a16 _V-2 a16 _V4 b16 _V-2 b16 _V-2 Y.R b16 YL. b16 _V4 YLR < b8 > c8 d8 e2~ e8 _V-4 e8 _V4 b4 > d4. < f+4. d4 f+4. g8~ g2 g4 f+4 d4 < b8 > e8~ e4 _V-4 e8 _V4 g8~ g8 f+8 d8 < b16 > e16~ e4 _V-4 e8 _V4 g8~ g8 f+8 g8 a8 a4. b8~ b2~ b2 _V-4 b8 _V4 < b8 > c8 d8 e2. b4 > d4. f+4. f+4 f+4. g8~ g2 g4 f+4 d4 < b8 > e8~ e4 _V-4 e8 _V4 e8~ e8 d8 < b8 a8~ a4 _V-4 a8 _V4 a8~ a8 g8 f+8 g8~ g1~ g2~ g8 _V-4 g8 ( g8 V4 O4 g16 a16 b4. a2 g8 O5 V5 g16 f+16 d16 < a16 g16 f+16 d16 < a16 g16 f+16 d16 < a16 g16 f+16 d16 < a16 O4 V4 b4. a2 g8~ g2~ g4 a4 b4. a2 c8~ c2 ( c8 ( c8 ( c8 ( c8 
!3  _-3 `9F00 `AE01 V3 YLR @A7 @B3 @~2 E70,70,70,0,0 B1 V3 O1 r8 > e4. d2 c8~ c2~ c4 d4 e4. d2 c8~ c2 < c8 c8 d8 d8 e8 > e8 < e8 > e8 < d8 > d8 < d8 > d8 < c8 > c8 < c8 > c8 < c8 > c8 < d8 > d8 < e8 > e8 < e8 > e8 < d8 > d8 < d8 c8~ c2 c8 c8 d8 d8 L O1 e8 > e8 < e8 > e8 < e8 > e8 < e8 > e8 < d+8 > d+8 < d+8 > d+8 < d+8 > d+8 < d+8 > d+8 < d8 > d8 < d8 > d8 < d8 > d8 < d8 > d8 < c+8 > c+8 < c+8 > c+8 < c+8 > c+8 < c+8 > c+8 < c8 > c8 < c8 > c8 < c8 > c8 < c8 > c8 < c8 > c8 < c8 > c8 < c8 > c8 < c8 > c8 < d8 > d8 < d8 > d8 < d8 > d8 < d8 > d8 < < b8 > b8 < b8 > b8 < b8 > b8 < b8 > b8 < > e8 > e8 < e8 > e8 < e8 > e8 < e8 > e8 < d+8 > d+8 < d+8 > d+8 < d+8 > d+8 < d+8 > d+8 < d8 > d8 < d8 > d8 < d8 > d8 < d8 > d8 < c+8 > c+8 < c+8 > c+8 < c+8 > c+8 < c+8 > c+8 < c8 > c8 < c8 > c8 < c8 > c8 < c8 > c8 < d8 > d8 < d8 > d8 < d8 > d8 < d8 > d8 < e8 > e8 < e8 > e8 < e8 > e8 < e8 > e8 < e8 > e8 < d8 > d8 < c8 > c8 < < b8 > b8 < a8 > a8 < a8 > a8 < a8 > a8 < a8 > a8 < b8 > b8 < b8 > b8 < b8 > b8 < b8 > b8 < > e8 > e8 < e8 > e8 < e8 > e8 < e8 > e8 < e8 > e8 < e8 > e8 < e8 > e8 < d8 > d8 < c8 > c8 < c8 > c8 < c8 > c8 < c8 > c8 < c+8 > c+8 < c+8 > c+8 < c+8 > c+8 < c+8 > c+8 < d8 > d8 < d8 > d8 < d8 > d8 < d8 > d8 < < b8. > b8. < b8 O6 YL. b32 f+32 d+32 < b32 f+32 d+32 < b32 f+32 Y.R d+32 < b32 f+32 d+32 < b32 f+32 d+32 < b32 YLR O2 < c8 > c8 < c8 > c8 < c8 > c8 < c8 > c8 < d8 > d8 < d8 > d8 < d8 > d8 < d8 > d8 < e8 > e8 < e8 > e8 < e8 > e8 < e8 > e8 < e8 > e8 < e8 > e8 < e8 > e8 < d8 > d8 < c8 > c8 < c8 > c8 < c8 > c8 < c8 > c8 < d8 > d8 < d8 > d8 < d8 > d8 < d8 > d8 < < g8 > g8 < g8 > g8 < g8 > g8 < g8 > g8 < g8 > g8 < g8 > g8 < g8 > g8 < g8 > g8 < > c8 > c8 < c8 > c8 < c8 > c8 < c8 > c8 < d8 > d8 < d8 > d8 < d8 > d8 < d8 > d8 < e8 > e8 < e8 > e8 < e8 > e8 < e8 > e8 < e8 > e8 < e8 > e8 < e8 > e8 < e8 > e8 < c8 > c8 < c8 > c8 < c8 > c8 < c8 d4 > d8 < d2. e8 > e8 < e8 > e8 < e8 > e8 < e8 > e8 < d8 > d8 < d8 > d8 < d8 > d8 < d8 > d8 < c8 > c8 < c8 > c8 < c8 > c8 < c8 > c8 < d8 > d8 < d8 > d8 < d8 > d8 < d+8 > d+8 < e8 > e8 < e8 > e8 < e8 > e8 < e8 > e8 < d8 > d8 < d8 > d8 < d8 > d8 < d8 > d8 < c8 > c8 < c8 > c8 < c8 > c8 < c8 > c8 < d8 > d8 < d8 > d8 < d8 > d8 < d+8 > d+8 
!4  r8 V2 [ @5 x8 @7 x8 ]14 [ YL. @4 x16 Y.R @4 x16 YL. @4 x16 Y.R @4 x16 ]2 YLR @8 x8 @7 x8 [ @5 x8 @7 x8 ]10 @8 x8 @8 x4 r4. @18 x2 L @8 x8 @7 x8 [ @5 x8 @7 x8 ]15 [ @5 x8 @7 x8 ]16 @8 x8 @7 x8 [ @5 x8 @7 x8 ]15 [ @5 x8 @7 x8 ]14 [ YL. @4 x16 Y.R @4 x16 YL. @4 x16 Y.R @4 x16 ]2 YLR @8 x8 @7 x8 [ @5 x8 @7 x8 ]15 @8 x8 @7 x8 [ @5 x8 @7 x8 ]3 @8 x8 @7 x8 [ @5 x8 @7 x8 ]3 @8 x8 @7 x8 [ @5 x8 @7 x8 ]3 @8 x8. @8 x8. @8 x8 YLR @18 x2 @8 x8 @7 x8 [ @5 x8 @7 x8 ]15 @8 x8 @7 x8 [ @5 x8 @7 x8 ]13 [ YL. @4 x16 Y.R @4 x16 YL. @4 x16 Y.R @4 x16 ]2 YLR @8 x8 @7 x8 [ @5 x8 @7 x8 ]15 @8 x8 @7 x8 [ @5 x8 @7 x8 ]2 @5 x8 @8 x4 @8 x8 @8 x4 r2 YLR @8 x8 @7 x8 [ @5 x8 @7 x8 ]15 @8 x8 @7 x8 [ @5 x8 @7 x8 ]13 YLR @18 x2 
!5  r8 [ @20 V1 c4 ]14 @31 V1 c16 @31 V1 c16 @31 V1 c16 @20 V1 c16 @31 V1 c16 @31 V1 c16 @20 V1 c16 @20 V1 c16 [ @20 V1 c8 @32 V0 c8 @31 V1 c8 @32 V0 c8 @20 V1 c8 @32 V0 c8 @31 V1 c8 @32 V0 c8 ]2 @20 V1 c8 @32 V0 c8 @31 V1 c8 @32 V0 c8 @20 V1 c8 @32 V0 c8 @33 V1 c8 @33 V1 c8 r2 @31 V1 c16 @31 V1 c16 @31 V1 c16 @20 V1 c16 @31 V1 c16 @31 V1 c16 @20 V1 c16 @20 V1 c16 L [ @20 V1 c8 @32 V0 c8 @31 V1 c8 @32 V0 c8 @20 V1 c8 @32 V0 c8 @31 V1 c8 @32 V0 c8 ]8 [ @20 V1 c8 @32 V0 c8 @31 V1 c8 @32 V0 c8 @20 V1 c8 @32 V0 c8 @31 V1 c8 @32 V0 c8 ]7 @20 V1 c8 @32 V0 c8 @31 V1 c8 @32 V0 c8 [ @31 V1 c16 @31 V1 c16 @20 V1 c16 @20 V1 c16 ]2 [ @20 V1 c8 @32 V0 c8 @31 V1 c8 @32 V0 c8 @20 V1 c8 @32 V0 c8 @31 V1 c8 @32 V0 c8 ]3 @20 V1 c8 @32 V0 c8 @31 V1 c8 @32 V0 c8 @20 V1 c8 @32 V0 c8 @31 V1 c16 @31 V1 c16 @20 V1 c16 @29 V1 c16 [ @20 V1 c8 @32 V0 c8 @31 V1 c8 @32 V0 c8 @20 V1 c8 @32 V0 c8 @31 V1 c8 @32 V0 c8 ]2 @20 V1 c8 @32 V0 c8 @31 V1 c8 @32 V0 c8 @20 V1 c8 @32 V0 c8 [ @31 V1 c16 ]4 @20 V1 c16 r8 @20 V1 c16 r8 @20 V1 c16 r16 V1 @31 g16 @31 g16 r16 @31 c16 @31 g16 @31 g16 @31 c16 @31 c16 [ @20 V1 c8 @32 V0 c8 @31 V1 c8 @32 V0 c8 @20 V1 c8 @32 V0 c8 @31 V1 c8 @32 V0 c8 ]7 @20 V1 c8 @32 V0 c8 @31 V1 c8 @32 V0 c8 [ @31 V1 c16 @31 V1 c16 @20 V1 c16 @20 V1 c16 ]2 [ @20 V1 c8 @32 V0 c8 @31 V1 c8 @32 V0 c8 @20 V1 c8 @32 V0 c8 @31 V1 c8 @32 V0 c8 ]4 @20 V1 c8 @32 V0 c8 @31 V1 c8 @32 V0 c8 @20 V1 c8 @32 V0 c8 @20 V1 c8 @20 V1 c8 r8 @20 V1 c8 @20 V1 c8 r8 r2 [ @20 V1 c8 @32 V0 c8 @31 V1 c8 @32 V0 c8 @20 V1 c8 @32 V0 c8 @31 V1 c8 @32 V0 c8 ]7 @20 V1 c8 @32 V0 c8 @31 V1 c8 @32 V0 c8 [ @31 V1 c16 @31 V1 c16 @20 V1 c16 @20 V1 c16 ]2 
!6  _-3 @40 V1 O1 W0,100,0 e16 f+16 g8 a8 b8 a8~ a8 g8 f+8 e8~ e2~ e4 V0 e8 V1 e16 f+16 g8 a8 b8 a8~ a8 > d8 c8 < b8~ b2 @8 O2 V1 YLR c16 Y.R c16 YL. c16 Y.R ( c16 ) YLR d16 ( YL. d16 YLR @40 V1 O1 W0,100,0 e16 f+16 g8 a8 b8 a8~ a8 g8 f+8 e8~ e2~ e4 V0 e8 V1 e16 f+16 g8 a8 b8 a8~ a8 > d4 f+8~ f+1 L @48 V0 O2 W0,96,52 b8. b8. b8 b8. b8. b8 b8. b8. b8 b8. b8. b8 a8. a8. a8 a8. a8. a8 a8. a8. a8 a8. a8. a8 g8. g8. g8 g8. g8. g8 g8. g8. g8 g8. g8. g8 a8. a8. a8 a8. a8. a8 f+8. f+8. f+8 f+8. f+8. f+8 b8. b8. b8 b8. b8. b8 b8. b8. b8 b8. b8. b8 a8. a8. a8 a8. a8. a8 a8. a8. a8 a8. a8. a8 g8. g8. g8 g8. g8. g8 a8. a8. a8 a8. a8. a8 b8. b8. b8 b8. b8. b8 b8. b8. b8 b8. b8. b8 @44 V1 O2 W0,100,20 < a16 > c16 e16 a16 > c16 < a16 e16 c16 < a16 > c16 e16 a16 > c16 < a16 e16 c16 < b16 > d+16 f+16 b16 > d+16 < b16 f+16 d+16 < b16 > d+16 f+16 b16 > d+16 < b16 f+16 d+16 e16 g16 b16 > e16 g16 e16 < b16 g16 e16 g16 b16 > e16 g16 e16 < b16 g16 e16 g16 b16 > e16 g16 e16 < b16 g16 e16 g16 b16 > e16 g16 e16 < b16 g16 c16 e16 g16 > c16 e16 c16 < g16 e16 c16 e16 g16 > c16 e16 c16 < g16 e16 c+16 e16 g16 > c+16 e16 c+16 < g16 e16 c+16 e16 g16 > c+16 e16 c+16 < g16 e16 d16 f+16 a16 > d16 f+16 d16 < a16 f+16 d16 f+16 a16 > d16 @8 V1 O1 e16 f16 g16 a16 YLR b16 YL. b16 Y.R b16 YLR a16 YL. a16 Y.R a16 YLR b16 YL. b16 r2 YLR @48 V0 O3 W0,96,52 e16 g16 e16 g16 e16 g16 e16 g16 e16 g16 e16 g16 e16 g16 e16 g16 f+16 a16 f+16 a16 f+16 a16 f+16 a16 f+16 a16 f+16 a16 f+16 a16 f+16 a16 g16 b16 g16 b16 g16 b16 g16 b16 g16 b16 g16 b16 g16 b16 g16 b16 g16 b16 g16 b16 g16 b16 g16 b16 g16 b16 g16 b16 g16 b16 g16 b16 e16 g16 e16 g16 e16 g16 e16 g16 e16 g16 e16 g16 e16 g16 e16 g16 f+16 a16 f+16 a16 f+16 a16 f+16 a16 f+16 a16 f+16 a16 f+16 a16 f+16 a16 g16 b16 g16 b16 g16 b16 g16 b16 g16 b16 g16 b16 g16 b16 g16 b16 g16 b16 g16 b16 g16 b16 g16 b16 g16 b16 g16 b16 g16 b16 g16 b16 e16 g16 e16 g16 e16 g16 e16 g16 e16 g16 e16 g16 e16 g16 e16 g16 f+16 a16 f+16 a16 f+16 a16 f+16 a16 f+16 a16 f+16 a16 f+16 a16 f+16 a16 g16 b16 g16 b16 g16 b16 g16 b16 g16 b16 g16 b16 g16 b16 g16 b16 g16 b16 g16 b16 g16 b16 g16 b16 g16 b16 g16 b16 g16 b16 g16 b16 e16 g16 e16 g16 e16 g16 e16 g16 e16 g16 e16 g16 e8 @8 V1 O1 YLR d8~ d8 d8 d8 @40 V1 O1 W0,100,0 a8~ a8 g8 f+8 g8 g8 a8 b8 a8~ a8 g8 f+8 e8~ e2~ e4 V0 e8 V1 e16 f+16 g8 a8 b8 a8~ a8 > d8 c8 < b8~ b2~ b4 V0 b8 @40 V1 O1 W0,100,0 e16 f+16 g8 a8 b8 a8~ a8 g8 f+8 e8~ e2~ e4 V0 e8 V1 e16 f+16 g8 a8 b8 a8~ a8 > d4 f+8~ f+1 
