;033 00330EE8
!1  T174 @1 E100,70,50,19,32 YLR B1 V5 O3 [ g16 > d16 < a+16 > f16 < ]6 O4 c16 < a16 f16 d16 @@X @@0,1,1 @1 E100,90,70,16,32 P18,9,3 YLR O2 f4 L @@0,1,1 @1 E100,90,70,16,32 P18,9,3 YLR V5 O2 a+4 V4 a+16 r16 a+16 r16 YLR V5 a+4 _V-2 a+16 _V-2 a+16 YLR V5 > c2~ c16 V2 c16 c16 r16 YLR V5 c16 V2 c16 YLR V5 < a+16 V2 a+16 YLR V5 g+16 r16 g+4 a+8 > c8 V2 c16 r16 YLR V5 f8 V2 f16 r16 YLR V5 @1 P20,7,3 c+2~ c+8 V4 c+8 r8 V2 c+8 r8 @1 P18,9,3 @@1,1,1 @1 E100,90,60,16,32 P18,9,3 r4 YLR V5 < f+16 V2 f+16 YLR V5 a+16 V2 a+16 YLR V5 a+4 f+16 V2 f+16 YLR V5 > c+8 V2 c+16 V1 c+16 YLR V5 c8 V2 c16 V1 c16 YLR V5 < g+8 V2 g+8 YLR V5 f+16 V2 f+16 YLR V5 f16 V2 f16 YLR V5 f+16 V2 f+16 YLR V5 g+4. V2 g+16 r16 YLR V5 g+8. V2 g+16 YLR V5 > c16 V2 c16 YLR V5 < a+4. V2 a+16 V1 a+16 r8 r4 YLR V5 g+8. V2 g+16 YLR V5 > e4. V2 e16 r16 YLR V5 e8. V2 e16 YLR V5 f+16 V2 f+16 YLR V5 d+2~ d+8 V2 d+16 r16 YLR V5 d+8 c+16 V2 c+16 YLR V5 < b16 r16 b8. V2 b16 YLR V5 > c+16 V2 c+16 YLR V5 < b8 V2 b8 YLR V5 a8 V2 a8 YLR V5 g+2~ g+8 YLR V5 f+2 YLR V5 e8 r8 e8 d+16 V2 d+16 YLR V5 e8 V2 e8 YLR V5 a8 > e8. V2 e16 YLR V5 d+16 V2 d+16 r8 YLR V5 d+4 c+16 V2 c+16 YLR V5 < b16 V2 b16 YLR V5 g+16 V2 g+16 YLR V5 f+2. r8 f2~ f8 r4 r16 V4 O2 c+16 d+16 e16 f+16 D1 @2 @@1,1,0 YLR E100,80,70,16,25 P20,10,4 O3 g+2 V3 g+8 r16 V5 f+8 V3 f+16 V5 e16 V3 e16 V5 d+8. e8. d+16 V3 d+16 V5 < b4 V3 b16 r8. V5 > c+2 V3 c+16 r8 V5 d+8 V3 d+16 V5 e16 V3 e16 V5 f+8. d+8. < b16 V3 b16 V5 > c+4 V3 c+16 r8. V5 g+2 V3 g+8 r16 V5 f+8 V3 f+16 V5 e16 V3 e16 V5 d+8. e8. d+16 V3 d+16 V5 < b4 g+4 a8 V3 a16 V5 > c+8 V3 c+16 V5 e8 d+8 V3 d+16 V5 e8 V3 e16 V5 f+16 V3 f+16 V5 g+4 V3 g+16 r8 r4 @@X @@1,1,1 @1 E100,90,60,16,32 P18,9,3 V5 O2 f4 
!2  @@0,3,2 @0 E100,85,60,16,32 P20,13,4 B10 YLR B1 V8 O2 [ g32 r32 ]8 [ a+32 r32 ]8 > [ d32 r32 ]4 [ f32 r32 ]4 > c32 r32 < a32 r32 f32 r32 d32 r32 @2 @@0,3,3 E100,90,80,4,15 EP-2,0,0,2,0 P18,9,3 V8 O2 a+4 L @@0,1,1 @1 E100,90,70,16,32 P18,9,3 O3 f4 V6 f16 r16 V3 f16 r16 V8 YLR f4 f+16 V5 f+16 V8 YLR d+2~ d+16 V6 d+16 V3 d+16 r16 V8 YLR d+16 V5 d+16 V8 YLR c+16 V5 c+16 V8 YLR c16 V5 c16 V8 YLR c4 c+8 d+8 V6 d+16 r16 V8 YLR g+8 V6 g+16 r16 V8 YLR @1 P20,7,3 f2~ f8 V5 f8 r8 V2 f8 r8 @1 P18,9,3 r4 V8 YLR < a+16 V5 a+16 V8 YLR > c+16 V5 c+16 V8 YLR c+4 < a+16 V5 a+16 V8 YLR > a+8 V6 a+16 V3 a+16 V8 YLR g+8 V6 g+16 V3 g+16 V8 YLR f8 V6 f8 V8 YLR d+16 V5 d+16 V8 YLR c+16 V5 c+16 V8 YLR d+16 V5 d+16 V8 YLR d+4. V5 d+16 r16 V8 YLR d+8. V5 d+16 V8 YLR g+16 V5 g+16 V8 YLR f4. V6 f16 V3 f16 r4. V8 YLR c+8. V5 c+16 V8 YLR g+4. V5 g+16 r16 V8 YLR g+8. V5 g+16 V8 YLR a16 V5 a16 V8 YLR f+2~ f+8 V5 f+16 r16 V8 YLR f+8 e16 V5 e16 V8 YLR d+16 V5 d+16 V8 YLR d+8. V5 d+16 V8 YLR e16 V5 e16 V8 YLR d+8 V5 d+16 r16 V8 YLR c+8 V5 c+8 @1 P20,7,3 V8 YLR < b2.~ b8 V5 b8 r8 @1 P18,9,3 r4 V8 YLR a8 g+16 V5 g+16 V8 YLR a8 V3 a8 V8 YLR > c+8 g+8. V3 g+16 V8 YLR f+16 V3 f+16 r8 V8 YLR f+4 e16 V5 e16 V8 YLR d+16 V5 d+16 V8 YLR < b16 V5 b16 V8 YLR > c+2. r4 @2 @@1,1,0 YLR E100,80,70,16,25 P20,10,4 YLR V9 r2 r4 O3 c+16 d+16 e16 f+16 g+2 V5 g+8 r16 V9 f+8 V5 f+16 V9 e16 V5 e16 V9 d+8. e8. d+16 V5 d+16 V9 < b4 V5 b16 r8. V9 > c+2 V3 c+16 r8 V9 d+8 V5 d+16 V9 e16 V5 e16 V9 f+8. d+8. < b16 V5 b16 V9 > c+4 V5 c+16 r8. V9 g+2 V5 g+8 r16 V9 f+8 V5 f+16 V9 e16 V5 e16 V9 d+8. e8. d+16 V5 d+16 V9 < b4 g+4 a8 V5 a16 V9 > c+8 V5 c+16 V9 e8 d+8 V5 d+16 V9 e8 V5 e16 V9 f+16 V5 f+16 V9 g+4 V5 g+16 r8. r4 @@1,1,1 @1 E100,90,60,16,32 P18,9,3 V8 O2 g+4 
!3  @A3 `9F00 `AE00 E100,95,90,13,0 YLR B1 V3 O0 [ g16 ]32 L O1 f+8 f+8 f+8 f+8 f+8 c+8 f+8 g+4 g+8 > d+8 < g+8 g+8 g+8 f+8 f4 f8 f8 f8 f4 f8 a+4 a+8 > f8 < a+8 g+8 g+8 d+8 g+8 f+8 f+8 f+8 f+8 f+8 c+8 f+8 g+4 g+8 > d+8 < g+8 g+8 g+8 g+8 g+8 f8 f8 f8 f8 f8 f8 f8 a+4 a+8 d8 d8 d+8 d+8 f8 f8 a8 a8 a8 a8 a8 e8 a8 b4 b8 > f+8 < b8 b8 b8 a8 g+4 g+8 g+8 g+8 g+8 g+8 g+8 > c+8 c+8 c+8 c+8 c+8 < b8 b8 b8 b8 a8 a8 a8 a8 a8 e8 a8 g+4 g+8 g+8 g+8 g+8 f+8 b8 b8 > c+8 c+8 c+8 c+8 c+8 < g+8 > c+8 c+4 c+8 g+4 c+8 c+8 < g+8 > c+8 < a8 a8 a8 a8 a4 e8 b4 b8 f+4 b4 g+4 a8 a8 a8 a8 a4 e8 g+4~ g+16 g+8. g+8 c+8. c+8. c+8 a8 a8 a8 a8 a4 e8 b4 b8 f+4 b4 g+4 a8 a8 a8 a8 a+8 a+8 a+4 b8 b8 b8 > c4 c8 c8 c8 
!4  YLR r1 V3 @20 x1 L @8 x4 [ @5 x16 x16 @7 x8 ]15 @8 x4 [ @5 x16 x16 @7 x8 ]11 V3 @20 x1 @8 x4 [ @5 x16 x16 @7 x8 ]15 @8 x4 [ @5 x16 x16 @7 x8 ]13 r2 [ @7 [ x8 r8 ]7 @8 x4 ]3 V8 [ @5 x16 x16 @7 x8 ]8 
!5  YLR V1 @8 O1 g8 V0 YL. g8 Y.R g8 r2 V1 YLR g8 g8 V0 YL. g8 Y.R g8 YL. g8 r2 L @44 O0 YLR V1 < f+16 a+16 > c+16 f16 f+16 a+16 > c+16 f16 YL. f+16 Y.R f16 YLR c+16 < a+16 f+16 f16 c+16 < a+16 YLR g+16 > c16 d+16 g+16 > c16 d+16 g+16 > c16 YL. d+16 Y.R c16 < YLR g+16 d+16 c16 < g+16 d+16 c16 < f16 g+16 > c16 d+16 f16 g+16 > c16 d+16 YL. g+16 Y.R d+16 YLR c16 < g+16 f16 d+16 c16 < g+16 a+16 > c+16 f16 a+16 > c+16 f16 a+16 > c+16 YL. d+16 Y.R c16 YLR < g+16 d+16 c16 < g+16 d+16 c16 < f+16 a+16 > c+16 f16 f+16 a+16 > c+16 f16 YL. f+16 Y.R f16 YLR c+16 < a+16 f+16 f16 c+16 < a+16 g+16 > c16 d+16 g+16 > c16 d+16 g+16 > c16 YL. d+16 Y.R c16 < YLR g+16 d+16 c16 < g+16 d+16 c16 < f16 g+16 > c16 f16 g+16 > c16 f16 g+16 YL. > c16 < Y.R g+16 YLR f16 c8. @8 < a+4 a+8 a+4 YLR g+4 V0 YL. g+8 Y.R g+8 V1 YLR @44 < a16 > c+16 e16 g+16 a16 > c+16 e16 g+16 YL. a16 Y.R g+16 YLR e16 c+16 < a16 g+16 e16 c+16 < b16 > d+16 f+16 b16 > d+16 f+16 b16 > d+16 YL. f+16 Y.R d+16 < YLR b16 f+16 d+16 < b16 f+16 d+16 < g+16 b16 > d+16 g+16 b16 > d+16 g+16 b16 YL. > d+16 < Y.R b16 YLR g+16 d+16 < b16 g+16 d+8 c+16 f16 g+16 > c+16 f16 g+16 > c+16 f16 YL. g+16 Y.R f16 YLR c+16 < g+16 f16 c+16 < g+16 f16 < a16 > c+16 e16 g+16 a16 > c+16 e16 g+16 YL. a16 Y.R g+16 YLR e16 c+16 < a16 g+16 e16 c+16 < g+16 b16 > d+16 g+16 b16 > d+16 g+16 b16 YL. > d+16 < Y.R b16 YLR g+16 d+16 < b16 g+16 d+16 < b16 > c+16 f16 g+16 > c+16 f16 g+16 > c+16 f16 YL. c+16 < Y.R g+16 YLR f16 c+16 < g+16 f16 @8 c+4 c+8 c+4 c+8 V0 YL. c+8 Y.R c+8 YL. c+8 V0 @39 O3 YLR e16 Y.R e16 YLR c+16 Y.R c+16 YLR g+16 Y.R g+16 YLR c+16 Y.R c+16 YLR e16 Y.R e16 YLR c+16 Y.R c+16 YLR g+16 Y.R g+16 YLR c+16 Y.R c+16 YLR f+16 Y.R f+16 YLR c+16 Y.R c+16 YLR g+16 Y.R g+16 YLR c+16 Y.R c+16 YLR g+16 Y.R g+16 YLR d+16 Y.R d+16 YLR e16 Y.R e16 YLR g+16 Y.R g+16 YLR e16 Y.R e16 YLR c+16 Y.R c+16 YLR g+16 Y.R g+16 YLR c+16 Y.R c+16 YLR e16 Y.R e16 YLR c+16 Y.R c+16 YLR g+16 Y.R g+16 YLR c+16 Y.R c+16 YLR d+16 Y.R d+16 YLR c+16 Y.R c+16 YLR g+16 Y.R g+16 YLR c+16 Y.R c+16 YLR g+16 Y.R g+16 YLR d+16 Y.R d+16 YLR e16 Y.R e16 YLR g+16 Y.R g+16 YLR e16 Y.R e16 YLR c+16 Y.R c+16 YLR g+16 Y.R g+16 YLR c+16 Y.R c+16 YLR e16 Y.R e16 YLR c+16 Y.R c+16 YLR g+16 Y.R g+16 YLR c+16 Y.R c+16 YLR f+16 Y.R f+16 YLR c+16 Y.R c+16 YLR g+16 Y.R g+16 YLR c+16 Y.R c+16 YLR g+16 Y.R g+16 r8 r4 YLR @8 V1 O1 a8 a8 V0 YL. a8 Y.R a8 V1 YLR a+8 a+8 V0 YL. a+8 Y.R a+8 V1 YLR b8 b8 V0 YL. b8 V1 > YLR c4 c8 V0 YL. c8 Y.R c8 
!6  YL. V1 @40 O2 O1 [ g16 ]8 [ a+16 ]8 > [ d16 ]4 [ f16 ]4 YLR @31 O2 c16 c16 c16 c16 c4 L YLR O2 [ @0 c4 @31 c4 @0 c8 c8 @31 c4 @0 c4 @31 c4 @0 c4 @31 c4 @0 c4 @31 c4 @0 c8 c8 @31 c4 @0 c4 @31 c4 @0 c4 @31 c8 @0 c8 ]3 @0 c4 @31 c4 @0 c8 c8 @31 c4 @0 c4 @31 c4 @0 c4 @31 c4 @0 c4 @31 c4 @0 c4 @31 c4 @0 c8 c8 @31 c4 c16 c8. [ c16 ]4 @0 c8 c8 c8 c8 @31 c4 @0 c8 c8 r8 c4. @31 c4 @0 c4 c8 c8 c8 c8 @31 c4. @0 c8 c4. c8 @31 c4 c8. c16 c8 @0 c8 c8 c8 @31 c4. @0 c4 c4. @31 c4 c8 c16 c16 @0 c4 @31 c4 @0 c8 c8 @31 c4 @0 c4 @31 c4 c16 c8. [ c16 ]4 
