;034 00331ACC
!1  T190 YLR B1 @0 @@1,2,0 E80,100,70,3,14 EP-4,0,0,2,0 P18,8,3 Y.R B1 V6 O0 r2. r8 e8 r2. r8 e8 r2. r8 e8 r1 L V4 YLR O2 r4 a8 b8 a8 > c+8 < a8 > c+8 d8 e4. r8 e8 r16 d8 r16 c+8 < a2 @0 @@2,2,1 E100,90,60,17,29 r4 a4 g+4 a8 b8 r8 e4 r8 @1 @@1,2,0 E80,100,70,3,14 EP-4,0,0,2,0 P18,8,3 r8 a8 r8 a8 > c+8 < a8 > c+8 d8 e4. r8 a8 r16 g+8 r16 f+8 e2 @0 @@2,2,1 E100,90,60,17,29 r4 e4 e8 d8 c+8 d8 < a8 b4. @1 @@1,2,0 E80,100,70,3,14 EP-4,0,0,2,0 P18,8,3 r8 f8 g8 a8 > c8 d8 e8 d4. r8 d8. r16 c8. r16 < b16. r32 a2 r8 a8 g+8 a8 > e2~ e8 r4. r8 e8 r8 e8 e8 d8 e8 a4 a8 g8 r8 e8 r8 d8 r8 c+2~ c+4~ c+8~ c+16 O1 V6 a16 > c+16 e16 a16 c+16 e16 a16 > c+16 < e16 a16 > c+16 e16 < a16 > c+16 e16 YLR V6 O1 [ d+8 e16 r16 e16 r16 d+8 e16 r16 e16 r16 d+8 e16 r16 ]4 [ d+8 e16 r16 e16 r16 d+8 e16 r16 e16 r16 d+8 e16 r16 ]2 e8 e8 r8 d+8 r8 e8 d+8 e8 e8 r8 V7 O3 f+2. 
!2  @0 @@1,2,0 E80,100,70,3,14 EP-4,0,0,2,0 P18,8,3 YLR B1 r2. V8 O0 d+8 r8 r2. d+8 r8 r2. d+8 r8 r1 L YLR V9 O2 r8 a8 b8 a8 > c+8 < a8 > c+8 d8 e4. r8 e8 r16 d8 r16 c+8 < a2 @0 @@2,2,1 E100,90,60,17,29 r4 a4 g+4 a8 b8 r8 e4 r8 @1 @@1,2,0 E80,100,70,3,14 EP-4,0,0,2,0 P18,8,3 r8 a8 r8 a8 > c+8 < a8 > c+8 d8 e4. r8 a8 r16 g+8 r16 f+8 e2 @0 @@2,2,1 E100,90,60,17,29 r4 e4 e8 d8 c+8 d8 < a8 b4. @1 @@1,2,0 E80,100,70,3,14 EP-4,0,0,2,0 P18,8,3 r8 f8 g8 a8 > c8 d8 e8 d4. r8 d8. r16 c8. r16 < b16. r32 a2 r8 a8 g+8 a8 > e2~ e8 r4. r8 e8 r8 e8 e8 d8 e8 a4 a8 g8 r8 e8 r8 d8 r8 c+1 V10 O1 a16 > c+16 e16 a16 c+16 e16 a16 > c+16 < e16 a16 > c+16 e16 < a16 > c+16 e16 a16 V7 YLR < O1 [ b8 b16 r16 b16 r16 a+8 b16 r16 b16 r16 b8 b16 r16 ]4 > [ e8 e16 r16 e16 r16 d+8 e16 r16 e16 r16 e8 e16 r16 ]2 e8 r8 r8 d+8 r8 e8 d+8 e8 < b8 r8 V8 O3 c+2. 
!3  @A3 `9F00 `AE00 E100,95,90,11,0 YLR B1 V3 O1 d+8 e8 e8 d+8 e8 e8 d+8 e8 d+8 e8 e8 d+8 e8 e8 d+8 e8 d+8 e8 e8 d+8 e8 e8 d+8 e8 g8 e8 a8 e8 g8 e8 a8 e8 L < a8 a8 a8 a8 a8 a8 a8 a8 > c+8 c+8 c+8 c+8 c+8 c+8 c+8 c+8 d8 d8 d8 d8 d8 d8 d8 d8 e8 e8 e8 e8 e8 e8 e8 e8 < a8 a8 a8 a8 a8 a8 a8 a8 > c+8 c+8 c+8 c+8 c+8 c+8 c+8 c+8 d8 d8 d8 d8 d8 d8 d8 d8 e8 e8 e8 e8 e8 e8 e8 e8 d8 d8 d8 d8 d8 d8 d8 d8 < g8 g8 g8 g8 g8 g8 g8 g8 a8 a8 a8 a8 a8 a8 a8 a8 > e8 e8 e8 e8 e8 e8 e8 e8 d8 d8 d8 d8 d8 d8 d8 d8 < g8 g8 g8 g8 g8 g8 g8 g8 a8 a8 a8 a8 a8 a8 a8 a8 a8 a8 a8 a8 a8 a8 a8 a8 > [ d+8 e8 e8 d+8 e8 e8 d+8 e8 ]4 d+8 e8 e8 d+8 e8 e8 d+8 e8 d+8 e8 e8 d+8 e8 e8 d+8 e8 d+8 e8 e8 d+8 g8 e8 a8 e8 b8 _V-2 b8 _V2 e2. 
!4  YLR [ @6 x16 x16 @9 x8 ]12 @12 x1 L [ @8 x8 @9 x8 [ @6 x16 x16 @9 x8 ]15 ]3 @8 x8 @9 x8 [ @6 x16 x16 @9 x8 ]7 [ @8 x8 @9 x8 @6 x16 x16 @9 x8 ]2 r1 [ @6 x16 x16 @9 x8 ]29 @12 x2. 
!5  V1 @8 O1 YL. b4. Y.R a+4. YL. b4 Y.R b4. YL. a+4. Y.R b4 YL. b4. Y.R a+2 YL. b8 YLR @3 O2 e4 @1 YLR [ c16 ]12 L YLR [ [ @0 c8 @1 c8 ]14 @0 c16 @1 c16 c16 @0 c16 c16 @1 c16 c16 @0 c16 ]3 [ @0 c8 @1 c8 ]12 [ c16 ]16 [ @0 c8 @1 c8 ]14 [ c16 ]8 [ @0 c8 @1 c8 ]13 @61 W0,100,20 YL. b2. 
!6  YLR V1 O2 @62 W0,100,20 d+8 e8 e8 d+8 e8 e8 d+8 e8 d+8 e8 e8 d+8 e8 e8 d+8 e8 d+8 e8 e8 d+8 e8 e8 d+8 e8 g8 e8 a8 e8 g8 e8 a8 e8 L V1 O2 @62 W0,100,20 YL. a8 > e8 a8 < Y.R a8 YL. > e8 a8 < a8 > e8 < a8 > e8 a8 < Y.R a8 YL. > e8 a8 < a8 > e8 < a8 > e8 a8 < Y.R a8 YL. > e8 a8 < a8 > e8 < b8 > e8 b8 < Y.R b8 YL. > e8 b8 < b8 > e8 < a8 > e8 a8 < Y.R a8 YL. > e8 a8 < a8 > e8 < a8 > e8 a8 < Y.R a8 YL. > e8 a8 < a8 > e8 < a8 > e8 a8 < Y.R a8 YL. > e8 a8 < a8 > e8 < b8 > e8 b8 < Y.R b8 YL. > e8 b8 < b8 > e8 O1 a8 > e8 > c8 O1 Y.R a8 YL. > e8 > c8 O1 a8 > e8 < g8 > d8 b8 Y.R < g8 YL. > d8 b8 < g8 > d8 < a8 > e8 a8 < Y.R a8 YL. > e8 a8 < a8 > e8 < b8 > e8 b8 < Y.R b8 YL. > e8 b8 < b8 > e8 O1 a8 > e8 > c8 Y.R O1 a8 YL. > e8 > c8 O1 a8 > e8 < g8 > d8 b8 Y.R < g8 > YL. d8 b8 < g8 > d8 < a8 > e8 a8 Y.R < a8 > YL. e8 a8 < a8 > e8 < a8 > e8 > c+8 Y.R O1 a8 YL. > e8 > c+8 O1 a8 > e8 V1 @8 O1 YL. b4. Y.R a+4. @3 YLR b8 ( b8 ) @8 YL. b4. Y.R a+4. @3 YLR b8 ( b8 ) @8 YL. b4. Y.R a+2 YL. b8 Y.R > d8 < YL. b8 Y.R > e8 < YL. b8 Y.R > g8 < YL. b8 Y.R > a8 < YL. b8 YL. > e4. Y.R d+4. YLR @3 e4 YL. @8 e4. Y.R d+4. YLR @3 e4 YL. @8 e8 Y.R e4 YL. d+4 Y.R e4 YL. e8 Y.R e4 @61 W0,100,20 Y.R O2 g+4 YLR @1 [ c16 ]8 
