;036 003335BA
!1  T181 r4 @0 E100,80,70,30,0 @@1,2,1 P15,10,4 EP0,0,0,2,0 Y.R V5 O4 r8 [ V6 O4 d16 r16 < f+16 r16 ]4 [ V6 > c+16 r16 < f+16 r16 ]4 [ V6 b16 r16 g16 r16 ]4 r16 YLR V5 O1 f+16 a+16 > c+16 f+16 a+16 > c+16 f+16 YL. a+16 Y.R > c+16 YL. f+16 Y.R a+16 YL. > c+16 r16 L @0 E100,80,70,30,0 @@1,2,1 P15,10,4 EP0,0,0,2,0 V7 YLR O2 b1. a4 b4 > c+2 < b2 a2 g4~ g8 r8 e1. g4 a4 b2 a2 g2 f+4~ f+8 r8 g1. a4 b4 > c+2 < b2 a+2 > d2 e1~ e4 d4 c+4 < b4 > c2 < b2 a+2.~ a+8. r16 r8. V5 O2 b4~ b8. r16 > c+4~ c+8. r16 d4~ d8. r16 f+4~ f+16 r16 a8~ a1~ a4~ a16 r16 b8 a8 f+8 e8 d8 O2 b4~ b8. r16 > c+4~ c+8. r16 d4~ d8. r16 f+4~ f+16 r16 b8~ b2.~ b8. r16 V4 a+2 f+4~ f+8. r16 V5 YL. O4 d8 < d8 Y.R > c+8 < d8 YL. b8 d8 Y.R a+8 d8 YL. b8 d8 Y.R > c+8 < d8 YL. > d8 < d8 Y.R b8 d8 YL. > d8 < d8 Y.R > c+8 < d8 YL. b8 d8 Y.R a+8 d8 YL. b8 d8 Y.R > c+8 < d8 YL. > d8 < d8 Y.R b8 d8 YL. > c+8 < c+8 Y.R b8 c+8 YL. a+8 c+8 Y.R b8 c+8 YL. > c+8 < c+8 Y.R a+8 c+8 YL. f+8 c+8 r16 O4 d1 c+1 V7 [ YLR O2 b24 Y.R b24 YLR f+24 YL. f+24 YLR < b24 Y.R b24 ]8 [ YLR O3 c24 Y.R c24 YLR < g24 YL. g24 YLR c24 Y.R c24 ]8 [ YLR > c+24 Y.R c+24 YLR < g+24 YL. g+24 YLR c+24 Y.R c+24 ]8 [ YLR > c24 Y.R c24 YLR < g24 YL. g24 YLR c24 Y.R c24 ]8 V6 YLR O1 b24 Y.R b24 YLR > d24 YL. d24 YLR f+24 Y.R f+24 YLR b24 YL. b24 YLR > d24 Y.R d24 YLR f+24 YL. f+24 YLR b24 Y.R b24 YLR f+24 YL. f+24 YLR d24 Y.R d24 YLR < b24 YL. b24 YLR f+24 Y.R f+24 YLR d24 YL. d24 YLR f+24 Y.R f+24 YLR b24 YL. b24 YLR > d24 Y.R d24 YLR f+24 YL. f+24 YLR b24 Y.R b24 YLR > d24 YL. d24 YLR f+24 Y.R f+24 YLR d24 YL. d24 YLR < b24 Y.R b24 YLR f+24 YL. f+24 YLR d24 Y.R d24 YLR < b24 YL. b24 YLR c24 Y.R c24 YLR d+24 YL. d+24 YLR g24 Y.R g24 YLR > c24 YL. c24 YLR d+24 Y.R d+24 YLR g24 YL. g24 YLR > c24 Y.R c24 YLR < g24 YL. g24 YLR d+24 Y.R d+24 YLR c24 YL. c24 YLR < g24 Y.R g24 YLR d+24 YL. d+24 YLR g24 Y.R g24 YLR > c24 YL. c24 YLR d+24 Y.R d+24 YLR g24 YL. g24 YLR > c24 Y.R c24 YLR d+24 YL. d+24 YLR g24 Y.R g24 YLR d+24 YL. d+24 YLR c24 Y.R c24 YLR < g24 YL. g24 YLR d+24 Y.R d+24 YLR c24 YL. c24 YLR < c+24 Y.R c+24 YLR e24 YL. e24 YLR g+24 Y.R g+24 YLR > c+24 YL. c+24 YLR e24 Y.R e24 YLR g+24 YL. g+24 YLR > c+24 Y.R c+24 YLR < g+24 YL. g+24 YLR e24 Y.R e24 YLR c+24 YL. c+24 YLR < g+24 Y.R g+24 YLR e24 YL. e24 YLR g+24 Y.R g+24 YLR > c+24 YL. c+24 YLR e24 Y.R e24 YLR g+24 YL. g+24 YLR > c+24 Y.R c+24 YLR e24 YL. e24 YLR g+24 Y.R g+24 YLR e24 YL. e24 YLR c+24 Y.R c+24 YLR < g+24 YL. g+24 YLR e24 Y.R e24 YLR c+24 YL. c+24 YLR < c24 Y.R c24 YLR d+24 YL. d+24 YLR g24 Y.R g24 YLR > c24 YL. c24 YLR d+24 Y.R d+24 YLR g24 YL. g24 YLR > c24 Y.R c24 YLR < g24 YL. g24 YLR d+24 Y.R d+24 YLR c24 YL. c24 YLR < g24 Y.R g24 YLR d+24 YL. d+24 YLR g24 Y.R g24 YLR > c24 YL. c24 YLR d+24 Y.R d+24 YLR g24 YL. g24 YLR > c24 Y.R c24 YLR d+24 YL. d+24 YLR g24 Y.R g24 YLR d+24 YL. d+24 YLR c24 Y.R c24 YLR < g24 YL. g24 YLR d+24 Y.R d+24 YLR c24 YL. c24 
!2  @1 E100,80,70,30,0 @@1,2,1 P15,10,4 EP0,0,0,2,0 YL. V8 r4 O4 V7 [ O4 d16 r16 < f+16 r16 ]4 [ > c+16 r16 < f+16 r16 ]4 [ b16 r16 g16 r16 ]4 r16 YLR O1 f+16 a+16 > c+16 f+16 a+16 > c+16 f+16 YL. a+16 > Y.R c+16 YL. f+16 Y.R a+16 > YL. c+16 r8. L @1 E100,80,70,30,0 @@1,2,1 P15,10,4 EP0,0,0,2,0 YL. [ O3 YL. V8 d8 Y.R V5 d8 YL. V8 < f+8 Y.R V5 f+8 YL. V8 b8 Y.R V5 b8 YL. V8 f+8 Y.R V5 f+8 ]2 [ O3 YL. V8 d8 Y.R V5 d8 YL. V8 < g8 Y.R V5 g8 YL. V8 b8 Y.R V5 b8 YL. V8 g8 Y.R V5 g8 > ]2 [ O3 YL. V8 c+8 Y.R V5 c+8 YL. V8 < e8 Y.R V5 e8 YL. V8 a8 Y.R V5 a8 YL. V8 e8 Y.R V5 e8 > ]4 [ O2 YL. V8 b8 Y.R V5 b8 YL. V8 d8 Y.R V5 d8 YL. V8 g8 Y.R V5 g8 YL. V8 d8 Y.R V5 d8 ]2 YL. V8 O3 c+8 Y.R V5 c+8 YL. V8 < e8 Y.R V5 e8 YL. V8 a8 Y.R V5 a8 YL. V8 e8 Y.R V5 e8 YL. V8 O3 c+8 Y.R V5 c+8 YL. V8 < f+8 Y.R V5 f+8 YL. V8 a+8 Y.R V5 a+8 YL. V8 f+8 Y.R V5 f+8 [ YL. V8 O3 e8 Y.R V5 e8 YL. V8 < g8 Y.R V5 g8 YL. V8 b8 Y.R V5 b8 YL. V8 g8 Y.R V5 g8 ]2 YL. V8 O3 c8 Y.R V5 c8 YL. V8 < e8 Y.R V5 e8 YL. V8 g8 Y.R V5 g8 YL. V8 e8 Y.R V5 e8 V6 YLR r16 O1 f+16 a+16 > c+16 f+16 a+16 > c+16 f+16 YLR a+16 > YL. c+16 Y.R f+16 YLR a+16 > YL. c+16 r8. YLR V7 O2 b4~ b8. r16 > c+4~ c+8. r16 d4~ d8. r16 f+4~ f+16 r16 a8~ a1~ a4~ a16 r16 b8 a8 f+8 e8 d8 O2 b4~ b8. r16 > c+4~ c+8. r16 d4~ d8. r16 f+4~ f+16 r16 b8~ b2.~ b8. r16 a+2 f+4~ f+8. r16 O4 d8 < d8 > c+8 < d8 b8 d8 a+8 d8 b8 d8 > c+8 < d8 > d8 < d8 b8 d8 > d8 < d8 > c+8 < d8 b8 d8 a+8 d8 b8 d8 > c+8 < d8 > d8 < d8 b8 d8 > c+8 < c+8 b8 c+8 a+8 c+8 b8 c+8 > c+8 < c+8 a+8 c+8 f+8 c+8 > e8 c+8 V6 f+1 e1 [ O2 V8 b2.~ b8 V4 b8 V8 > f+2. e12 f12 f+12 g1~ g2~ g8 r4. V8 g+2.~ g+8 V4 g+8 > V8 c+2.~ c+8 V4 c+8 V8 c2.~ c8 V4 c8 < V8 g2. V4 g8 r8 ]2 
!3  @A3 `9F00 `AE00 E100,95,90,12,0 YLR B1 V3 O0 r4 b2 > b2 a+2~ a+8. r8. f16 f+16 g2 e2 [ f+8 _V-2 f+8 _V2 ]2 f+4 r4 L O1 b2~ b16 r8. b8 _V-2 b8 _V2 b2~ b16 r8. b4 g2~ g16 r8. g8 _V-2 g8 _V2 g2~ g16 r8. g4 a2~ a16 r8. a8 _V-2 a8 _V2 a2.~ a8. _V-2 a16 _V2 [ f+2~ f+8 _V-2 f+8 _V2 f+8. _V-2 f+16 _V2 ]2 g2~ g16 r8. g8 _V-2 g8 _V2 g1 a2~ a16 r8. a8 _V-2 a8 _V2 a+2~ a+16 r8. a+8 _V-2 a+8 _V2 e2~ e16 r8. e8 _V-2 e8 _V2 e1 [ c4. _V-2 c8 _V2 ]2 c+2 r2 [ b8 ]16 [ a8 ]16 [ g8 ]16 [ a8 ]8 [ a+8 ]8 g1~ g1 f1~ f1 f+1 e1 d1 c+1 [ [ O0 b12 > b12 ]12 [ O1 c12 > c12 ]12 [ O1 c+12 > c+12 ]12 [ O1 c12 > c12 ]12 ]2 
!4  YLR r4 [ @6 [ x8 r8 ]7 @7 x4 ]2 L [ @6 [ x8 r8 ]15 @7 x4 ]3 @6 [ x8 r8 ]14 @20 x2 [ @6 x8 ]64 [ [ @6 x8 ]14 @7 x8 @6 x8 ]2 [ @8 x2 @6 x8 r8 r8 x8 r8 r8 x8 r8 @7 x8 r8 r8 r8 ]2 [ @6 [ x8 r8 ]7 @7 x4 ]4 [ @6 [ x12 ]19 @7 x12 @6 x12 @7 x12 @6 x12 x12 ]4 
!5  YLR r4 V0 YLR @58 W0,100,20 r2 O2 d2 c+2 e2 d2 f2 e4 d4 c+2 L V0 YLR @58 W0,100,20 d1. < f+4 > d4 e2 d2 c+2 < b2 > c+1. < e4 > c+4 d2 c+2 < b2 a2 b1. > c+4 d4 e2 d2 c+2 f+2 g1~ g4 f+4 e4 d4 e2 d2 c+1 @62 V0 > [ YLR b12 < YL. b12 > YLR f+12 ]8 [ YLR a12 < YL. a12 > YLR e12 ]8 [ YLR g12 < YL. g12 > YLR d12 ]8 [ YLR a12 < YL. a12 > YLR e12 ]4 [ YLR a+12 < YL. a+12 > YLR f+12 ]4 [ YLR g12 < YL. b12 > YLR d12 ]8 [ YLR f12 < YL. b12 > YLR d12 ]8 [ YLR f+12 < YL. a+12 > YLR c+12 ]8 [ YLR f+12 < YL. a+12 > YLR d12 ]4 [ YLR e12 < YL. a+12 > YLR c+12 ]4 V0 @58 W0,100,20 O1 YLR f+1 b2. b12 b12 b12 > c1~ c1 c+1 g+1 g1 c1 < f+1 b2. b12 b12 b12 > c1~ c1 c+1 g+1 g1 c1 
!6  YLR V1 @4 O1 f+12 f+12 f+12 b2. f12 f12 f12 f2. f4 f2 f4 f4 f2 [ f16 ]8 L [ b2. f12 f12 f12 f2. f4 f2 f4 f4 f2 [ f16 ]8 ]3 b2. f12 f12 f12 f2. f4 f2 f4 f4 f8 r8 r8 f8 > @24 [ c16 ]8 [ [ @20 c4 @24 c4 ]2 ]12 r2 @4 c+4. c+4. c+4 r2 r2 c+4. c+4. < b4 [ b12 ]6 YLR V1 @4 O1 [ b2. f12 f12 f12 f2. f4 f2 f4 f4 f2 [ f16 ]8 ]4 
