;037 0033413A
!1  T173 @1 E100,80,70,32,0 @@1,2,1 P15,10,4 EP0,0,0,2,0 YLR B1 V5 O2 r8. a2 b2 > c2 d+2 < a2 b2 > c4. r8 d+4~ d+16 @3 E100,85,60,16,32 P20,18,4 B10 @@1,2,1 YLR V5 r4 O3 d+4~ d16 r16 < g+4~ g+16 r16 > d+8 e4. r8 f+4~ f+16 r16 e4 d+4 r8 c+4 r8 < b8 > c+2~ c+16 r16 r4 < g+4~ g+16 r16 d+4~ d+16 r16 g+8 > c+4. r8 c+4~ c+16 r16 c+4 < b4~ b32 r16. > d+4~ d+32 r16. g+16. r32 r8 g4~ g16 r8. c+4 r8 c+16 c+16 < b1~ b2. r4 L E100,90,60,19,32 YLR r4 > d+4~ d+16 r16 d+16 r16 c+4~ c+16 r16 c+16 r16 < b4~ b16 r16 a+16 r16 b8 > c+16 r16 d+16 r16 f+16 r16 d+4~ d+16 r16 d+16 r16 c+4 r8 c+16 r16 < b4~ b16. r32 a+16 r16 b16. r32 > c+16. r32 r8 d+4~ d+16 r16 d+16 r16 c+4~ c+16 r16 c+16 r16 < b4~ b16 r16 a+16 r16 b8 > c+16 r16 d+16 r16 f+16 r16 d+8. r16 c+8. r16 < b8. r16 a+8. r16 g+8. r16 g8. r16 g+8. r16 a+8 V7 O2 @2 D0 @@X E95,100,90,19,32 YLR c+16 ( YL. c+16 ) YLR e16 ( YL. e16 ) YLR g+16 ( YL. g+16 ) YLR > d+16 ( YL. d+16 ( d+16 r16 _V2 YLR c+16 ( YL. c+16 ) < YLR b16 ( YL. b16 ) YLR g+16 ( YL. g+16 YLR d+16 YL. d+16 YLR f+16 YL. f+16 YLR a+16 YL. a+16 YLR > f+16 YL. f+16 YLR f+16 YL. r16 YLR d+16 YL. d+16 YLR < a+16 YL. a+16 YLR f+16 YL. f+16 YLR g+16 YL. g+16 YLR b16 YL. b16 YLR > d+16 YL. d+16 YLR g+16 YL. g+16 YLR g+16 YL. r16 YLR f+16 YL. f+16 YLR d+16 YL. d+16 YLR < b16 YL. b16 YLR > c+16 YL. c+16 YLR f+16 YL. f+16 YLR c+16 YL. c+16 YLR < b16 YL. b16 YLR a+16 YL. a+16 YLR > c+16 YL. c+16 YLR < a+16 YL. a+16 YLR f+16 YL. f+16 YLR c+16 YL. c+16 YLR e16 YL. e16 YLR g+16 YL. g+16 YLR > d+16 YL. d+16 YLR d+16 YL. r16 YLR c+16 YL. c+16 YLR < b16 YL. b16 YLR g+16 YL. g+16 YLR d+16 YL. d+16 YLR f+16 YL. f+16 YLR a+16 YL. a+16 YLR > f+16 YL. f+16 YLR f+16 YL. r16 YLR d+16 YL. d+16 YLR < b16 YL. b16 r8 YLR V4 @0 r16 O0 g+16 a16 > c+16 e16 g+16 a16 > c+16 e16 g+16 a16 > c+16 e16 g+16 a16 > c+16 < a16 r8 e16 g+16 a+16 > c+16 e16 g+16 b16 r16 a+16 g16 e16 r8 @2 E100,85,60,16,32 P20,18,4 B10 @@1,2,1 YLR V5 O2 g+16 a+16 b16 > c+16 d+4~ d16 r16 < g+4~ g+16 r16 > d+8 e4. r8 f+4~ f+16 r16 e4 d+4 r8 c+4 r8 < b8 > c+2~ c+8 r4 < g+4~ g+16 r16 d+4~ d+16 r16 g+8 > c+4. r8 c+4~ c+16 r16 c+4 < b4~ b32 r16. > d+4~ d+32 r16. g+16. r32 r8 g4~ g16 r8. c+4 r8 c+16 c+16 < b1~ b2. r4 
!2  @1 E100,80,70,32,0 @@1,2,1 P15,10,4 EP0,0,0,2,0 YLR B1 V8 O2 a2 b2 > c2 d+2 < a2 b2 > c2 d+4~ d+16 r8. @3 E100,85,60,16,32 P20,18,4 B10 @@1,2,1 YLR V8 d+4~ d16 r16 < g+4~ g+16 r16 > d+8 e4. r8 f+4~ f+16 r16 e4 d+4 r8 c+4 r8 < b8 > c+2~ c+8 r4 < g+16 a+16 b16 > c+16 d+4~ d16 r16 < g+4~ g+16 r16 > d+8 e4. r8 f+4~ f+16 r16 e4 d+4 r8 g+4 r8 b8 r8 a+4~ a+16 r8. g4 r8 g+16 g16 g+1~ g+2. r4 L E100,90,60,19,32 YLR d+4~ d+16 r16 d+16 r16 c+4~ c+16 r16 c+16 r16 < b4~ b16 r16 a+16 r16 b8 > c+16 r16 d+16 r16 f+16 r16 d+4~ d+16 r16 d+16 r16 c+4 r8 c+16 r16 < b4~ b16. r32 a+16 r16 b16. r32 > c+16. r32 d+16. r32 g+16 r16 d+4~ d+16 r16 d+16 r16 c+4~ c+16 r16 c+16 r16 < b4~ b16 r16 a+16 r16 b8 > c+16 r16 d+16 r16 f+16 r16 d+8. r16 c+8. r16 < b8. r16 a+8. r16 g+8. r16 g8. r16 g+8. r16 a+8. r16 @@3,2,1 E100,90,60,19,32 V8 e4. g+4. b4 > d+4. c+4. f+4 d+4. c+4. < b4 a+4. b4. f+8 r8 V7 g+4. a+4. b4 a+4~ a+16 r16 f+8.~ f+32 r32 f+16. r32 > c+16 r16 < b2~ b8 YLR V7 @0 O1 a16 > c+16 e16 g+16 a16 > c+16 e16 g+16 a16 e16 g+16 a+16 > c+16 e16 g+16 b16 r16 a+16 g16 e16 @2 E100,85,60,16,32 P20,18,4 B10 @@1,2,1 YLR V8 O2 g+16 a+16 b16 > c+16 d+4~ d16 r16 < g+4~ g+16 r16 > d+8 e4. r8 f+4~ f+16 r16 e4 d+4 r8 c+4 r8 < b8 > c+2~ c+8 r4 < g+16 a+16 b16 > c+16 d+4~ d16 r16 < g+4~ g+16 r16 > d+8 e4. r8 f+4~ f+16 r16 e4 d+4 r8 g+4 r8 b8 r8 a+4~ a+16 r8. g4 r8 g+16 g16 g+1~ g+2. r4 
!3  @A3 `9F00 `AE00 E100,95,90,13,0 YLR B1 V3 O1 [ a4 ]4 [ g4 ]4 [ f4 ]4 [ c4 ]3 < b4 O0 g+8 < g+8 > [ g+8 < g+16 ( g+16 ) > ]2 g+8 > c+4 [ < c+16 ( c+16 ) > c+8 ]3 < c+16 ( c+16 ) [ b8 < b16 ( b16 ) > ]2 [ g+8 < g+16 ( g+16 ) > ]2 a+8 < a+16 ( a+16 ) > a+8 g4 d+8 > c+8 < a+8 g+8. < g+16 > [ g+8 < g+16 ( g+16 ) > ]2 g+8 > c+4 [ < c+16 ( c+16 ) > c+8 ]3 < c+16 ( c+16 ) [ b8 < b16 ( b16 ) > ]2 [ g+8 < g+16 ( g+16 ) > ]2 [ > d+8 < d+16 ( d+16 ) ]2 [ > c+8 < c+16 ( c+16 ) ]2 [ b16 ( b16 ) e16 ( e16 ) ]8 L [ g+16 ( g+16 ) ]8 [ f+16 ( f+16 ) ]8 [ e16 ( e16 ) ]8 [ f+16 ( f+16 ) ]6 [ g16 ( g16 ) ]2 [ g+16 ( g+16 ) ]8 [ d+16 ( d+16 ) ]8 e4 e4 e16 ( e16 ) < b4 > e16 f16 [ f+16 ( f+16 ) ]4 [ g16 ( g16 ) ]4 c+4. c+4. c+4 d+4. d+4. d+4 e4. e4. e4 f+4. f+4. f+4 c+4. c+4. c+4 < b4. b4. b16 ( b16 ) a1~ a8 a+2 > d+2 g+8. < g+16 > [ g+8 < g+16 ( g+16 ) > ]2 g+8 > c+4 [ < c+16 ( c+16 ) > c+8 ]3 < c+16 ( c+16 ) [ b8 < b16 ( b16 ) > ]2 [ g+8 < g+16 ( g+16 ) > ]2 a+8 < a+16 ( a+16 ) > a+8 g4 d+8 > c+8 < a+8 g+8. < g+16 > [ g+8 < g+16 ( g+16 ) > ]2 g+8 > c+4 [ < c+16 ( c+16 ) > c+8 ]3 < c+16 ( c+16 ) [ b8 < b16 ( b16 ) > ]2 [ g+8 < g+16 ( g+16 ) > ]2 [ > d+8 < d+16 ( d+16 ) ]2 [ > c+8 < c+16 ( c+16 ) ]2 [ b16 ( b16 ) e16 ( e16 ) ]8 
!4  YLR V10 @6 [ x16 r16 ]8 x16 r8. x16 r8. x16 r16 @7 x8 @6 x16 r16 x16 r16 @6 [ x16 r16 ]8 [ x16 r8. ]2 @20 x2 @8 x8 @7 x16 r16 [ @6 x16 x16 @7 x16 r16 ]3 [ [ @6 x16 x16 @7 x16 r16 ]4 ]3 @8 x8 @7 x16 r16 [ @6 x16 x16 @7 x16 r16 ]3 [ [ @6 x16 x16 @7 x16 r16 ]4 ]3 [ @6 x16 x16 @7 x16 r16 ]4 [ @6 x16 x16 @7 x16 r16 ]4 L @8 x8 @7 x16 r16 [ @6 x16 x16 @7 x16 r16 ]3 [ [ @6 x16 x16 @7 x16 r16 ]4 ]3 @8 x8 @7 x16 r16 [ @6 x16 x16 @7 x16 r16 ]3 [ @6 x16 x16 @7 x16 r16 ]4 [ @7 x8 @6 x16 r16 ]2 x16 x16 @7 x8 r8 @8 x8 @6 x16 x16 @7 x8 r8 x8 @6 [ x16 ]8 [ @6 x16 r16 x16 r16 x16 r16 x16 r16 r16 r16 @7 x8 r16 r16 x16 r16 @6 x16 r16 x16 r16 x16 r16 r16 r16 r16 r16 @7 x8 r16 r16 @6 x16 r16 ]3 r1 @20 x1 [ @8 x8 @7 x16 r16 [ @6 x16 x16 @7 x16 r16 ]3 [ [ @6 x16 x16 @7 x16 r16 ]4 ]3 ]2 [ @6 x16 x16 @7 x16 r16 ]8 
!5  YLR V0 @58 O1 W0,100,20 a8 b8 a8 > d+8 < a8 b8 a8 > d+8 f8 < a8 > e8 < a8 > d8 < d+8 > e8 < a8 a8 b8 a8 > d+8 < a8 b8 a8 > d+8 f8 < a8 > e8 < a8 YLR O1 @24 [ a16 ]8 V1 @24 [ @20 b8 @24 a8 @20 b8 @24 a8 @20 b8 @24 a8 @20 b8 @24 a16 a16 ]10 L [ @20 b8 @24 a8 @20 b8 @24 a8 @20 b8 @24 a8 @20 b8 @24 a8 ]6 @20 b8 r8 @24 a8 r16 @20 b16 b8 b8 r8 @24 a8 @20 b8 @24 a16 a8. @20 b8 r16 @24 a16 a16 a16 a16 a16 a8 [ @20 b8 r4 b8 r8 @24 a8 r4 ]3 @20 b8 r4 b8 r8 @24 a8 r8. a16 @20 b8 r4 b8 r8 @24 a8 r4 @20 b8 r4 b8 r8 @24 a8 a8 @20 b8 r4. b8 r4 @24 a8 r8 @20 b8 @24 a16 a8 @20 b16 @24 a8. @20 b8 r16 @24 a16 a16 a16 a16 [ @20 b8 @24 a8 @20 b8 @24 a8 @20 b8 @24 a8 @20 b8 @24 a16 a16 ]10 
!6  YL. V1 @62 O2 W0,100,20 a1 g1 f1 c2. < b4 V0 > YLR b8 YL. d+16 Y.R d+16 YLR g+8 YL. d+16 Y.R d+16 YLR b8 YL. d+16 Y.R d+16 YLR g+8 > c+4 < YLR e8 g+8 YL. e16 Y.R e16 YLR > c+8 < YL. e16 Y.R e16 g+8 YL. e16 Y.R e16 YLR b8 YL. d+16 Y.R d+16 YLR g+8 YL. d+16 Y.R d+16 YLR b8 YL. d+16 Y.R d+16 b8 a+4 YLR d+16 YL. d+16 YLR g8 YL. a+16 Y.R a+16 YLR > d+8 < YL. d+16 Y.R d+16 YLR > c+8 < d+8 YLR b8 YL. d+16 Y.R d+16 YLR g+8 YL. d+16 Y.R d+16 YLR b8 YL. d+16 Y.R d+16 g+8 > c+4 YLR < e16 YL. e16 YLR g+8 YL. e16 Y.R e16 YLR > c+8 < YL. e16 Y.R e16 YLR g+8 e8 YLR b8 YL. d+16 Y.R d+16 YLR g+8 YL. b16 Y.R b16 YLR > d+8 < YL. g+16 Y.R g+16 YLR b8 > YL. d+16 Y.R d+16 YL. g2 Y.R d+2 YLR e8 < YL. e16 Y.R e16 YLR > e8 < YL. e16 Y.R e16 YLR > e8 < YL. e16 Y.R e16 YLR > e8 < YL. e16 Y.R e16 YLR > f+8 < YL. f+16 Y.R f+16 YLR > f+8 < YL. f+16 Y.R f+16 YLR > g+8 < YL. g+16 Y.R g+16 YLR > g+8 < YL. g+16 Y.R g+16 L YLR g+1 f+1 e1 f+2~ f+8 g4. g+1 d+1 e4 e4 e4. e4 f+4 f+4 g4 g8 @38 W0,100,72 V0 r8 e4. g+4. b4 > d+4. c+4. f+4 d+4. c+4. < b4 a+4. b4. f+8 e4. e4. e4 f+4. f+4 f+8 f+8 c+1~ c+8 V0 @58 W0,100,20 e2 g2 V0 @62 W0,100,20 YLR b8 YL. d+16 Y.R d+16 YLR g+8 YL. d+16 Y.R d+16 YLR b8 YL. d+16 Y.R d+16 YLR g+8 > c+4 < YLR e8 g+8 YL. e16 Y.R e16 YLR > c+8 < YL. e16 Y.R e16 g+8 YL. e16 Y.R e16 YLR b8 YL. d+16 Y.R d+16 YLR g+8 YL. d+16 Y.R d+16 YLR b8 YL. d+16 Y.R d+16 b8 a+4 YLR d+16 YL. d+16 YLR g8 YL. a+16 Y.R a+16 YLR > d+8 < YL. d+16 Y.R d+16 YLR > c+8 < d+8 YLR b8 YL. d+16 Y.R d+16 YLR g+8 YL. d+16 Y.R d+16 YLR b8 YL. d+16 Y.R d+16 g+8 > c+4 YLR < e16 YL. e16 YLR g+8 YL. e16 Y.R e16 YLR > c+8 < YL. e16 Y.R e16 YLR g+8 e8 YLR b8 YL. d+16 Y.R d+16 YLR g+8 YL. b16 Y.R b16 YLR > d+8 < YL. g+16 Y.R g+16 YLR b8 > YL. d+16 Y.R d+16 YL. g2 Y.R d+2 YLR e8 < YL. e16 Y.R e16 YLR > e8 < YL. e16 Y.R e16 YLR > e8 < YL. e16 Y.R e16 YLR > e8 < YL. e16 Y.R e16 YLR > f+8 < YL. f+16 Y.R f+16 YLR > f+8 < YL. f+16 Y.R f+16 YLR > g+8 < YL. g+16 Y.R g+16 YLR > g+8 < YL. g+16 Y.R g+16 
