;038 00334E1A
!1  T133 L @2 E95,100,90,25,42 Y.R B2 V4 r8 O0 a16 r16 > e16 a16 r16 > c+16 e16 a16 r16 > c+16 e16 a16 r16 > c+16 e16 a16 r16 O1 e16 r16 b16 > d16 r16 g16 b16 > d16 r16 g16 b16 r16 > d16 O1 [ a24. r48 a24 r24 a12 > d24. r48 d24 r24 d12 ]2 r6 b12 e12 b12 e12 > c+12 < e12 b12 e12 > e12 < e12 r6 O1 d12 a12 > e12 f12 a12 > c12 O1 e12 b12 > e12 g12 b12 > d12 r12 O1 a12 > d12 g12 b12 > d12 c+12 < b12 > e12 c+12 < b12 a12 r12 e12 f12 a12 > c24 r24 e24 r24 < e12 b12 > d12 g12 f+12 d12 r12 < e12 f+12 a12 > c+12 e12 f+12 a12 > c+12 e12 r12 O1 b12 > d+12 e12 f12 a12 > c12 e12 f12 a12 > c12 e12 r6 O1 g12 b12 > d12 g12 b12 > d12 g12 b12 > d12 g12 f+12 d12 r12 [ < e12 f12 > c12 ]2 < e12 > e12 c12 
!2  L @2 E95,100,90,25,42 YL. B2 V7 O0 a12 > e12 a12 > c+12 e12 a12 > c+12 e12 a12 > c+12 e12 a12 r12 O1 e24. r48 b24. r48 > d24. r48 g24. r48 b24. r48 > d24. r48 g24. r48 b24. r48 > d24. r48 g24. r48 b24. r48 O2 d24. r48 d24 r24 d12 a24. r48 a24 r24 a12 > d24. r48 d24 r24 d12 a24. r48 a24 r24 a12 b12 e12 b12 e12 > c+12 < e12 b12 e12 > e12 < e12 b12 > c+12 O1 d12 a12 > e12 f12 a12 > c12 O1 e12 b12 > e12 g12 b12 > d12 r12 O1 a12 > d12 g12 b12 > d12 c+12 < b12 > e12 c+12 < b12 a12 r12 e12 f12 a12 > c24 r24 e24 r24 < e12 b12 > d12 g12 f+12 d12 r12 < e12 f+12 a12 > c+12 e12 f+12 a12 > c+12 e12 a12 > c+12 r12 O2 e12 f12 a12 > c12 e12 f12 a12 > c12 e12 f12 a12 O1 g12 b12 > d12 g12 b12 > d12 g12 b12 > d12 g12 f+12 d12 r12 < e12 f12 > c12 < e12 f12 > c12 < e12 > e12 c12 < e12 f12 
!3  L @A3 `9F00 `AE00 E100,95,90,17,0 YLR B2 V3 O1 r4 c+4 c+4 c+12 d12 e12 < b1 > e12 < a12 > d12 e12 < a12 > d12 f+12 < a12 > d12 f+12 < a12 > d12 O0 a12 > a12 < a12 > a12 < a12 > a12 < a12 > a12 < a12 > a12 a12 a12 O0 d3 < a12 > d12 e3 b6 a3 e12 < a6 > a4 > c12 c+12 d3 < a12 d12 e4 b4 O0 [ f+12 ]12 [ f12 ]12 [ g12 ]12 [ d12 ]12 
!4  L YLR V8 @15 x12 r6 r4 x12 r6 x12 x12 x12 x12 r6 r12 x12 r12 r6 x12 x12 x12 x12 x12 r6 x12 r12 x12 r12 x12 r12 x12 x12 x12 x12 r6 r6 x12 r12 x12 r12 x12 x12 x12 x12 x12 x12 r12 x12 x12 r12 x12 r12 x12 r12 x12 x12 x12 x12 r12 x12 r12 x12 r12 x12 x12 x12 x12 x12 x12 x12 r12 x12 x12 r12 x12 r12 x12 r12 x12 x12 x12 x12 r12 x12 r12 x12 r12 x12 x12 x12 x12 x12 r12 r12 x12 x12 x12 r12 x12 r12 x12 x12 x12 x12 r12 r12 x12 x12 x12 r12 x12 r12 x12 x12 x12 x12 r12 r12 x12 x12 x12 r12 x12 r12 x12 r12 x12 
!5  L YLR V1 @4 O1 a4~ a6 [ a12 ]4 a4 e4 e6 e6 [ e12 ]2 e4 d4 d6 [ d12 ]4 d4 a4 a6 [ a12 ]4 a4 V1 @40 YLR W0,100,20 r12 > e12 a12 > c24 ( c24 ) e6 d6 < g6 g6 > g2 a2 > c4~ c12 < b12 > c12 < b4 g12. r24 g12 V1 @4 YLR O1 f+4 [ f+12 ]2 [ f+6 ]3 f+12 f4 [ f12 ]2 [ f6 ]2 f4 g4 [ g12 ]2 [ g6 ]2 g4 d4 [ d12 ]2 [ d6 ]3 d12 
!6  L YLR V1 @61 W0,100,20 O0 a4 > a4 > e4 a8 ( a8 ) g2 ( g4 ( g4 _V2 g12 f+12 e12 f+12 e12 d12 d4.~ d24 r12 e12. r24. < a16 a2 ( a8 ( a8 _V2 > c4 c12 < f12 > c12 d4 ( d8 ( d8 _V2 < b4 > d4 c+8 < b8 a4 > c4 < f8. > c16 d4~ d8. d16 e2 ( e8 ( e8 _V2 r4 > e2 ( e4 ( e4 V1 d4 ( d8 ( d8 _V2 < g4~ g12 r12 g12 a2. ( a8 ( a8 
