;039 003351E8
!1  T135 L @2 E95,100,90,25,41 Y.R B2 V4 O2 c1 c+1 d1 d+1 YL. V3 [ r6 O0 a12 > g12 > c12 g12 > c12 g6 > c12 g12 > c12 < g12 c12 O0 a12 > a12 > c12 f12 > c12 f6 > c12 f12 > c12 < f12 < f12 O0 g12 > g12 > d12 b12 > d12 b12 O0 g+12 > g+12 > e12 b12 > e12 b12 O1 a12 > e12 g12 > c12 g12 > c12 e12 g12 > c12 e12 ]2 r6 O2 d12 < g12 > c12 d12 < g12 > c12 d12 < g12 > c12 g12 < g12 > c12 d12 < g12 b12 > d12 < g12 b12 > d12 < g12 b12 > g12 < g12 b12 > d12 < g12 > c12 d12 < g12 > c12 d12 < g12 > c12 g12 < g12 > c12 d12 < g12 b12 > d12 < g12 b12 > d12 < g12 b12 > g12 < g12 b12 > d12 < g12 > c12 d12 < g12 > c12 d12 < g12 > c12 g12 < g12 > c12 d12 < g12 b12 > d12 < g12 b12 > d12 < g12 b12 > g12 < g12 b12 > d12 < g12 > c12 d12 < g12 > c12 d12 < g12 > c12 g12 < g12 > c12 d12 < g12 b12 > d12 < g12 b12 > d12 < g12 b12 > g12 
!2  L @2 E95,100,90,25,41 YL. B2 V8 O2 e1 f1 f+1 g1 YLR V5 O0 a12 > g12 > c12 g12 > c12 g12 r12 > c12 g12 > c12 < g12 c12 O0 a12 > a12 > c12 f12 > c12 f12 r12 > c12 f12 > c12 < f12 < f12 O0 g12 > g12 > d12 b12 > d12 b12 O0 g+12 > g+12 > e12 b12 > e12 b12 O1 a12 > e12 g12 > c12 g12 > c12 e12 g12 > c12 e12 < g12 c12 O0 a12 > g12 > c12 g12 > c12 g12 r12 > c12 g12 > c12 < g12 c12 O0 a12 > a12 > c12 f12 > c12 f12 r12 > c12 f12 > c12 < f12 < f12 O0 g12 > g12 > d12 b12 > d12 b12 O0 g+12 > g+12 > e12 b12 > e12 b12 O1 a12 > e12 g12 > c12 g12 > c12 e12 g12 > c12 e12 < g12 c12 O2 d12 < g12 > c12 d12 < g12 > c12 d12 < g12 > c12 g12 < g12 > c12 d12 < g12 b12 > d12 < g12 b12 > d12 < g12 b12 > g12 < g12 b12 > d12 < g12 > c12 d12 < g12 > c12 d12 < g12 > c12 g12 < g12 > c12 d12 < g12 b12 > d12 < g12 b12 > d12 < g12 b12 > g12 < g12 b12 > [ d12 < g12 > c12 ]3 g12 < g12 > c12 d12 < g12 b12 > d12 < g12 b12 > d12 < g12 b12 > g12 < g12 b12 > [ d12 < g12 > c12 ]3 g12 < g12 > c12 d12 < g12 b12 > d12 < g12 b12 > d12 < g12 b12 > g12 < g12 b12 
!3  L @A3 `9F00 `AE00 E100,95,90,16,0 YLR B2 V3 O1 c12. r12. c12. r24 [ c12 ]4 c12 r12 r12 [ c12 r12 r12 c12 c12 c12 c12. r24 c12 c12 r12 r12 ]2 c12 r12 r12 c12 c12 c12 c12 c12 c12 c12 r12 r12 a6 r12 a12. r24 a12 a12 a12 a12 a12. r12. d6 r12 d12. r24 d12 d12 d12 d12 d12. r12. g6 r12 g12. r24 g12 g+12. r12. g+6 r12 a6 r12 a12. r24 [ a12 ]4 g12. r12. a6 r12 a12. r24 [ a12 ]4 a12. r12. d6 r12 d12. r24 [ d12 ]4 d12. r12. g6 r12 g12. r24 g12 g+12. r12. g+6 r12 a6 r12 a12. r24 [ a12 ]4 a12. r12. [ a12 ]12 [ e12 ]12 [ f12 ]12 [ g12 ]12 [ a12 ]12 [ e12 ]12 [ f12 ]12 [ g12 ]12 
!4  L YLR @15 x4 x6 x12 x12 x12 x12 x4 x4 x6 x12 x12 x12 x12 x4 x4 x6 x12 x12 x12 x12 x4 x4 x6 x12 x12 x12 x12 x4 x4 x6 x12 x12 x12 x12 x4 x4 x6 x12 x12 x12 x12 x4 x4 x6 x12 x12 x12 x12 x4 x4 x6 x12 x12 x12 x12 x4 x4 x6 x12 x12 x12 x12 x4 x4 x6 x12 x12 x12 x12 x4 x4 x6 x12 x12 x12 x12 x4 x4 x6 x12 x12 x12 x12 x4 x12 x12 x12 x12 x12 x12 x12 x12 x12 x12 x12 x12 x12 x12 x12 x12 x12 x12 x12 x12 x12 x12 x12 x12 x12 x12 x12 x12 x12 x12 x12 x12 x12 x12 x12 x12 x12 x12 x12 x12 x12 x12 x12 x12 x12 x12 x12 x12 x12 x12 x12 x12 x12 x12 x12 x12 x12 x12 x12 x12 x12 x12 x12 x12 x12 x12 x12 x12 x12 x12 x12 x12 x12 x12 x12 x12 x12 x12 x12 x12 x12 x12 x12 x12 x12 x12 x12 x12 x12 x12 x12 x12 x12 x12 x12 x12 
!5  L YLR V1 @4 O1 [ c4 c6 [ c12 ]4 c4 ]12 V1 YLR @40 W0,100,20 O3 c4~ c12. r24 < g4~ g12 > g2. f12 e12 d12 d6 e12 c4~ c12. r24 < g4~ g12 > g2 r12 d12 e12 f12 e12 c12 c6 d12 V1 YLR @4 O1 [ c4 c6 [ c12 ]4 c4 ]4 
!6  L YLR V1 @61 W0,100,20 O1 g6 g12 > c12 < g12 > c12 g1 ( g4 ( g4 _V2 r6 < g12 > c12 < g12 > c12 g1 ( g4 ( g4 _V2 [ g4. ( g8 ) c4. ( c8 ) f2 ( f4 ) e12 d12 c12 d2 ( d4 ) < b8. b16 > c2 ( c4 )~ c12 r6 ]2 [ g2 ( g8 ( g8 _V2~ g12 e12 f12 g1~ g2 ( g8 ( g8 g12 _V2 e12 f12 g1 ]2 
