;040 003356A0
!1  T130 D1 @0 E90,100,90,26,43 YL. V4 r8. O4 g16 d16 < a+16 g16 g16 L P27,10,8 @0 @@1,1,0 E100,86,40,68,68 YLR O2 V4 r8. g4 > B7 c4.~ g4 d2 e4 d4 c8 < g4 > B4 c4.~ g4 d1~ d16 r16 d+8 d8 c1~ c2 _V-2 c8 r8 _V2 d+8 d8 c8 c2 < a+1 r8 @@1,0,2 O2 E100,100,80,8,2 P26,15,6 [ > c4 < g8 > d4 < g8 _V-2 g16 _V2 r16 > c4 r4 f8 e8 c8 < g4 ]2 > d4~ d16 _V-2 d16 _V2 d+2 _V-2 d+16 _V2 r16 f4~ f16 _V-2 f16 _V2 g4. _V-2 g16 _V2 r8. g4. f4. c8 g4 _V-2 g16 _V2 r8. f8 e8 c8 < g8 e8 > c2~ c8 < a+8 > c8 d+8 d4. c4. < a+4 > d+1 f4. g2~ g8 r2 @0 @@1,1,0 E100,90,40,17,51 P27,14,4 O3 a+8 g+8 g8 g+8 g4 d+16 r16 B4 d+4~ c4 O0 Y.R V8 @@X EPX f16 g+16 > c16 c+16 f16 g+16 > c16 c+16 f16 g+16 > c16 c+16 f16 g+16 > c16 r8 O1 d16 a16 > c16 e16 f16 a16 > c16 e16 f16 g16 b16 > d16 f16 g16 r16 > r16 r8 O1 [ Y.R a+16 _V-4 YL. a+16 _V4 ]14 
!2  @0 E90,100,90,26,43 YLR V8 O4 g16 d16 < a+16 g16 g16 d16 < a+16 g16 L P27,10,8 @0 @@1,1,0 E100,86,40,68,68 YLR O2 g4 > B4 c4.~ g4 d2 e4 d4 c8 < g4 > B7 c4.~ g4 d1~ d16 r16 d+8 d8 c1~ c2 _V-2 c8 r8 _V2 d+8 d8 c8 c2 < a+1 r8 @@1,0,2 O2 E100,100,80,8,2 P26,15,6 V8 [ > c4 < g8 > d4 < g8 _V-2 g16 _V2 r16 > c4 r4 f8 e8 c8 < g4 ]2 > d4~ d16 _V-2 d16 _V2 d+2 _V-2 d+16 _V2 r16 f4~ f16 _V-2 f16 _V2 g4. _V-2 g16 _V2 r8. g4. f4. c8 g4 _V-2 g16 _V2 r8. f8 e8 c8 < g8 e8 > c2~ c8 < a+8 > c8 d+8 d4. c4. < a+4 > d+1 f4. g2~ g8 r2 @0 @@1,1,0 E100,90,50,17,51 P27,10,8 YLR V8 O3 a+8 g+8 g8 g+8 g4 d+16 r16 B3 d+4~ B4 c4~ P27,14,4 f1 PX r8 V7 EPX @@X YL. O0 V5 d16 a16 > c16 e16 V6 f16 a16 > c16 e16 V7 f16 g16 b16 > d16 f16 g16 b16 > d16 O2 [ YL. g16 _V-4 Y.R g16 _V4 ]16 
!3  @A3 `9F00 `AE00 E100,95,90,17,0 YLR B2 V3 r2 L O1 V3 [ [ V3 c16 V1 c16 ]16 < [ V3 a+16 V1 a+16 ]16 [ V3 g+16 V1 g+16 ]16 [ V3 a+16 V1 a+16 ]16 > ]2 O0 [ V3 g+16 V1 g+16 ]8 [ V3 a+16 V1 a+16 ]8 > [ V3 c16 V1 c16 ]8 [ V3 d16 V1 d16 ]3 [ V3 d+16 V1 d+16 ]5 V3 < [ V3 g+16 V1 g+16 ]8 [ V3 f16 V1 f16 ]8 > [ V3 c+16 V1 c+16 ]8 [ V3 d16 V1 d16 ]3 < [ V3 g16 V1 g16 ]5 [ V3 g+16 V1 g+16 ]16 
!4  YLR V8 r2 L [ @1 x8 r8 r8 x8 r4 @15 x32 r32 @1 x8 @15 x32 r32 ]16 [ [ x32 r16. ]15 [ x32 r32 ]2 ]5 
!5  YLR V1 @40 W0,100,20 a+16 f16 d16 < a+16 a+16 f16 d16 < a+16 L @27 V0 [ O3 YLR g16 YL. g16 < YLR g16 YL. g16 > YLR d16 YL. d16 YLR c16 YL. c16 r8 < YLR g16 YL. g16 > YLR g16 YL. g16 < YLR g16 YL. g16 ]7 @37 W0,100,20 V1 YLR O0 [ f16 a+16 > c16 f16 ]4 YLR V1 @40 W0,100,20 O1 V1 g4 > c4. g4 d2 e4 d4 c8 < g4 > c4. g4 d1 r8 d+8 d8 c1~ c2 r4 d+8 d8 c8 c2 < a+1 PX r8 O3 d8 < f8 a+8 > c8 < d+8 g+8 > c8 < d+8 > d8 < f8 a+8 > d+8 < f8 a+8 > d+8 < f8 > d+8 < g8 a+8 > d+8 < g8 a+8 > d+8 < g8 > f8 < a+8 > d8 g8 < a+8 > d+8 g8 < a+8 @40 W0,100,20 [ > c16 < g16 > g16 < g16 ]3 > c16 < g16 > g16 c16 [ d+16 c16 g16 c16 ]4 [ c+16 < g+16 > f16 < g+16 > ]3 c+16 < g+16 > f16 c16 d16 < a16 > f16 < a16 > d16 < a16 > f16 c16 < [ b16 g16 > g16 < g16 ]2 V1 O2 [ g16 r16 ]16 
!6  YLR r4 V1 @4 O1 [ g16 ]4 L [ > [ c4 r8 ]2 < g8 g16 g16 ]15 @28 r4. < a+8 g8 e8 < a+8 g8 @4 > g+4 _V-2 g+8 _V2 g+8 _V-2 g+8 _V2 d+8 d+16 g+8 _V-2 g+16 _V2 a+4 r8 a+16 _V-2 a+16 _V2 r8 a+8 r16 a+8 r16 > c8 _V-2 c16 r8. _V2 c8 _V-2 c8 < _V2 g8 _V-2 c16 > _V2 c8 _V-2 c16 _V2 < a+4. d+4. d+4 g+4. g+16 g+8. g+4. f4. f16 f8. f4. c+4. c+16 c+8. c+4. d4. d16 d8. g8. g8. g+4. g+4. g+8 g+16 g+16 g+4. g+4. g+16 g+16 g+16 g+16 
