;041 00335BB8
!1  T78 r4 L @2 E100,85,60,36,71 P46,29,4 B23 V4 O3 YL. r16 [ YL. b16 Y.R d+16 YL. g+16 Y.R d+16 ]3 [ YL. b16 Y.R e16 YL. g+16 Y.R e16 ]3 [ YL. a+16 Y.R c+16 YL. f+16 Y.R c+16 ]3 [ YL. a+16 Y.R d+16 YL. f+16 Y.R d+16 ]3 [ YL. g+16 < Y.R b16 > YL. e16 < Y.R b16 > ]3 [ YL. g+16 Y.R c+16 YL. e16 Y.R c+16 ]3 [ YL. g16 < Y.R a+16 > YL. d+16 < Y.R a+16 > ]6 r16 O1 YL. e16 Y.R b16 > YL. e16 Y.R g+16 YL. b16 > Y.R e16 YL. g+16 Y.R b16 > YL. e16 Y.R g+16 YL. b16 r16 O1 YL. f+16 > Y.R c+16 YL. a+16 > Y.R c+16 YL. f+16 Y.R a+16 > YL. c+16 Y.R f+16 r8. r16 O1 YL. d+16 Y.R a+16 > YL. d+16 Y.R f+16 YL. a+16 > Y.R d+16 YL. f+16 Y.R g16 YL. a+16 > Y.R c+16 YL. e16 YL. d+16 < Y.R b16 YL. g+16 Y.R d+16 < YL. b16 Y.R g+16 YL. d+16 < Y.R b16 YL. g+16 Y.R e16 YL. d+16 Y.R < b16 O3 YL. b16 Y.R g+16 YL. d+16 < Y.R b16 YL. g+16 Y.R d+16 YL. < b16 Y.R g+16 YL. e16 Y.R d+16 < YL. b16 Y.R g+16 > YL. e16 Y.R b16 > YL. e16 < Y.R b16 > YL. g+16 < Y.R b16 > YL. e16 < Y.R b16 > YL. b16 < Y.R b16 > YL. g+16 < Y.R b16 YL. d+16 > Y.R c+16 YL. f+16 Y.R c+16 YL. a+16 Y.R c+16 YL. f+16 Y.R c+16 > YL. c+16 < Y.R c+16 YL. a+16 Y.R c+16 < YL. c+16 Y.R b16 > YL. e16 < Y.R b16 > YL. g+16 < Y.R b16 > YL. e16 < Y.R b16 > YL. b16 < Y.R b16 > YL. g+16 < Y.R b16 YL. f+16 > Y.R c+16 YL. f+16 Y.R c+16 YL. a+16 Y.R c+16 YL. f+16 Y.R c+16 > YL. c+16 < Y.R b16 YL. a+16 
!2  r4 L @2 E100,85,60,36,71 P46,29,4 B23 V5 O3 YLR [ b16 d+16 g+16 d+16 ]3 [ b16 e16 g+16 e16 ]3 [ a+16 c+16 f+16 c+16 ]3 [ a+16 d+16 f+16 d+16 ]3 [ g+16 < b16 > e16 < b16 > ]3 [ g+16 c+16 e16 c+16 ]3 [ g16 < a+16 > d+16 < a+16 > ]6 r16 O1 e16 b16 > e16 g+16 b16 > e16 g+16 b16 > e16 g+16 b16 r16 O1 f+16 > c+16 a+16 > c+16 f+16 a+16 > c+16 f+16 r8. r16 O1 d+16 a+16 > d+16 f+16 a+16 > d+16 f+16 g16 a+16 > c+16 e16 d+16 < b16 g+16 d+16 < b16 g+16 d+16 < b16 g+16 e16 d+16 < b16 O3 b16 g+16 d+16 < b16 g+16 d+16 < b16 g+16 e16 d+16 < b16 g+16 > e16 b16 > e16 < b16 > g+16 < b16 > e16 < b16 > b16 < b16 > g+16 < b16 d+16 > c+16 f+16 c+16 a+16 c+16 f+16 c+16 > c+16 < c+16 a+16 c+16 < c+16 b16 > e16 < b16 > g+16 < b16 > e16 < b16 > b16 < b16 > g+16 < b16 f+16 > c+16 f+16 c+16 a+16 c+16 f+16 c+16 > c+16 < b16 a+16 b16 
!3  r4 L @A0 E100,60,60,17,0 P51,23,16 V3 O0 g+8 b8 > d+8 g+8 b8 > d+8 O0 g+8 > e8 a+8 b8 > e8 g+8 O0 f+8 > c+8 a+8 > c+8 a+4 O0 d+8 a+8 > f+8 a+8 > d+8 f+8 O0 e8 b8 > g+8 b8 > g+4 O0 c+8 g+8 > e8 g+8 > c+4 O0 d+8 a+8 > g8 a+8 > g8 < a+8 < c+8 a+8 > g8 a+8 > g8 < a+8 [ e16 ]12 [ f+16 ]12 [ d+16 ]8 [ g16 ]4 [ g+16 ]12 [ f+16 ]12 [ e16 ]12 [ d+16 ]12 [ c+16 ]12 [ f+16 ]8 [ g16 ]4 
!4  YLR r4 L [ @5 x16 r8 x16 @7 x16 @5 x16 r8 r16 x16 @7 x16 r16 ]7 @5 x16 r8 x16 @7 x16 @5 x16 r8 x16 x16 @7 x32 @5 [ x32 ]3 [ x16 x16 x16 x16 @7 x16 @5 x16 x16 x16 r16 x16 @7 x32 @5 x32 x32 x32 ]9 
!5  r8 YLR V1 @4 O1 d+24 d+24 d+24 L YLR V1 @4 O1 g+4 g+8. g+2~ g+16 g+8. g+8. g+24 g+24 g+24 f+4 f+8. f+16 f+2 d+8. d+8 d+16 d+4. e8. e16 e2 c+8. c+16 c+8 c+8 d+4 d+8. d+16 d+4 c+4 c+4 d+8 c+8 @40 W0,100,20 > b16 < b16 > b16 < b16 > b16 < b16 > b16 < b16 > b16 < b16 > b16 < b16 > a+16 < a+16 > a+16 < a+16 > a+16 < a+16 > a+16 < a+16 > a+16 < a+16 > a+16 < a+16 > f+16 < f+16 > f+16 < f+16 > f+16 < f+16 > f+16 < f+16 > f+16 < f+16 > g16 < g16 > g+16 < g+16 > g+16 < g+16 > g+16 < g+16 > g+16 < g+16 > g+16 < g+16 > g+16 < g+16 > f+16 < f+16 > f+16 < f+16 > f+16 < f+16 > f+16 < f+16 > f+16 < f+16 > f+16 < f+16 @4 e4 e8. e8 e8. d+4 d+8. d+8. d+8 c+4 c+8. c+16 c+4 f+4 f+4 g4 
!6  YLR V1 @43 W0,100,20 O1 g+8 a+8 L O1 b2. b4 a+4 r8 g+8 a+2. a+4 b4 r8 f+8 g+2 e8 f+8 g+4 g4 g+4 g2.~ g2~ g8. r16 b4 a+4. b8 > c+4 < a+4. r8 > c+4 d+4 c+4 < b2. b2. b4 a+4 g+4 a+4 f+2 g+4 a+4 b4 > c+4 < a+4 g+8 a+8 
