;042 00336126
!1  T170 L @0 E100,90,70,19,32 Y.R B1 V5 O5 c16. r32 c8 r8 < b16 r16 b8 r8 g+16 r16 g+8 r4 E100,60,0,6,6 D1 [ YL. V6 O2 _V2 e8 d+8 d+8 e8 _V-2 e8 _V2 e8 d+8 e8 _V-2 e8 _V2 e8 _V-2 e8 _V-2 e8 _V4 f+8 e8 f+8 _V-2 f+8 _V2 g8 f+8 f+8 g8 _V-2 g8 _V2 g8 f+8 g8 _V-2 g8 _V2 g8 _V-2 YL. g8 Y.R g8 YLR _V2 f+8 e8 f+8 _V-2 f+8 _V2 ]2 r4 Y.R E100,90,70,19,32 P21,10,4 O2 V7 f+8 f8 f+8 g+8 r8 a8 r8 b8 r8 > c8 r4 r2 c8 < b8 > c8 < b8 r8 a8 r8 g+8 r8 f+8 r4 r2 f+8 f8 f+8 g+8 r8 a8 r8 b8 r8 > c8 r4 r2 c8 < b8 > c8 < b8 r8 a8 r16~ r32 @@X @0 PX E100,60,0,13,3 O2 V6 < d+16 c16 < a16 g16 a16 > c16 d+16 g16 a16 > c16 d+16 g16 a16 > c16 d+32 V7 YLR @2 E100,60,0,19,13 P18,8,3 [ g4 _V-2 ]4 V7 [ a+4 _V-2 ]4 V7 > [ c+4 _V-2 ]4 V7 [ c4 _V-2 ]4 V7 < [ a4 _V-2 ]4 V7 [ a+4 _V-2 ]4 V7 [ g4 _V-2 ]4 [ Y.R O2 d8 _V-2 d8 _V2 d8 _V-2 YLR d8 YL. d8 _V2 YLR d8 _V-2 YLR d8 YL. d8 _V2 ]3 YLR d8 _V-2 d8 _V2 c+8 _V-2 c+8 _V2 d8 _V-2 d8 _V2 YLR e8 _V-2 e8 _V2 f8 _V-2 f8 _V2 [ YLR f8 _V-2 YLR f8 YL. f8 _V2 ]2 r12 O1 Y.R c12 f+12 a12 > d+12 f+12 a12 > d+12 f+12 a12 g+12 f12 d12 < g+12 f12 d12 < g+12 f12 < b12 a+12 > c+12 g12 a+12 > c+12 g12 a+12 > c+12 g12 f+12 d+12 c12 < f+12 d+12 c12 < f+12 d+12 < a12 g+12 b12 > f12 g+12 b12 > f12 g+12 b12 > f12 e12 c+12 < g12 e12 c+12 < g12 e12 c+12 < g12 e12 c+12 g12 e12 c+12 
!2  L @0 E100,90,70,19,32 YL. V8 O4 g16. r32 g8 r8 f+16 r16 f+8 r8 d+16 r16 d+8 r4 E100,60,0,6,6 [ YL. V6 O2 _V2 e8 d+8 d+8 e8 _V-2 e8 _V2 e8 d+8 e8 _V-2 e8 _V2 e8 _V-2 e8 _V-2 e8 _V2 f+8 e8 f+8 _V-2 f+8 _V2 g8 f+8 f+8 g8 _V-2 g8 _V2 g8 f+8 g8 _V-2 g8 _V2 g8 _V-2 YL. g8 Y.R g8 YLR _V2 f+8 e8 f+8 _V-2 f+8 _V2 ]2 r4 E100,90,70,19,32 P21,10,4 V7 YLR O2 a8 g+8 a8 b8 r8 > c8 r8 d8 r8 d+8 r4 r2 d+8 d8 d+8 d8 r8 c8 r8 < b8 r8 a8 r4 r2 a8 g+8 a8 b8 r8 > c8 r8 d8 r8 d+8 r4 r2 d+8 d8 d+8 d8 r8 c8 YL. V8 O1 d+32 r32 c32 r32 < a32 r32 g32 r32 a32 r32 > c32 r32 d+32 r32 g32 r32 a32 r32 > c32 r32 d+16 g32 r32 a32 _V-2 a32 > _V2 c32 _V-2 c32 _V2 d+32 _V-2 d+32 _V2 g32 _V-2 g32 < [ YL. c+32 Y.R c+32 < YL. a+32 Y.R a+32 YL. g32 Y.R g32 YL. e32 Y.R e32 > ]4 [ YL. e32 Y.R e32 YL. c+32 Y.R c+32 < YL. a+32 Y.R a+32 YL. g32 Y.R g32 > ]4 [ YL. g32 Y.R g32 YL. e32 Y.R e32 YL. c+32 Y.R c+32 < YL. a+32 Y.R a+32 > ]4 [ YL. f+32 Y.R f+32 YL. d+32 Y.R d+32 YL. c32 Y.R c32 < YL. a32 Y.R a32 > ]4 [ YL. d+32 Y.R d+32 YL. c32 Y.R c32 < YL. a32 Y.R a32 YL. f+32 Y.R f+32 > ]4 [ YL. e32 Y.R e32 YL. c+32 Y.R c+32 < YL. a+32 Y.R a+32 YL. g32 Y.R g32 > ]4 < [ YL. a+32 Y.R a+32 YL. g32 Y.R g32 YL. e32 Y.R e32 YL. c+32 Y.R c+32 ]4 [ > YL. f32 Y.R f32 YL. d32 Y.R d32 < YL. b32 Y.R b32 YL. g+32 Y.R g+32 ]2 [ > YL. g+32 Y.R g+32 YL. f32 Y.R f32 YL. d32 Y.R d32 < YL. b32 Y.R b32 ]2 > [ YL. b32 Y.R b32 YL. g+32 Y.R g+32 YL. f32 Y.R f32 YL. d32 Y.R d32 ]2 [ > YL. d32 Y.R d32 < YL. b32 Y.R b32 YL. g+32 Y.R g+32 YL. f32 Y.R f32 ]2 > YL. f32 Y.R f32 YL. d32 Y.R d32 < YL. b32 Y.R b32 YL. g+32 Y.R g+32 > YL. g+32 Y.R g+32 YL. f32 Y.R f32 YL. d32 Y.R d32 < YL. b32 Y.R b32 > YL. b32 Y.R b32 YL. g+32 Y.R g+32 YL. f32 Y.R f32 YL. d32 Y.R d32 > YL. d32 Y.R d32 < YL. b32 Y.R b32 YL. g+32 Y.R g+32 YL. f32 Y.R f32 > YL. f32 Y.R f32 YL. d32 Y.R d32 < YL. b32 Y.R b32 YL. g+32 Y.R g+32 > YL. e32 Y.R e32 YL. c+32 Y.R c+32 < YL. a+32 Y.R a+32 YL. g32 Y.R g32 > YL. f32 Y.R f32 YL. d32 Y.R d32 < YL. b32 Y.R b32 YL. g+32 Y.R g+32 > YL. g32 Y.R g32 YL. e32 Y.R e32 YL. c+32 Y.R c+32 < YL. a+32 Y.R a+32 [ O4 YL. g+32 Y.R g+32 YL. f32 Y.R f32 YL. d32 Y.R d32 < YL. b32 Y.R b32 ]3 > YL. g+32 Y.R g+32 YL. f32 Y.R f32 YL. d32 Y.R d32 < YL. b32 Y.R b32 O1 YL. c12 f+12 a12 > d+12 f+12 a12 > d+12 f+12 a12 g+12 f12 d12 < g+12 f12 d12 < g+12 f12 < b12 a+12 > c+12 g12 a+12 > c+12 g12 a+12 > c+12 g12 f+12 d+12 c12 < f+12 d+12 c12 < f+12 d+12 < a12 g+12 b12 > f12 g+12 b12 > f12 g+12 b12 > f12 e12 c+12 < g12 e12 c+12 < g12 e12 c+12 < g12 e12 c+12 g12 e12 c+12 a+12 
!3  L @A3 `9F00 `AE00 E100,95,90,13,0 YLR B1 V3 O1 V3 a16 V1 a16 V3 a8 V1 a8 V3 g+16 V1 g+16 V3 g+8 V1 g+8 V3 f16 V1 f16 V3 f8 V1 f8 r8 [ O0 [ V3 a8 > a8 < ]6 O1 V3 d+8 V1 d+8 V3 d+4 O0 [ a8 > a8 < ]6 O1 V3 d+16 V1 d+16 V3 d+16 V1 d+16 V3 d+8 V1 d+8 ]4 O0 V3 [ a+16 g16 e16 c+16 ]4 [ > c+16 < a+16 g16 e16 ]4 [ > e16 c+16 < a+16 g16 ]4 [ > d+16 c16 < a16 f+16 ]4 [ > c16 < a16 f+16 d+16 ]4 [ > c+16 < a+16 g16 e16 ]4 [ g16 e16 c+16 a+16 ]4 [ b16 g+16 f16 d16 ]2 [ > d16 < b16 g+16 f16 ]2 [ > f16 d16 < b16 g+16 ]2 [ > g+16 f16 d16 < b16 ]2 > b16 g+16 f16 d16 > d16 < b16 g+16 f16 > f16 d16 < b16 g+16 > g+16 f16 d16 < b16 > b16 g+16 f16 d16 a+16 g16 e16 c+16 b16 g+16 f16 d16 > c+16 < a+16 g16 e16 [ O3 d16 < b16 g+16 f16 ]4 O1 a12 > d+12 f+12 > c12 d+12 f+12 > c12 d+12 f+12 f12 d12 < b12 f12 d12 < b12 f12 d12 < g+12 g12 a+12 > e12 g12 a+12 > e12 g12 a+12 > e12 d+12 c12 < a12 d+12 c12 < a12 d+12 c12 < f+12 f12 g+12 > d12 f12 g+12 > d12 f12 g+12 > d12 c+12 < a+12 e12 c+12 < a+12 e12 c+12 < a+12 e12 c+12 a+12 e12 c+12 a+12 g12 
!4  L YLR V7 @15 x16 x16 x16 x16 x16 x16 x16 x16 x16 x16 x16 x16 x16 x16 x16 x16 @20 x4. @15 x16 x16 x16 x16 x16 x16 x16 x16 x16 x16 x16 x16 x16 x16 x16 x16 x16 x16 x16 x16 x16 x16 x16 x16 x16 x16 x16 x16 x16 x16 x16 x16 x16 x16 x16 x16 x16 x16 x16 x16 x16 x16 x16 x16 x16 x16 x16 x16 x16 x16 x16 x16 x16 x16 x16 x16 x16 x16 x16 x16 x16 x16 x16 x16 x16 x16 x16 x16 x16 x16 x16 x16 x16 x16 x16 x16 x16 x16 x16 x16 x16 x16 x16 x16 x16 x16 x16 x16 x16 x16 x16 x16 x16 x16 x16 x16 x16 x16 x16 x16 x16 x16 x16 x16 x16 x16 x16 x16 x16 x16 x16 x16 x16 x16 x16 x16 x16 x16 x16 x16 x16 x16 x16 x16 x16 x16 x16 x16 x16 x16 x16 x16 x16 x16 x16 x16 x16 x16 x16 x16 x16 x16 x16 x16 x16 x16 x16 x16 x16 x16 x16 x16 x16 x16 x16 x16 x16 x16 x16 x16 x16 x16 x16 x16 x16 x16 x16 x16 x16 x16 x16 x16 x16 x16 x16 x16 x16 x16 x16 x16 x16 x16 x16 x16 x16 x16 x16 x16 x16 x16 x16 x16 x16 x16 x16 x16 x16 x16 x16 x16 x16 x16 x16 x16 x16 x16 x16 x16 x16 x16 x16 x16 x16 x16 x16 x16 x16 x16 x16 x16 x16 x16 x16 x16 x16 x16 x16 x16 x16 x16 x16 x16 x16 x16 x16 x16 x16 x16 x16 x16 x16 x16 x16 x16 x16 x16 x16 x16 x16 x16 x16 x16 x16 x16 x16 x48 @7 x24 @15 x24 @7 x48 @15 x16 @7 x12 x12 x12 x12 x12 x12 x12 x12 x12 x12 x12 x12 x12 x12 x12 x12 x12 x12 x12 x12 x12 x12 x12 x12 x12 x12 x12 x12 x12 x12 x12 x12 x12 x12 x12 x12 x12 x12 x12 x12 x12 x12 x12 x12 x12 x12 x12 x12 x12 x12 x12 x12 x12 x12 x12 x12 x12 x12 x12 x12 x12 x12 x12 x12 x12 x12 x12 x12 x12 x12 x12 x12 x12 x12 x12 x12 x12 x12 x12 x12 x12 x12 x12 x12 x12 x12 x12 x12 x12 x12 x12 x12 x12 x12 x12 x12 x12 x12 x12 x12 x12 x12 x12 x12 x12 x12 x12 x12 x12 x12 x12 x12 x12 x12 x12 x12 x12 x12 x12 x12 x12 x12 x12 x12 x12 x12 x12 x12 x12 x12 x12 x12 x12 x12 x12 x12 x12 x12 x12 x12 x12 x12 x12 x12 x12 x12 x12 x12 x12 x12 x12 x12 x12 x12 x12 x12 x12 x12 x12 x12 x12 x12 x12 x12 x12 x12 x12 x12 x12 x12 x12 x12 x12 x12 x12 x12 x12 x12 x12 x12 x12 x12 x12 x12 x12 x12 x12 x12 x12 x12 x12 x12 x12 x12 x12 x12 x12 x12 x12 x12 x12 
!5  L YLR V1 @52 O2 g8 g8 _V-2 g8 _V2 f+8 f+8 _V-2 f+8 _V2 d+8 d+8 _V-2 d+8 d+8 [ YLR _V2 e8 d+8 d+8 e8 _V-2 e8 _V2 e8 d+8 e8 _V-2 e8 _V2 e4. f+8 e8 f+8 _V-2 f+8 _V2 g8 f+8 f+8 g8 _V-2 g8 _V2 g8 f+8 g8 _V-2 g8 _V2 g8 _V-2 YL. g8 Y.R g8 YLR _V2 f+8 e8 f+8 _V-2 f+8 _V2 ]4 c+8 _V-2 c+8 _V2 c+8 _V-2 YL. c+8 Y.R c+8 YLR _V2 c+8 _V-2 YL. c+8 Y.R c+8 _V2 YLR e8 _V-2 e8 _V2 e8 _V-2 YL. e8 Y.R e8 YLR _V2 e8 _V-2 YL. e8 Y.R e8 _V2 YLR g8 _V-2 g8 _V2 g8 _V-2 YL. g8 Y.R g8 YLR _V2 g8 _V-2 YL. g8 Y.R g8 _V2 YLR f+8 _V-2 f+8 _V2 f+8 _V-2 YL. f+8 Y.R f+8 YLR _V2 f+8 _V-2 YL. f+8 Y.R f+8 _V2 YLR d+8 _V-2 d+8 _V2 d+8 _V-2 YL. d+8 Y.R d+8 _V2 YLR d+8 _V-2 YL. d+8 Y.R d+8 _V2 YLR e8 _V-2 e8 _V2 e8 _V-2 YL. e8 Y.R e8 _V2 YLR e8 _V-2 YL. e8 Y.R e8 _V2 YLR < a+8 _V-2 a+8 _V2 a+8 _V-2 YL. a+8 Y.R a+8 _V2 YLR a+8 _V-2 YL. a+8 Y.R a+8 _V2 [ YLR O2 d8 _V-2 d8 _V2 d8 _V-2 YL. d8 Y.R d8 _V2 YLR d8 _V-2 YL. d8 Y.R d8 _V2 ]3 YLR d8 _V-2 d8 _V2 c+8 _V-2 c+8 _V2 d8 _V-2 d8 _V2 YLR e8 _V-2 e8 _V2 f8 _V-2 f8 _V2 [ YLR f8 _V-2 YL. f8 Y.R f8 _V2 ]2 [ r1 ]5 
!6  L YLR V1 @4 O1 a8 a4 g+8 g+4 f8 f4. @40 W0,100,20 O3 e8 d+8 d+8 e4 e8 d+8 e4 e4. f+4 f+4 g8 f+8 f+8 g4 g8 f+8 g4 g4. f+8 e8 f+4 e8 d+8 d+8 e4 e8 d+8 e4 e4. f+4 f+4 g8 f+8 f+8 g4 g8 f+8 g4 g4. f+8 e8 f+4 < a4. d+4. a4. a+4. > c4 < a+4 a4. d+4. a4. a+4. > c4 c+4 < a4. d+4. a4. a+4. > c4 < a+4 a4. d+4. a4. a+4. > c4 c+4 @4 O1 g4 g4. g4. g4 g4. g4. a+4 a+4. a+4. a4 a4. a4. f+4 f+4. f+4. g4 g4. g4. g4 g4. g4. < b12 b12 b12 b6 b4 b3 b12 b12 b12 b6 b4 b3 b12 b12 b12 b6 b2~ b16~ b64 b4 a+4 b4 > c+4 d4 d4. d4. @40 W0,100,20 < f+12 c12 d+12 a12 > c12 d+12 a12 > c12 d+12 d12 < b12 g+12 d12 < b12 g+12 d12 b12 f12 e12 g12 c+12 e12 g12 > c+12 e12 g12 > c+12 c12 < a12 f+12 c12 < a12 f+12 c12 a12 d+12 d12 f12 b12 d12 f12 b12 > d12 f12 b12 a+12 g12 c+12 < a+12 g12 c+12 a+12 g12 c+12 a+12 g12 c+12 r12 r12 r12 
