;043 00336D80
!1  T140 L @1 E100,90,70,24,40 P25,11,5 Y.R B1 V4 O5 r4 D0 r16 g16 r16 g16 r16 g16 r16 g8 f32 r16. f32 r32 r16 f32 r16. f8 c+32 r16. c+32 r16. c+32 r16. c+8 c32 r16. < a+32 r32 r8 O2 Y.R V4 D1 g8. r16 g8. r16 f+16. r32 g16 r16 a16 r16 g8~ r32 r16. d8. r16 d16. r32 c16. r32 < b16. r32 g8. r16 > g8. r16 g8. r16 f+16. r32 g16 r16 a16 r16 > c8. r16 < b8. r16 g8. r16 g16. r32 a8. r16 g8. r16 g8. r16 f+16. r32 g16 r16 a16 r16 g8. r16 d8. r16 d16. r32 c16. r32 < b16. r32 g8. r16 > g8. r16 g8~ g32 r32 g16 f+16 r16 g16 r16 a16 r16 g16. r32 a16. r32 g4. r4. YLR V4 r4 r16 d16 r16 g8 d16 g8 d16 g8 a8 r8 r8 d16 r16 g8 r8 f+8 g8 a8 b8 r8 d16 r16 g8 d16 g8 d16 g8 a8 r8 b4 a8. r16 g8 f+4 r8 r8 d16 r16 g8 d16 g8 d16 g16 r16 r4 r8 d16 r16 g8 r8 f+8 g8 a8 b16. r32 b4 > c8.~ c32 r32 d16. r32 g8~ g32 r32 V6 D0 O0 b16 > c16 e16 g16 b16 > c16 e16 g16 b16 > c16 e16 g16 f+16 d16 f+16 a16 V5 r8. D1 [ Y.R V4 O3 b8 d16 g8 d16 g8 r2 ]2 YLR V5 b8. r16 b8. r16 a16. r32 b16. r32 > c16 r16 d8. r16 c8. r16 < b16. r32 b8.~ b32 r32 a8.~ a32 r32 [ b8 d32 r32 g8 d16 g16. r32 r2 ]2 b8.~ b32 r32 b8 r16 b16 a8 b8 > c16. r32 V7 YLR O1 d32 r32 g32 r32 b32 r32 > d32 r32 f+32 r32 g32 r32 b32 r32 > d32 r32 f+32 r32 g32 r32 b32 r32 > d32 r32 f+32 r32 g32 r32 b32 r32 r1 r1 r4 r16 V4 D0 Y.R > g16 r16 g16 r16 g16 r16 g8 f32 r16. f32 r16. f32 r16. f8 c+32 r16. c+32 r16. c+32 r16. c+8 c32 r16. < a+32 r32 
!2  @1 E100,90,70,24,40 YLR B1 V5 O5 P25,11,5 L r8 g16 r16 g16 r16 g16 r16 g8 f32 r16. f32 r16. f32 r16. f8 c+32 r16. c+32 r16. c+32 r16. c+8 c32 r16. < a+32 r16. f32 r16. O2 YLR V7 g8. r16 g8. r16 f+16. r32 g16 r16 a16 r16 g8~ r32 r16. d8. r16 d16. r32 c16. r32 < b16. r32 g8. r16 > g8. r16 g8. r16 f+16. r32 g16 r16 a16 r16 > c8. r16 < b8. r16 g8. r16 g16. r32 a8. r16 g8. r16 g8. r16 f+16. r32 g16 r16 a16 r16 g8. r16 d8. r16 d16. r32 c16. r32 < b16. r32 g8. r16 > g8. r16 g8~ g32 r32 g16 f+16 r16 g16 r16 a16 r16 g16. r32 a16. r32 g2 r4. r8 d16 r16 g8 d16 g8 d16 g8 a8 r8 r8 d16 r16 g8 r8 f+8 g8 a8 b8 r8 d16 r16 g8 d16 g8 d16 g8 a8 r8 b4 a8. r16 g8 f+4 r8 r8 d16 r16 g8 d16 g8 d16 g16 r16 r4 r8 d16 r16 g8 r8 f+8 g8 a8 b16. r32 b4 > c8.~ c32 r32 d16. r32 g4~ g16 r16 g4~ g16. r32 a4~ a16. r32 < [ a32 r32 ]3 a16 > [ b8 d16 g8 d16 g8 r2 ]2 b8. r16 b8. r16 a16. r32 b16. r32 > c16 r16 d8. r16 c8. r16 < b16. r32 b8.~ b32 r32 a8.~ a32 r32 [ b8 d32 r32 g8 d16 g16. r32 r2 ]2 b8.~ b32 r32 b8 r16 b16 a8 b8 > c16. r32 < b16 r16 > c8 < b2 V5 < YL. g32 r32 Y.R b32 r32 YL. > d32 r32 Y.R f+32 r32 YL. g32 r32 Y.R b32 r32 YL. > d32 r32 Y.R f+32 r32 r16 r16 r2. r1 r8 V5 YLR > g16 r16 g16 r16 g16 r16 g8 f32 r16. f32 r16. f32 r16. f8 c+32 r16. c+32 r16. c+32 r16. c+8 c32 r16. < a+32 r16. f32 r16. 
!3  L @A3 `9F00 `AE00 E100,95,90,16,0 YLR B1 V3 O1 g16 < g8 > f16 < g8 > g16 < g8 > f16 < g8 > c+16 c16 < a+8 > g16 < g8 > f16 < g8 > g16 < g8. > a+8 a+16 b16 > c8 O0 g16 g16 > g16 < g16 g16 g16 > g16 < g16 g16 g16 > g16 < g16 g16 g16 > g16 < g16 c16 c16 > c16 < c16 c16 c16 > c16 < c16 c16 c16 > c16 < c16 c16 c16 > c16 < c16 d16 d16 > d16 < d16 d16 d16 > d16 < d16 d16 d16 > d16 < d16 d16 d16 > d16 < d16 e16 e16 > e16 < e16 e16 e16 > e16 < e16 e16 e16 > e16 < e16 f+16 f+16 > f+16 < f+16 g16 g16 > g16 < g16 g16 g16 > g16 < g16 g16 g16 > g16 < g16 g16 g16 > g16 < g16 c16 c16 > c16 < c16 c16 c16 > c16 < c16 c16 c16 > c16 < c16 c16 c16 > c16 < c16 d16 d16 > d16 < d16 d16 d16 > d16 < d16 d16 d16 > d16 < d16 d16 d16 > d16 < d16 g16 g16 > g16 < g16 g16 g16 > g16 < g16 g16 g16 > g16 < g16 g16 g16 > g16 < g16 O0 c8. c8. c4 c8 c4 d8. d8. d4 d8 d4 e8. e8. e4 e8 e4 d8. d8. d4 d8. d8. c8. c8. c4 c8 c4 d8. d8. d4 d8 d4 g8. g8. g4 g8 g4 d8. d8. d4 d8. d8. g16 g16 > g16 < g16 g16 g16 > g16 < g16 g16 g16 > g16 < g16 g16 g16 > g16 < g16 c16 c16 > c16 < c16 c16 c16 > c16 < c16 c16 c16 > c16 < c16 c16 c16 > c16 < c16 d16 d16 > d16 < d16 d16 d16 > d16 < d16 d16 d16 > d16 < d16 d16 d16 > d16 < d16 e16 e16 > e16 < e16 e16 e16 > e16 < e16 e16 e16 > e16 < e16 f+16 f+16 > f+16 < f+16 g16 g16 > g16 < g16 g16 g16 > g16 < g16 g16 g16 > g16 < g16 g16 g16 > g16 < g16 c16 c16 > c16 < c16 c16 c16 > c16 < c16 c16 c16 > c16 < c16 c16 c16 > c16 < c16 d16 d16 > d16 < d16 d16 d16 > d16 < d16 d16 d16 > d16 < d16 d16 d16 > d16 < d16 g16 g16 > g16 < g16 g16 g16 > g16 < g16 g16 g16 > g16 < g16 g16 g16 > g16 < g16 > g16 < g8 > f16 < g8 > g16 < g8 > f16 < g8 > c+16 c16 < a+8 > g16 < g8 > f16 < g8 > g16 < g8. > a+8 a+16 b16 > c8 < g16 < g8 > f16 < g8 > g16 < g8 > f16 < g8 > c+16 c16 < a+8 > g16 < g8 > f16 < g8 > g16 < g8. > a+8 a+16 b16 > c8 
!4  `2E01 YLR L r1~ r2~ r4 V6 @20 x4 V12 @1 x8 @15 x8 @1 x8 @15 x8 @1 x8 @15 x8 @1 x8 @15 x8 @1 x8 @15 x8 @1 x8 @15 x8 @1 x8 @15 x8 @1 x8 @15 x8 @1 x8 @15 x8 @1 x8 @15 x8 @1 x8 @15 x8 @1 x8 @15 x8 @1 x8 @15 x8 @1 x8 @15 x8 @1 x8 @15 x8 @1 x8 @15 x8 @1 x8 @15 x8 @1 x8 @15 x8 @1 x8 @15 x8 @1 x8 @15 x8 @1 x8 @15 x8 @1 x8 @15 x8 @1 x8 @15 x8 @1 x8 @15 x8 @1 x8 @15 x8 @1 x8 @15 x8 @1 x8 @15 x8 @1 x8 @15 x8 @1 x8 @15 x8 @1 x8 @15 x8 @1 x8 @15 x8 @1 x8 @15 x8 @1 x8 @15 x8 @1 x8 @15 x8 @1 x8 @15 x8 @1 x8 @15 x8 @1 x8 @15 x8 @1 x8 @15 x8 @1 x8 @15 x8 @1 x8 @15 x8 @1 x8 @15 x8 @1 x8 @15 x8 @1 x8 @15 x8 @1 x8 @15 x8 @1 x8 @15 x8 @1 x8 @15 x8 @1 x8 @15 x8 @1 x8 @15 x8 @1 x8 @15 x8 @1 x8 @15 x8 @1 x8 @15 x8 @1 x8 @15 x8 @1 x8 @15 x8 @1 x8 @15 x8 @1 x8 @15 x8 @1 x8 @15 x8 @1 x8 @15 x8 @1 x8 @15 x8 @1 x8 @15 x8 @1 x8 @15 x8 @1 x8 @15 x8 @1 x8 @15 x8 @1 x8. x8 x16 @15 x16 x16 @1 x8 @15 x8 @1 x8 @15 x8 @1 x8 @15 x8 @1 x8 @15 x8 @1 x8 @15 x8 @1 x8 @15 x8 @1 x8 @15 x8 @1 x8 @15 x8 @1 x8 @15 x8 @1 x8 @15 x8 @1 x8 @15 x8 @1 x8 @15 x8 @1 x8 @15 x8 @1 x8 @15 x8 @1 x8 @15 x8 @1 x8 @15 x8 @1 x8 @15 x8 @1 x8 @15 x8 @1 x8 @15 x8 @1 x8 @15 x8 @1 x8 @15 x8 @1 x8 @15 x8 @1 x8 @15 x8 @1 x8 @15 x8 @1 x8 @15 x8 @1 x8 @15 x8 @1 x8 @15 x8 @1 x8 @15 x8 @1 x8 @15 x8 @1 x8 @15 x8 @1 x8 @15 x8 @1 x8 @15 x8 @1 x8 @15 x8 @1 x8 @15 x8 @1 x8 @15 x8 @1 x8 @15 x8 @1 x8 @15 x8 @1 x8 @15 x8 @1 x8 @15 x8 @1 x8 @15 x8 @1 x8 @15 x8 @1 x8 @15 x8 @1 x8 @15 x8 @1 x8 @15 x8 @1 x8 @15 x8 @1 x8 @15 x8 @1 x8 @15 x8 @1 x8 @15 x16 r16 
!5  L YLR V1 @31 O2 r1~ r2~ r16 [ f16 ]7 [ [ r4 f8 r4. f8 r8 ]3 r4 f8 r4. f8 r16 f16 ]2 [ r4 f8 r8 ]14 r16 f16 r8 f16 r8 f16 r16 [ f16 ]7 [ r4 f8 r8 ]7 r4 f8 r16 f16 [ r4 f8 r8 ]6 r16 f16 r8 f16 r8 f16 r16 [ f16 ]7 [ r4 f8 r8 ]8 
!6  L YLR V1 @3 O2 g1 g1 YL. g4 g4 f+8 g8 a8 g4 d4 d8 c8 < b8 g4 > g4 g4 f+8 g8 a8 > c4 < b4 g4 g8 a4 g4 g4 f+8 g8 a8 g4 d4 d8 c8 < b8 g4 > g4 g8. g16 f+8 g8 a8 g8 a8 g2~ g4~ g8 @39 < YLR c8 > c8 e8 b4 ( YL. e16 b8 ( Y.R e16 b8 V1 YLR < d8 > d8 f+8 a4 ( YL. f+16 a8 ( Y.R f+16 a8 V1 YLR < e8 > d8 g8 b4 ( YL. g16 b8 ( Y.R g16 b8 V1 YLR < d8 > d8 f+8 b4 ( YL. f+16 b8 ( Y.R f+16 b8 V1 YLR < c8 > e8 g8 > d4 ( YL. < g16 > d8 ( Y.R < g16 > d8 V1 YLR O1 d8 > d8 f+8 a4 ( YL. f+16 a8 ( Y.R f+16 a8 V1 YLR < g8 > d8 g8 b4 ( YL. g16 b8 ( Y.R g16 b8 V1 YLR < d8 > c8 e8 g8 ( YL. f+8 d8 ( Y.R f+8 a8 YL. @3 V1 g4 g4 f+8 g8 a8 g4 d4 d8 c8 < b8 g4 > g4 g4 f+8 g8 a8 > c4 < b4 g4 g8 a4 g4 g4 f+8 g8 a8 g4 d4 d8 c8 < b8 g4 > g4 g8. g16 f+8 g8 a8 g8 a8 g2~ g4~ g8 < YLR [ g2. r4 ]4 
