;044 003377C4
!1  T75 L D1 @0 E95,100,90,45,74 Y.R B3 V6 O2 r24 [ g+24 r48 ]4 [ a24 r48 ]4 [ f24 r48 ]4 [ b24 r48 ]4 > [ c24 r48 ]4 < [ g+24 r48 ]4 > [ d24 r48 ]4 < [ b24 r48 ]4 [ g+24 r48 ]4 [ a24 r48 ]4 [ f24 r48 ]4 [ b24 r48 ]4 > [ c24 r48 ]4 < [ g+24 r48 ]4 > [ d24 r48 ]4 d24 r48 d24 r12 r48 r48 b24 r48 a+24 r48 a24 r48 f+24 r48 a24 r48 g+24 r48 g24 r48 d+24 r48 g24 r48 f+24 r48 d+24 r48 c24 r48 f+24 r48 f24 r48 d24 r48 < b24 r48 > f24 r48 e24 r48 c+24 r48 < a+24 r48 > e24 r48 d+24 r48 c24 r48 < a24 r48 > d+24 r24 d24 r24 < b24 r24 g+24 r24 f24 r24 d24 r24 O3 V6 @@X f+24 r24 d+24 r24 < a+24 r24 > f+24 r24 d+24 r24 < a+24 r24 > f+24 r24 d+24 r24 < a+24 r24 > f+24 r24 d+24 r24 < a+24 r24 > g+24 r24 f24 r24 < b24 r24 > g+24 r24 f24 r24 < b24 r24 > g+24 r24 f24 r24 < b24 r24 > g+24 r24 f24 r24 < b24 r24 > f24 r24 d24 r24 < b24 r24 > f24 r24 d24 r24 < b24 r24 > g+24 r24 f24 r24 d24 r24 a+24 r24 f24 r24 d24 r24 > d+24 r24 < a+24 r24 f+24 r24 > d+24 r24 < a+24 r24 f+24 r24 > d+24 r24 < a+24 r24 f+24 r24 > d+24 r24 < a+24 r24 f+24 r48 r24 r12 r12 r12 r12 r12 r24 @0 @@5,2,0 E100,100,70,9,36 V5 O2 g+24 b24 > d24 f24 d24 f24 g+24 f24 g+24 b24 g+24 > d24 V5 O3 [ d+24 < d+24 a+24 > ]8 [ d24 < d24 g+24 > ]8 @0 @@8,2,1 E100,90,60,45,74 P48,24,3 V7 O2 g+6~ g+48 b6~ b48 ) > d+8 ( d4 ) d12 d+12 ( f12 f+2.~ f+6 r12 
!2  L @0 E95,100,90,45,74 YL. B3 V7 O2 [ g+32. r64 ]4 [ a32. r64 ]4 [ f32. r64 ]4 [ b32. r64 ]4 > [ c32. r64 ]4 < [ g+32. r64 ]4 > [ d32. r64 ]4 < [ b32. r64 ]4 [ g+32. r64 ]4 [ a32. r64 ]4 [ f32. r64 ]4 [ b32. r64 ]4 > [ c32. r64 ]4 < [ g+32. r64 ]4 > [ d32. r64 ]4 [ d32. r64 ]4 b32. r64 a+32. r64 a32. r64 f+32. r64 a32. r64 g+32. r64 g32. r64 d+32. r64 g32. r64 f+32. r64 d+32. r64 c32. r64 f+32. r64 f32. r64 d32. r64 < b32. r64 > f32. r64 e32. r64 c+32. r64 < a+32. r64 > e32. r64 d+32. r64 c32. r64 < a32. r64 > d+24 r24 d24 r24 < b24 r24 g+24 r24 f24 r24 d24 r24 O3 V7 f+24 r24 d+24 r24 < a+24 r24 > f+24 r24 d+24 r24 < a+24 r24 > f+24 r24 d+24 r24 < a+24 r24 > f+24 r24 d+24 r24 < a+24 r24 > g+24 r24 f24 r24 < b24 r24 > g+24 r24 f24 r24 < b24 r24 > g+24 r24 f24 r24 < b24 r24 > g+24 r24 f24 r24 < b24 r24 > f24 r24 d24 r24 < b24 r24 > f24 r24 d24 r24 < b24 r24 > g+24 r24 f24 r24 d24 r24 a+24 r24 f24 r24 d24 r24 > d+24 r24 < a+24 r24 f+24 r24 > d+24 r24 < a+24 r24 f+24 r24 > d+24 r24 < a+24 r24 f+24 r24 > d+24 r24 < a+24 r24 f+24 r24 YLR O2 V8 V7 YLR g+32 V6 YL. g+32 V7 YLR f+32 V6 YL. f+32 V7 YLR f32 V6 YL. f32 V7 YLR f+32 V6 YL. f+32 V7 YLR f32 V6 YL. f32 V7 YLR d+32 V6 YL. d+32 V7 YLR d32 V6 YL. d32 V7 YLR d+32 V6 YL. d+32 V7 YLR d32 V6 YL. d32 V7 YLR < b32 V6 YL. b32 V7 YLR a+32 V6 YL. a+32 V7 YLR b32 V6 YL. b32 V7 YLR a+32 V6 YL. a+32 V7 YLR > d32 V6 YL. d32 V7 YLR g+32 V6 YL. g+32 V7 YLR f32 V6 YL. f32 @0 @@5,2,0 E100,100,70,9,36 YL. V6 f+32 V4 f+32 < V6 a+32 V4 a+32 V6 > f+32 V4 f+32 < V6 a+32 V4 a+32 V6 > f+32 V4 f+32 < V6 a+32 V4 a+32 V6 > f+32 V4 f+32 V6 < a+32 V4 a+32 V6 > g+32 V4 g+32 V6 < b32 V4 b32 V6 > g+32 V4 g+32 V6 < b32 V4 b32 V6 > g+32 V4 g+32 V6 < b32 V4 b32 V6 > g+32 V4 g+32 V6 < b32 V4 b32 V7 YL. > f32 V5 YLR f32 V7 YL. < g+32 V5 YLR g+32 V7 YL. > f32 V5 YLR f32 < V7 YL. g+32 V5 YLR g+32 V7 YL. > f32 V5 YLR f32 < V7 YL. g+32 V5 YLR g+32 V7 YL. > f32 V5 YLR f32 < V7 YL. g+32 V5 YLR g+32 V7 YL. > a+32 V5 YLR a+32 V7 YL. d32 V5 YLR d32 V7 YL. a+32 V5 YLR a+32 V7 YL. d32 V5 YLR f32 V7 YL. a+32 V5 YLR a+32 V7 YL. d32 V5 YLR d32 V7 YL. a+32 V5 YLR a+32 V7 YL. d32 V5 YLR d32 V7 YL. f+32 V5 YLR f+32 V7 YL. < b32 V5 YLR b32 V7 YL. > f+32 V5 YLR f+32 V7 YL. < b32 V5 YLR b32 V7 YL. > f+32 V5 YLR f+32 V7 YL. < b32 V5 YLR b32 V7 YL. > f+32 V5 YLR f+32 V7 YL. < b32 V5 YLR b32 V7 YL. > g+32 V5 YLR g+32 V7 YL. < a+32 V5 YLR a+32 V7 YL. > g+32 V5 YLR g+32 V7 YL. < a+32 V5 YLR a+32 V7 YL. > g+32 V5 YLR g+32 < V7 YL. a+32 V5 YLR a+32 V7 YL. > g+32 V5 YLR g+32 < V7 YL. a+32 V5 YLR a+32 V7 YL. > f+32 V5 YLR f+32 V7 YL. < b32 V5 YLR b32 V7 YL. > f+32 V5 YLR f+32 < V7 YL. b32 V5 YLR b32 V7 YL. > f+32 V5 YLR f+32 V7 YL. < b32 V5 YLR b32 V7 YL. > f+32 V5 YLR f+32 V7 YL. < b32 V5 YLR b32 V7 YL. > f+32 V5 YLR f+32 V7 YL. < b32 V5 YLR b32 V7 YL. > f+32 V5 YLR f+32 V7 YL. < b32 V5 YLR b32 V7 YL. > f+32 V5 YLR f+32 V7 YL. < b32 V5 YLR b32 V7 YL. > f+32 V5 YLR f+32 < V7 YL. b32 V5 YLR b32 
!3  L @A3 E100,60,60,18,0 P54,24,16 YLR V3 O0 [ b16 ]4 > [ c16 ]4 < [ g+16 ]4 > [ d16 ]4 [ d+16 ]4 < [ b16 ]4 > [ f16 ]4 [ d16 ]4 < [ b16 ]4 > [ c16 ]4 < [ g+16 ]4 > [ d16 ]4 [ d+16 ]4 < [ b16 ]4 > [ f16 ]4 [ d16 ]4 > d16 c+16 c16 < a16 > c16 < b16 a+16 f+16 a+16 a16 f+16 d+16 a16 g+16 f16 d16 g+16 g16 e16 c+16 g16 f+16 d+16 c16 f+12 f12 d12 b12 g+12 f12 O1 d+1 f1 d2 b4 a+4 f+1 < b4 g+4 > d4 < a+4 > [ d+8 ]8 [ d8 ]4 < b8 b8 a+8 a+8 [ g+8 ]4 > d8 d8 < a+8 a+8 [ b8 ]8 
!4  L YLR @7 [ x16 r4 r16 x16 r8. x16 r4 r16 ]4 V15 @5 [ x32 ]48 [ x24 r24 ]6 @7 V10 [ x16 r4 r16 x16 r8. x16 r4 r16 ]4 @5 [ x16 ]8 r16 x16 r16 x16 r16 x16 [ x32 ]4 [ @8 x16 r16 @7 [ x16 r16 ]6 [ x24 ]3 ]4 
!5  L YLR V0 @4 O1 e2. e12 e12 e12 e4. e4. e32 e32 e32 e32 e32 e32 e32 e32 e2. e12 e12 e12 e4. e4. e32 e32 e32 e32 e32 e32 e32 e1~ e1~ e32 e2 e4 e8 e24 e24 e24 e2 e4 e8 e24 e24 e24 e2 e4 e8 e24 e24 e24 e2 e4 e8 e24 e24 e24 e2 e4 e8 e24 e24 e24 e2 e4 e8 e24 e24 e24 e2 e4 e8 e24 e24 e24 e2 e4 e8 e24 e24 e24 e2 e4 e8 e24 e24 e24 
!6  L YLR r1~ r1 V1 @40 W0,100,20 O2 d16 d16 d16 d16 d+16 d+16 d+16 d+16 < b16 b16 b16 b16 > f16 f16 f16 f16 f+16 f+16 f+16 f+16 d16 d16 d16 d16 g+16 g+16 g+16 g+16 > d16 d16 d16 d16 d16 c+16 c16 < a16 > c16 < b16 a+16 f+16 a+16 a16 f+16 d+16 a16 g+16 f16 d16 g+16 g16 e16 c+16 g16 f+16 d+16 c16 f+12 f12 d12 < b12 g+12 f12 > d+12 < a+12 f+12 > d+12 < a+12 f+12 > d+12 < a+12 f+12 > d+12 < a+12 f+12 > f12 < b12 g+12 > f12 < b12 g+12 > f12 < b12 g+12 > f+12 < b12 g+12 > d12 < b12 g+12 > d12 < b12 g+12 > f12 d12 < b12 > f+12 < b12 g+12 > a+12 d+12 < a+12 > a+12 d+12 < a+12 > g+12 d+12 < a+12 > f+12 d+12 < a+12 > g+2 a+4 > d4 d+16 < d+16 f+16 d+16 > d+16 < d+16 f+16 d+16 > d+16 < d+16 g+16 d+16 > d+16 < d+16 g+16 d+16 > d16 < d16 f16 d16 b4 a+4 g+4 < b6~ b48 > d+6~ d+48 f+8 f4 f12 f+12 g+12 a+1 
