;046 00338290
!1  T158 @0 @@2,2,0 E80,100,70,4,17 EP-4,0,0,3,0 P22,10,3 YLR B1 V3 O2 V6 a+16 a+16 V3 a+16 V6 f16 g+16 r16 a+16 V3 a+16 r8 V6 > d+16 f16 d+16 c+16 c16 < g+16 a+16 a+16 V3 r16 a+16 
!2  @0 @@2,2,0 E80,100,70,4,17 EP-4,0,0,3,0 P22,10,3 YLR B1 V8 O3 d+16 d+16 V5 d+16 V8 < a+16 > c+16 r16 d+16 V5 d+16 r8 V8 g+16 a+16 g+16 f+16 f16 c+16 d+16 d+16 V5 r16 d+16 
!3  @A3 `9F00 `AE00 E100,95,90,14,0 YLR B1 V3 O1 d+16 > d+16 ( d+16 ) < d+16 a+16 ( a+16 ) > d+16 ( d+16 ) < d+16 f+16 ( f+16 ) r16 f16 d+16 c+16 a+16 d+16 d+16 V1 r16 d+16 
!4  YLR r1 V6 @12 x2 
!5  T158 YLR V1 @2 O1 d+16 a+8 d+16 a+8 d+8 > d+16 < a+8 d+16 > d+16 < a+16 g+16 d+16 > d+16 @8 d+4~ d+8~ d+16 
!6  T158 YLR V1 @4 O2 d+4. @8 d+2 < d+16 d+16 d+2 
