;047 0033839C
!1  T86 @1 @@4,2,0 E80,100,70,8,31 EP-4,0,0,5,0 P41,18,3 Y.R B3 V7 O1 f+4 c+8 f+8 g+4 f8 g+8 a4. a8 > c+4. c+16 < b16 a4 g+8 f+8 g+8 g+8 a8 b8 > P39,20,6 E100,70,0,83,83 c+1~ c+2 
!2  @2 @@2,2,0 E80,100,70,8,31 EP-4,0,0,5,0 P41,18,3 YL. B3 V8 O2 a4 g+16~ g+32~ g+64 a8 b4 f8 b8 > c+4 < a4 > f+4. e16 d16 c+4 < b8 > c+8 e8 c+8 < b8 a8 g+2 P39,20,6 E100,70,0,62,62 f+1~ f+2 
!3  @A3 `9F00 `AE00 E100,95,90,26,0 YLR B3 V3 O0 f+8 > c+8 f+8 < f+8 f8 b8 > c+8 < f8 e8 > c+8 e8 < e8 d+8 a8 > d+8 < d+8 d8 a8 > d8 < d8 c+8 g+8 > c+8 < c+8 f+8 > c+8 f+8 c+8 < P39,20,6 E100,70,0,62,62 f+1~ f+2 
!4  YLR V8 @1 x4 @15 x16 x16 x16 x16 x8 x4 @1 x8 x4 @15 x16 x16 x16 x16 x8 x4. @1 x4 @15 x16 x16 x16 x16 x8 x4 @1 x8 x4 @15 x16 x16 x16 x16 @7 x2 
!5  YLR V1 @40 W0,100,20 O1 a4 g+16~ g+32~ g+64 a8 b4 f8 b8 > c+4 < a4 > f+4. e16 d16 c+4 < b8 > c+8 e8 c+8 < b8 a8 g+2 f+2 
!6  YLR V1 @39 r8 O1 f+8 > c+8 < a4 f8 b8 g+4 e8 a8 e4 d+8 > c+8 < f+4 d8 f+8 d4 c+8 g+8 f8 f+8 g+8 a8 > c+8 f+2 
