;048 00338512
!1  T144 L r8. @0 @@1,1,0 E100,90,50,15,46 P20,8,8 V6 Y.R O2 a+2~ a+4~ a+16 a+16 b16 > c16 c+1 P28,10,5 r4 < a+8 r8 a4 r4 > c16 r16 c4 < a+4. r4 r4 a+8 r8 a4 r4 > c16 r16 c4 < a+4 > c8 d8 d+16 r16 f2~ f8 d+8 d8 c2.~ c8 r4 d+8. r16 d8. r16 c8. r16 d8. r16 c2 d4. r8 g2 d4. a2~ a8. r16 a8 a+8 > c8 d2.~ d8 r8 f4 d+4 d4 c4 d2~ d4~ d8 < g1 r8 > c8. r16 < a+8. r16 a8. r16 a+8. r16 a2. r4 @@0,0,2 O2 E100,100,80,8,2 P28,14,6 YLR V4 d2 < g2 > g8. r16 f8. r16 d8. r16 c8. r16 c2. c8 d8 d+8 f8. r16 d8. r16 c8. r16 r8 YL. V6 > c2~ c8 < a+8 > c8 d2.~ d8 r4 d2~ d8 c+8 d8 e2~ e8 < a2 > E100,30,92,62,77 P32,15,5 f1~ f1 E100,100,80,8,2 r2 d2 f4 e4 f8 g4 f1~ f2.~ f8 r16 
!2  L @0 @@1,1,0 E100,90,50,15,46 P20,8,8 V8 YLR O2 a+2~ a+4~ a+16 a+16 b16 > c16 c+1 P28,10,5 r4 < a+8 r8 a4 r4 > c16 r16 c4 < a+4. r4 r4 a+8 r8 a4 r4 > c16 r16 c4 < a+4 > c8 d8 d+16 r16 f2~ f8 d+8 d8 c2.~ c8 r4 d+8. r16 d8. r16 c8. r16 d8. r16 c2 d4. r8 g2 d4. a2~ a8. r16 a8 a+8 > c8 d2.~ d8 r8 f4 d+4 d4 c4 d2~ d4~ d8 < g1 r8 > c8. r16 < a+8. r16 a8. r16 a+8. r16 a2. r4 @@0,0,2 O2 E100,100,80,8,2 P28,14,6 d2 < g2 > g8. r16 f8. r16 d8. r16 c8. r16 c2. c8 d8 d+8 f8. r16 d8. r16 c8. r16 r8 > c2~ c8 < a+8 > c8 d2.~ d8 r4 d2~ d8 c+8 d8 e2~ e8 < a2 > E100,30,92,62,77 P32,15,5 f1~ f1 E100,100,80,8,2 r2 d2 f4 e4 f8 g4 E100,30,92,62,77 f1~ f2.~ f8 r4 
!3  L `AE00 `2E63 @A3 E100,60,60,9,0 P28,12,16 YLR B1 V3 O1 c+2 a2 e2 c+2 [ g8 ]7 g16 d16 [ g8 ]7 g16 g16 [ f8 ]15 f16 c16 [ d+8 ]7 d+16 b16 [ d+8 ]7 d+16 d+16 [ d8 ]8 [ f+8 ]3 f+16 f+16 [ d8 ]3 d16 d16 [ g8 ]7 g16 d16 [ g8 ]7 g16 g16 [ f8 ]15 f16 c16 [ d+8 ]7 d+16 b16 [ d+8 ]7 d+16 d+16 [ d8 ]8 [ f+8 ]3 f+16 f+16 [ d8 ]3 d16 d16 [ d+8 ]7 d+16 b16 [ d+8 ]7 d+16 d+16 [ d8 ]7 d16 a16 [ d8 ]3 [ f+8 ]4 f+16 f+16 [ g8 ]7 g16 g16 [ f8 ]7 f16 f16 [ e8 ]7 e16 e16 [ a8 ]4 [ c+8 ]3 c+16 c+16 [ d8 ]7 d16 d16 [ c8 ]7 c16 c16 [ a+8 ]7 a+16 a+16 [ c8 ]7 c16 c+16 [ [ d8 ]7 d16 d16 ]2 
!4  L YLR V8 @15 x2 x4~ x16 x16 x16 x16 x4. x4 x8 x16 x16 x16 x16 @1 x4. x4. @15 x4 @1 x4. x4. @15 x4 @1 x4. x4. @15 x4 @1 x4. x4. @15 x4 @1 x4. x4. @15 x4 @1 x4. x4. @15 x4 @1 x4. x4. @15 x4 @1 x4. x4. @15 x4 @1 x4. x4. @15 x4 @1 x4. x4. @15 x4 @1 x4. x4. @15 x4 @1 x4. x4. @15 x4 @1 x4. x4. @15 x4 @1 x4. x4. @15 x4 @1 x4. x4. @15 x4 @20 x2. @1 x16 @15 x16 x16 x16 @1 x4. x4. @15 x4 @1 x4. x4. @15 x4 @1 x4. x4. @15 x4 @1 x4. x4. @15 x4 @1 x4. x4. @15 x4 @1 x4. x4. @15 x4 @1 x4. x4. @15 x4 @1 x4. x4. @15 x4 @1 x4. x4. @15 x4 @1 x4. x4. @15 x4 @1 x4. x4. @15 x4 @1 x4. x4. @15 x4 @20 x1. @15 x8 @1 x8 x16 @15 x16 x16 x16 
!5  L V1 @40 W0,100,20 YLR O1 e1 g2 a+2 > YL. [ a+16 d16 g16 d16 ]16 [ > d16 < g16 a+16 g16 ]4 [ a+16 d+16 g16 d+16 ]4 [ a16 d16 f+16 d16 ]4 [ > c16 < f+16 a16 f+16 ]2 > d16 < f+16 > c16 < f+16 a+16 f+16 a16 f+16 YLR V1 r4 a+8 V0 a+8 V1 a4 V0 a8 r8 > V1 c16 V0 c16 V1 c4 < a+4. r4 r4 a+8 V0 a+8 V1 a4 V0 a8 r8 > V1 c16 r16 c8. r16 < a+4 > c8 d8 d+16 r16 f2~ f8 d+8 d8 c8~ c2. r4 d+8 V0 d+8 V1 d8 V0 d8 V1 c8 V0 c8 V1 d8 V0 d8 V1 c2 d4 V0 d8 r8 @27 V0 r8 O0 YLR d16 Y.R d16 YLR d+16 Y.R d+16 YLR g16 Y.R g16 YLR a+16 Y.R a+16 > YLR d16 Y.R d16 YLR d+16 Y.R d+16 YLR g16 Y.R g16 YLR a+16 Y.R a+16 > YLR d16 Y.R d16 YLR d+16 Y.R d+16 YLR g16 Y.R g16 YLR a+16 Y.R a+16 > YLR d16 Y.R d16 r4 r8 O0 YLR e16 Y.R e16 YLR f16 Y.R f16 YLR a16 Y.R a16 > YLR c16 Y.R c16 YLR e16 Y.R e16 YLR f16 Y.R f16 YLR a16 Y.R a16 > YLR c16 Y.R c16 < YLR d+16 Y.R d+16 YLR f+16 Y.R f+16 YLR a16 Y.R a16 > YLR c16 Y.R c16 YLR d+16 Y.R d+16 YLR f+16 Y.R f+16 YLR a16 Y.R a16 V1 @40 W0,100,20 O3 YLR [ c8 < d8 g8 d8 > ]2 < [ a+8 d8 g8 d8 ]2 [ a+8 e8 g8 e8 ]2 [ a+8 c+8 e8 c+8 ]2 [ O2 f8 < a8 > d8 < a8 ]4 [ > d8 < f8 a+8 f8 ]2 [ > e8 < g8 > c8 < g8 ]2 [ > f8 < a8 > d8 < a8 ]4 
!6  L YLR V1 @4 O1 c2 c4~ c16 c16 c16 c16 f4. f4. f16 f16 f16 f16 [ g4. g4. g8 c16 c16 ]30 
