;049 00338B30
!1  T140 L @2 @@2,2,0 E80,100,70,5,19 Y.R V6 O1 r24 a+2.~ a+24 r24 g+12 a+12 b4.~ b12 r24 > c+4 d4 < a+2.~ a+12 g+12 a+12 b24 r24 b24 r24 b24 r24 > e24 r24 e24 r24 e24 r24 g12 a+12 > d+12 f+12 a+12 > d+12 < a+12 < a+12 > a+12 < a+12 > g+12 < a+12 > f+12 < a+12 > f+12 < a+12 > e12 < a+12 > d+12 < e12 > c+12 < e12 > d+12 < e12 > g12 < a+12 > f+12 < a+12 > e12 < a+12 > d+12 < d+12 a+12 d+12 a+12 d+12 a+12 d+12 b12 d+12 > c+12 < d+12 > d+12 < e12 a+12 e12 a+12 e12 > f+12 < a+12 > e12 < g12 > c+12 < e12 > a+12 < a+12 > a+12 < a+12 > g+12 < a+12 > f+12 < a+12 > f+12 < a+12 > e12 < a+12 > d+12 < e12 > c+12 < e12 > d+12 < e12 > g12 < a+12 > f+12 < a+12 > e12 < a+12 > d+12 < d+12 a+12 d+12 a+12 d+12 a+12 d+12 b12 d+12 > c+12 < d+12 a+12 a+12 a+12 > c+12 c+12 c+12 e12 e12 e12 a12 a12 a12 @2 D0 EPX @@X PX E95,100,90,24,40 O1 d+24 r24 a+24 r24 > d+24 r24 d+24 r24 a+24 r24 b24 r24 > d+24 r24 a+24 r24 b24 r24 O5 d+24 r24 r6 @2 @@2,2,0 E80,100,70,5,19 O2 a+24 r24 < a+24 r24 a+24 r24 > g+24 r24 < a+24 r24 a+24 r24 > f+24 r24 < a+24 r24 a+24 r24 > e24 r24 < a+24 r24 a+24 r24 @2 D0 EPX @@X PX E95,100,90,24,40 d+24 r24 a+24 r24 > d+24 r24 d+24 r24 a+24 r24 b24 r24 > d+24 r24 a+24 r24 b24 r24 O5 d+24 r24 r6 @2 @@2,2,0 E80,100,70,5,19 O2 c+24 r24 < g+24 r24 g+24 r24 > d+24 r24 < g+24 r24 g+12 > e24 r24 < g+24 r24 g+24 r24 > d+24 r12 d+24 r12 > [ d+12 < a+12 > d+12 a+12 < a+12 > d+12 e12 < a+12 > d+12 r4 ]7 d+12 < a+12 > d+12 a+12 < a+12 > d+12 e12 < a+12 > d+12 r6 r24 
!2  L @2 @@2,2,0 E80,100,70,5,19 YL. V8 O1 a+2.~ a+24 r24 g+12 a+12 b4.~ b12 r24 > c+4 d4 < a+2.~ a+12 g+12 a+12 b24 r24 b24 r24 b24 r24 > e24 r24 e24 r24 e24 r24 g12 a+12 > d+12 f+12 a+12 > d+12 < a+12 < a+12 > a+12 < a+12 > g+12 < a+12 > f+12 < a+12 > f+12 < a+12 > e12 < a+12 > d+12 < e12 > c+12 < e12 > d+12 < e12 > g12 < a+12 > f+12 < a+12 > e12 < a+12 > d+12 < d+12 a+12 d+12 a+12 d+12 a+12 d+12 b12 d+12 > c+12 < d+12 > d+12 < e12 a+12 e12 a+12 e12 > f+12 < a+12 > e12 < g12 > c+12 < e12 > a+12 < a+12 > a+12 < a+12 > g+12 < a+12 > f+12 < a+12 > f+12 < a+12 > e12 < a+12 > d+12 < e12 > c+12 < e12 > d+12 < e12 > g12 < a+12 > f+12 < a+12 > e12 < a+12 > d+12 < d+12 a+12 d+12 a+12 d+12 a+12 d+12 b12 d+12 > c+12 < d+12 a+12 a+12 a+12 > c+12 c+12 c+12 e12 e12 e12 a12 a12 a12 @2 D0 EPX @@X PX E95,100,90,24,40 O1 d+24 r24 a+24 r24 > d+24 r24 d+24 r24 a+24 r24 b24 r24 > d+24 r24 a+24 r24 b24 r24 O5 d+24 r24 r6 @2 @@2,2,0 E80,100,70,5,19 O2 a+24 r24 < a+24 r24 a+24 r24 > g+24 r24 < a+24 r24 a+24 r24 > f+24 r24 < a+24 r24 a+24 r24 > e24 r24 < a+24 r24 a+24 r24 @2 D0 EPX @@X PX E95,100,90,24,40 d+24 r24 a+24 r24 > d+24 r24 d+24 r24 a+24 r24 b24 r24 > d+24 r24 a+24 r24 b24 r24 O5 d+24 r24 r6 @2 @@2,2,0 E80,100,70,5,19 O2 c+24 r24 < g+24 r24 g+24 r24 > d+24 r24 < g+24 r24 g+12 > e24 r24 < g+24 r24 g+24 r24 > d+24 r12 d+24 r12 > [ d+12 < a+12 > d+12 a+12 < a+12 > d+12 e12 < a+12 > d+12 r4 ]8 
!3  L @A3 `9F00 `AE00 E100,95,90,16,0 YLR B1 V3 [ O0 d+12 > d+12 < ]6 [ e12 > e12 < ]3 f+12 > f+12 < f+12 > g12 < g12 > g12 < [ d+12 > d+12 < ]6 < [ c+12 > c+12 < ]3 < a12 > a12 < a12 > > a12 < a12 > a12 [ O0 d+12 > d+12 < ]6 [ e12 > e12 < ]3 f+12 > f+12 < f+12 > g12 < g12 > g12 < [ d+12 > d+12 < ]6 < [ c+12 > c+12 < ]3 < a12 > a12 < a12 > > a12 r12 a12 [ O0 d+12 > d+12 < ]6 [ e12 > e12 < ]3 f+12 > f+12 < f+12 > g12 < g12 > g12 < [ d+12 > d+12 < ]6 < [ c+12 > c+12 < ]3 < a12 > a12 < a12 > > a12 r12 a12 O1 d+1 e1 f+1 e1 O0 [ d+12 > d+12 < ]6 [ e12 > e12 < ]6 [ f+12 > f+12 < ]6 [ e12 > e12 < ]6 [ d+12 > d+12 < ]6 [ e12 > e12 < ]6 [ f+12 > f+12 < ]6 [ e12 > e12 < ]6 
!4  L YLR r4 V8 @15 x12 x12 x12 x2. x12 x12 x12 x4 x8 x4. x12 x12 x12 x2. x12 x12 x12 @20 x4 @15 x12 x12 x12 x4 x12 x12 x12 x4 x8. x16 x4 x12 x12 x12 x4 x8 x8 x4 x12 x12 x12 x4 x8. x16 x4 x12 x12 x12 x4 x8 x8 x4 x12 x12 x12 x4 x8. x16 x4 x12 x12 x12 x4 x8 x8 x4 x12 x12 x12 x4 x8. x16 x4 x12 x12 x12 x4 x8 x8 x4 x12 x12 x12 x4 x8. x16 x4 x12 x12 x12 x4 x8 x8 x4 x12 x12 x12 x4 x8. x16 x4 x12 x12 x12 x4 x8 x8 x12 x12 x12 x12 x12 x12 x12 x12 x12 x12 x12 x12 x12 x12 x12 x12 x12 x12 x12 x12 x12 x12 x12 x12 x12 x12 x12 x12 x12 x12 x12 x12 x12 x12 x12 x12 x12 x12 x12 x12 x12 x12 @20 x2 @15 x4. x4. x12 x12 x12 x4. x4. x12 x12 x12 x4. x4. x12 x12 x12 x4. x4. x12 x12 x12 
!5  L YLR V1 @61 W0,100,20 O1 d+2.~ d+12 c+12 d+12 e4~ e6 r12 f+4 g4 d+2.~ d+24 r24 c+12 d+12 e12 e12 e12 g12 g12 g12 a+12 > c+12 f+12 a12 > c+12 f+12 O0 a+4 d+8. d+16 a+4 g+12 g+12 a+12 b2 > c+4 d4 < a+4 d+8. d+16 a+4 g+12 g+12 a+12 b2 > c+4 d4 > d+2. c+12 c+12 d+12 e2 f+4 g4 d+2. d+12 d+12 d+12 e12 e12 e12 g12 g12 g12 > c+12 c+12 c+12 f+12 f+12 f+12 [ O0 r4 a+24 r12. a+24 r24 > d+1~ d+2 ]2 @40 W0,100,20 [ O2 [ a24 r24 ]3 > [ c+24 r24 ]3 [ e24 r24 ]3 [ d+24 r24 ]3 ]4 d+4. < a4. > c+4 f+4. c+4. d+2~ d+8 < a4. > c+4 f+4. g4. f+6 r12 
!6  L YLR r4 V1 @4 O1 e12 e12 e12 e2. e12 e12 e12 e4 e8 e4. e12 e12 e12 e2. e12 e12 e12 e12 e12 e12 e8 e8 ( e4 < b4 > e4 d6 d12 e4 < b6 b12 > e4 d8 d8 e4 < b4 > e4 d6 d12 e4 < b6 b12 > e4 d8 d8 e4 < b4 > e4 d6 d12 e4 < b6 b12 > e4 d8 d8 e4 < b4 > e4 d6 d12 e4 < b6 b12 > e4 d8 d8 e4 < b4 > e4 d6 d12 e4 < b6 b12 > e4 d8 d8 e4 < b4 > e4 d6 d12 e4 < b6 b12 > e4 d8 d8 e4 < b4 > e4 d6 d12 e4 < b6 b12 > e4 d8 d8 e4 < b4 > e4 d6 d12 e4 < b6 b12 > e4 d8 d8 e4. e4. e4 e4. e4. e4 e4. e4. e4 e4. e4. e4 
