;050 003391A8
!1  T83 L @0 E100,90,70,40,67 r16 YL. [ V4 O3 a+24 r12 < a+24 r12 ( O4 c+24 r12 O2 a+24 r12 ( O4 e24 r12 ( O2 a+24 r12 _V2 O4 d+24 r12 ( O2 a+24 r12 ]7 V4 O3 a+24 r12 < a+24 r12 ( O4 c+24 r12 O2 a+24 r12 ( O4 e24 r12 ( O2 a+24 r12 _V2 O4 d+24 r12 ( O2 a+24 r48 O3 [ [ V8 YL. c+16 V5 Y.R c+16 ]4 [ V8 YL. d16 V5 Y.R d16 ]4 [ V8 YL. d+16 V5 Y.R d+16 ]4 [ V8 YL. f+16 V5 Y.R f+16 ]4 [ V8 YL. f16 V5 Y.R f16 ]4 [ V8 YL. e16 V5 Y.R e16 ]4 [ V8 YL. d+16 V5 Y.R d+16 ]4 [ V8 YL. d16 V5 Y.R d16 ]4 ]2 
!2  L @0 E100,90,70,40,67 YLR [ V6 O3 a+24 r12 < a+24 r12 ( O4 c+24 r12 O2 a+24 r12 ( O4 e24 r12 ( O2 a+24 r12 _V2 O4 d+24 r12 ( O2 a+24 r12 ]8 O2 [ [ V8 Y.R a+16 V5 YL. a+16 ]4 [ V8 Y.R b16 V5 YL. b16 ]4 > [ V8 Y.R c16 V5 YL. c16 ]4 [ V8 Y.R d+16 V5 YL. d+16 ]4 [ V8 Y.R d16 V5 YL. d16 ]4 [ V8 Y.R c+16 V5 YL. c+16 ]4 [ V8 Y.R c16 V5 YL. c16 ]4 < [ V8 Y.R b16 V5 YL. b16 ]4 ]2 
!3  L `9F00 `AE00 @A7 E100,90,60,16,0 P48,22,16 O0 V3 [ d+16 c+16 d+16 f+4. c+16 d+16 g+8. f+8 ]4 @A3 [ d+16 c+16 d+16 f+4. c+16 d+16 g+8. f+8 ]4 @A7 [ > c+24 < g+24 c+24 ]4 [ > d24 < a24 d24 ]4 [ > d+24 < a+24 d+24 ]4 [ > f+24 c+24 < f+24 ]4 [ > f24 c24 < f24 ]4 [ > e24 < b24 e24 ]4 [ > d+24 < a+24 d+24 ]4 [ > d24 < a24 d24 ]4 @A3 [ > c+24 < g+24 c+24 ]4 [ > d24 < a24 d24 ]4 [ > d+24 < a+24 d+24 ]4 [ > f+24 c+24 < f+24 ]4 [ > f24 c24 < f24 ]4 [ > e24 < b24 e24 ]4 [ > d+24 < a+24 d+24 ]4 [ > d24 < a24 d24 ]4 
!4  L YLR [ @8 V5 x32 r32 r16 @4 V15 x16 r16 r16 @8 V5 x32 r32 @4 V15 x16 r16 @8 V5 x32 r32 r16 @4 V15 x16 @8 V5 x32 r32 r16 @8 V5 x32 r32 @4 V15 x16 r16 ]8 [ @8 V5 x32 r32 @4 V15 x16 @8 V5 x32 r32 @4 V15 x16 r16 @8 V5 x32 r32 @4 V15 x16 r16 @8 V5 x32 r32 @4 V15 x16 @4 x16 x32 x32 r16 x16 @4 V15 x16 r16 ]8 
!5  L YLR V1 @36 O1 [ f8. r16 f8. f16 b8 b8 r8 e24 e24 e24 f8. r16 f8. c16 b16 b16 b8 r8 d+24 d+24 d+24 ]4 @64 W0,100,20 [ a+12 r24 ]4 [ b12 r24 ]4 > [ c12 r24 ]4 [ d+12 r24 ]4 [ d12 r24 ]4 [ c+12 r24 ]4 [ c12 r24 ]4 < [ b12 r24 ]4 @36 [ r4 f8. f16 b8 b8 r8 e24 e24 e24 f8. r16 f8. c16 b16 b16 b8 r8 d+24 d+24 d+24 ]2 
!6  L r1~ r1 V1 @28 W0,100,20 YLR O2 d+4 c+4 e4. < a2 > f+4~ f+8~ f+16 d+16 c+8 @62 W0,100,20 O2 d+1 e1 f+1 e1 c+2 d2 d+2 f+2 f2 e2 d+2 d2 @38 W0,100,20 V1 O2 [ a+16 _V-2 a+16 _V2 ]4 [ b16 _V-2 b16 _V2 ]4 > [ c16 _V-2 c16 _V2 ]4 [ d+16 _V-2 d+16 _V2 ]4 [ d16 _V-2 d16 _V2 ]4 [ c+16 _V-2 c+16 _V2 ]4 [ c16 _V-2 c16 _V2 ]4 < [ b16 _V-2 b16 _V2 ]4 
