;051 0033957A
!1  T160 L @1 E100,85,60,17,35 P19,14,4 Y.R B1 V6 O3 g+8 < b8 > d+8 < b8 > g+8 < b8 > g8 < a+8 > d+8 < a+8 > g8 < a+8 > g8 < a+8 > c+8 < a+8 > a+8 < a+8 O4 c+8 < d+8 b8 d+8 a+8 d+8 f+8 < g+8 > c+8 < g+8 > f+8 < g+8 > e8 < g+8 > c+8 < g+8 > e8 < g+8 > d+8 < g+8 b8 g+8 > d+8 < g+8 > a+8 c+8 g8 c+8 a+8 c+8 > d+12 r24 < d+12 r24 a+12 r24 d+12 r24 a+12 r24 d+12 r24 a+12 r24 d+12 r24 b12 r24 d+12 r24 > c+12 r24 < d+12 r24 > d+12 r24 < d+12 r24 a+12 r24 d+12 r24 a+12 r24 d+12 r24 a+12 r24 d+12 r24 b12 r24 d+12 r24 > c+12 r24 < d+12 r24 > d+12 r24 < d+12 r24 a+12 r24 d+12 r24 a+12 r24 d+12 r24 a+12 r24 d+12 r24 b12 r24 d+12 r24 > c+12 r24 < d+12 r24 > d+12 r24 < d+12 r24 a+12 r24 d+12 r24 a+12 r24 d+12 r24 a+12 r24 d+12 r24 g+12 r24 d+12 r24 > d+12 r24 < d+12 r24 r6 O1 e8 b8 > d+8 e8 g+8 b8 > d+8 < b8 g+8 e8 d+8 < b8 d+8 a+8 > d+8 f+8 a+8 > c+8 O1 g+8 > d+8 f+8 b8 > d+8 f+8 O1 c+8 g+8 > d+8 e8 g+8 b8 > d+8 < b8 g+8 e8 d+8 < g+8 d+8 > e8 g8 a+8 > c+8 < a+8 < g8 > d+8 g8 a+8 > d+12 V5 > [ a+12 < g+12 > d+12 < g+12 > d+12 < g+12 > d+12 < g+12 > d+12 ]8 V6 O2 e4 e4 e4 e2. f+2. c+2 d+4 b4 b4 b4 g+4 g+2 a+2. [ g6~ g24 r24 ]2 d+6~ d+24 r24 V4 [ O4 g+12 < g+12 > d+12 ]24 
!2  L @1 E100,85,60,17,35 P19,14,4 YLR B1 V8 O2 g+2. g2. a+4 b4 d+1 f+2. e2. d+4 < g+4 > d+2.~ d+6 r12 g+2 a+4 g+2 a+4 b1~ b4 d+4 g+2 a+4 g+2 a+4 b2.~ b2 d+4 < e8 b8 > d+8 e8 g+8 b8 > d+8 < b8 g+8 e8 d+8 < b8 d+8 a+8 > d+8 f+8 a+8 > c+8 O1 g+8 > d+8 f+8 b8 > d+8 f+8 O1 c+8 g+8 > d+8 e8 g+8 b8 > d+8 < b8 g+8 e8 d+8 < g+8 d+8 > e8 g8 a+8 > c+8 < a+8 < g8 > d+8 g8 a+8 > d+8 < a+8 g+2 a+4 g+2 a+4 b1~ b4 d+4 g+2 a+4 g+2 a+4 b1~ b4 d+4 g+4 a+4 b4 b2~ b8 r8 b2. f+2 f+4 > f+4 e4 d+4 e4 d+2 d+2. c+4 < b4 a+4 b2.~ b2.~ b2.~ b4 a+4 > c+4 b2.~ b2.~ b2.~ b2~ b8 r8 
!3  L @A3 `9F00 `AE00 E100,95,90,14,0 YLR B1 V3 O1 g+1~ g+1~ g+2~ g+4 d+4 g+1~ g+1~ g+2~ g+4 d+4 g+8 d+8 g+8 g+8 d+8 g+8 g+8 d+8 g+8 g+8 d+8 g+8 g+8 d+8 g8 g+8 d+8 g8 g+8 d+8 g8 g+8 d+8 g8 g+8 d+8 f+8 g+8 d+8 f+8 g+8 d+8 f+8 g+8 d+8 f+8 g+8 d+8 f8 g+8 d+8 f8 g+8 d+8 f8 g+8 d+8 f8 e8 e8 e8 e8 e8 e8 e8 e8 e8 e8 e8 e8 d+8 d+8 d+8 d+8 d+8 d+8 g+8 g+8 g+8 g+8 g+8 g+8 c+8 c+8 c+8 c+8 c+8 c+8 c+8 c+8 c+8 c+8 c+8 c+8 d+8 d+8 d+8 d+8 d+8 d+8 g8 g8 g8 g8 g8 g8 > g+1. g1. f+1. f1. < c+8 c+8 c+8 c+8 c+8 c+8 c+8 c+8 c+8 c+8 c+8 c+8 d+8 d+8 d+8 d+8 d+8 d+8 d+8 d+8 d+8 d+8 d+8 d+8 e8 e8 e8 e8 e8 e8 c+8 c+8 c+8 c+8 c+8 c+8 g8 g8 g8 g8 g8 g8 d+8 d+8 d+8 d+8 d+8 d+8 e8 e8 e8 e8 e8 e8 e8 e8 e8 e8 e8 e8 f+8 f+8 f+8 f+8 f+8 f+8 g8 g8 g8 g8 g8 g8 g+8 g+8 g+8 g+8 g+8 g+8 g+8 g+8 g+8 g+8 g+8 g+8 f+8 f+8 f+8 f+8 f+8 f+8 f+8 f+8 f+8 f+8 f+8 f+8 
!4  L YLR V8 [ [ @15 [ x12 ]9 r4 x12 r12 r12 r12 r12 x24 x24 [ x12 ]9 x12 r6 x12 r6 x12 r12 x24 x24 ]2 [ @1 x8 r4 x8 @15 x8 r8 r4 @1 x8 r8 @15 x8 r8 ]8 ]2 
!5  L YLR V1 @61 W0,100,20 O0 g+1~ g+4~ g+16 g+16 g+8 g+1~ g+4 d+4 g+1~ g+4~ g+16 g+16 g+8 g+1~ g+4 d+4 > g+1. g1. f+1. f1. > d+2. c+2 < g+4 > c+2. < b2. > e4 d+4 c+4 c+2 < b4 > e2. d+2. @58 W0,100,20 V0 O0 g+8 > d+8 g+8 > d+8 g+8 < g+8 > b8 < g+8 > a+8 < g+8 > d+8 < g+8 < g8 > d+8 a+8 > d+8 a+8 < a+8 > b8 < b8 > a+8 < b8 > b8 < b8 < f+8 > d+8 g+8 > d+8 g+8 < g+8 > b8 < b8 > a+8 < b8 > d+8 < b8 < f8 > d+8 g+8 > d+8 g+8 < g+8 O3 c+8 O1 b8 > b8 < b8 > a+8 < b8 < c+8 g+8 > e8 g+8 > d+4 f+4 e4 d+4 O0 d+8 a+8 > f+8 a+8 > d+4 f+4 g+4 d+4 O0 e8 b8 > g+8 b8 > f+4 O0 c+8 g+8 > e8 g+8 > d+4 O0 g8 > d+8 g8 a+8 > e4 O0 d+8 > d+8 g8 a+8 > c+8 < a+8 > a+8 d+8 b8 d+8 a+8 d+8 a+8 d+8 b8 d+8 > d+8 < d+8 a+8 d+8 b8 d+8 a+8 d+8 a+8 d+8 b8 d+8 > d+8 < d+8 a+8 d+8 b8 d+8 a+8 d+8 a+8 d+8 b8 d+8 > d+8 < d+8 a+8 d+8 b8 d+8 a+8 d+8 > c+8 < d+8 b8 d+8 a+8 d+8 
!6  L YLR V1 @4 O1 g2. g2. ( g2. ) g2 d+4 g2. g2. ( g2. ) g2 d+4 g2. g2. ( g2. ) g2 d+4 g2. g2. ( g2. ) g2 d+6 d+24 d+24 g2. g4 g4. d+8 ( g2. ) g2 d+4 g2. c+2. ( g2. ) g2 d+4 @61 W0,100,20 r2 a+4 b4 > c+2 d+1~ d+2 r2 < a+4 b4 > c+2 d+1. @4 < g2. g2. ( g2. ) g2 d+4 g2. g2. ( g2. ) g2 d+4 g2. g2. ( g2. ) g2 d+4 g2. g2. ( g2. ) g2 d+4 
