; Segment III SALLY
; (this really used to be done in a hex editor directly so I had to decompile my own music)

!1  T136 @@2,0,1 E100,70,5,8,12 [ V7 d8 _V-4 d8 d8 d8 d8 _V3 d8 _V-3 d8 d8 ]2 L [ V7 d8 _V-4 d8 d8 d8 d8 _V3 d8 _V-3 d8 d8 ]2 [ V7 d+8 _V-4 d+8 d+8 d+8 f8 _V3 f8 _V-3 f8 f8 V7 f8 _V-4 f8 f8 f8 f8 _V3 f8 _V-3 f8 f8 V7 d+8 _V-4 d+8 d+8 d+8 d8 _V3 d8 _V-3 d8 d8 V7 d8 _V-4 d8 d8 d8 d8 _V3 d8 _V-3 d8 d8 V7 d8 _V-4 d8 d8 d8 c+8 _V3 c+8 _V-3 c+8 c+8 V7 d8 _V-4 d8 d8 d8 d8 _V3 d8 _V-3 d8 d8 ]2 E100,70,5,8,8 V5 d8 _V-3 d8 d8 d8 d+8 _V2 d+8 _V-2 d+8 d+8 [ V5 d+8 _V-3 d+8 d+8 d+8 d8 _V2 d8 _V-2 d8 d8 ]2 V5 d+8 _V-3 d+8 d+8 d+8 e8 _V2 e8 _V-2 e8 e8 [ V5 d8 _V-3 d8 d8 d8 d8 _V2 d8 _V-2 d8 d8 ]2 V5 d+8 _V-3 d+8 d+8 d+8 d+8 _V2 d+8 _V-2 d+8 d+8 V5 d8 _V-3 d8 d8 d8 d+8 _V2 d+8 _V-2 d+8 d+8 V5 f8 _V-3 f8 f8 f8 f8 _V2 f8 _V-2 f8 f8 V5 d+8 _V-3 d+8 d+8 d+8 d+8 _V2 a8 _V-2 a+8 a+8 V5 a8 _V-3 a8 a8 a8 a8 _V2 a8 _V-2 a8 a8 @1 E40,100,100,4,0 V2 P5,16,3 [ d2 d+2 ]4 d+4 e4 f4 d+4 d2 d+2 @@5,1,0 E62,110,30,8,48 P16,10,4 V7 d+2 d+2 d2 < a+2 > d+2 e2 g2 f+2 @1 E40,100,100,4,0 V2 P5,16,3 d2 d+2 d4 E80,120,80,10,5 @@2,0,1 PX V7 d8. ( g32 a32 a+32 > c32 ) d8 _V-2 d32 _V2 c8 _V-2 c32 _V2 < a+16 _V-2 a+32 _V2 a16 _V-2 a32 _V2 a+16 ~ a+64 g16 ~ g64 d32 ~ d2. _V-2 d4 _V2 d8 _V-2 d8 _V2 d+12 _V-2 d+12 _V2 f12 _V-2 f12 _V2 g12 _V-2 g12 _V2 d1 _V-4 d1 @@5,1,0 E62,110,30,8,48 P16,10,4 V7 d+2 d+2 d2 < a+2 > d+2 e2 g2 f+2 @@2,0,1 E100,70,5,8,12 PX
!2  @@2,0,1 E100,70,5,8,12 O1 [ V5 a+8 _V-3 a+8 a+8 a+8 a+8 _V2 a+8 _V-2 a+8 a+8 ]2 L V5 a+8 _V-3 a+8 a+8 a+8 a+8 _V2 a+8 _V-2 a+8 a+8 V5 a8 _V-3 a8 a8 a8 a8 _V2 a8 _V-2 a8 a8 V5 a+8 _V-3 a+8 E100,130,0,10,24 a8 a+8 > c8 d8 d+4 E100,70,5,8,12 V5 d8 _V-3 d8 d8 d8 d8 _V2 d8 _V-2 d8 d8 V5 c8 _V-3 c8 c8 c8 < a8 _V2 a8 _V-2 a8 a8 V5 a+8 _V-3 a+8 a+8 a+8 a+8 _V2 a+8 _V-2 a+8 a+8 V5 a+8 _V-3 a+8 a+8 a+8 a8 _V2 a8 _V-2 a8 a8 V5 a8 _V-3 a8 a8 a8 a8 _V2 a8 _V-2 a8 a8 V5 a+8 _V-3 a+8 a+8 a+8 > c8 _V2 c8 _V-2 c8 c8 V5 d8 _V-3 d8 d8 d8 d8 _V2 d8 _V-2 d8 d8 V5 c8 _V-3 c8 c8 c8 < a8 _V2 a8 _V-2 a8 a8 V5 a+8 _V-3 a+8 a+8 a+8 a+8 _V2 a+8 _V-2 a+8 a+8 V5 a+8 _V-3 a+8 a+8 a+8 a8 _V2 a8 _V-2 a8 a8 V5 a8 _V-3 a8 a8 a8 a8 _V2 a8 _V-2 a8 a8 V6 E70,100,70,8,12 P10,10,2 O3 r32 g16 a16 a+8. a16 g16 f16 d+16 d16 d+8. f16 g16 a16 g16 f16 d+16 f16 g16 f16 d+16 g16 d16 c16 d4 V3 d8 V6 c16 < a+16 > c8. d+16 d16 c16 < a+16 a16 a+16 > c16 d16 e16 f+16 g16 a16 a+16 a16 a16 a16 a+16 a16 a16 a16 a+16 a16 a16 a16 > c16 < a+16 g16 > [ d24 ( H< d24 H< ]4 [ d24 H< ]16 V6 _0 d16 d+16 d8. d+16 f16 g16 a16 g16 a16 a+16 > c16 d16 d+16 f16 g16 f16 g8. a16 a+16 > c16 < a+16 a16 g16 f16 g16 f16 d+16 g16 [ d16 d+16 d16 > d16 < ]15 d16 d+16 d16 > d32 < [ @1 E40,100,100,4,0 V2 P5,16,3 _0 O3 [ a+2 a2 ]5 a+2 a+2 @@5,1,0 E62,110,30,8,64 P16,10,4 V6 a+2 a2 f2 g2 a+2 a2 a1 ]2 @@2,0,1 E100,70,5,8,12 PX H0 O1
!3  `9F00 `AE00 YLR @A3 E100,100,20,3,14 O1 V3 [ g8 ( g8 g8 g8 g8 ) g8 ( g8 g8 ) ]2 L V3 g8 ( g8 g8 g8 g8 ) g8 ( g8 g8 ) f8 ( f8 f8 f8 f8 ) f8 ( f8 f8 ) d+8 ( d+8 d+8 d+8 f8 ) f8 ( f8 f8 ) < a+8 ( a+8 a+8 a+8 a+8 ) a+8 ( a+8 a+8 ) a8 ( a8 a8 a8 > d8 ) d8 ( d8 d8 ) < g8 ( g8 g8 g8 f8 ) f8 ( f8 f8 ) e8 ( e8 e8 e8 a8 ) a8 ( a8 a8 ) > d8 ( d8 d8 d8 d8 ) d8 ( d8 d8 ) c8 ( c8 c8 c8 f8 ) f8 ( f8 f8 ) < a+8 ( a+8 a+8 a+8 a+8 ) a+8 ( a+8 a+8 ) a8 ( a8 a8 a8 > d8 ) d8 ( d8 d8 ) g8 ( g8 g8 g8 f8 ) f8 ( f8 f8 ) e8 ( e8 e8 e8 < a8 ) a8 ( a8 a8 ) > d8 ( d8 d8 d8 d8 ) d8 ( d8 d8 ) < g8 ( g8 g8 g8 a8 ) a8 ( a8 a8 ) [ a8 ( a8 a8 a8 g8 ) g8 ( g8 g8 ) ]2 a8 ( a8 a8 a8 a+8 ) a+8 ( a+8 a+8 ) > d8 ( d8 d8 d8 d8 ) d8 ( d8 d8 ) < g8 ( g8 g8 g8 g8 ) g8 ( g8 g8 ) a8 ( a8 a8 a8 a8 ) a8 ( a8 a8 ) g8 ( g8 g8 g8 a8 ) a8 ( a8 a8 ) a+8 ( a+8 a+8 a+8 b8 ) b8 ( b8 b8 ) > c8 ( c8 c8 c8 c8 ) c8 ( c8 c8 ) d8 ( d8 d8 d8 d8 ) d8 ( d8 d8 [ [ g48 ( g48 ) ]144 [ c48 ( c48 ) ]12 [ f48 ( f48 ) ]12 < [ a+48 ( a+48 ) ]12 > [ d+48 ( d+48 ) ]12 [ c48 ( c48 ) ]12 [ c+48 ( c+48 ) ]12 [ d48 ( d48 ) ]24 ]2
!4  @5 [ x8 x16 x16 ]8 L [ x8 x16 x16 ]100 [ r1 ]20
!5  @28 W0,90,39 O1 V1 P28,20,4 r1. r4 L d8. ( d16 ) g2 ~ g8 ( g8 ) a8 ( a16 ) a+16 a2 ( a4 ) d8. ( d16 ) g4. ( g8 ) f8. ( f16 ) > c16 ( c16 r16 ) f16 P28,20,8 d2 ( d4 ) d8 ( d8 ) c4. ( c8 ) d8 ( d8 ) < a8 ( a16 ) > c16 < a+2 ( a+8 ) > d16 ( d16 ) g16 ( g16 ) a16 ( a16 ) a+8 ( a+8 ) a+8 ( a+8 ) > c4. < a+16 ( a+16 ) a2 ~ a8 ( a8 ) a8. ( a16 ) a+4. ( a+8 ) a8 g8 f8 d+8 d2 ( d4 ) d8. ( d16 ) c4 d8 d+8 d4 c4 < a+4. ( a+4 ) > d8 g8 a8 a+8. ( a+16 ) a+8. ( a+16 ) > c4. < a+8 a2. ( a8 r8 @40 W0,96,45 PX O0 [ a+16 r16 ]4 > [ c16 r16 ]4 [ [ c16 r16 ]4 < [ a+16 r16 ]4 > ]2 [ c16 r16 ]4 [ c+16 r16 ]4 < [ a16 r16 ]8 > < [ a+16 r16 ]8 > [ c16 r16 ]8 < [ a+16 r16 ]4 > [ c16 r16 ]4 < [ a+16 r16 ]4 > [ d16 r16 ]4 [ c16 r16 ]8 [ g16 r16 ]5 f+16 r16 @28 W0,90,39 P28,20,4 ) [ d8. ( d16 ) g4. ( g8 ) f4 ( f8 ) a16 ( a16 ) d2 ( d4 ) d8 ( d8 ) g8 ( g8 ) g8 ( g8 ) f12 ( f12 ) g12 ( g12 ) a12 ( a12 ) d2 ( d4 ) d8 ( d8 ) g8 ( g8 ) > d8 ( d8 ) c12 ( c12 ) d12 ( d12 ) f12 ( f12 ) d16 ( d16 ) g8 a8 a+8 a4 ( a8 ) d8 f4 d+8 d8 c8. ( c16 ) d+8. ( d+16 ) d8. ( d16 ) < a+8. a16 g8 ( g8 ) g8 ( g16 ) a16 a+4. ( a+8 ) a12 ( a12 ) > c12 ( c12 ) < a+12 ( a+12 ) a2 ( a4 ) ]2
!6  @40 W0,96,45 O0 V0 [ a16 r16 ]16 L > V1 r4 d4 g4. V0 g8 V1 f4. g16 V0 g16 V1 a4. f8 d+4 f8 g8 a8 a+8 > c4 < a+4 c8 ( c16 ) f16 d2 r8 g8 a8 g8 f+2 r4 g4 f2 e2 ( e8 ) d+8 e8 g8 g2 ( g8 ) f+4. g4 a8 a+8 > c4. < f8 < a+4. > c8 d2 g2 ( g8 ) d8 e8 f+8 g2 f2 e2 ( e8 ) d+8 e8 g8 g2 ( g8 ) f+4 ( f+8 ) @43 W0,97,0 g16 a16 a+8. a16 g16 f16 d+16 d16 d+8. f16 g16 a16 g16 f16 d+16 f16 g16 f16 d+16 g16 d16 c16 d4 ( d16 r16 ) c16 < a+16 > c8. d+16 d16 c16 < a+16 a16 a+16 > c16 d16 e16 f+16 g16 a16 a+16 a16 a16 a16 a+16 a16 a16 a16 a+16 a16 a16 a16 > c16 < a+16 g16 > [ d24 V0 H< ]24 V1 _0 d16 d+16 d8. d+16 f16 g16 a16 g16 a16 a+16 > c16 d16 d+16 f16 g16 f16 g8. a16 a+16 > c16 < a+16 a16 g16 f16 g16 f16 d+16 g16 [ d16 d+16 d16 > d16 < ]16 < [ [ d24 H> ]12 [ d24 H< ]12 [ d24 H> ]24 [ d24 H< ]24 [ d24 H> ]24 [ d24 d+24 d24 c+24 c24 c+24 ]4 d24 d+24 [ d24 H< ]22 [ f16 H> ]8 [ f24 H< ]12 [ g24 H> ]23 f24 [ f+24 f24 ]6 [ H< f24 ]7 [ e24 H> ]5 [ d24 d+24 ]12 H0 O0 ]2 @40 W0,96,45
