;001 001D32C4
!1  T135 V8 O2 @0 E100,70,60,8,25 P0,11,2 _V-2 [ YLR d+24 YL. _V-4 d+24 _V4 YLR d+24 Y.R _V-4 d+24 _V4 YLR d+24 YL. _V-4 d+24 _V4 YLR d+24 Y.R _V-4 d+24 _V4 YLR d+24 YL. _V-4 d+24 _V4 YLR d+24 Y.R _V-4 d+24 _V4 YLR d+24 YL. _V-4 d+24 _V4 YLR _V3 d+12 _V-3 YLR d+24 YL. _V-4 d+24 _V4 YLR d+24 Y.R _V-4 d+24 _V4 YLR d+24 YL. _V-4 d+24 _V4 YLR d+24 Y.R _V-4 d+24 _V4 ]2 _V2 L @2 E50,100,60,49,25 P12,11,2 YLR r1 r2 f+12 a12 > d12 f+12 a12 > d12 f1~ _V-6 f4 < _V6 r4 r12 d12 < b12 > c12 d+12 g12 > c1~ _V-6 c4 < _V6 r4 d12 e12 f+12 a12 > d12 f+12 f2. _V-3 f4 < ) g12 g+12 ) g12 g+12 ) g12 g+12 ) g12 g+12 ) g12 g+12 ( g12 ( g+12 < @0 E100,70,60,8,25 P0,11,2 ( [ [ YL. c24 Y.R _V-5 c24 _V5 ]12 < [ YL. a24 Y.R _V-5 a24 _V5 ]12 [ YL. b24 Y.R _V-5 b24 _V5 ]12 > [ YL. c24 Y.R _V-5 c24 _V5 ]12 ]2 ) @2 E50,100,60,49,25 P12,11,2 YLR r1 r2 _V-2 a12 _V2 a12 > _V-2 d12 _V2 d12 _V-2 d+12 _V2 d+12 d1~ _V-6 d4 _V6 r2. r12 d12 < b12 > c12 d+12 g12 > d4.~ _V-3~ d8~ _V-3 d12 < _V6 d12 < b12 > c12 d+12 g12 < g4.~ _V-4 g8 _V4 g12 a12 a+12 a6 g12 > d4.~ _V-3 d8 _V3 c12 _V-3 c12 _V3 d12 _V-3 d12 _V3 d+12 _V-3 d+12 _V3 f4. g8 g+2. _V-4 g+4 _V4 r12 c12 d12 d+6 d12 d+4~ d+12 d12 c12 < a6 a+6 a6 > c4~ c12 < a+12 g+12 > d2.~ _V-4 d4 _V4 < @0 E100,70,60,8,25 P0,11,2 [ Y.R g24 YL. _V-6 a24 _V6 ]12 [ Y.R g+24 YL. _V-6 g+24 _V6 ]12 [ Y.R a24 YL. _V-6 a24 _V6 ]12 
!2  V8 O1 @0 E100,70,60,8,25 _V-2 a+2 _V2 r12 _V3 > g12 < _V-3 r12 r12 g6 _V-2 > c2 _V2 r12 _V3 g12 _V-3 < g12 g4 L O2 @1 E50,100,40,57,20 D2 P0,12,2 YL. g2~ g8 < g8 > c8 g8 f+4~ f+6 d12~ d4. ( d8 ) f2~ f8 d8 d+8 f8 d+4~ d+6 < g12~ g4. ( g8 ) > d+2~ d+8 < g8 > c8 d+8 d4~ d6 < a12~ a4. ( a8 ) > d2~ d8 f4 d+8 d4~ d6 < g12~ g4. ( g8 ) > @0 E100,70,60,8,25 P0,11,2 ( [ [ Y.R d+24 YL. _V-5 d+24 _V5 ]12 [ Y.R d24 YL. _V-5 d24 _V5 ]12 [ Y.R d24 YL. _V-5 d24 _V5 ]12 [ Y.R d+24 YL. _V-5 d+24 _V5 ]12 ]2 ) O1 @1 E50,100,40,57,20 D2 P0,12,2 YL. _V-2 g2~ g8 a+4 g+8 g4~ g6 f+12~ f+4. ( f+8 ) f2~ f12 g12 g+12 g+12 > d12 c12 c2 < b4~ b6 g12 _V2 > g2 ( g6 ) a+6 g+6 g2 ( g8 ) > c8 < a+8 g+8 g2 ( g8 ) > d4 c8 g2 f2 d+2~ ( d+8 ) d8 c8 < a+8 > g2. ( g4 ) < f+2 f+12 a12 > d12 f+12 a12 > d12 f4~ f16 d+16 d16 c16 d16 c16 < a+16 g+16 a+16 g+16 g16 f16 [ g12 ( g12 ) d12 ( d12 ) < g12 ( g12 ) g12 ( g12 ) > d12 ( d12 ) g12 ( g12 ) ]3 
!3  V3 O1 [ `9F00 @A3 c12 ( c12 ) c12 ( c12 ) `9F00 @A3 @B0 @~4 > c12 < `9F00 @A3 ( c12 ) `9F00 @A3 @B0 @~4 > c12 < `9F00 @A0 f12 ( g12 ) f+12~ ( g12 ) `9F00 @A3 @B0 @~4 a+12 ]2 L `9F00 @A3 c12 ( c12 ) c12 ( c12 c12 c12 c12 ) `9F00 @A3 @B0 @~4 > c12 < `9F00 @A0 ( c12 ) f12~ ( g12 < a+12 > ) `9F00 @A3 c12 ( c12 ) c12 ( c12 c12 c12 c12 ) `9F00 @A3 @B0 @~4 > c12 < `9F00 @A0 ( c12 ) f+12~ ( g12 < a+12 > ) `9F00 @A3 c12 ( c12 ) c12 ( c12 c12 c12 c12 ) `9F00 @A3 @B0 @~4 g12 `9F00 @A0 ( g12 ) g12~ ( g+12 < b12 > ) `9F00 @A3 c12 ( c12 ) c12 ( c12 c12 c12 c12 ) `9F00 @A3 @B0 @~4 > c12 < `9F00 @A0 ( c12 ) f+12~ ( g12 < a+12 > ) `9F00 @A3 c12 ( c12 ) c12 ( c12 c12 c12 c12 ) `9F00 @A3 @B0 @~4 > c12 < `9F00 @A0 ( c12 ) f12~ g12 ( < a+12 > ) `9F00 @A3 c12 ( c12 ) c12 ( c12 c12 c12 c12 ) `9F00 @A3 @B0 @~4 > c12 < `9F00 @A0 ( c12 ) f+12~ ( g12 < a+12 > ) `9F00 @A3 c12 ( c12 ) c12 ( c12 c12 c12 c12 ) `9F00 @A3 @B0 @~4 g12 `9F00 @A0 ( g12 ) f12~ ( g12 < b12 > ) `9F00 @A3 c12 ( c12 ) `9F00 @A3 @B0 @~4 > c12 < `9F00 @A0 c12 < e12 f12 f+12 g12 g+12 a12 a+12 b12 > `9F00 @A3 c12 ( c12 ) c12 ( c12 c12 c12 c12 ) `9F00 @A3 @B0 @~4 > c12 < `9F00 @A0 ( c12 ) f12~ ( g12 < a+12 > ) `9F00 @A3 c12 ( c12 ) c12 ( c12 c12 c12 c12 ) `9F00 @A3 @B0 @~4 > c12 < `9F00 @A0 ( c12 ) f+12~ ( g12 < a+12 > ) `9F00 @A3 c12 ( c12 ) c12 ( c12 c12 c12 c12 ) `9F00 @A3 @B0 @~4 g12 `9F00 @A0 ( g12 ) g12~ ( g+12 < b12 > ) `9F00 @A3 c12 ( c12 ) c12 ( c12 c12 c12 c12 ) `9F00 @A3 @B0 @~4 > c12 < `9F00 @A0 ( c12 ) < a12~ ( a+12 b12 > ) `9F00 @A3 c12 ( c12 ) c12 ( c12 c12 c12 c12 ) `9F00 @A3 @B0 @~4 > c12 < `9F00 @A0 ( c12 ) f12~ g12 ( < a+12 > ) `9F00 @A3 c12 ( c12 ) c12 ( c12 c12 c12 c12 ) `9F00 @A3 @B0 @~4 > c12 < `9F00 @A0 ( c12 ) f+12~ ( g12 < a+12 > ) `9F00 @A3 c12 ( c12 ) c12 ( c12 c12 c12 c12 ) `9F00 @A3 @B0 @~4 g12 `9F00 @A0 ( g12 ) f12~ ( g12 < b12 > ) `9F00 @A3 c12 ( c12 ) `9F00 @A3 @B0 @~4 > c12 < `9F00 @A0 c12 < e12 f12 f+12 g12 g+12 a12 a+12 b12 > `9F00 @A3 c12 ( c12 ) c12 ( c12 c12 c12 ) c6 c12 ( c12 ) `9F00 @A3 @B0 @~4 > c12 < `9F00 @A0 ( < a+12 > ) `9F00 @A3 c12 ( c12 ) c12 ( c12 c12 c12 c12 ) `9F00 @A3 @B0 @~4 > c12 < `9F00 @A0 ( c12 ) c6 ( < a+12 > ) [ `9F00 @A3 c12 ( c12 ) c12 ( c12 c12 c12 c12 ) `9F00 @A3 @B0 @~4 > c12 < `9F00 @A0 ( c12 ) `9F00 @A3 @B0 @~4 > c12 < `9F00 @A0 ( c12 < a+12 > ) ]5 `9F00 @A3 c12 ( c12 ) c12 ( c12 c12 c12 c12 ) `9F00 @A3 @B0 @~4 > c12 < `9F00 @A0 ( < a12 ) a+12~ ( b12 > c12 ) `9F00 @A3 c12 ( c12 ) c12 ( c12 c12 c12 c12 ) `9F00 @A3 @B0 @~4 > c12 < `9F00 @A0 ( c12 ) f+12~ ( g12 < a+12 > ) `9F00 @A3 c12 ( c12 ) c12 ( c12 c12 c12 c12 ) `9F00 @A3 @B0 @~4 > c12 < `9F00 @A0 ( c12 ) f12~ ( g12 < a+12 > ) `9F00 @A3 c12 ( c12 ) c12 ( c12 c12 c12 c12 ) `9F00 @A3 @B0 @~4 > c12 < `9F00 @A0 ( c12 ) f12~ ( f12 < a+12 > ) `9F00 @A3 c12 ( c12 ) c12 ( c12 c12 c12 c12 ) `9F00 @A3 @B0 @~4 > c12 < `9F00 @A0 ( c12 ) g12~ ( g+12 < a+12 > ) `9F00 @A3 c12 ( c12 ) c12 ( c12 c12 c12 c12 ) `9F00 @A3 @B0 @~4 > c12 < `9F00 @A0 ( c12 ) f12~ ( g12 < a+12 > ) `9F00 @A3 c12 ( c12 ) c12 ( c12 c12 c12 c12 ) `9F00 @A3 @B0 @~4 > c12 < `9F00 @A0 ( c12 ) f12~ ( g12 < a+12 > ) `9F00 @A3 c12 ( c12 ) c12 ( c12 c12 c12 c12 ) `9F00 @A3 @B0 @~4 > c12 `9F00 @A0 ( c12 ) < c12 c12 < a+12 ) > 
!4  V15 @2 x12 @5 x12 @2 x12 @3 x12 @7 x12 x12 @5 x12 @2 x12 @5 x12 @3 x12 @5 x12 x12 @2 x12 @5 x12 @2 x12 @3 x12 @5 x12 x12 x12 @2 x12 @5 x12 @3 x12 @5 x12 x12 L [ @2 x12 @5 x12 @2 x12 @3 x12 @7 x12 x12 @5 x12 @2 x12 @5 x12 @3 x12 @5 x12 x12 @2 x12 @5 x12 @2 x12 @3 x12 @5 x12 x12 x12 @2 x12 @5 x12 @3 x12 @5 x12 x12 ]3 @2 x12 @5 x12 @2 x12 @3 x12 @7 x12 x12 @5 x12 @2 x12 @5 x12 @3 x12 @5 x12 x12 @2 x12 @5 x12 @2 x12 @3 x12 @5 x12 x12 @2 x12 x12 x12 @3 x12 @5 x12 x12 @8 x6 @2 x12 @3 x12 @7 x12 x12 @5 x12 @2 x12 @5 x12 @3 x12 @5 x12 x12 @2 x12 @5 x12 @2 x12 @3 x12 @5 x12 x12 x12 @2 x12 @5 x12 @3 x12 @5 x12 x12 [ @2 x12 @5 x12 @2 x12 @3 x12 @7 x12 x12 @5 x12 @2 x12 @5 x12 @3 x12 @5 x12 x12 @2 x12 @5 x12 @2 x12 @3 x12 @5 x12 x12 x12 @2 x12 @5 x12 @3 x12 @5 x12 x12 ]2 @2 x12 @5 x12 @2 x12 @3 x12 @7 x12 x12 @5 x12 @2 x12 @5 x12 @3 x12 @5 x12 x12 @2 x12 @5 x12 @2 x12 @3 x12 @5 x12 x12 @3 x12 x12 x12 x12 x12 x12 @8 x6 @2 x12 @3 x12 @7 x12 x12 @5 x12 @2 x12 @5 x12 @3 x12 @5 x12 x12 @2 x12 @5 x12 @2 x12 @3 x12 @5 x12 x12 x12 @2 x12 @5 x12 @3 x12 @5 x12 x12 [ @2 x12 @5 x12 @2 x12 @3 x12 @7 x12 x12 @5 x12 @2 x12 @5 x12 @3 x12 @5 x12 x12 @2 x12 @5 x12 @2 x12 @3 x12 @5 x12 x12 x12 @2 x12 @5 x12 @3 x12 @5 x12 x12 ]3 [ @2 x12 @5 x12 @2 x12 @3 x12 @7 x12 x12 @5 x12 @2 x12 @5 x12 @3 x12 @5 x12 x12 @2 x12 @5 x12 @2 x12 @3 x12 @5 x12 x12 x12 @2 x12 @5 x12 @3 x12 @5 x12 x12 ]3 @2 x12 @5 x12 @2 x12 @3 x12 @7 x12 x12 @5 x12 @2 x12 @5 x12 @3 x12 @5 x12 x12 
!5  [ r1 ]2 V1 O1 L @42 W0,97,0 ( g16~ ) g16~ g4.~ ( g8 ) < g8 > c8 g8 ( f+16~ ) f+16~ f+8~ f+6 d12~ d4 ( d4 ) ( f16~ ) f16~ f4.~ ( f8 ) d8 d+8 f8 ( d+16~ ) d+16~ d+8~ d+6 < g12~ g4 ( g4 ) > ( d+16~ ) d+16 d+4.~ ( d+8 ) < g8 > c8 d+8 ( d16~ ) d16~ d8~ d6 < a12~ a4 ( a4 ) > ( d16~ ) d16~ d4.~ ( d8 ) f4 d+8 ( d16 )~ d16~ d8~ d6 < g12~ g4 ( g4 ) > @11 W0,100,55 > g2 ( g8 ) < g16~ ( g16 ) > c16~ ) c16 ) g16~ ( g16 ) f+4~ f+12 ( f+12 ) d12~ d4~ ( d4 ) f2 ( f8 ) d16~ ( d16 ) d+16~ ( d+16 ) f16~ ( f16 ) d+4~ d+12 ( d+12 ) < g12~ g4~ ( g4 ) > d+2~ ( d+8 ) < g16~ ( g16 ) > c16~ ( c16 ) d+16~ ( d+16 ) d4~ d12 ( d12 ) < a12~ a4~ ( a4 ) > d2~ ( d8 ) f4 d+8 d4~ d12~ ( d12 ) < g12~ g4 ( g4 ) < @42 W0,97,0 < ( g16~ ) g16~ g4.~ ( g8 a+16~ ) a+16~ a+8 g+8 ( g16~ ) g16~ g8~ ( g6 ) f+12~ f+4. ( f+8 ) ( f16~ ) f16~ f4.~ ( f12 ) g12 g+12 g+12 > d12 c12 ( c16~ ) c16~ c4. < ( b16~ ) b16~ b8~ ( b6 ) g12 > ( g16~ ) g16~ g4. ( g6 ) a+6 g+6 ( g16~ ) g16~ g4. ( g8 ) > c8 < a+8 g+8 ( g16~ ) g16~ g4. ( g8 ) > ( d16~ ) d16~ d8 c8 ( g16~ ) g16~ g4~ ( g8 f16~ ) f16~ f4~ ( f8 ) ( d+16~ ) d+16~ d+4.~ ( d+8 ) d8 c8 < a+8 > ( g16~ ) g8.~ g4. ( g4. ) < ( f+16~ ) f+16~ f+4. f+12 a12 > d12 f+12 a12 > d12 f4~ f16 d+16 d16 c16 d16 c16 < a+16 g+16 a+16 g+16 g16 f16 [ g12 ( g12 ) d12 ( d12 ) < g12 ( g12 ) g12 ( g12 ) > d12 ( d12 ) g12 ( g12 ) ]3 < 
!6  V1 O2 @9 [ YLR d24 YL. ( d24 ) YLR d24 Y.R ( d24 ) ]12 L [ @10 [ Y.R c24 YL. ( c24 ) ]12 @9 < [ Y.R a24 YL. ( a24 ) ]12 @10 [ Y.R b24 YL. ( b24 ) ]12 > [ Y.R c24 YL. ( c24 ) ]12 ]2 @42 W0,97,0 O0 YL. r1 r2 f+12 a12 > d12 f+12 a12 > d12 f2.~ ( f4 ) < r2 r12 d12 < b12 > c12 d+12 g12 > c2.~ ( c4 < ) r2 d12 e12 f+12 a12 > d12 f+12 f2. _V-3 f4 < ( g12 g+12 g12 g+12 g12 g+12 ) g12 g+12 g12 g+12 ( g12 g+12 ) O2 @10 [ Y.R c24 YL. ( c24 ) ]12 @9 < [ Y.R a24 YL. ( a24 ) ]12 @10 [ Y.R b24 YL. ( b24 ) ]12 > @9 [ Y.R c24 YL. ( c24 ) ]6 @10 [ Y.R d24 YL. ( d24 ) ]6 @10 [ Y.R c24 YL. ( c24 ) ]12 < [ Y.R b24 YL. ( b24 ) ]12 [ Y.R a24 YL. ( a24 ) ]12 > [ Y.R c24 YL. ( c24 ) ]6 [ Y.R d24 YL. ( d24 ) ]6 @9 [ Y.R c24 YL. ( c24 ) ]12 @10 [ Y.R c24 YL. ( c24 ) ]12 @9 < [ Y.R a24 YL. ( a24 ) ]12 > @10 [ Y.R d24 YL. ( d24 ) ]12 [ Y.R c24 YL. ( c24 ) ]36 
