;002 001D40CE
!1  T155 r4. L @1 V4 O2 E70,100,100,3,3 [ YLR g16 b16 Y.R g16 b16 YLR g16 b16 YL. g16 b16 ]4 [ YLR a16 > d16 < Y.R a16 > d16 < YLR a16 > d16 < YL. a16 > d16 < ]4 [ YLR g16 > e16 < Y.R g16 > e16 < YLR g16 > e16 < YL. g16 > e16 < ]4 [ YLR a16 > d16 < Y.R a16 > d16 < YLR a16 > d16 < YL. a16 > d16 < ]4 @3 O2 V6 YLR EX r8 [ a16. r32 ]3 E100,70,40,7,7 _V-4 Y.R a4 YL. a4 _V4 YLR > EX r8 [ d16. r32 ]3 E100,70,40,7,7 _V-4 Y.R d4 YL. d4 _V4 YLR @1 O2 EX V4 a1 _V-2 a2 Y.R a8 @@2,2,1 V5 O2 YLR E100,100,90,29,14 D1 r32 P14,10,2 a16 _V-3 a16 _V3 a8 b8~ b2 _V-3 Y.R b8 YL. b8 _V3 YLR r4 > e16 _V-3 e16 _V3 e8 f+16 _V-3 f+16 _V3 f+8 g8 < [ b16 _V-3 b16 _V3 ]2 b8 > [ d16 _V-3 d16 _V3 ]2 d8 c8~ c2 _V-3 Y.R c8 YL. c8 _V3 YLR r4 r8 c8 < b8 a8~ a2 _V-3 Y.R a8 YL. a8 _V3 YLR r4 > d16 _V-3 d16 _V3 d8 e16 _V-3 e16 _V3 e8 f+8 [ d16 _V-3 d16 _V3 ]2 d8 c8 _V-3 c8 _V3 c16 _V-3 c16 _V3 < b16. D0 @1 YLR O1 V4 E80,100,100,6,7 [ b16 > c16 < ]2 _V2 [ b16 > c16 < ]2 _V2 [ b16 > c16 < ]4 _V-2 [ b16 > c16 < ]2 _V-2 [ b16 > c16 < ]2 _V-2 [ b16 > c16 < ]2 @1 YLR O1 V7 P7,10,3 r8 g16 a16 b16 a16 b16 a+16 b4~ b2. _V-3 b4 _V3 r2 r8 a16 b16 a16 b16 > c16 < b16 > c2. _V-3 c4 _V3 @@2,2,1 V5 O3 YLR E100,100,90,29,14 D1 r32 P14,10,2 [ d16 _V-3 d16 _V3 ]3 d8 _V-3 Y.R d8 YL. d8 _V3 YLR r4 d+8. _V-3 d+16 _V3 [ d+16 _V-3 d+16 _V3 ]3 d+8 c+8 d+8 e2~ e16. D0 @@1,3,1 V5 EX O3 g16 a16 f+16 g16 d16 e16 V8 r8 f+8 _V-3 Y.R f+8 _V3 YLR f+8 _V-3 YL. f+8 _V3 YLR r4. @@0,0,1 O2 V4 [ YLR g16 > c16 < g16 > c16 < YLR g16 > c16 < g16 > c16 < YL. g16 > c16 < g16 > c16 < Y.R g16 > c16 < g16 > c16 < ]2 YLR g16 b16 g16 b16 YLR g16 b16 g16 b16 YL. g16 b16 g16 b16 Y.R g16 b16 g16 b16 O2 YLR E75,100,100,7,7 V5 g4. _V-3 g8 _V3 e4.~ e16 _V-3 e16 _V3 a2. _V-2 g+4 _V2 g1 b1 _V-2 Y.R b8 @3 O3 V6 E100,100,30,7,4 YLR e8 Y.R e8 YLR [ e32 r32 ]2 f+4 YL. f+4 @@1,2,1 V6 O3 YLR E100,100,90,50,14 r4 g2 f+8 _V-3 f+8 _V3 e2. _V-3 Y.R e8 YL. e8 _V3 YLR r4 g2 f+8 _V-3 f+8 _V3 e2. _V-3 Y.R e8 YL. e8 _V3 YLR [ d16 _V-3 d16 _V3 ]2 d8. _V-3 d16 _V3 [ d16 _V-3 d16 _V3 ]3 d8 [ f+16 _V-3 f+16 _V3 ]2 O1 f+4 g4 a4 b2. _V-3 b4 _V3 > c2 c+2 e2. _V-3 e4 _V3 d+2. _V-3 d+4 _V3 O3 r4 g2 f+8 _V-3 f+8 _V3 e2. _V-3 Y.R e8 YL. e8 _V3 YLR r4 g2 f+8 _V-3 f+8 _V3 e2. _V-3 Y.R e8 YL. e8 _V3 YLR [ d16 _V-3 d16 _V3 ]7 d8 < b16 _V-3 b16 _V3 b8. _V-3 b16 _V3 b8~ b4 _V-3 Y.R b8 YL. b8 _V3 YLR > c8 _V-3 Y.R c8 _V3 YLR c8 _V-3 YL. c8 _V3 YLR c4 c8 f+8~ f+1 r8 f+16. _V-3 Y.R f+32 _V3 YLR f+16. _V-3 YL. f+32 Y.R f+8 V4 O3 YLR D1 r32 g4 f+8 _V-2 f+16. D0 @1 O2 YLR V5 g1 f+2 _V-2 f+4 ( f+8.~ f16 
!2  r4. L @1 O2 V6 E80,100,90,14,29 P14,10,3 e1~ e4 _V-2 e4 _V2 f+4 g4 V8 E90,100,90,7,29 f+4 g4 f+2 d2 f+8 g8 f+8 d8 < e2. _V-3 e4 _V3 b2.~ b16 _V-3 b16 _V3 a16 g16 f+2. _V-3 f+4 _V3 > d2. _V-4 d4 _V4 @3 O3 V8 YLR P14,10,2 EX r8 [ d16. r32 ]3 E100,70,40,7,7 _V-5 Y.R d4 YL. d4 _V5 YLR EX r8 [ f+16. r32 ]3 E100,70,40,7,7 _V-5 Y.R f+4 YL. f+4 _V5 YLR @1 O3 EX V6 d1 _V-3 d2 Y.R d8 @@1,2,1 V9 O2 YLR E100,100,95,29,14 a16 _V-4 a16 _V4 a8 b8~ b2 _V-4 Y.R b8 YL. b8 _V4 YLR r4 > e16 _V-4 e16 _V4 e8 f+16 _V-4 f+16 _V4 f+8 g8 < [ b16 _V-4 b16 _V4 ]2 b8 > [ d16 _V-4 d16 _V4 ]2 d8 c8~ c2 _V-4 Y.R c8 YL. c8 _V4 YLR r4 r8 c8 < b8 a8~ a2 _V-4 Y.R a8 YL. a8 _V4 YLR r4 > d16 _V-4 d16 _V4 d8 e16 _V-4 e16 _V4 e8 f+8 [ d16 _V-4 d16 _V4 ]2 d8 c8 _V-4 c8 _V4 c16 _V-4 c16 _V4 < b8~ b2 _V-4 Y.R b8 YL. b8 _V4 YLR r4 r8 g8 a8 b8~ b2 _V-4 Y.R b8 YL. b8 _V4 YLR r8 b8 > e4 f+16 _V-4 f+16 _V4 f+8 g8 < [ b16 _V-4 b16 _V4 ]2 b8 > [ d16 _V-4 d16 _V4 ]2 d8 c8~ c2. _V-4 Y.R c8 YL. c8 _V4 YLR r8 [ c16 _V-4 c16 _V4 ]2 c8 [ d16 _V-4 d16 _V4 ]3 d8 _V-4 Y.R d8 YL. d8 _V4 YLR r4 d+8. _V-4 d+16 _V4 [ d+16 _V-4 d+16 _V4 ]3 d+8 c+8 d+8 e2.~ e8 _V-4 e8 @@1,3,1 EX V6 O3 YLR r8 d8 _V-3 Y.R d8 _V3 YLR d8 _V-3 YL. d8 _V3 YLR r4. @@1,2,1 V9 O3 YLR E100,100,85,21,14 r4 e4 f+4 g4 f+4 e8 _V-3 e8 _V3 d4 c4 < b8 _V-4 b8 _V4 b8. _V-4 b16 _V4 b8 > c4 < b8~ b2. _V-6 b4 _V6 > d16 _V-4 d16 _V4 [ d8 _V-4 d8 _V4 ]2 [ d16 _V-4 d16 _V4 ]2 d8 [ e16 _V-4 e16 _V4 ]3 e2 _V-5 e8 _V5 f+16 _V-4 f+16 _V4 f+8 g8 f+8~ f+2 _V-5 f+8 _V5 @3 O3 V7 E100,100,30,7,4 c+8 Y.R c+8 YLR [ c+32 r32 ]2 d+8 @@1,2,1 V10 O3 YLR E100,100,90,50,14 f+8 g8 a8 _V-5 Y.R a8 YL. a8 _V5 YLR b2 a8 _V-5 a8 _V5 g2. _V-4 Y.R g8 YL. g8 _V4 YLR r4 b2 a8 _V-5 a8 _V5 g2. _V-4 Y.R g8 YL. g8 _V4 YLR [ f+16 _V-6 f+16 _V6 ]2 f+8. _V-5 f+16 _V5 [ f+16 _V-6 f+16 _V6 ]3 f+8 [ a16 _V-6 a16 _V6 ]2 a8 f+8~ f+4 _V-4 Y.R f+8 YL. f+8 _V4 YLR g1 a2 a+2 b1~ b2 r8 f+8 g8 a8 _V-5 Y.R a8 YL. a8 _V5 YLR b2 a8 _V-5 a8 _V5 g2. _V-4 Y.R g8 YL. g8 _V4 YLR r4 b2 a8 _V-5 a8 _V5 g2. _V-4 Y.R g8 YL. g8 _V4 YLR [ f+16 _V-6 f+16 _V6 ]7 f+8 g16 _V-5 g16 _V5 g8. _V-5 g16 _V5 g8~ g4 _V-4 Y.R g8 YL. g8 _V4 YLR a8 _V-4 Y.R a8 _V4 YLR a8 _V-4 YL. a8 _V4 YLR a4 g8 b8~ b1 _V-5 b8 @@1,2,1 V7 O3 YLR E100,100,90,50,14 d+16. _V-3 Y.R d+32 _V3 YLR d+16. _V-3 YL. d+32 Y.R d+8 V10 YLR g4 f+8 _V-5 f+8 _V5 e1 _V-3 e2 _V-2 e4 _V-2 e4 
!3  r4. L `9F00 `AE00 @A3 V3 E100,70,40,7,7 O1 [ e8 e8 e8 e8 e8 e8 e8 e8 ]8 [ r8 e8 e8 e8 r2 ]2 E100,70,70,57,57 e1~ e2. r4 E100,70,40,7,7 [ e8 e8 e8 e8 ]4 < [ a8 a8 a8 a8 ]4 > [ d8 d8 d8 d8 ]4 < [ g8 g8 g8 g8 ]2 b8 b8 b8 b8 b8 b8 b8 > e8~ [ e8 e8 e8 e8 ]4 < [ a8 a8 a8 a8 ]4 [ g8 g8 g8 g8 ]2 b1 > [ e8 e8 e8 e8 ]2 r8 e8 r8 e8 r2 O1 B2 E100,100,70,6,6 [ c8 < g8 > d8 c8 r2 ]2 e8 < b8 >~ f+8 e8 r2 e8 < b8 >~ f+8 e8 r8 < b8 > e4 d8 < g8 >~ e8 d8 r2 r8 c8 < g8 > d8 c4 r4 < b8 f+8 > d+8 < b8 r4 b8 f+8 r8 b8. r16 [ b32 r32 ]2 b8 r8 r4 E100,70,40,7,7 O1 [ e8 e8 e8 e8 ]4 < [ a8 a8 a8 a8 ]4 > [ d8 d8 d8 d8 ]4 < [ g8 g8 g8 g8 ]2 > c8 c8 c8 c8 < a+8 a+8 a+8 a+8 [ b8 b8 b8 b8 ]4 > [ e8 e8 e8 e8 ]4 < [ a8 a8 a8 a8 ]4 > [ d8 d8 d8 d8 ]2 < [ g8 g8 g8 g8 ]2 a8 a8 a8 a8 a8 a8 a8 b8~ b8 b8 b8 b8 b8 b8 b8 b8 r8 b8 b8 r8 r2 e1~ e2 r8 e8 b4 
!4  @3 x8 x8 x8 L [ @8 x4 @5 x8 x8 x8 x8 [ x16 ]4 @5 x8 x8 x8 x8 x8 x8 [ x16 ]4 ]4 [ r8 @3 x8 x8 x8 r4 r4 ]2 @8 x1 r2 r8 @3 x8 x8 x8 @5 [ [ x8 ]8 [ x8 ]6 [ x16 ]4 ]3 @5 [ x8 ]8 [ x8 ]7 @7 x8 @5 [ x8 ]8 [ x8 ]7 [ x16 ]2 [ x8 ]14 [ x16 ]4 @5 [ x8 ]8 @8 x1 @5 [ x8 ]8 r8 x8 r8 x8 r8 @1 x8 x8 x8 @5 [ [ x16 ]4 ]4 [ x16 ]2 @7 x8 @5 [ [ x16 ]4 ]3 @5 [ [ x16 ]4 ]8 @5 [ [ x16 ]4 ]4 [ x16 ]2 @7 x8 @5 [ [ x16 ]4 ]3 @5 [ [ x16 ]4 ]4 r2 r8 @3 x8 x8 x8 [ [ @7 x8 @5 x8 ]3 @7 x16 @5 [ x16 ]3 [ @7 x8 @5 x8 ]2 @7 x8 @1 x8 @7 x16 @5 [ x16 ]3 ]2 [ [ @7 x8 @5 x8 ]3 @7 x16 @5 [ x16 ]3 ]4 @7 x8 @5 x8 @7 x8 @3 x8 @1 x8 @5 x8 @7 x16 @5 [ x16 ]3 [ @7 x8 @1 x8 ]2 @1 x8 @5 x8 @3 x16 @5 [ x16 ]3 [ [ @7 x8 @5 x8 ]3 @7 x16 @5 [ x16 ]3 [ @7 x8 @5 x8 ]2 @7 x8 @1 x8 @7 x16 @5 [ x16 ]3 ]2 [ [ @7 x8 @5 x8 ]3 @7 x16 @5 [ x16 ]3 ]3 [ @7 x8 @5 x8 ]2 @7 x8 @1 x8 x16 @5 [ x16 ]3 r8 @1 x8 x4 r4 @1 x4 @8 x1 r2 r8 @3 x8 x8 x8 
!5  @24 V1 YLR O2 c8 c8 c8 L [ @0 c4 @24 c4 ]6 @0 c4 @24 c8 @2 < a8 > @0 c8 @2 < a8 > @24 c4 [ @0 c4 @24 c4 ]7 @0 c4 @24 c8 @2 < a8 > [ @0 c8 @24 c8 c8 c8 @0 c4 c4 ]2 r4 c4 r4 c4 r4 c4 r8 @24 c8 c8 c8 [ @0 c4 @24 c4 ]15 @0 c8 @24 c8 c8 c8 [ @0 c4 @24 c4 ]9 @0 c8 @2 c8 < a4 > @0 c2 r8. r32 @24 V0 c32 V1 c4 @0 c4 @24 c4 @0 c4 @24 [ c16 ]4 r8 c8 r8 c8 YL. r8 c8 c8 c8 YLR V1 [ @0 c4. c8 r8 r8 @24 c4 @0 c4. c8 r8 @2 < a8 > @24 c4 ]3 @0 c4. c8 r8 r8 @24 c4 r8 c4 c16 c16 [ c8 ]4 [ @0 c4 @24 c4 ]3 @0 c8 @2 c8 @24 c4 [ @0 c4 @24 c4 ]3 @0 c8 @2 c8 @24 c8 c8 [ @0 c4 @24 c4 ]8 @0 c4 @24 c8 @2 Y.R c8 c8 r8 YLR @24 c8 r8 @0 c8 @2 c8 @24 c8 YL. @2 < a8 a8 > YLR @24 c8 c8 c8 [ @0 c4 @24 c4 ]3 @0 c8 @2 c8 @24 c4 [ @0 c4 @24 c4 ]3 @0 c8 @2 c8 @24 c8 c8 [ @0 c4 @24 c4 ]7 @0 c8 @2 c8 < a4 > r8 @24 c8 c4 r4 @24 YL. c4 YLR [ r4 @0 c4 ]3 r8 @24 c8 c8 c8 
!6  @56 V1 O1 YL. b8 Y.R e8 V0 e8 L @42 W0,97,11 V1 YLR e1 V0 e2 V1 f+4 g4 f+1 V0 f+2 V1 f+8 g8 f+8 d8 e2.~ e8. V0 e16 V1 b2.~ b16 V0 b16 V1 a16 g16 f+2.~ f+8. V0 f+16 V1 > d2. V0 d4 @14 O2 YLR V1 r8 f+8 f+8 f+8 V0 Y.R f+4 YL. f+4 V1 YLR r8 a8 a8 a8 V0 Y.R a4 YL. a4 V1 YLR @43 W0,97,11 V1 YLR O1 f+1~ f+2 V0 Y.R f+4 YL. f+4 @56 V1 O1 YLR r8 e8 b8 > e8 V0 Y.R e8 r4. @19 O2 V0 [ [ YLR r8 e16 YL. e16 ]2 @20 YLR d8 @19 e16 Y.R e32 YL. e32 r4 ]2 @28 O1 V0 [ YLR r8 e16 YL. e16 ]2 YLR d8 e16 Y.R e32 YL. e32 r4 @56 V1 O1 YLR r8 e8 b8 > e8 V0 Y.R e8 r4. @20 O2 V0 [ YLR r8 d16 YL. d16 ]2 YLR c8 d16 Y.R d32 YL. d32 r4 [ YLR r8 d16 YL. d16 ]2 @40 O1 YLR V0 [ f+16 g16 ]2 V1 [ f+16 g16 ]2 V1 [ f+16 g16 ]6 V0 [ f+16 g16 ]2 @19 O2 V0 [ [ YLR r8 e16 YL. e16 ]2 @20 YLR d8 @19 e16 Y.R e32 YL. e32 r4 ]3 @28 O1 V0 [ YLR r8 e16 YL. e16 ]2 YLR d8 e16 Y.R e32 YL. e32 r4 @21 O2 V0 [ YLR r8 d16 YL. d16 ]2 @20 YLR d8 @21 d16 Y.R d32 YL. d32 r4 @19 W0,97,13 YLR d+1 @19 O2 V0 [ YLR r8 e16 YL. e16 ]2 @20 YLR d16 Y.R d16 @3 O2 V1 YLR g16 a16 f+16 g16 d16 e16 V0 Y.R e16 YL. e16 V1 YLR a8 V0 Y.R a8 V1 YLR a8 V0 YL. a8 V1 YLR @24 O2 V1 Y.R D1 c8 c8 c8 D0 @40 W0,95,1 O1 V1 [ YLR e16 g16 e16 g16 YLR e16 g16 e16 g16 Y.R e16 g16 e16 g16 YL. e16 g16 e16 g16 ]3 @43 W0,97,11 O1 V1 YLR b4. V0 b8 V1 g4.~ g16 V0 g16 @40 W0,95,1 O2 V1 YLR f+2. f4 e1 d+1 V0 Y.R d+8 @3 O2 YLR V1 a8 Y.R a8 YLR a16 a16 b4 @43 W0,97,11 O1 YLR c+24 d+24 e24 f+24 g24 a24 b1~ b4 @11 W0,98,31 O2 YLR V1 a8 b8 Y.R V0 a8 b8 @43 W0,97,11 O1 YLR V1 e16 f+16 g16 a16 b1~ b4 @11 W0,98,31 O2 V1 YLR a8 b8 @43 W0,97,11 O2 YLR c4 g4 f+1~ f+2. V0 f+4 V1 < d1 e2 e2 @28 W0,98,23 O2 V1 YLR r8 f+16 f+16 e16 f16 f+16 f16 f+6 V0 Y.R f+6 YL. f+6 YLR V1 r8 b16 b16 a16 a+16 b16 a+16 b8 V0 Y.R b8 @43 W0,97,11 O1 YLR V1 c+24 d+24 e24 f+24 g24 a24 b1~ b4 @11 W0,98,31 O2 V1 YLR a8 b8 Y.R V0 a8 b8 @43 W0,97,11 O1 YLR V1 e16 f+16 g16 a16 b1~ b4 @11 W0,98,31 O2 V1 YLR a8 b8 @43 W0,97,11 O2 YLR c4 g4 f+1 g2. V0 f+4 V1 @28 W0,98,23 O2 V1 YLR e8 V0 Y.R e8 V1 YLR e8 V0 YL. e8 V1 YLR e8 V0 e8 V1 e16 r16 @43 W0,97,11 O1 YLR V1 e8~ e1 @28 W0,98,23 O2 V1 YLR r8 b8 b8 V0 Y.R b8 r4 V1 @24 Y.R D1 c4 D0 @43 W0,97,11 O0 YLR V1 b1 a4. V0 a4 @56 V1 O1 YL. b8 b8 Y.R e8 
