;003 001D51C4
!1  T132 V4 O2 @@1,1,0 E100,50,0,50,34 r8 c2. r4 V6 @2 E100,50,0,25,25 Y.R f8 _V-2 f8 _V-2 f8 r8 _V4 d8 _V-2 d8 _V-2 d8 r8 _V4 _V2 > a4. _V-2 b8~ b2 < e8 _V-2 e8 _V-2 e8 r8 _V4 e8 _V-2 e8 _V-2 e8 r8 _V4 V6 O2 @2 YLR r2 a32 _V-3 a32 _V3 b32 _V-3 b32 _V3 > c32 _V-3 c32 _V3 d32 _V-3 d32 _V3 e32 _V-3 e32 _V3 c32 _V-3 c32 _V3 g32 _V-3 g32 _V3 e32 _V-3 e32 _V3 < Y.R a32 _V-3 a32 _V3 b32 _V-3 b32 _V3 > c32 _V-3 c32 _V3 d32 _V-3 d32 _V3 e32 _V-3 e32 _V3 c32 _V-3 c32 _V3 g32 _V-3 g32 _V3 e32 _V-3 e32 _V3 < ( YL. a32 _V-3 a32 _V3 b32 _V-3 b32 _V3 > c32 _V-3 c32 _V3 d32 _V-3 d32 _V3 e32 _V-3 e32 _V3 c32 _V-3 c32 _V3 g32 _V-3 g32 _V3 e32 _V-3 e32 _V3 < ) YLR r2 a32 _V-3 a32 _V3 b32 _V-3 b32 _V3 > c32 _V-3 c32 _V3 d32 _V-3 d32 _V3 @0 EX P17,13,2 B50 d4~ e2.~ _V-2 e8~ < _V-2 g8 < b2 > > _V4 @2 O2 YLR PX a32 _V-3 a32 _V3 b32 _V-3 b32 _V3 > c32 _V-3 c32 _V3 d32 _V-3 d32 _V3 e32 _V-3 e32 _V3 c32 _V-3 c32 _V3 g32 _V-3 g32 _V3 e32 _V-3 e32 _V3 < Y.R a32 _V-3 a32 _V3 b32 _V-3 b32 _V3 > c32 _V-3 c32 _V3 d32 _V-3 d32 _V3 e32 _V-3 e32 _V3 c32 _V-3 c32 _V3 g32 _V-3 g32 _V3 e32 _V-3 e32 _V3 < ( YL. a32 _V-3 a32 _V3 b32 _V-3 b32 _V3 > c32 _V-3 c32 _V3 d32 _V-3 d32 _V3 e32 _V-3 e32 _V3 c32 _V-3 c32 _V3 g32 _V-3 g32 _V3 e32 _V-3 e32 _V3 < ) YLR r2 a32 _V-3 a32 _V3 b32 _V-3 b32 _V3 > c32 _V-3 c32 _V3 d32 _V-3 d32 _V3 e32 _V-3 e32 _V3 c32 _V-3 c32 _V3 g32 _V-3 g32 _V3 e32 _V-3 e32 _V3 < Y.R a32 _V-3 a32 _V3 b32 _V-3 b32 _V3 > c32 _V-3 c32 _V3 d32 _V-3 d32 _V3 e32 _V-3 e32 _V3 c32 _V-3 c32 _V3 g32 _V-3 g32 _V3 e32 _V-3 e32 _V3 < @1 E60,100,50,42,25 YLR d2 L V4 O1 @1 E50,100,60,50,25 P13,12,2 r1 a1~ a2 _V-2 a2 _V2 g2 > c2 < b1 a2 g2 e1 e2 d8. c8. < b8 > V8 O2 @2 EX YLR r2 a32 _V-4 a32 _V4 b32 _V-4 b32 _V4 > c32 _V-4 c32 _V4 d32 _V-4 d32 _V4 e32 _V-4 e32 _V4 c32 _V-4 c32 _V4 g32 _V-4 g32 _V4 e32 _V-4 e32 _V4 < Y.R a32 _V-4 a32 _V4 b32 _V-4 b32 _V4 > c32 _V-4 c32 _V4 d32 _V-4 d32 _V4 e32 _V-4 e32 _V4 c32 _V-4 c32 _V4 g32 _V-4 g32 _V4 e32 _V-4 e32 _V4 < _V-3 YL. a32 _V-3 a32 _V3 b32 _V-3 b32 _V3 > c32 _V-3 c32 _V3 d32 _V-3 d32 _V3 e32 _V-3 e32 _V3 c32 _V-3 c32 _V3 g32 _V-3 g32 _V3 e32 _V-3 e32 _V3 < _V3 YLR r2 a32 _V-4 a32 _V4 b32 _V-4 b32 _V4 > c32 _V-4 c32 _V4 d32 _V-4 d32 _V4 e32 _V-4 e32 _V4 c32 _V-4 c32 _V4 g32 _V-4 g32 _V4 e32 _V-4 e32 _V4 < Y.R a32 _V-4 a32 _V4 b32 _V-4 b32 _V4 > c32 _V-4 c32 _V4 d32 _V-4 d32 _V4 e32 _V-4 e32 _V4 c32 _V-4 c32 _V4 g32 _V-4 g32 _V4 e32 _V-4 e32 _V4 < _V-3 YL. a32 _V-3 a32 _V3 b32 _V-3 b32 _V3 > c32 _V-3 c32 _V3 d32 _V-3 d32 _V3 e32 _V-3 e32 _V3 c32 _V-3 c32 _V3 g32 _V-3 g32 _V3 e32 _V-3 e32 _V3 < _V3 YLR r2 a32 _V-4 a32 _V4 b32 _V-4 b32 _V4 > c32 _V-4 c32 _V4 d32 _V-4 d32 _V4 e32 _V-4 e32 _V4 c32 _V-4 c32 _V4 g32 _V-4 g32 _V4 e32 _V-4 e32 _V4 < Y.R a32 _V-4 a32 _V4 b32 _V-4 b32 _V4 > c32 _V-4 c32 _V4 d32 _V-4 d32 _V4 e32 _V-4 e32 _V4 c32 _V-4 c32 _V4 g32 _V-4 g32 _V4 e32 _V-4 e32 _V4 < _V-3 YL. a32 _V-3 a32 _V3 b32 _V-3 b32 _V3 > c32 _V-3 c32 _V3 d32 _V-3 d32 _V3 e32 _V-3 e32 _V3 c32 _V-3 c32 _V3 g32 _V-3 g32 _V3 e32 _V-3 e32 _V3 < _V3 YLR r2 a32 _V-4 a32 _V4 b32 _V-4 b32 _V4 > c32 _V-4 c32 _V4 d32 _V-4 d32 _V4 e32 _V-4 e32 _V4 c32 _V-4 c32 _V4 g32 _V-4 g32 _V4 e32 _V-4 e32 _V4 < Y.R a32 _V-4 a32 _V4 b32 _V-4 b32 _V4 > c32 _V-4 c32 _V4 d32 _V-4 d32 _V4 e32 _V-4 e32 _V4 c32 _V-4 c32 _V4 g32 _V-4 g32 _V4 e32 _V-4 e32 _V4 < _V-3 YL. a32 _V-3 a32 _V3 b32 _V-3 b32 _V3 > c32 _V-3 c32 _V3 d32 _V-3 d32 _V3 e32 _V-3 e32 _V3 c32 _V-3 c32 _V3 g32 _V-3 g32 _V3 e32 _V-3 e32 _V3 < _V3 V10 @0 E100,80,50,34,25 P8,13,3 B13 Y.R < f+1 a4 b4 g+4. f+16 e16 f+1 f+2 g+4 > e4 c+2. YL. _V-2 > f+8 g+8 a4 b4 g+4. f+16 e16 f+2 _V2 Y.R < < f+2 > c+2.~ c+8~ < b8 V6 @3 E100,90,60,25,42 P18,13,3 O3 YL. f+16. _V-4 f+32 _V4 f+16. _V-4 f+32 _V4 f+16. _V-4 f+32 _V4 f+16 f+16 f+8 e16. _V-4 e32 _V4 e8 d16 d16 d8~ d32 _V-4 d32 _V4 d8~ d32 _V-4 d32 _V4 c+8 c+8. _V-4 c+8 _V4 r16 e16 e16 f+16. _V-4 f+32 _V4 f+16. _V-4 f+32 _V4 f+16. _V-4 f+32 _V4 f+16 f+16~ f+8 e16. _V-4 e32 _V4 e8 d8 d8~ d32 _V-4 d32 _V4 d8~ d32 _V-4 d32 _V4 e8 e8. _V-4 e8 _V4 r16 e16 e16 f+16. _V-4 f+32 _V4 f+16. _V-4 f+32 _V4 f+16. _V-4 f+32 _V4 f+16 f+16~ f+8 e16. _V-4 e32 _V4 e8 d8 d8~ d32 _V-4 d32 _V4 d8 _V-4 d16 _V4 c+16 _V-4 c+16 _V4 c+8. _V-4 c+16 _V4 r4 V10 @1 E50,100,60,50,25 P13,12,2 < < f+8. g+8. a8 b8. > c+8. d8 e8. f+8. g+8 a8. b8. > c+8 < b2 a4 g+4 a2. _V-3 a4 _V3 b2 a4 g+4 g+8. a16~ a8 > c+8 c+4 _V-5 c+4 _V5 < b2 a4 g+4 g+8. a8. b8 a2 _V-3 e1 _V3 @0 E100,60,50,25,25 P8,13,3 B8 YLR g+32~ a32~ a16~ a4. g32~ g+32~ g+8 a8. b8 a4. g+32~ a32~ a16~ a2~ a2. r8 > d+16~ e16~ e8.~ d+16~ e16~ d16~ e8~ e2~ B50 e2~ _V-2 d+4~ _V-2 d4 _V4 < 
!2  O2 V4 @@1,1,0 E100,50,0,50,34 r8 < b2. V9 @@2,1,0 E100,50,0,25,25 a8 b8 > c4 d4 < b4. a16 g16 a4 _V-3 a4 _V-3 a4 _V6 a8 b8 > c4 d4 < b4 > g4 e4 _V-3 e4 _V-3 e4 _V6 < a8 b8 > c4 d4 < b4. a16 g16 a4 _V-3 a4 _V-3 a4 _V6 a8 b8 > c4 d4 < b4 > g4 e4 _V-2 e4 _V-2 e4 _V-2 e4 _V6 @2 E50,100,50,50,76 YL. _V-3 r4 > e1~ e4 < _V3 r2 r1 L V11 O2 YLR @@1,2,1 E100,90,60,25,42 P18,13,3 a8 g16 a8 g16 a8 _V-5 a8. _V5 r16 r8 a16 a16 a8 g16 _V-4 g16 _V4 g8 e8 a8 g16 g16~ g16 _V-5 g8 _V5 r16 a8 g16 a8 g16 a8 _V-5 a8. _V5 r16 r8 a16 a16 a4 > c4 d8 < b8 a8 g8 a8 g16 a8 g16 a8 _V-5 a8. _V5 r16 r8 a16 a16 a8 g16 _V-4 g16 _V4 g8 e8 a8 g16 g16~ g16 _V-5 g8 _V5 r16 a8 g16 a8 g16 a8 _V-5 a8. _V5 r16 r8 a16 a16 a4 > c4 d8 < b8~ b8 a16 g16 a8 g16 a8 g16 a8 _V-5 a8. _V5 r16 r8 a16 a16 a8 g16 _V-4 g16 _V4 g8 e8 a8 g16 g16~ g16 _V-5 g8 _V5 r16 a8 g16 a8 g16 a8 _V-5 a8. _V5 r16 r8 a16 a16 a4 > c4 d8 < b8 a8 g8 a8 g16 a8 g16 a8 _V-5 a8. _V5 r16 r8 a16 a16 a8 g16 _V-4 g16 _V4 g8 e8 a8 g16 g16~ g16 _V-5 g8 _V5 r16 a8 g16 a8 g16 a8 _V-5 a8. _V5 r16 r8 a16 a16 a4 > c4 d8 < b8~ b8 a16 g16 f+2 _V-4 f+8 _V4 r8 f+8 g+8 a4 b4 g+4 _V-4 g+8 _V4 f+16 e16 f+2 _V-4 f+8 _V4 r8 f+8 g+8 a4 b4 g+4 > e4 c+2 _V-4 c+8 _V4 r8 < f+8 g+8 a4 b4 g+4 _V-4 g+8 _V4 f+16 e16 f+8 _V-4 f+8 _V4 r4 g+4 a4 a4. g+16 _V-4 g+16 _V4 g+4 _V-4 g+8 _V4 > c+16 c+16 d16. _V-5 d32 _V5 d16. _V-5 d32 _V5 d16. _V-5 d32 _V5 d16 d16 d8 c+16. _V-5 c+32 _V5 c+8 < b16 b16 b8~ b32 _V-5 b32 _V5 b8~ b32 _V-5 b32 _V5 a8 a8. _V-5 a8 _V5 r16 > c+16 c+16 d16. _V-5 d32 _V5 d16. _V-5 d32 _V5 d16. _V-5 d32 _V5 d16 d16~ d8 c+16. _V-5 c+32 _V5 c+8 < b8 b8~ b32 _V-5 b32 _V5 b8~ b32 _V-5 b32 _V5 > c+8 c+8. _V-5 c+8 _V5 r16 c+16 c+16 d16. _V-5 d32 _V5 d16. _V-5 d32 _V5 d16. _V-5 d32 _V5 d16 d16~ d8 c+16. _V-5 c+32 _V5 c+8 < b8 b8~ b32 _V-5 b32 _V5 b8 _V-5 b16 _V5 a16 _V-5 a16 _V5 a8. _V-5 a16 _V5 f+8 g+8 a4. _V-5 a8 _V5 a8. b8. a8 > e8. c+8. < b8 b4 _V-5 b8 _V5 r8 > d16. _V-5 d32 _V5 d16. _V-5 d32 _V5 d16. _V-5 d32 _V5 d16 d16 d24 d24 c+24 c+16. _V-5 c+32 _V5 c+8 < b8 b8~ b32 _V-5 b32 _V5 b8~ b32 _V-5 b32 _V5 > c+8 c+4 _V-5 c+8 _V5 r8 d16. _V-5 d32 _V5 d16. _V-5 d32 _V5 d16. _V-5 d32 _V5 d16 d16~ d8 c+16. _V-5 c+32 _V5 c+8 < b8 b8~ b32 _V-5 b32 _V5 b8~ b32 _V-5 b32 _V5 a8 a4 _V-5 a8 _V5 r8 > d16. _V-5 d32 _V5 d16. _V-5 d32 _V5 d16. _V-5 d32 _V5 d16 d16~ d16 d16 c+16 c+16 c+8 < b8 b8~ b32 _V-5 b32 _V5 b8~ b32 _V-5 b32 _V5 > c+8 c+8 _V-5 c+8 _V5 < f+8 g+8 a4. _V-5 a8 _V5 a8. b8. a8 > e8. c+8. < b8 b4. _V-5 b8 _V5 V7 O1 @2 B4 a1~ a2 _V4 Y.R > a8~ > a4.~ a4 _V-4 a4 < < YLR _V-2 f+4 b4 a4 > c+2 < a4 _V2 
!3  V3 O1 B8 r8 `9F00 @A1 ( a1 f2 g8 ) `9F00 @A3 @B0 @~3 g16 a16 g16 > c16~ _V-2 c16 < _V2 a16~ _V-2 a8 _V2 < a16~ _V-2 a16 _V2 a2. f8 ( g16 ) a16~ _V-2 a16 _V2 > c16~ _V-2 c16 _V2 c16 e16~ _V-2 e16 _V2 < g16~ _V-2 g16 _V2 g8 e16 d16 `9F00 @A1 a2 > ( c4 ) < r4 `9F00 @A3 @B0 @~3 r8 g16 a16~ _V-2 a16 _V2 > c8 < a16~ _V-2 a8 _V2 g16~ _V-2 g16 _V2 < g4 a8. a16~ _V-2 a8 _V2 a8~ _V-2 a2 _V2 r8 > g16 a16~ _V-2 a16 _V2 > c16~ _V-2 c16 _V2 c16 < < g8 > g16 a16 g8 e16~ < b16 a16 > a16~ _V-2 a16 _V2 a16 < a8 > a8 _V-2 < a8 > _V2 a16 _V-2 a16 _V2 a8 _V-2 a8 _V2 < f8. > a16 < f8. g16 g8 _V-2 g16 _V2 > d16 < g8 a8 a8 > a16 g16 < a16 > e16 _V-2 e16 _V2 e16 < a16 > e16 g16 _V-2 g16 _V2 a8 g16 f16 < f8 > f16 _V-2 f16 _V2 f8 f16 f16 < g16 > g16 _V-2 g16 _V2 d16 g8 < g16 g16 L a8 a16 _V-2 a16 _V2 a4. g16 e16 g16 a16 _V-2 a16 _V2 a16 f16 > f16 < f16 _V-2 f16 _V2 f4 < g16 _V-2 g16 _V2 r4 > g16 d16 < a16 > a16 _V-2 a16 _V2 r16 a4~ a8 _V-2 a8 _V2 r8 a16 g16 < f8 > f16 _V-2 f16 _V2 f8 e16 d16 < g16 > g16 _V-2 g16 _V2 < g16 > g16 < g16 > g8 < a8 > a16 _V-2 a16 _V2 a16 _V-2 a16 _V2 r8 r8 < e16 g16 _V-2 g16 _V2 a16 _V-2 a16 _V2 a16 f8 > f16 _V-2 f16 _V2 f16 _V-2 f16 _V2 r8 < g4. > g16 a16 < a8 > a16 _V-2 a16 _V2 a8 _V-2 a8 _V2 a16 g16 _V-2 g16 _V2 e16 _V-2 e16 _V2 r16 d8 < f8 > c16 _V-2 c16 _V2 c4 < g16 > g16 _V-2 g16 _V2 g16 e16 d16 < b8 a8 > a16 _V-2 a16 _V2 a16 _V-2 a16 _V2 r8 r8 a8 < a8 > a16 g16 < f8 > f16 _V-2 f16 _V2 < f8 > e16 e16 < g16 > g16 _V-2 g16 _V2 g16 < g16 > d16 c16 < b16 a8 > a16 _V-2 a16 _V2 a16 _V-2 a16 _V2 r8 r4. a16 g16 < f8 > f16 _V-2 f16 _V2 f8 e16 d16 < g16 g16 _V-2 g16 _V2 g16 > g8 d16 < b16 a16 > a16 g16 e16 g16 _V-2 g16 _V2 < a8 _V-2 a8 _V2 r8 r8 > a16 _V-2 a16 _V2 f8 > c16 _V-2 c16 _V2 c8 < b16 a16 g16 d16 _V-2 d16 _V2 d16~ d16 g16 a16 g16 < a8 a16 _V-2 a16 _V2 a16 _V-2 a16 _V2 e16 g16 a16 a16 _V-2 a16 _V2 a16 a8 g16 e16 f16 _V-2 f16 _V2 f16 _V-2 f16 _V2 f16 _V-2 f16 _V2 f16 e16 g16 > g16 _V-2 g16 _V2 g16 g8 g16 g16 < f+8 > f+8 < f+8 > f+16 f+16 < f+16 > f+16 < f+16 > f+16 < f+8 > f+16 f+16 < d8 > d8 < d8 > d16 d16 < e16 > e8 < e16 e16 _V-2 e16 _V2 > e8 < f+16 > f+16 f+16 _V-2 f+16 _V2 f+8 f+16 f+16 < f+16 > f+8 f+16 < f+16 > f+8 f+16 < d16 > d16 d16 _V-2 d16 _V2 d8 < d16 d16 e16 > e16 < e16 > e16 > e16 _V-2 e16 _V2 < e16 > e16 < < f+8 > f+16 _V-2 f+16 _V2 f+8 f+16 f+16 < f+16 > f+8 f+16 f+8 f+16 f+16 < d16 > d16 c+16 _V-2 c+16 _V2 d8 < d16 d16 e16 > e16 _V-2 e16 _V2 < e16 e16 e16 < e16 > e16 < a8 b16 _V-2 b16 _V2 d8 b16 f+16 d8 < b16 b16 b8 b16 b16 > [ c+16 _V-2 c+16 _V2 ]4 [ c+16 > c+16 < c+16 > c+16 < ]2 d8 > d16 _V-2 d16 _V2 < d8 > d16 d16 < < e16 > e8 < e16 e16 > e16 < e16 > e16 < f+8 > f+16 _V-2 f+16 _V2 < f+16 f+16 > f+16 f+16 < f+16 f+16 > g+16 a16 b16 g+16 e16 f+16 < b16 _V-2 b16 _V2 b16 _V-2 b16 _V2 > b8 < b16 > b16 < c+16 > c+8 c+16 c+16 c+16 _V-2 c+16 _V2 c+16 < f+8 > f+16 _V-2 f+16 _V2 < f+16 f+8 > f+16 f+16 f+16 g+16 a16 g+16 e16 f+16 g+16 < b4 > b8 < b16 _V-2 b16 _V2 c+16 > c+8 c+16 < c+16 > c+8 c+16 < < f+16 > f+16 < f+16 _V-2 f+16 _V2 f+8 > f+16 f+16 < f+16 > f+8 < f+16 > f+8 f+16 f+16 < < b16 _V-2 b16 _V2 b16 _V-2 b16 _V2 > b8 < b16 > b16 < c+16 > c+8 c+16 < c+16 > c+16 < c+16 > c+16 < d16 > d16 < d16 > d16 < d16 > d8 d16 e16 _V-2 e16 _V2 e16 e16 e16 _V-2 e16 _V2 e16 e16 < f+8 > f+16 f+16 < f+8 > f+16 f+16 < g+16 > g+8 g+16 < g+16 > g+8 g+16 < a8 > a16 _V-2 a16 _V2 < a16 > f+16 _V-2 f+16 _V2 f+16 < a16 > a8 e16 f+16 e16 c+16 e16 < b16 _V-2 b16 _V2 b16 _V-2 b16 _V2 > b8 < b16 > b16 < e16 > e16 < e16 _V-2 e16 _V2 e16 > e16 < e16 > e16 < a8 > a16 _V-2 a16 _V2 c+16 d16 e16 _V-2 e16 _V2 < a16 > a16 _V-2 a16 _V2 e16 f+16 e16 c+16 c+16 < f+8 > f+16 f+16 < f+8 > f+16 f+16 < g+16 > g+8 g+16 < g+16 > g+8 g+16 < a8 > a16 _V-2 a16 _V2 e16 _V-2 e16 _V2 c+16 _V-2 c+16 _V2 < a16 > a16 _V-2 a16 _V2 e16 f+16 e16 c+16 e16 < b8 > d16 _V-2 d16 _V2 < b4 c+8. > c+16 < c+16 > c+16 > c+16 _V-2 c+16 _V2 < d8 > d16 _V-2 d16 _V2 < d16 _V-2 d16 _V2 > d16 _V-2 d16 _V2 < e16 e16 > e16 e16 < e16 > e16 < e16 > e16 < < a8 _V-2 a16 _V2 a16 a8 a16 a16 _V-2 a16 _V2 a8 a16 a8 > e16 _V-2 e16 _V2 < a8 _V-2 a16 _V2 a16 a8 > e16 < a16 a16 a16 _V-2 a16 _V2 a16 a16 _V-2 a16 _V2 a16 a16 a16 _V-2 a16 _V2 a16 _V-2 a16 _V2 a16 _V-2 a16 _V2 a16 a16 a16 a16 _V-2 a16 _V2 a16 a16 _V-2 a16 _V2 a16 a16~ a16 > a8 < a16 > a8 < a16 > a16 < a16 a16 a16 a16 a8 > a8 < 
!4  r8 [ [ @6 x16 x16 @5 x16 x16 ]4 ]8 [ @5 x16 @6 x16 @5 x16 x16 [ @6 x16 @5 b16 @6 x16 @5 x16 ]2 @6 x16 x16 @5 x16 @6 x16 @5 x16 @6 x16 @5 x16 x16 [ @6 x16 @5 b16 @6 x16 @5 x16 ]2 @6 x16 x16 @7 x8 ]2 L [ @1 x16 @6 x16 @5 x16 @6 x16 @1 x16 @6 x16 @5 x16 x16 @1 x16 @5 x16 @6 x16 @5 x16 @1 x16 @6 x16 @7 x8 ]8 [ @1 x16 @6 x16 @5 x16 @6 x16 @1 x16 @6 x16 @5 x16 x16 @1 x16 @5 x16 @6 x16 @5 x16 @1 x16 @6 x16 @7 x8 ]8 @8 x4 @6 x16 x16 @5 x16 x16 @6 x16 @5 x16 @6 x16 @5 x16 @6 x16 x16 @7 x8 [ @6 x16 x16 @5 x16 @6 x16 @6 x16 x16 @5 x16 x16 @6 x16 @5 x16 @6 x16 @5 x16 @6 x16 x16 @7 x8 ]6 @6 x16 x16 @5 x16 @6 x16 @6 x16 x16 @5 x16 x16 @6 x16 @5 x16 @6 x16 @5 x16 @6 x16 x16 @8 x8 [ @6 x16 x16 @5 x16 @6 x16 @6 x16 x16 @5 x16 x16 @6 x16 @5 x16 @6 x16 @5 x16 @6 x16 x16 @7 x8 ]8 @8 x4 x8 @5 x16 x16 @6 x16 @5 x16 @6 x16 @5 x16 @6 x16 x16 @7 x8 [ @6 x16 x16 @5 x16 @6 x16 @6 x16 x16 @5 x16 x16 @6 x16 @5 x16 @6 x16 @5 x16 @6 x16 x16 @7 x8 ]3 [ @8 x4 @6 x16 x16 @5 x16 x16 @6 x16 @5 x16 @6 x16 @5 x16 @6 x16 x16 @7 x8 @6 x16 x16 @5 x16 @6 x16 @6 x16 x16 @5 x16 x16 @6 x16 @5 x16 @6 x16 @5 x16 @6 x16 x16 @7 x8 ]2 @8 x4 @1 x16 @6 x16 @5 x16 x16 @1 x16 @5 x16 @6 x16 @5 x16 @1 x16 @6 x16 @7 x8 [ @1 x16 @6 x16 @5 x16 @6 x16 @1 x16 @6 x16 @5 x16 x16 @1 x16 @5 x16 @6 x16 @5 x16 @1 x16 @6 x16 @7 x8 ]2 @1 x16 @6 x16 @5 x16 @6 x16 @1 x16 @6 x16 @5 x16 x16 @1 x16 @5 x16 @6 x16 @5 x16 @1 x16 @6 x16 @8 x8 
!5  O1 V1 @26 W0,100,75 B42 > Y.R e24 YL. e24 YLR e24 e4~ ( d+2. ) < @5 YL. c8 Y.R ( c8 ) r4 < YL. b8 Y.R ( b8 ) > r4 @29 YL. a8 Y.R ( a8 ) r4 r2 @5 YL. f8 Y.R ( f8 ) r4 YL. g8 Y.R ( g8 ) r4 @40 W0,97,0 YLR < c4 e32 a32 > c32 e32 a32 > c32 e32 a32 e32 c32 < a32 e32 < a16 > r16 r4 @29 YL. f8 Y.R ( f8 ) r4 YL. g8 YL. ( g8 ) r4 YL. a8 Y.R ( a8 ) r4 r2 YLR r4 @2 b16 b8. b16 b16 Y.R g24 YLR e24 YL. c24 YLR @0 x4 [ @0 x4 x4 x4 @24 x4 ]3 @0 x4 x4 x8. @24 x16 YL. @2 c4 YLR L V1 O2 YL. @26 W0,100,75 r2 ( < r16 [ a32 r32 ]2 ) a32 ( a32 ) r16 a16 g16 a16 > @5 c8 Y.R ( c8 ) r4 < YL. b8 Y.R ( b8 ) r4 YL. a8 Y.R ( a8 ) r4 > YL. e16 @26 W0,100,75 YL. < ( [ a32 r32 ]2 ) a32 ( a32 ) r16 a16 g16 a16 g2 > @5 c8 Y.R ( c8 ) YL. g8 Y.R ( g8 ) YL. e8 Y.R ( e8 ) r4 < YL. a16 @26 W0,100,75 ( [ a32 r32 ]2 ) a32 ( a32 ) r16 a16 g16 a16 @5 a8 Y.R ( a8 ) r4 YL. g8 Y.R ( g8 ) r8 > YL. d16 c16 c8 Y.R ( c8 ) r8 < YL. b8 @26 W0,100,75 a16 ( [ a32 r32 ]2 ) a32 ( a32 ) r16 a16 @5 a16 b16 > c8 Y.R ( c8 ) r4 r4 < YL. b8 Y.R ( b8 ) @40 W0,97,0 YLR r2 a2~ a2 g2 g2 e2 f2 d4. c16 < b16~ b4 > c4 a2 a4 > c4 d2 e1 a2 g4 < @24 x8 YL. @2 c16 c16 YLR [ @0 x4 @24 x4 @0 x4 @24 x4 ]5 @0 x4 @24 x4 @0 x8. x16 @24 x8 @0 x8 @0 x4 @24 x4 @0 x4 @24 x4 @0 x4 @24 x4 @0 x8 @2 e8 e8 @24 x16 x16 @0 x4 @24 x4 @0 x4 @24 x4 @0 x4 @24 x4 @0 x8. x16 @24 x8 @0 x8 [ @0 x4 @24 x4 @0 x4 @24 x4 ]3 @0 x4 @24 x4 @0 x8. x16 @24 x8 @0 x8 @0 x4 @24 x4 @0 x4 @24 x4 @0 x8 @2 Y.R b8 b16 b16 r16 YLR g16 g16 r16 g16 r16 YL. c16 r16 @24 YLR x16 x16 @0 x4 @24 x4 @0 x4 @24 x4 @0 x4 @24 x4 @0 x8. x16 @24 x8 @0 x8 [ @0 x4 @24 x4 @0 x4 @24 x4 ]4 @0 x4 @24 x4 @0 x4 @24 x4 @0 x4 @24 x4 @0 x8. x16 @24 x8 @0 x8 @0 x4 r2 @24 x8 @5 Y.R g16 g16 Y.R ( g16 ) YL. g16 Y.R ( a16 ) YL. a16 a16 Y.R ( a16 ) @40 W0,97,0 c+4. YLR @24 x8 @5 Y.R a16 a16 r8 ) YL. g16 Y.R ( g16 ) YL. g16 Y.R ( g16 ) @40 W0,97,0 d4. YLR @24 x8 @5 Y.R g16 g16 Y.R ( g4 ) @40 W0,97,0 c+2 YLR @24 x4 
!6  V1 @26 W0,100,75 O1 B42 > YL. g24 Y.R g24 YLR g24 YL. g4~ ( g2 ) < a8 b8 > c4 d4 < b4. a16 g16 a2. a8 b8 > c4 d4 < b4 > g4 e2. < a8 b8 > c4 d4 < b4. a16 g16 a2. r4 @61 W0,100,33 YLR ( f2 g2 a1 f2 g2 a1 f2 ) @40 W0,97,0 g2 L V1 O2 Y.R @26 W0,100,75 D1 r2 r8. < a32 ( a32 ) r8 g16 a16 > @5 D0 YL. < f16 ( f8 f16 ) r4 g16 ( g8 g16 ) r4 e16 ( e8 e16 ) r4 > YL. c16 Y.R ( c16 c16 ) @26 W0,100,75 Y.R D1 < a32 ( a32 ) r8 g16 a16 r2 @5 D0 YL. ( g16 g8 g16 > e16 e8 e16 ) c16 ( c8 c16 ) r4 < e16 ( Y.R a16 a16 ) @26 W0,100,75 D1 a32 ( a32 ) r8 g16 a16 @5 D0 YL. e16 ( e8 e16 ) r4 d16 ( d8 d16 r8 Y.R > c16 < a16 ) YL. a16 ( a8 a16 r8 ) YL. g16 Y.R b16 @26 W0,100,75 D1 a16 ( a16 ) r16 a32 ( a32 ) r16 D0 ( a16 g16 a16 ) @5 YL. a16 ( a8 a16 ) r4 r4 g16 ( g8 g16 ) @29 a16 a16 Y.R ( a16 ) YL. a16 Y.R ( a16 ) YL. a16 Y.R ( a16 ) YL. a16 a16 Y.R ( a16 ) YL. a16 Y.R ( a16 ) YL. a16 Y.R ( a16 ) YL. a16 a16 a16 a16 Y.R ( a16 ) YL. a16 Y.R ( a16 ) YL. a16 Y.R ( a16 ) YL. a16 g16 Y.R ( g16 ) YL. g16 Y.R ( g16 ) YL. g16 Y.R ( g16 ) YL. > c16 c16 < a16 a16 Y.R ( a16 ) YL. a16 Y.R ( a16 ) YL. a16 Y.R ( a16 ) YL. a16 a16 Y.R ( a16 ) YL. a16 Y.R ( a16 ) YL. a16 Y.R ( a16 ) YL. a16 a16 a16 Y.R ( a16 ) YL. a16 Y.R ( a16 ) YL. a16 Y.R ( a16 ) YL. a16 a16 Y.R ( g16 ) YL. g16 Y.R ( g16 ) YL. g16 g16 Y.R ( g16 ) YL. g16 Y.R ( g16 ) a16 a16 Y.R ( a16 ) YL. a16 Y.R ( a16 ) YL. a16 Y.R ( a16 ) YL. a16 a16 Y.R ( a16 ) YL. a16 Y.R ( a16 ) YL. a16 Y.R ( a16 ) YL. a16 a16 a16 a16 Y.R ( a16 ) YL. a16 Y.R ( a16 ) YL. a16 Y.R ( a16 ) YL. a16 g16 Y.R ( g16 ) YL. g16 Y.R ( g16 ) YL. > c16 Y.R ( c16 ) YL. < b16 b16 a16 a16 Y.R ( a16 ) YL. a16 @61 W0,100,33 B17 > ( a2.~ a2.~ f+4 ) < @29 f+16 f+16 Y.R ( f+16 ) YL. f+16 Y.R ( f+16 ) YL. f+16 Y.R ( f+16 ) YL. f+16 f+16 Y.R ( f+16 ) YL. f+16 Y.R ( f+16 ) YL. f+16 Y.R ( f+16 ) YL. f+16 f+16 f+16 f+16 Y.R ( f+16 ) YL. f+16 Y.R ( f+16 ) YL. f+16 Y.R ( f+16 ) YL. f+16 e16 Y.R ( e16 ) YL. e16 Y.R ( e16 ) YL. e16 Y.R ( e16 ) YL. e16 e16 f+16 f+16 Y.R ( f+16 ) YL. f+16 Y.R ( f+16 ) YL. f+16 Y.R ( f+16 ) YL. f+16 f+16 Y.R ( f+16 ) YL. f+16 Y.R ( f+16 ) YL. f+16 Y.R ( f+16 ) YL. f+16 f+16 f+16 f+16 Y.R ( f+16 ) YL. f+16 Y.R ( f+16 ) YL. f+16 Y.R ( f+16 ) YL. f+16 e16 Y.R ( e16 ) YL. e16 Y.R ( e16 ) YL. e16 Y.R ( e16 ) YL. e16 e16 f+16 f+16 Y.R ( f+16 ) YL. f+16 Y.R ( f+16 ) YL. f+16 Y.R ( f+16 ) YL. f+16 f+16 Y.R ( f+16 ) YL. f+16 Y.R ( f+16 ) YL. f+16 Y.R ( f+16 ) YL. f+16 f+16 f+16 f+16 Y.R ( f+16 ) YL. f+16 Y.R ( f+16 ) YL. f+16 Y.R ( f+16 ) YL. f+16 e16 Y.R ( e16 ) YL. e16 Y.R ( e16 ) YL. e16 Y.R ( e16 ) YL. e16 e16 < ( b16 b16 Y.R b16 ) YL. b16 Y.R ( b16 b16 YL. b16 Y.R b16 b16 YL. ) b16 Y.R ( b16 ) YL. b16 Y.R ( b16 YL. b16 ) b16 b16 > c+16 Y.R ( c+16 ) YL. c+16 Y.R ( c+16 ) YL. c+16 Y.R ( c+16 ) YL. c+16 Y.R ( c+16 ) YL. c+16 c+16 Y.R ( c+16 ) YL. c16 Y.R ( c+16 ) YL. c+16 c+16 c+16 > @61 W0,100,33 YLR ( d2 e2 f+2 ) @27 W0,100,47 Y.R > e32 YL. ( e32 ) Y.R e32 YL. ( e32 ) r16 @9 W0,100,47 Y.R e32 YL. ( e32 ) Y.R e16 YL. ( e16 ) < r8 @61 W0,100,33 YLR < ( b2 > c+2 f+2 ) @27 W0,100,47 Y.R > e32 YL. ( e32 ) Y.R e32 YL. ( e32 ) r16 @9 W0,100,47 Y.R e32 YL. ( e32 ) Y.R e16 YL. ( e16 ) < r8 @61 W0,100,33 YLR < ( b2 > c+2 f+4. ) @9 W0,100,47 Y.R > e32 YL. ( e32 ) Y.R e32 YL. ( e32 ) r16 @27 W0,100,47 Y.R e32 YL. ( e32 ) Y.R e32 YL. ( e32 ) r16 @9 W0,100,47 Y.R e32 YL. ( e32 ) Y.R e32 YL. ( e32 ) r8 < @61 W0,100,33 YLR < ( b2 > c+2 d2 e2 ) @61 W0,100,33 YLR ( d2 e2 a2 ) r16 @10 W0,100,47 Y.R > c+32 YL. ( c+32 ) Y.R c+16 YL. ( c+16 ) @27 W0,100,47 Y.R d32 YL. ( d32 ) Y.R d32 YL. ( d32 ) r16 @10 W0,100,47 Y.R c+32 YL. ( c+32 ) < @61 W0,100,33 YLR ( d2 e2 a2 ) r16 @10 W0,100,47 Y.R > c+32 YL. ( c+32 ) Y.R c+16 YL. ( c+16 ) Y.R c+32 YL. ( c+32 ) Y.R c+32 YL. ( c+32 ) r16 Y.R c+32 YL. ( c+32 ) < @61 W0,100,33 YLR ( d2 e2 a2 ) r16 @10 W0,100,47 Y.R > c+32 YL. ( c+32 ) Y.R c+16 YL. ( c+16 ) @27 W0,100,47 Y.R d32 YL. ( d32 ) Y.R d32 YL. ( d32 ) r16 @10 W0,100,47 Y.R c+32 YL. ( c+32 ) < @61 W0,100,33 YLR < ( b2 > c+2 d2 e2 ) @5 YL. d16 Y.R ( d16 ) @40 W0,97,0 YL. < a2. > @5 d16 d16 Y.R ( d16 ) YL. e16 Y.R ( e16 ) YL. e16 e16 Y.R ( e16 ) @40 W0,97,0 YL. < a2 > @5 d16 d16 r8 ) YL. d16 Y.R ( d16 ) YL. d16 Y.R ( d16 ) @40 W0,97,0 YL. < g2 > @5 d16 d16 Y.R ( d8 ) < YL. a16 Y.R ( a16 ) YL. a16 Y.R ( a16 ) r8 @40 W0,97,0 YL. < a2 
