;004 001D6F10
!1  T188 O1 @0 V6 r1 D2 a1 D0 a1~ a2. r4 @@1,1,0 V12 P0,9,4 YL. E100,80,40,6,47 [ a8 b8 > c8 d8 c8 < f+8 d8 f+8 > c8 < f8 g8 f8 g8 f8~ f4 ]4 L @@1,1,0 V12 PX Y.R O2 E100,80,40,6,47 [ _V-6 > d4 < _V6 a8 _V-7 a8 _V7 [ r4 a8 _V-7 a8 _V7 ]3 ]2 _V-4 > d4 < _V4 g8 _V-7 g8 _V7 r4 g8 _V-7 g8 _V7 _V-4 > e4 < _V4 a8 _V-7 a8 _V7 r4 a8 _V-7 a8 _V7 YL. _V3 < d8 a8 > c8 g8 f+8 c8 < g8 d8 a8 > g8 f+8 d8 b8 a4. _V-3 Y.R [ _V-6 > d4 < _V6 a8 _V-7 a8 _V7 [ r4 a8 _V-7 a8 _V7 ]3 ]2 _V-4 > d4 < _V4 g8 _V-7 g8 _V7 r4 g8 _V-7 g8 _V7 _V-4 > e4 < _V4 a8 _V-7 a8 _V7 r4 a8 _V-7 a8 _V7 YL. _V3 < d8 a8 > c8 g8 f+8 c8 < g8 d8 a8 > g8 f+8 d8 b8 a4. _V-3 Y.R @2 V7 O3 E100,50,0,23,29 PX Y.R [ d4. d8~ d2 ]6 @3 E50,100,50,41,47 P9,10,2 _V-2 g1~ g1 _V2 e1~ e1 [ V10 O2 Y.R @@2,2,1 E100,90,60,12,29 P12,10,3 > a8 _V-4 a8 _V4 a8 _V-4 a8 _V4 a8 _V-4 a8 _V4 a8 _V-4 a8 _V4 a8 a8 a8 a8 V12 O3 Y.R @2 E50,100,30,18,29 > d16 _V-3 d16 _V3 < e16 _V-3 e16 _V3 a16 _V-3 a16 _V3 e16 _V-3 e16 _V3 [ > d16 _V-3 d16 _V3 < f+16 _V-3 f+16 _V3 a16 _V-3 a16 _V3 f+16 _V-3 f+16 _V3 ]4 [ > d16 _V-3 d16 _V3 < d16 _V-3 d16 _V3 g16 _V-3 g16 _V3 d16 _V-3 d16 _V3 ]2 [ > d16 _V-3 d16 _V3 < d16 _V-3 d16 _V3 a16 _V-3 a16 _V3 d16 _V-3 d16 _V3 ]2 [ > d16 _V-3 d16 _V3 < d16 _V-3 d16 _V3 g16 _V-3 g16 _V3 d16 _V-3 d16 _V3 ]2 [ > d16 _V-3 d16 _V3 < e16 _V-3 e16 _V3 a16 _V-3 a16 _V3 e16 _V-3 e16 _V3 ]2 ]2 [ > d16 _V-3 d16 _V3 < d16 _V-3 d16 _V3 a16 _V-3 a16 _V3 d16 _V-3 d16 _V3 ]2 [ > d16 _V-3 d16 _V3 < e16 _V-3 e16 _V3 a16 _V-3 a16 _V3 e16 _V-3 e16 _V3 ]2 [ > d16 _V-3 d16 _V3 < f+16 _V-3 f+16 _V3 a16 _V-3 a16 _V3 f+16 _V-3 f+16 _V3 ]4 [ > d16 _V-3 d16 _V3 < d16 _V-3 d16 _V3 g16 _V-3 g16 _V3 d16 _V-3 d16 _V3 ]2 [ > d16 _V-3 d16 _V3 < e16 _V-3 e16 _V3 a16 _V-3 a16 _V3 e16 _V-3 e16 _V3 ]2 @@1,1,0 V12 P0,9,4 Y.R E100,80,40,6,47 O2 [ d8 e8 f8 g8 f+8 c8 < a8 b8 a8 > c8 d8 c8 d8 c8~ c4 ]2 
!2  O1 @0 V6 r1 r1 D2 > c1 D0 c2. r4 @@1,1,0 V12 P0,9,4 Y.R E100,80,40,6,47 [ d8 e8 f8 g8 f+8 c8 < a8 b8 a8 > c8 d8 c8 d8 c8~ c4 ]4 L V11 O2 YLR @@2,2,1 E100,90,60,12,29 P12,10,3 f+8. _V-4 f+16 _V4 f+8. _V-4 f+16 _V4 g8. _V-4 g16 _V4 g8. _V-4 g16 _V4 a16 _V-4 a16 _V4 a8 _V-4 a8 _V4 > d4.~ _V-4 d8 _V4 < r8 f+8. _V-4 f+16 _V4 f+8. _V-4 f+16 _V4 g8. _V-4 g16 _V4 g8 g8 a8 g8 f8 d8~ d4 _V-4 d8 _V4 r8 Y.R _V-4 b4 _V4 YLR b8 b8 b8 b4 _V-4 b8 _V4 a2~ _V-4 a8 _V4 r8 e4 f+4. _V-4 f+8 _V4 r2 r1 f+8. _V-4 f+16 _V4 f+8. _V-4 f+16 _V4 g8. _V-4 g16 _V4 g8. _V-4 g16 _V4 a8 a8 a8 > d4.~ _V-4 d8 _V4 < r8 f+4 f+4 f+8 f+8 g8 g8 B18 a8~ _V-4 d8 r8 _V2 d4.~ d8 _V4 r8 Y.R _V-4 b4 _V4 YLR b4 b8 b4 b8 a2~ _V-4 a8 _V4 r8 > c+4 d4. _V-4 d8 _V4 r2 r1 < Y.R b8 _V-4 b8 _V4 YLR r4 b8 b8 b8 b8 a4 _V-4 a8 _V4 f+8~ f+8 e8 d4 Y.R b8 _V-4 b8 _V4 YLR r4 b8 b8 _V-4 b8 _V4 b8 a8 a8 _V-4 a8 _V4 a8 b8 > c+4. < Y.R b8 _V-4 b8 _V4 YLR r4 b8 b8 b8 b8 B6 a4. f8~ _V-3 d8~ _V-3 d8 _V6 r8 d8 > d4. < b4 a8 b8 a8 a8 _V-4 a8 _V4 r8 > f+8~ f+8 f+8 f+8 f+8 e4. d8 c+4. < b8 a2 _V-4 a4 _V4 r8 a8 > f+8 _V-4 f+8 _V4 f+8 _V-4 f+8 _V4 f+8 _V-4 f+8 _V4 f+8 _V-4 f+8 _V4 B6 e8 e8 e8 f+8.~ _V-4 d16~ _V4 r4. d8 d8 d8 d8 d8. _V-4 d16 _V4 e8. _V-4 e16 _V4 b8 _V-4 b8 _V4 a8 _V-4 a8 _V4 f+8 e4. d4. _V-4 d8 _V4 r8 d8 d8 d8 B6 d8~ < _V-3 b8 _V3 r8 a8~ a4.~ a16~ _V-6 g+16 _V6 Y.R _V-4 b2 _V4 YLR r8 > d8 d8 d8 c+4 c+8 d8~ d8 e8 _V-4 e8 _V4 d8 f+8 _V-4 f+8 _V4 f+8 _V-4 f+8 _V4 f+8 _V-4 f+8 _V4 f+8 _V-4 f+8 _V4 B6 e8 e8 e8 f+8.~ _V-4 d16~ _V4 r4. d8 d8 d8 d8 d8. _V-4 d16 _V4 e8. _V-4 e16 _V4 b8 _V-4 b8 _V4 a8 _V-4 a8 _V4 f+8 e4 d8 d4. _V-4 d8 _V4 r8 d8 d8 d8 c+4 _V-4 c+8 _V4 < a8~ a4 _V-4 a4 _V4 Y.R _V-4 b2 _V4 YLR r8 > d8 d8 d8 B6 c+4. d4. e8~ _V-3 d+8 _V3 d2 _V-4 d8 _V4 r8 d8 d8 B6 a+32~ b32~ b8. _V-4 b8 _V4 a4 _V-4 a8 _V4 f+8 e8 d2 _V-4 d8 _V4 r8 d8 d8 B6 c+4. d4 d8 e8~ _V-3 d8 _V3 d2 _V-4 d8 _V4 r8 d4 B6 c+4 c+8 d4. e8~ _V-3 d8 _V3 d4 _V-4 d8 _V4 r8 @@1,1,0 V12 P0,9,4 YL. E100,80,40,6,47 O1 > c8 < f+8 d8 f+8 > c8 < f8 g8 f8 g8 f8~ f4 a8 b8 > c8 d8 c8 < f+8 d8 f+8 > c8 < f8 g8 f8 g8 f8~ f4 
!3  V3 O2 `9F00 @A3 @B0 @~3 B23 D2 d1 D0 d1~ d1~ d2 < g8~ < a4. > B6 [ [ d8 ]8 ]3 [ d8 ]4 d8 f8~ a8~ > d8~ B20 d8 [ d8 ]7 [ d8 ]6 d8~ < d8 [ d8 ]8 [ d8 ]7 < a8 > L [ [ d8 ]8 ]7 [ d8 ]5 < a8 > c8 c+8 [ [ d8 ]8 ]8 < g4 r8 g8~ g2 f+4 r8 f+8~ f+2 e4 r8 e8~ e2 > d4 r8 d8~ d2 < g4 r8 g8~ g2 f+4 r8 f+8~ f+4 f+4 [ [ g8 ]8 ]2 [ [ a8 ]8 ]2 > [ d8 ]8 [ c+8 ]3 c+4 [ c+8 ]3 < [ b8 ]7 > d8 < [ a8 ]3 a4 [ a8 ]3 [ g8 ]8 [ f+8 ]3 f+4 [ f+8 ]3 [ g8 ]8 [ a8 ]3 a4 [ a8 ]3 > [ d8 ]8 [ c+8 ]3 c+4 [ c+8 ]3 < [ b8 ]8 [ a8 ]3 a4 [ a8 ]3 [ g8 ]8 [ f+8 ]3 f+4 [ f+8 ]3 [ g8 ]8 [ a8 ]3 a4 [ a8 ]3 > [ d8 ]8 [ c+8 ]8 < [ b8 ]8 [ a8 ]8 [ g8 ]8 [ a8 ]8 > [ d8 ]8 [ d8 ]5 g8 f+8 d8 [ d8 ]8 [ d8 ]5 < a8 > c8 c+8 
!4  @8 x4 [ @7 x8 @6 x8 ]3 [ @7 x8 @6 x8 ]4 [ @7 x8 @6 x8 ]4 [ @7 x8 @6 x8 ]2 r2 @8 x4 [ @7 x8 @6 x8 ]3 [ @7 x8 @6 x8 ]4 [ @7 x8 @6 x8 ]4 [ @7 x8 @6 x8 ]3 @7 x4 @8 x4 [ @7 x8 @6 x8 ]3 [ @7 x8 @6 x8 ]4 [ @7 x8 @6 x8 ]4 [ @7 x8 @6 x8 ]2 r2 L @8 x4 [ @7 x8 @6 x8 ]3 @7 x8 @6 x8 [ @5 x8 @7 x8 ]2 @5 x8 @6 x8 [ [ @7 x8 @6 x8 ]4 ]2 @8 x4 [ @7 x8 @6 x8 ]3 [ [ @7 x8 @6 x8 ]4 ]3 @8 x4 [ @7 x8 @6 x8 ]3 [ [ @7 x8 @6 x8 ]4 ]3 @8 x4 [ @7 x8 @6 x8 ]3 [ [ @7 x8 @6 x8 ]4 ]2 @7 x8 @6 x8 @5 x4 x4 x4 Y.R @8 x4 YLR @6 x8 YL. @8 x4 YLR @6 x8 @7 x8 @6 x8 [ @7 x4 [ @7 x8 @6 x8 ]3 ]3 @7 x4 [ @7 x8 @6 x8 ]3 @7 x4 [ @7 x8 @6 x8 ]2 @7 x4 @8 x4 [ @7 x8 @6 x8 ]2 @7 x4 [ @7 x8 @6 x8 ]4 @8 x4 [ @7 x8 @6 x8 ]3 @7 x4 @5 x4 x4 x4 YL. @8 x4 Y.R x4 YLR [ @7 x8 @6 x8 ]2 [ @7 x8 @6 x8 ]3 @8 x8 x8 [ [ @7 x8 @6 x8 ]4 ]2 @8 x4 [ @7 x8 @6 x8 ]3 Y.R @8 x4 YLR @6 x8 YL. @8 x4 YLR @6 x8 @7 x8 @6 x8 @8 x4 @7 x4 @5 x4 x4 @5 x4 x8 @8 x4 @5 x8 x8 @6 x8 @8 x4 [ @7 x8 @6 x8 ]3 [ @7 x8 @6 x8 ]3 @8 x8 x8 [ [ @7 x8 @6 x8 ]4 ]2 @8 x4 [ @7 x8 @6 x8 ]3 Y.R @8 x4 YLR @6 x8 YL. @8 x4 YLR @6 x8 @7 x8 @6 x8 [ @7 x8 @6 x8 ]4 @8 x4 @5 x8 @8 x4 @5 x8 @8 x4 YL. @8 x4 Y.R x4 YLR [ @7 x8 @6 x8 ]2 [ [ @7 x8 @6 x8 ]4 ]3 @8 x4 [ @7 x8 @6 x8 ]3 [ @7 x8 @6 x8 ]2 @5 x4 x4 @8 x4 @5 x8 @6 x8 [ @7 x8 @6 x8 ]2 [ @7 x8 @6 x8 ]4 [ @7 x8 @6 x8 ]2 [ @6 x8 @7 x8 ]2 r8 @5 x8 @7 x4 @5 x4 x4 
!5  V1 O1 @0 x4 @1 x4 x4 x8 @0 x8 @30 x4 @1 x4 x8 @0 x8 @1 x4 @30 x4 @1 x4 x8 @0 x8 @1 x8 @0 x8 @30 x4 @1 x8 ( x16 ) x16 @30 x8 @1 x8 x8 @0 x8 @30 x4 @1 x4 x4 x8 @0 x8 @30 x4 @1 x4 @30 x8 @0 x8 @1 x8 @0 x8 @30 x4 @1 x4 x4 x8 @0 x8 @30 x4 @1 x4 x8 @0 x16 x16 @30 x4 @30 x4 @1 x4 x8 @0 x8 @1 x8 @0 x8 @30 x4 @1 x4 @30 x8 @0 x8 @1 x8 @0 x8 @30 x4 @1 x4 x8 @0 x8 @1 x8 @0 x8 @30 x4 @1 x8 ( x16 ) x16 @30 x8 @1 x8 x8 @0 x8 L @30 x4 @1 x4 x4 x8 @0 x8 @30 x4 @1 x8 @0 x8 @1 x8 @0 x8 @1 x8 @0 x8 @30 x4 @1 x4 x4 x8 @0 x8 @30 x8 @0 x8 @1 x4 @30 x8 @0 x8 @1 x4 @30 x4 @1 x4 x4 x8 @0 x8 @30 x4 @1 x4 @1 x8 @0 x8 @1 x8 @0 x8 @30 x4 @1 x4 @30 x8 @0 x8 @1 x8 @0 x8 @30 x4 @1 x4 @1 x8 @0 x8 @1 x8 @0 x8 @30 x4 @1 x4 @1 x8 @0 x8 @1 x4 @30 x4 @1 x4 x4 x8 @0 x8 @30 x4 @1 x4 x8 @0 x8 @1 x4 @30 x4 @1 x4 @30 x8 @0 x8 @1 x8 @0 x8 @30 x4 @1 x4 x4 x8 @0 x8 @30 x4 @1 x4 x4 x8 @0 x8 @30 x4 @1 x4 x8 @0 x8 @1 x8 @0 x8 @30 x8 @1 x16 x16 x8 x8 @2 g8 g8 YL. d8 d8 YLR [ @0 x4 @1 x8 @0 x8 r4 @1 x4 ]3 @0 x4 @1 x8 @0 x8 r8 x8 @1 x8 @0 x8 [ @0 x4 @1 x8 @0 x8 r4 @1 x4 ]3 @0 x4 @1 x8 @0 x8 r8 x8 @1 x8 @0 x8 @0 x4 @1 x4 x8 @0 x8 @1 x4 @1 x8 x16 x16 x8 x8 x8 x8 x4 @0 x4 @1 x4 @0 x8 x8 @1 x4 @0 x4 @1 x8 @0 x8 r8 x8 @1 x8 x8 @0 x8 x8 @1 x8 @0 x8 x4 @1 x4 @0 x4 @1 x8 @0 x8 r8 x8 @1 x4 @0 x4 @1 x4 @0 x8 x8 @1 x8 @0 x8 @0 x4 @1 x8 @0 x8 r8 x8 @1 x4 @0 x4 @1 x4 @2 g8 @1 ( x16 ) x16 x8 x8 @0 x8 @1 x8 x8 @0 x8 r8 x8 @1 x4 @0 x4 @1 x4 @0 x8 x8 @1 x8 @0 x8 @0 x4 @1 x8 @0 x8 r8 x8 @1 x8 x8 @0 x8 x8 @1 x8 @0 x8 x4 @1 x4 @0 x4 @1 x8 @0 x8 r8 x16 ( x16 ) @1 x4 @0 x4 @1 x4 @0 x8 x8 @1 x8 @0 x8 @0 x4 @1 x8 @0 x8 r8 x8 @1 x4 @0 x4 @1 x4 @0 x8 x8 @1 x8 x8 @0 x8 @1 x8 x8 @0 x8 r8 x8 @1 x4 @0 x4 @1 x4 @0 x8 x8 @1 x4 @0 x4 @1 x8 @0 x8 r8 x8 @1 x4 @0 x4 @1 x4 @0 x8 x8 @1 x8 @0 x8 @0 x4 @1 x8 @0 x8 r8 x8 @1 x4 @0 x4 @1 x4 @0 x8 x8 @1 x4 @0 x4 @1 x8 x16 x16 x8 x8 [ x16 ]4 @0 x4 @1 x4 x4 x8 @0 x8 @1 x8 @0 x8 @1 x4 x4 x4 @30 x4 @1 x4 x8 @0 x8 @1 x8 @0 x8 @1 x8 @0 x8 @1 x4 @2 g8 @1 ( x16 ) x16 x8 @0 x8 
!6  V1 O0 @11 W0,100,55 YL. d1 a1 Y.R > c1 g2 YLR @3 > > d8 O2 @61 W0,100,33 B18 ( g8~ d4 ) O1 @11 W0,100,55 ( d1 c+1 c1 < b1 > > d1 c+1 c1 < b2. ) @3 > > d4 < < L O1 @60 W0,100,33 YL. [ d16 ( d16 ) ]8 [ d16 ( d16 ) ]2 @61 W0,100,33 > d8 ( d8 ) < @60 W0,100,33 [ d16 ( d16 ) ]4 [ d16 ( d16 ) ]8 [ d16 ( d16 ) ]2 @61 W0,100,33 > d8 ( d8 ) < @60 W0,100,33 [ d16 ( d16 ) ]4 [ d16 ( d16 ) ]2 @61 W0,100,33 > g8 ( g8 ) < @60 W0,100,33 [ d16 ( d16 ) ]4 [ d16 ( d16 ) ]2 @61 W0,100,33 > a8 ( a8 ) < @60 W0,100,33 [ d16 ( d16 ) ]4 @11 Y.R r4 > c8 ( c8 ) r8 c8 ( c8 ) r8 c8 ( c8 ) r8 c8 < @60 W0,100,33 > g8 f4 < @12 YLR c+8 d8 O1 @60 W0,100,33 YL. [ d16 ( d16 ) ]7 [ d16 ( d16 ) ]2 @61 W0,100,33 > d8 ( d8 ) < @60 W0,100,33 [ d16 ( d16 ) ]3 @12 YLR c+8 d8 @60 W0,100,33 YL. [ d16 ( d16 ) ]7 [ d16 ( d16 ) ]2 @61 W0,100,33 > d8 ( d8 ) < @60 W0,100,33 [ d16 ( d16 ) ]3 @12 YLR f+8 g8 @60 W0,100,33 YL. d16 ( d16 ) @61 W0,100,33 > g8 ( g8 ) < @60 W0,100,33 [ d16 ( d16 ) ]3 @12 YLR g8 a8 @60 W0,100,33 YL. d16 ( d16 ) @61 W0,100,33 > a8 ( a8 ) < @60 W0,100,33 [ d16 ( d16 ) ]3 @12 YLR c+8 d8 @11 Y.R r8 > c8 ( c8 ) r8 c8 ( c8 ) r8 c8 ( c8 ) r8 c8 < @60 W0,100,33 > g8 f4. < O2 @61 W0,100,33 YL. g4 ( g8 ) g8~ g2 f+4. > d4. < f+4 e4 ( e8 ) e8~ e2 > d4. < a4. f+4 g4 ( g8 ) g8~ g2 f+4. > d4. < f+4 g4 ( g8 ) g8~ g2 g4 ( g8 ) g8~ g4 g4 [ [ a16 ( a16 ) ]8 ]2 [ [ d8 [ d16 ( d16 ) ]2 ]2 d8 d16 ( d16 ) [ c+8 [ c+16 ( c+16 ) ]2 ]2 c+8 c+16 ( c+16 ) < [ b8 [ b16 ( b16 ) ]2 ]2 b8 b16 ( b16 ) [ a8 [ a16 ( a16 ) ]2 ]2 a8 a16 ( a16 ) [ g8 [ g16 ( g16 ) ]2 ]2 g8 g16 ( g16 ) [ f+8 [ f+16 ( f+16 ) ]2 ]2 f+8 f+16 ( f+16 ) [ g8 [ g16 ( g16 ) ]2 ]2 g8 g16 ( g16 ) [ a8 [ a16 ( a16 ) ]2 ]2 a8 a16 ( a16 ) > ]2 d1 c+1 < b1 a1 g1 a1 O2 YLR @11 W0,100,55 ( d1 c+1 c1 < b2. ) @3 > > d4 < < 
