;005 001D7FB6
!1  T170 V6 O2 @@0,3,2 E100,50,0,39,39 P0,12,2 [ [ Y.R g48 _V-2 YL. g48 _V2 > Y.R c48 _V-2 YL. c48 _V2 Y.R d48 _V-2 YL. d48 _V2 Y.R g48 _V-2 YL. g48 _V2 Y.R d48 _V-2 YL. d48 _V2 Y.R c48 _V-2 YL. c48 _V2 < ]4 ]8 O3 V8 [ Y.R g32 _V-2 YL. g32 _V2 Y.R d+32 _V-2 YL. d+32 _V2 Y.R < a+32 _V-2 YL. a+32 _V2 Y.R > d+32 _V-2 YL. d+32 _V2 ]2 [ Y.R f32 _V-2 YL. f32 _V2 Y.R c32 _V-2 YL. c32 _V2 Y.R < a32 _V-2 YL. a32 _V2 Y.R > c32 _V-2 YL. c32 _V2 ]2 [ Y.R f32 _V-2 YL. f32 _V2 Y.R d32 _V-2 YL. d32 _V2 Y.R < a+32 _V-2 YL. a+32 _V2 Y.R > d32 _V-2 YL. d32 _V2 ]2 [ Y.R e32 _V-2 YL. e32 _V2 Y.R c32 _V-2 YL. c32 _V2 Y.R < g32 _V-2 YL. g32 _V2 Y.R > c32 _V-2 YL. c32 _V2 ]2 [ Y.R d32 _V-2 YL. d32 _V2 Y.R < a32 _V-2 YL. a32 _V2 Y.R g32 _V-2 YL. g32 _V2 Y.R a32 _V-2 YL. a32 _V2 Y.R d32 _V-2 YL. d32 _V2 Y.R a32 _V-2 YL. a32 _V2 Y.R g32 _V-2 YL. g32 _V2 Y.R a32 _V-2 YL. a32 _V2 > ]2 [ Y.R d32 _V-2 YL. d32 _V2 Y.R < a32 _V-2 YL. a32 _V2 Y.R f+32 _V-2 YL. f+32 _V2 Y.R a32 _V-2 YL. a32 _V2 Y.R d32 _V-2 YL. d32 _V2 Y.R a32 _V-2 YL. a32 _V2 Y.R f+32 _V-2 YL. f+32 _V2 Y.R a32 _V-2 YL. a32 _V2 > ]2 V10 O3 @@1,0,1 E50,100,80,3,32 P10,10,2 YLR d16~ _V-4 d16 _V4 d16~ _V-4 d16~ _V-4 d8 _V8 r2 d16 _V-4 d16 _V-3 d8 _V7 c16 _V-4 c16 YL. D1 r16 < g24 > c24 d24 g24 > c24 d24 g16 < _V4 YLR D0 c+4. L V7 O2 Y.R @@1,1,2 E100,80,40,19,32 P6,12,1 [ a4. g8~ g2 ]2 g4. f8~ f2 r8 d16 _V-2 YL. d16 _V2 Y.R g16 _V-2 YL. g16 _V2 > Y.R c8 _V-2 YL. c8 _V2 Y.R d8 _V-2 YL. d8 _V2 Y.R g8 _V-2 g8 _V-2 g8 _V4 < a8 g8~ g2 a4. g8~ g2 g4. f8~ f2 g16 _V-2 YL. g16 _V2 > Y.R c16 _V-2 YL. c16 _V2 Y.R d16 _V-2 YL. d16 _V2 < Y.R g8 _V-2 g8 _V2 c4 _V-2 c8 _V2 V8 O2 @2 E50,100,80,3,32 P10,10,2 e1 g1 g1 g4. f+4. g4 a1 g4. f+8~ f+2 g4. a2 g8~ g2 V9 O3 @@2,2,1 E100,90,60,19,32 P14,10,3 [ b8 _V-4 b8 _V4 ]2 a4 b8 b4~ _V-4 b8 _V4 r8 < b8 > d4 e8 f+8 _V-4 f+8 _V4 e4 d8 e4. V8 O3 @2 E50,100,80,3,32 P10,10,2 > d8 e8. c8. < b8 g8 e8 c8 < a8 V9 O3 @@2,2,1 E100,90,60,19,32 P14,10,3 [ b8 _V-4 b8 _V4 ]2 a4 b8 b4~ _V-4 b8 _V4 r8 < b8 > d4 e8 f+8 _V-4 f+8 _V4 e4 d8 e4. _V-2 > c32 _V-2 YL. c32 _V2 Y.R d32 _V-2 YL. c32 _V2 Y.R g8 _V-2 YL. g16 _V2 < _V2 V8 O3 @2 E50,100,80,3,32 P10,10,2 Y.R d8. e8 g8 e8 c8 < a8~ a4. _V-4 a8 _V4 < b4. > g8~ g2 < a4. > e8~ e2 d4. _V-3 d8 _V3 d+4. _V-3 d+8 _V3 f+8 a4 g+8~ g+4. _V-4 g+8 _V4 > c4. _V-4 c8 _V4 d4. _V-4 d8 _V4 e4. _V-4 e8 _V4 g4. _V-4 g8 _V4 d4. _V-3 d8 _V3 d8. g8. > d8 c8. < b8. a8 b8. a8. g8 f1 e8. d8. c8~ c2 < g2 > c2~ c4 < g4 c4 d16 e16 f16 g16 a+4. a16 a+16 a2 g2 a2 g1 f+1 
!2  V12 O2 @@1,0,1 E50,100,80,3,32 P10,10,2 < g16 > c16 d16 g16~ _V-5 g12 _V5 d12 g12 > d2~ d4 < g12~ _V-5 g12 _V5 r12 > d6 < g12 _V-4 g12 _V4 > g6 f6 e12 _V-4 e12 _V4 c6 d2~ d2.~ _V-6 d4 _V6 < < g16 > c16 d16 g16~ _V-5 g12 _V5 d12 g12 > d2~ d4 < g12~ _V-5 g12 _V5 r12 > d6 < g12 _V-4 g12 _V4 > g6 f6 e12 _V-4 e12 _V4 f6 g2~ g2.~ _V-6 g4 _V6 < a+4. a16 a+16 > c4 < f4 > d8. c+8. d8 e8. c8. e8 g2.~ g8 f+16 e16 f+2 a2 g16~ _V-4 g16 _V4 g16~ _V-4 g16~ _V-4 g8 _V8 r2 g16 _V-4 g16 _V-3 g8 _V7 g16 _V-4 g16 Y.R < g24 > c24 d24 g24 > c24 d24 g16 r16 < _V4 YLR g4. L V12 O2 @@2,2,1 E100,90,60,19,32 P14,10,3 B6 a4. b4. g4 a4. b4~ _V-4 a8 _V3 g4 > c4. _V-4 c8 _V4 c8. < b8. a8 g4~ _V-4 g8 D1 > c8 _V-3 c8 _V3 d8 _V-3 c8 _V3 g8 < D0 _V4 a4. b4~ _V-3 a8 _V3 g4 a4. b4~ _V-3 a8 _V3 g4 > c4. _V-4 c8 _V4 c8. < b8. a8 g4~ _V-4 g4 _V4 r4 g4 a4 b8 a4~ _V-5 a8 _V5 r8 g8 b4 > c8 d4~ _V-5 d8 _V5 r8 d8 e4 d8 c4 < b4 b8 a4 _V-4 a4 _V4 r4 g4 a4 b8 a4~ _V-5 a8 _V5 r8 a8 b4 > c8 d4~ _V-5 d8 _V5 r8 d8 e4 d8 c4 e4 d8~ d8 _V-4 d8 _V4 r4 [ g8 _V-4 g8 _V4 ]2 f+4 g8 g4~ _V-4 g8 _V4 r8 d8 f+4 g8 a8 _V-4 a8 _V4 g4 f+8 g1 _V-6 g4 _V6 r4 [ g8 _V-4 g8 _V4 ]2 f+4 g8 g4~ _V-4 g8 _V4 r8 d8 f+4 g8 a8 _V-4 a8 _V4 g4 f+8 g1 _V-6 g4 _V6 r4. g8 f+8 d8~ d4 _V-5 d8 _V5 r4 g8 f+8 d8~ d4 _V-5 d8 _V5 r4 g8 f+8 g8 a4 g4 f+4 g8 e8~ e4. d8 d8 _V-5 d8 _V5 d4 e4 _V-4 e8 _V4 r8 f+4 _V-4 f+8 _V4 r8 g4 _V-4 g8 _V4 r8 a8 _V-3 a8 _V3 a8 g8~ g2. _V-5 g4 _V5 V9 O2 @@1,0,1 E50,100,80,3,32 P10,10,2 r2. f16 g16 a16 b16 > c2 c8. < b8. > c8 < g2 c4 g4 a+8. > c8. < a+8 a8. a+8. > c8 < g2 _V-4 g8 _V4 r8 g16 a16 a+16 > c16 d2 c8. < a8. > f8 e8. f8. g8 e8. c8. e8 d1~ d2 _V-5 d4 _V5 r4 
!3  V3 O0 `9F00 @A3 @B0 @~3 g16. ( g32 ) g8~ ( g2 ) g16. ( g32 ) g8~ ( g1 ) c1 > c8. < b8. a8 g8. f8. e16 d16 g16. ( g32 ) g8~ ( g2 ) g16. ( g32 ) g8~ ( g1 ) c1 > c8. < b8. a8 g8. f8. e8 [ g8 ]4 [ a8 ]4 [ a+8 ]4 > [ c8 ]4 [ d8 ]8 < [ d8 ]8 g16. ( g32 ) g16. ( g32 ) r2 r8 g8 r8 f8 r4. e4. L [ [ g8 ]16 [ f8 ]8 [ e8 ]8 ]2 [ a8 ]8 [ b8 ]8 > [ c8 ]8 d8 < [ d8 ]5 e8 e8 [ f8 ]8 e8 e8 e8 [ b8 ]5 > c8 c8 c8 < a8 a8 a8 a8 d8~ d8 [ d8 ]7 [ g8 ]8 [ b8 ]8 > [ c8 ]8 < f8 f8 f8 [ d8 ]5 [ g8 ]8 [ b8 ]8 > [ c8 ]8 [ d8 ]8 < [ b8 ]8 [ a8 ]8 [ b8 ]4 [ d+8 ]4 [ e8 ]8 [ a8 ]4 [ b8 ]4 > [ c8 ]4 [ d8 ]4 < [ g8 ]16 [ f8 ]8 [ e8 ]8 [ d+8 ]4 [ f8 ]4 > [ c8 ]8 < [ a+8 ]4 [ f8 ]4 > [ c8 ]4 < [ a8 ]4 > [ d8 ]16 < 
!4  [ @8 YL. x8 Y.R x4. YLR @6 x4 @8 YL. x8 Y.R x4. @6 YLR [ x4 ]3 @8 x2 @6 x4 x4 @6 [ x4 ]4 ]2 @8 x4 [ @7 x8 @6 x8 ]3 [ @7 x8 @6 x8 ]8 [ @7 x8 @6 x8 ]2 @5 x4 x4 @8 YL. x8 Y.R x8 r2 r8 YL. @7 x8 r8 @7 YL. x8 @6 YLR x24 x24 x24 x16 x16 x8 @8 YL. x4. L @8 Y.R x4 YLR [ @5 x8 @6 x8 ]3 [ [ @5 x8 @6 x8 ]4 ]7 @8 x4 [ @5 x8 @6 x8 ]3 [ [ @5 x8 @6 x8 ]4 ]3 @8 x4 [ @5 x8 @6 x8 ]3 [ @5 x8 @6 x8 ]4 [ @5 x8 @6 x8 ]3 @5 x8 @8 x4. @5 x4 x4 @8 YL. x4 Y.R @8 x4 YLR [ @7 x8 @5 x8 ]3 [ [ @7 x8 @6 x8 ]4 ]3 @8 x4 [ @7 x8 @6 x8 ]3 [ [ @7 x8 @6 x8 ]4 ]2 @8 x4 @5 [ x4 ]3 @8 x4 [ @5 x8 @6 x8 ]3 [ [ @5 x8 @6 x8 ]4 ]6 [ @5 x8 @6 x8 ]2 @5 x4 x4 @8 x4 [ @5 x8 @6 x8 ]3 [ [ @5 x8 @6 x8 ]4 ]3 @8 YL. x4 Y.R x4 YLR [ @5 x8 @6 x8 ]2 [ [ @5 x8 @6 x8 ]4 ]2 @5 [ x4 ]3 @8 YL. x4 
!5  V1 O1 @0 x8 x8 r4 r4 x8 x8 r2 @1 x6 x12 r12 @2 g12 YL. d12 YLR @0 x4 r4 r4 @2 YL. < a4 > YLR r2 @2 Y.R b12 b12 YLR g12 r12 g12 YL. d12 YLR @0 x16 x16 x8 r4 @2 Y.R b24 b24 YLR g24 g24 YL. d24 d24 YLR @0 x8 x8 r2 @1 x6 @2 Y.R b12 r12 YLR g12 YL. d12 YLR @0 x4 r4 r4 @2 YL. < a4 > YLR r2 @1 x12 x12 x12 r12 x12 x12 @0 x4 @1 x4 @0 x4 @1 x4 @0 x4 @1 x8 @0 x8 r8 x8 @1 x4 @0 x4 @1 x4 @0 x4 @1 x4 @0 x4 @1 x8 @0 x8 @1 x16 x16 x16 x16 r16 x16 x16 x16 @30 x8 x8 @2 Y.R b16 YLR g8 g16 r16 g16 YL. d8 d8 @30 YLR x8 r8 @30 x8 @0 x24 x24 x24 x16 x16 x8 @30 x8 r4 L [ @0 x4 @1 x4 @0 x4 @1 x4 @0 x4 @1 x8 @0 x8 r8 x8 @1 x4 ]3 @0 x4 @1 x4 @0 x4 @1 x4 @0 x4 @1 x8 @0 x8 x8 @1 x8 x16 x16 x8 @0 x4 @1 x4 @0 x4 @1 x4 @0 x4 @1 x8 @0 x8 r8 x8 @1 x4 @0 x4 @1 x4 @0 x4 @1 x4 @0 x4 @1 x8 @0 x8 r8 @1 x8 x8 @0 x8 @0 x4 @1 x4 @0 x4 @1 x4 @0 x4 @1 x8 @0 x8 r8 x8 @1 x4 @0 x4 @1 x8 @0 x8 r8 x8 @1 x8 x8 r8 @1 x8 x8 x8 @2 Y.R b16 YLR g16 Y.R d16 r16 @1 YLR x4 [ @0 x4 @1 x4 @0 x4 @1 x4 @0 x4 @1 x8 @0 x8 r8 x8 @1 x4 ]3 @0 x4 @1 x4 @0 x8 x8 @1 x4 @0 x8 @1 x8 x8 @0 x8 @1 x16 x16 @0 x8 @1 x8 @0 x8 @0 x4 @1 x4 @0 x4 @1 x4 @0 x4 @1 x8 @0 x8 r8 x8 @1 x4 @0 x4 @1 x4 @0 x4 @1 x4 @0 x4 @1 x8 @0 x8 r8 x8 @1 x8 @0 x8 r8 @0 x8 @1 x4 @0 x4 @1 x4 @0 x4 @1 x4 @0 x8 x8 @1 x4 @0 x4 @1 x4 @0 x4 @1 x4 @0 x4 @1 x8 @0 x8 x16 @1 x16 x16 r16 x8 x16 x16 [ @0 x4 @1 x4 @0 x4 @1 x4 @0 x4 @1 x8 @0 x8 r8 x8 @1 x4 ]3 @0 x4 @1 x4 @0 x4 @1 x4 @0 x8 @1 x8 x8 x8 x16 x16 @0 x8 @1 x8 @0 x8 
!6  O1 V1 @61 W0,100,33 YL. B6 [ [ YL. g16 Y.R ( g16 ) ]2 r2 [ YL. g16 Y.R ( g16 ) ]2 r1 YLR > ( c1~ c1 ) < ]2 YL. g2 a2 a+2 > c2 d1~ d1 < [ YL. g16 Y.R ( g16 ) ]2 r2 r8 YL. g16 Y.R ( g16 ) r8 f16 Y.R ( f16 ) r4. YL. e4. L g4 ( g8 ) g4 ( g8 ) g8 ( g8 ) g8 [ g16 ( g16 ) ]2 g8 [ g16 ( g16 ) ]2 g4 f8 ( f8 ) f16 ( f16 ) f8~ f8 ( f8 ) f4 > c8 [ c16 ( c16 ) ]2 c8 [ c16 ( c16 ) ]2 c8 c8 < g4 ( g8 ) g4 ( g8 ) g8 ( g8 ) g8 [ g16 ( g16 ) ]2 g8 [ g16 ( g16 ) ]2 ) g4 f4 ( f8 ) f4 ( f8 ) f8 ( f8 ) > c8 ( c8 ) [ c16 ( c16 ) ]2 ( c8 ) c4~ < b8 a8 [ a16 ( a16 ) ]2 a8 [ a16 ( a16 ) ]2 a8~ a+8 b8 [ b16 ( b16 ) ]2 b8 [ b16 ( b16 ) ]2 b4 > c8 [ c16 ( c16 ) ]2 c8 [ c16 ( c16 ) ]2 c8~ c+8 d8 [ d16 ( d16 ) ]2 d8 [ d16 ( d16 ) ]2 e4 f8 [ f16 ( f16 ) ]2 f8 [ f16 ( f16 ) ]2 f8 f16 ( f16 ) e8 [ e16 ( e16 ) ]2 < b8 [ b16 ( b16 ) ]2 b4 > c4. < a2 > d8~ d16 ( d16 ) @18 W0,90,20 > ( c16 r16 c8. r16 ) < @61 W0,100,33 d8 ( d8 ) d8~ ( < a8 ) [ g8 ( g8 ) ]2 ( g8 ) g4 ( g8 ) [ b8 ( b8 ) ]2 ( b8 ) b4 ( b8 ) > [ c8 ( c8 ) ]2 ( c8 ) c4 ( c8 ) f4 ( f8 ) d8~ d4.~ < ( a8 ) [ g8 ( g8 ) ]2 ( g8 ) g4 ( g8 ) [ b8 ( b8 ) ]2 ( b8 ) b4 ( b8 ) > [ c8 ( c8 ) ]2 ( c8 ) c4 ( c8 ) d4 ( d8 ) d8~ d4.~ ( c8 ) < [ b16 ( b16 ) ]2 b8 ( b8 ) [ b16 ( b16 ) ]2 b4 [ a8 [ a16 ( a16 ) ]2 ]2 a4 [ b16 ( b16 ) ]2 b4 > [ d+16 ( d+16 ) ]2 d+4 [ e16 ( e16 ) ]2 e4 ( e8 ) e4~ ( d8 ) < [ a16 ( a16 ) ]2 a4 [ b16 ( b16 ) ]2 b4 > [ c16 ( c16 ) ]2 c4 [ d16 ( d16 ) ]2 d4 < g1 g4 ( g8 ) g8 ( g8 ) g4. f1 > c1 d+2 f2 c1 < a+2 f2 > c2 < a2 > [ [ d8 [ d16 ( d16 ) ]2 ]2 d4 ]2 < 
