;006 001D8E96
!1  T156 [ @0 V6 O1 YLR P11,10,3 D1 r16 E80,100,20,3,11 d+8 a+8 > f+8 f8 _V-2 Y.R f8 _V2 YLR c+8 _V-2 Y.R c+8 YL. c+8 _V2 YLR @@1,2,1 O2 Y.R V4 E100,75,90,7,14 d+8 a+8 > d+16 YLR V5 D0 f8~ f4 _V-2 f4 _V2 YLR ]2 @@0,1,2 O3 V5 YLR E100,100,90,7,7 P14,10,2 [ a+8. f+8. a+16 _V-3 a+16 _V3 ]2 g+8. a+8. b16 _V-3 b16 _V3 b4 _V-3 Y.R b8 YL. b8 _V3 YLR r1 r1 ) [ f+8 _V-3 f+16 _V3 ]2 f+8 a+4 f+4 [ g+8 _V-3 g+16 _V3 ]2 g+8 b4 g+4 _V2 a+8. b8. > c+16 _V-4 c+16 _V4 c+2~ c+2. _V-3 Y.R c+8 YL. c+8 _V3 L @@1,0,3 O3 V6 YLR r8 d+16 r16 d+8 Y.R _V-3 d+8 YLR _V3 c+8 d+8 c+8 < b8 _V-3 YL. b8 _V3 YLR b16 r16 b8 Y.R _V-3 b8 YLR _V3 > c+8 YL. _V-3 c+8 YLR _V3 c+8 d+8 _V-3 YL. d+8 _V3 YLR d+16 r16 d+8 Y.R _V-3 d+8 YLR _V3 c+8 d+8 c+8 < b8 _V-3 YL. b8 _V3 YLR b16 r16 b8 Y.R _V-3 b8 YLR _V3 > g2 @2 O4 V4 D1 YLR g32 Y.R g32 YLR d+32 YL. d+32 YLR c32 Y.R c32 < YLR g32 YL. g32 > YLR d+32 Y.R d+32 YLR c32 YL. c32 < YLR g32 Y.R g32 YLR d+32 YL. d+32 YLR g32 Y.R g32 YLR d+32 YL. d+32 YLR c32 Y.R c32 < YLR g32 YL. g32 > YLR d+32 Y.R d+32 YLR c32 YL. c32 < YLR g32 Y.R g32 YLR f32 YL. f32 D0 @@0,1,2 O3 V5 D1 r16 YL. g2 _V-3 g8 _V3 d+16 _V-3 d+16 _V3 d+8 g8 g+8 g8 _V-2 g8 _V2 f8 _V-2 f8 _V2 d+8 _V-2 d+8 _V2 f8~ f2 _V-3 f8 _V3 a+16 _V-3 a+16 _V3 a+8 f8 g+8. g16~ g8 f8 g4 f4 Y.R d+2 _V-3 d+8 _V3 [ d+16 _V-3 d+16 _V3 ]2 d+8~ d+2 _V-3 d+8 _V3 c8 d8 d+8 c8. d16~ d8 d+16 _V-3 d+16 _V3 d+8. f16~ f8 g8 f2. _V-3 Y.R f8 YL. f16 _V3 YLR D0 O2 [ b4 _V-3 b8 _V3 ]2 b8. _V-3 b16 _V3 b4. > d4. < b4 > c4. d4. d+4 < g+2. _V-3 Y.R g+8 YL. g+8 _V3 YLR g+4. a+4. > c4 < a+4. > c4. d8. _V-3 d16 _V3 < b8. > c+8. d+16 _V-3 d+16 _V3 d+8. f8. f+16 _V-3 f+16 _V3 f+4. f16 _V-3 f16 _V3 f4 @1 D1 r24 YLR a+12 YL. a+12 Y.R a+24 D0 @@0,1,2 O3 V6 YLR E100,100,90,7,7 P14,10,2 [ a+8. f+8. a+16 _V-3 a+16 _V3 ]2 g+8. a+8. b16 _V-3 b16 _V3 b4 _V-3 Y.R b8 YL. b8 _V3 YLR D1 V4 YL. r16 f+8. g+8. a+16 _V-2 a+16 _V2 a+4 f+4 g+8. d+8. c+8 d+4 _V-2 Y.R d+8 YL. d+8 _V2 [ d+8 _V-2 d+16 _V2 ]2 d+8 f+4 d+4 [ f8 _V-2 f16 _V2 ]2 f8 g+4 f4 [ f+8 _V-2 f+16 _V2 ]2 f+8 a+4 f+16 _V-2 f+16 _V2 f+8 g+8. a+8. b8 a+8. D0 @1 D1 r24 YLR a+12 YL. a+12 Y.R a+24 D0 @@0,1,2 O3 V6 YLR E100,100,90,7,7 P14,10,2 [ a+8. f+8. a+16 _V-3 a+16 _V3 ]2 g+8. a+8. b16 _V-3 b16 _V3 b4 _V-3 Y.R b8 YL. b8 _V3 YLR D1 V4 YL. r16 f+8. g+8. a+16 _V-2 a+16 _V2 a+4 f+4 g+8. d+8. c+8 d+4 _V-2 Y.R d+8 YL. d+8 _V2 [ d+8 _V-2 d+16 _V2 ]2 d+8 f+4 d+4 [ f8 _V-2 f16 _V2 ]2 f8 g+4 f8. D0 YLR V6 a+8. b8. > c+16 _V-3 c+16 _V3 c+2~ c+2. @1 D0 V4 r24 YLR d+12 YL. d+12 Y.R d+24 D0 
!2  @@1,2,1 O2 YLR V6 E100,75,90,7,14 [ r1 d+8 a+8 > d+8 g+8~ g+4 _V-2 g+4 _V2 YLR < ]2 @@0,1,2 O3 V9 E100,100,90,7,7 P14,10,2 [ f+8. d+8. f+16 _V-4 f+16 _V4 ]2 f8. f+8. g+16 _V-4 g+16 _V4 g+4 _V-4 Y.R g+8 YL. g+8 _V4 YLR f+8. g+8. a+16 _V-4 a+16 _V4 a+4 f+4 g+8. d+8. c+8 d+4 _V-4 Y.R d+8 YL. d+8 _V4 YLR [ d+8 _V-5 d+16 _V5 ]2 d+8 f+4 d+4 [ f8 _V-5 f16 _V5 ]2 f8 g+4 f4 g8. g+8. a+16 _V-5 a+16 _V5 a+2~ a+2. _V-4 Y.R a+8 YL. a+8 _V4 L @@1,0,3 O3 V8 YLR r8 f+16 r16 f+8 Y.R _V-3 f+8 YLR _V3 f8 f+8 f8 d+8 _V-3 YL. d+8 _V3 YLR d+16 r16 d+8 Y.R _V-3 d+8 YLR _V3 f8 YL. _V-3 f8 YLR _V3 f8 f+8 _V-3 YL. f+8 _V3 YLR f+16 r16 f+8 Y.R _V-3 f+8 YLR _V3 f8 f+8 f8 d+8 _V-3 YL. d+8 _V3 YLR d+16 r16 d+8 Y.R _V-3 d+8 YLR _V3 > c2~ c2 _V-2 c4 _V-2 c4 @@0,1,2 O3 V9 g2 _V-5 g8 _V5 d+16 _V-5 d+16 _V5 d+8 g8 g+8 g8 _V-2 g8 _V2 f8 _V-2 f8 _V2 d+8 _V-2 d+8 _V2 f8~ f2 _V-5 f8 _V5 a+16 _V-5 a+16 _V5 a+8 f8 g+8. g16~ g8 f8 g4 f4 d+2 _V-5 d+8 _V5 [ d+16 _V-5 d+16 _V5 ]2 d+8~ d+2 _V-5 d+8 _V5 c8 d8 d+8 c8. d16~ d8 d+16 _V-5 d+16 _V5 d+8. f16~ f8 g8 f2. _V-4 Y.R f8 YL. f8 _V4 YLR [ g4 _V-3 g8 _V3 ]2 g8. _V-3 g16 _V3 g4. f4. d4 d+4. f4. g4 c2. _V-3 Y.R c8 YL. c8 _V3 YLR c4. d4. d+4 d4. d+4. f8. _V-4 f16 _V4 d+8. f8. f+16 _V-4 f+16 _V4 f+8. g+8. a+16 _V-4 a+16 _V4 a+4. g+16 _V-4 g+16 _V4 g+4 @1 YLR a+12 YL. a+12 Y.R a+12 @@0,1,2 V9 O3 YLR f+8. d+8. f+16 _V-4 f+16 _V4 f+8. d+8. f+8 f8. f+8. g+16 _V-4 g+16 _V4 g+4 _V-4 Y.R g+8 YL. g+8 _V4 YLR f+8. g+8. a+16 _V-4 a+16 _V4 a+4 f+4 g+8. d+8. c+8 d+4 _V-4 Y.R d+8 YL. d+8 _V4 YLR [ d+8 _V-5 d+16 _V5 ]2 d+8 f+4 d+4 [ f8 _V-5 f16 _V5 ]2 f8 g+4 f4 [ f+8 _V-5 f+16 _V5 ]2 f+8 a+4 f+16 _V-5 f+16 _V5 f+8 g+8. a+8. b8 a+4 @1 YLR a+12 YL. a+12 Y.R a+12 @@0,1,2 V9 O3 YLR f+8. d+8. f+16 _V-4 f+16 _V4 f+8. d+8. f+8 f8. f+8. g+16 _V-4 g+16 _V4 g+4 _V-4 Y.R g+8 YL. g+8 _V4 YLR f+8. g+8. a+16 _V-4 a+16 _V4 a+4 f+4 g+8. d+8. c+8 d+4 _V-4 Y.R d+8 YL. d+8 _V4 YLR [ d+8 _V-5 d+16 _V5 ]2 d+8 f+4 d+4 [ f8 _V-5 f16 _V5 ]2 f8 g+4 f4 g8. g+8. a+16 _V-5 a+16 _V5 a+2~ a+2. @1 YLR V7 d+12 YL. d+12 Y.R d+12 
!3  `9F00 `AE00 @A1 V3 O1 E100,70,40,70,70 [ d+1~ d+1 ]2 V3 E100,70,70,70,0 d+1 c+1 f+1 g+1 < b1 > c+1 d+1 @A3 V3 O1 E100,70,70,4,0 d+4 d+4 [ d+8 ]4 L O1 [ d+8 > d+16 d+16 < ]2 [ c+8 > c+16 c+16 < ]2 < [ b8 > b16 b16 < ]2 > [ c+8 > c+16 c+16 < ]2 [ d+8 > d+16 d+16 < ]2 [ c+8 > c+16 c+16 < ]2 < [ b8 > b16 b16 < ]2 [ g+8 > g+16 g+16 < ]6 O1 [ d+8 > d+16 d+16 < ]4 [ f8 > f16 f16 < ]4 [ d8 > d16 d16 < ]4 [ d+8 > d+16 d+16 < ]4 [ c8 > c16 c16 < ]4 < [ g+8 > g+16 g+16 < ]4 [ f8 > f16 f16 < ]4 [ a+8 > a+16 a+16 < ]4 O0 [ g8 > g16 g16 < ]4 [ b8 > b16 b16 < ]4 > [ c8 > c16 c16 < ]4 < [ g+8 > g+16 g+16 < ]4 [ g+8 > g+16 g+16 < ]4 [ a+8 > a+16 a+16 < ]4 [ b8 > b16 b16 < ]4 > [ c+8 > c+16 c+16 < ]2 < [ a+8 > a+16 a+16 < ]2 O1 [ d+8 > d+16 d+16 < ]4 [ c+8 > c+16 c+16 < ]4 < [ b8 > b16 b16 < ]4 > [ c+8 > c+16 c+16 < ]2 < [ b8 > b16 b16 < ]2 [ b8 > b16 b16 < ]4 > [ c+8 > c+16 c+16 < ]4 [ d+8 > d+16 d+16 < ]4 < [ a+8 > a+16 a+16 < ]4 O1 [ d+8 > d+16 d+16 < ]4 [ c+8 > c+16 c+16 < ]4 < < [ f+8 > f+16 f+16 < ]4 [ g+8 > g+16 g+16 < ]4 < [ b8 > b16 b16 < ]4 > [ c+8 > c+16 c+16 < ]4 [ d+8 > d+16 d+16 < ]8 
!4  [ r1 ]4 [ @5 x16 x16 @7 x8 ]16 [ @5 x16 x16 @7 x8 ]4 @5 x32 x32 x16 @7 x8 [ @5 x16 x16 @7 x8 ]3 @5 x32 x32 x16 @7 x8 [ @5 x16 x16 @7 x8 ]3 @8 x4 x4 @3 x16 x16 x8 x8 x8 L @8 x4 [ @5 x16 x16 @7 x8 ]7 [ @5 x16 x16 @7 x8 ]8 @1 x16 @3 x16 x8 @1 x8 @3 x8 [ @1 x16 @3 x16 x16 x16 ]2 @8 x4 [ @5 x16 x16 @7 x8 ]6 @3 x16 @5 x16 @3 x8 [ @5 x16 x16 @7 x8 ]7 @3 x16 x16 x16 x16 [ @5 x16 x16 @7 x8 ]7 @3 x16 @5 x16 @3 x8 [ @5 x16 x16 @7 x8 ]4 @1 x16 @5 x16 @7 x8 @3 x16 @5 x16 @7 x8 @1 x16 @5 x16 @3 x16 x16 x16 x16 x16 x16 @8 x4 [ @5 x16 x16 @7 x8 ]2 @3 x16 @5 x16 @3 x8 [ [ @5 x16 x16 @7 x8 ]3 @3 x16 @5 x16 @3 x8 ]2 [ @5 x16 x16 @7 x8 ]3 @3 x16 x16 x16 x16 [ [ @5 x16 x16 @7 x8 ]3 @3 x16 @5 x16 @3 x8 ]3 @1 x16 @5 x16 @7 x8 @3 x16 @5 x16 @7 x8 @1 x16 @5 x16 @7 x8 @3 x16 x16 x16 x16 @8 x4 [ @5 x16 x16 @7 x8 ]6 @3 x16 @5 x16 @3 x8 [ @5 x16 x16 @7 x8 ]7 @3 x16 x16 x16 x16 [ @5 x16 x16 @7 x8 ]8 [ @5 x16 x16 @7 x8 ]6 @1 x16 @5 x16 @7 x8 [ @3 x16 @5 x16 ]2 @8 x4 [ @5 x16 x16 @7 x8 ]6 @3 x16 @5 x16 @3 x8 [ @5 x16 x16 @7 x8 ]7 @3 x16 x16 x16 x16 [ @5 x16 x16 @7 x8 ]7 @3 x16 @5 x16 @3 x8 @8 x8. Y.R x8. YL. x8 YLR x4 @5 x16 x16 @7 x8 @1 x16 @3 x16 @7 x8 @3 x16 @5 x16 @7 x8 @1 x16 @5 x16 @3 x16 x16 @8 x4 
!5  @41 O2 YLR V0 [ c4 ]14 r4 r4 @40 W0,95,1 V1 O1 YL. [ a+16 > f+16 < a+16 > f+16 < ]4 [ g+16 > f16 < g+16 > f16 < ]4 [ a+16 > f+16 < a+16 > f+16 < ]4 [ g+16 > d+16 < g+16 > d+16 < ]4 [ [ f+16 > d+16 < f+16 > d+16 < ]4 H2 ]2 H0 [ a+16 > a+16 < a+16 > a+16 < ]4 O2 YLR V1 @41 c4 c4 @2 Y.R e16 e16 YLR c8 < YL. a8 a8 L O2 YLR V1 [ @41 c4 @24 d4 ]7 @41 c4 @24 [ d16 ]4 @2 Y.R d8 YLR c8 YL. < a8 f8 > Y.R d16 d16 YLR c8 < a16 f16 YL. f8 O2 YLR V1 [ @41 c4 @24 d4 ]14 @2 Y.R d4 YLR c4 YL. < a16 a16 f16 f16 > YLR @24 c16 c16 c16 c16 O2 YLR V1 [ @41 c4 @24 d4 ]14 @2 Y.R d4 YLR c4 YL. < a16 a16 f16 f16 > YLR @24 c16 c16 c16 c16 O2 YLR V1 [ @41 c4 @24 d4 ]7 @41 c4 @24 [ d16 ]4 [ @41 c4 @24 d4 ]7 @2 Y.R d16 d16 YLR c8 YL. < a8 f8 > O2 YLR V1 [ @41 c4 @24 d4 ]7 @41 c4 @24 [ d16 ]4 [ @41 c4 @24 d4 ]7 @2 Y.R d16 d16 YLR c8 YL. < a8 f8 > 
!6  [ @26 O1 V1 YLR d+8 a+8 > f+8 f8 V0 Y.R f8 V1 YLR c+8 V0 Y.R c+8 YL. c+8 V1 YLR < d+8 a+8 > d+8 @43 W0,97,11 O1 c+8~ c+4 V0 c+4 ]2 @40 W0,95,1 V1 O1 Y.R [ d+16 a+16 d+16 a+16 ]4 [ c+16 g+16 c+16 g+16 ]4 [ c+16 a+16 c+16 a+16 ]4 [ c16 g+16 c16 g+16 ]4 [ [ < b16 > f+16 < b16 > f+16 ]4 H2 ]2 H0 [ d+16 g16 d+16 g16 ]4 YLR V0 [ d+16 g16 d+16 g16 ]2 @41 O2 YLR V1 c4 c4 L @40 W0,95,1 O1 V1 YLR r8 a+16 r16 a+8 Y.R V0 a+8 YLR V1 g+8 a+8 g+8 f+8 V0 YL. f+8 V1 YLR f+16 r16 f+8 Y.R V0 f+8 YLR V1 g+8 YL. V0 g+8 YLR V1 g+8 a+8 V0 YL. a+8 V1 YLR a+16 r16 a+8 Y.R V0 a+8 YLR V1 g+8 a+8 g+8 f+8 V0 YL. f+8 V1 YLR f+16 r16 f+8 Y.R V0 f+8 YLR V1 > d+2 @44 V1 O3 YLR g32 Y.R g32 YLR d+32 YL. d+32 YLR c32 Y.R c32 < YLR g32 YL. g32 > YLR d+32 Y.R d+32 YLR c32 YL. c32 < YLR g32 Y.R g32 YLR d+32 YL. d+32 YLR g32 Y.R g32 YLR d+32 YL. d+32 YLR c32 Y.R c32 < YLR g32 YL. g32 > YLR d+32 Y.R d+32 YLR c32 YL. c32 < YLR g32 Y.R g32 YLR f32 YL. f32 @40 W0,95,1 O1 YLR V1 g1 g+2 > g+4 g4 f4 c2. @43 W0,97,11 O2 V0 g4 < a+2 < a+4 > [ V1 YLR c16 d+16 g16 V0 Y.R g16 V1 YLR c16 d+16 g16 V0 YL. g16 ]2 < [ V1 YLR a+16 > d+16 g16 V0 Y.R g16 V1 YLR < a+16 > d+16 g16 V0 YL. g16 < ]2 V1 YLR g+4 g4 g+4 g4 a+2. V0 a+4 @40 W0,95,1 O1 V1 YLR [ b16 > d16 < b16 > d16 < ]4 @44 O3 V1 YLR g32 Y.R g32 YLR d32 YL. d32 < YLR b32 Y.R b32 YLR g32 YL. g32 YLR b32 Y.R b32 YLR g32 YL. g32 YLR d32 Y.R d32 < YLR b32 YL. b32 > YLR d32 Y.R d32 < YLR b32 YL. b32 YLR g32 Y.R g32 YLR d32 YL. d32 YLR g32 Y.R g32 YLR d32 YL. d32 < YLR b32 Y.R b32 YLR g32 YL. g32 > V0 YLR c32 Y.R c32 YLR d+32 YL. d+32 YLR g32 Y.R g32 > YLR c32 YL. c32 @40 W0,95,1 O2 V1 YLR [ c16 d+16 c16 d+16 ]3 @44 V1 O4 YLR c32 Y.R c32 < YLR g+32 YL. g+32 YLR d+32 Y.R d+32 YLR c32 YL. c32 < YLR g+32 Y.R g+32 YLR d+32 YL. d+32 YLR c32 Y.R c32 < YLR g+32 YL. g+32 > > YLR c32 Y.R c32 < YLR g+32 YL. g+32 YLR d+32 Y.R d+32 YLR c32 YL. c32 < YLR g+32 Y.R g+32 YLR d+32 YL. d+32 YLR c32 V0 Y.R c32 < V1 YLR g+32 V0 YL. g+32 @40 W0,95,1 O1 V1 YLR [ [ g+16 > d+16 < g+16 > d+16 < ]4 H2 ]2 H0 [ b16 > f+16 < b16 > f+16 < ]4 H2 [ b16 > f+16 < b16 > f+16 < ]3 H0 @8 O2 V1 YLR a+8 Y.R V0 a+8 @40 W0,95,1 O1 V1 YLR [ [ d+16 a+16 d+16 a+16 ]4 H-2 ]2 H0 < [ b16 > f+16 < b16 > f+16 < ]4 > [ c+16 g+16 c+16 g+16 ]2 < [ b16 > f+16 < b16 > f+16 < ]2 [ [ b16 > f+16 < b16 > f+16 < ]4 H2 ]2 H0 O1 [ d+16 a+16 d+16 a+16 ]4 [ d16 a+16 d16 a+16 ]3 @8 O2 V1 YLR a+8 Y.R V0 a+8 @40 W0,95,1 O1 V1 YLR [ [ d+16 a+16 d+16 a+16 ]4 H-2 ]2 H0 [ f+16 > c+16 < f+16 > c+16 < ]4 [ g+16 > c16 < g+16 > c16 < ]4 < [ b16 > f+16 < b16 > f+16 < ]4 > [ c+16 g+16 c+16 g+16 ]4 [ d+16 a+16 d+16 a+16 ]7 @8 O2 V1 YLR d+8 Y.R V0 d+8 
