;007 001D9FD2
!1  T160 @@0,3,1 r16 E100,50,20,4,8 O2 V6 [ c8 c16 c16 ]8 V4 [ c8 c16 c16 ]4 [ d8 d16 d16 ]4 [ c8 c16 c16 ]3 @@2,0,3 P5,9,2 E100,80,60,5,12 Y.R D-1 r64 EP0,0,-4,5,8 O3 V4 a+4 EPX g8 > c4. < g8.~ g32. @@0,3,1 E100,50,20,4,8 PX YLR D0 O2 V6 d+8 d+16 d+16 < [ g+8 g+16 g+16 ]4 [ a+8 a+16 a+16 ]4 a+8 r8 r4 > d2 c8 c16 c16 @@2,0,3 P5,8,2 E100,80,60,5,12 YLR EP2,0,0,3,0 D-1 r64 YL. V4 O3 r8 d+4 f4. V2 f8 V4 c2. r16. r64 EPX YLR L @@1,1,2 EP-2,0,0,2,0 E100,80,80,3,0 r64 D-1 P8,10,2 Y.R O2 V6 c8 V2 c8 V6 c8 c8 d+4 V2 d+8 V6 c8 d+8 f4 g8~ g4 V2 g8 r8 V6 YL. > c8 V2 c8 V6 c4 < a+8 > c8 V2 c8 V6 < g8~ g2. V2 g4 Y.R V6 f8 V2 f8 V6 f8 V2 f8 V6 f8 d+4 f8 g8 a+4 g8~ g4. V2 g8 YL. V6 f8 f8 V3 f8 V6 f8~ f8. V2 f16 V6 g8 V2 g8 V6 c2 V2 c4. r8 Y.R > V6 c8 V2 c8 V6 c4 < a+8 > c4 V2 c8 < V6 g8 V2 g8 V3 g8 V6 g4 f8 d+4 YL. [ V6 f8 V2 f8 V6 f4 ]2 V6 d+8 f4 V6 g8~ g4. V2 g8 Y.R V6 c8 V2 c8 V6 c4 c8 d+4 g8 a+4 a+8 g4 f8 d+8 V2 d+8 YL. V6 f4 d+8 f8~ f2~ f8 V2 f8 r4 V6 g2 c4~ c16. r64 D0 @@2,0,3 P5,8,2 E100,80,60,5,12 YLR EP2,0,0,3,0 O3 V8 d+8 r8 d8 < a+8. V3 a+16 > V8 c8. V3 c16 V8 < g4 f8 d+16 f16 g4 @@1,1,2 EP-2,0,0,2,0 E100,80,80,3,0 P8,10,2 O2 V6 d+8 > c4 < g8~ g4. V2 g8 V6 a+4. g4 d+8 g4 [ V6 g+8. V4 g+16 ]2 V6 g+4 f8. V4 f16 V6 c8 d4 d+8~ d+4. V2 d+8 < V6 g8 g8 V4 g8 V6 g8~ g4.~ g16 V4 g16 V6 > EP0,0,-10,4,16 f4 V4 Y.R f4 V3 YL. f4 r4 YLR < EPX V6 a+8 a+8 V4 a+8 V6 a+8~ a+4.~ a+16 V4 a+16 V6 EP0,0,-10,4,16 > g4 V4 Y.R g4 V3 YL. g4 r4 YLR EPX D-1 r32 Y.R V6 a+8 V3 a+8 V6 a+16. V2 a+32 V6 a+8 a+8 g4 d+8 YL. f4 d+2 f8 V2 f8 V6 r4 Y.R g4 a+8 > d4~ d16 c16~ c4~ c16. @@2,0,3 P5,8,2 E100,80,60,5,12 YLR EP2,0,0,3,0 V8 O3 c8 g4 f4 d+8 c4.~ c4. V4 EPX c8 @@0,3,1 E100,50,20,4,8 O2 V4 [ c8 c16 c16 ]2 [ d8 d16 d16 ]2 
!2  @@0,3,1 r16 E100,50,20,4,8 PX O2 V8 [ d+8 d+16 d+16 ]8 V6 [ d+8 d+16 d+16 ]4 [ f8 f16 f16 ]4 [ d+8 d+16 d+16 ]3 @@2,0,3 P5,9,2 E100,80,60,5,12 EP0,0,-4,5,8 O3 V8 a+4 EPX g8 > c4. < g4. V4 g8 @@0,3,1 E100,50,20,4,8 PX YLR O2 V6 [ d+8 d+16 d+16 ]4 [ f8 f16 f16 ]4 f8 r8 r4 f2 d+8 d+16 d+16 @@2,0,3 P5,8,2 E100,80,60,5,12 YLR EP2,0,0,3,0 V8 O3 r8 d+4 f4. V4 f8 V8 c2. r8 EPX YLR L @@1,1,2 EP-2,0,0,2,0 E100,80,80,3,0 P8,10,2 O2 V10 c8 V6 c8 V10 c8 c8 d+4 V6 d+8 V10 c8 d+8 f4 g8~ g4 V6 g8 r8 V10 > c8 V6 c8 V10 c4 < a+8 > c8 V6 c8 V10 < g8~ g2. V4 g4 V10 f8 V6 f8 V10 f8 V6 f8 V10 f8 d+4 f8 g8 a+4 g8~ g4. V4 g8 V7 f8 V10 f8 V5 f8 V10 f8~ f8. V4 f16 V10 g8 V2 g8 V10 c2 V6 c4. r8 > V9 c8 V6 c8 V9 c4 < a+8 > c4 V6 c8 < V9 g8 V6 g8 V9 g8 g4 f8 d+4 [ V9 f8 V6 f8 V9 f4 ]2 V9 d+8 f4 V9 g8~ g4. V4 g8 V9 c8 V6 c8 V9 c4 c8 d+4 g8 a+4 a+8 g4 f8 d+8 V6 d+8 V9 f4 d+8 f8~ f2~ f8 V4 f8 r4 V9 g2 c2.~ c8 V4 EPX EX P0,8,2 V4 c8~ c2~ c8 V2 c8 r4 V9 g8 > d+4 c8~ c4. V4 c8 V9 d4. < a+4 g8 a+4 > [ V9 c8. V6 c16 ]2 V9 c4 < g+8. V6 g+16 V9 d+8 f4 g8~ g4. V2 g8 V9 c8 c8 V6 c8 V9 c8~ c4.~ c16 V6 c16 V9 EP0,0,-10,4,16 a+4 V6 Y.R a+4 V3 YL. a+4 r4 YLR EPX V9 d+8 d+8 V6 d+8 V9 d+8~ d+4.~ d+16 V6 d+16 V9 EP0,0,-10,4,16 a+4 V6 Y.R a+4 V3 YL. a+4 r4 YLR EPX V9 a+8 V6 a+8 V9 a+16. V6 a+32 V9 a+8 a+8 g4 d+8 f4 d+2 f8 V6 f8 V9 r4 g4 a+8 > d4~ d16 c16~ c1~ c2 V6 c4 V3 c8 r8 @@0,3,1 E100,50,20,4,8 PX O2 V6 [ d+8 d+16 d+16 ]2 [ f8 f16 f16 ]2 
!3  r16 `9F00 `AE00 @A3 O1 P8,8,4 E100,80,80,8,0 [ V3 c8 V2 c8 V3 g8 V2 g8 ]4 [ V3 c8 V2 c8 V3 g8 V2 g8 ]2 [ < V3 a+8 V2 a+8 > V3 f8 V2 f8 ]2 [ V3 c8 V2 c8 V3 g8 V2 g8 ]4 < V3 g+8 V2 g+8 > V3 d+8 V2 d+8 < V3 g+8 V2 g+8 > EP0,0,-60,3,11 V3 d+8. EPX V2 d+16 [ < V3 a+8 V2 a+8 > V3 f8 V2 f8 ]2 < V3 a+8 r8 r4 a+2 > [ V3 c8 V2 c8 V3 g8 V2 g8 ]4 L [ V3 c8 V2 c8 V3 g8 V2 g8 ]8 [ V3 f8 V2 f8 > V3 c8 V2 c8 < ]2 [ V3 d+8 V2 d+8 V3 a+8 V2 a+8 ]2 V3 d8 V2 d8 V3 d8 V2 d8 V3 g8 V2 g8 V3 d8 V2 d8 [ V3 c8 V2 c8 V3 g8 V2 g8 ]2 [ V3 c8 V2 c8 V3 g8 V2 g8 ]4 [ < V3 a+8 V2 a+8 > V3 f8 V2 f8 ]2 [ V3 d+8 V2 d+8 V3 a+8 V2 a+8 ]2 [ V3 c8 V2 c8 V3 g8 V2 g8 ]2 [ V3 d+8 V2 d+8 V3 a+8 V2 a+8 ]2 [ V3 f8 V2 f8 > V3 c8 V2 c8 < ]3 V3 d8 V2 d8 V3 g8 V2 g8 [ V3 c8 V2 c8 V3 g8 V2 g8 ]4 V3 c8 V2 c8 V3 g8 V2 g8 < V3 g8 V2 g8 > V3 c8 V2 c8 [ < V3 g8 V2 g8 > V3 d8 V2 d8 ]2 [ < V3 g+8 V2 g+8 > V3 d+8 V2 d+8 ]2 < V3 g+8 V2 g+8 > V3 d+8 V2 d+8 V3 d+8 V2 d+8 V3 a+8 V2 a+8 [ V3 c8 V2 c8 V3 g8 V2 g8 ]4 [ V3 d+8 V2 d+8 V3 a+8 V2 a+8 ]4 [ V3 d+8 V2 d+8 V3 a+8 V2 a+8 ]2 [ V3 f8 V2 f8 > V3 c8 V2 c8 < ]2 [ V3 g8 V2 g8 V3 d8 V2 d8 ]2 [ V3 c8 V2 c8 V3 g8 V2 g8 ]2 [ V3 c8 V2 c8 V3 c4 V3 f8 V2 f8 V3 c8 V2 c8 ]2 
!4  @6 x32 @5 x32 [ [ @5 x8 @5 x16 @6 x16 ]3 @5 x8 x16 @6 x16 ]2 [ [ @5 x8 x16 @6 x16 ]3 @5 x8 @6 x16 @5 x16 ]4 [ @5 x8 x16 @6 x16 ]7 @5 x8 @7 x8 @3 x2 @8 x4 @5 x8 @6 x16 x16 [ @5 x8 x16 @6 x16 ]4 @5 x8 x16 @6 x16 @3 x8 @4 x16 x16 @3 x8 @5 x16 x16 @3 x16 x16 x16 x16 L [ [ @5 x8 x16 @6 x16 ]16 ]4 [ @5 x8 x16 @6 x16 ]6 @4 x16 @3 x8 @4 x16 @3 x16 @4 x16 x16 @3 x16 [ [ @5 x8 x16 @6 x16 ]4 ]4 [ @5 x8 x16 @6 x16 ]6 [ @5 x16 x16 @3 x16 @6 x16 ]2 [ @5 x8 x16 @6 x16 ]6 [ @5 x16 x16 @3 x16 @6 x16 ]2 [ [ @5 x8 x16 @6 x16 ]4 ]5 [ @5 x8 x16 @6 x16 ]2 @3 x8 @4 x16 x16 @3 x16 x16 x16 x16 
!5  r16 r1 r1 @28 W0,98,44 P8,9,3 V1 O1 g2 r8 > c4 d+8 f4 r8 d4 c8 < a+4 > c16 r16 d+4 < g8~ g2~ g4 V0 g2~ g8 r8 V1 g+2 g+16 r16 > c4 d+8 d1 d16 r8. r4 < a+2 > c2. V0 c4~ c2. V0 @26 W0,98,70 O1 d+16 r16 d+16 d+16 L V0 @26 W0,98,70 O1 [ d+16 r16 d+16 d+16 ]13 YLR V1 O2 c8 d+8 a+8 V0 a+8 V1 g4 YLR V0 O1 [ f16 r16 f16 f16 ]4 [ d+16 r16 d+16 d+16 ]4 [ d16 r16 d16 d16 ]2 [ d16 r16 d16 d16 ]2 c16 r16 c16 c16 c16 r16 V1 YLR O2 c8 g8 V0 g8 V1 f4 @9 O1 V1 g16 r16 r4 g16 r16 g16 r16 r4. @10 O2 c16 r16 r4 c16 r16 c16 r16 r4. @27 O1 [ a+16 r16 a+16 r16 r4 ]2 @9 O1 a+16 r16 r4 a+16 r16 a+16 r16 r4. @9 W0,98,22 O1 V0 g1 a+1 > c4. V1 c8 V0 c8 V1 c8 c8 V0 c8 V1 c16. r32 V0 Y.R c16. r32 YL. c16. r32 YLR r8 r8 @13 V0 d4. @10 O2 V1 [ c16 r16 r4 c16 r16 c16 r16 r4. ]2 r4 @13 W0,98,78 O2 V1 c8. V0 c16 V1 c8 < g4 > g16. r32 d4. V0 d4 < a+8 > d8 r8 r4 V1 c8. V0 c16 V1 c8 < g+4 > d+8 c2 < a+2 @9 W0,98,22 O1 V0 r4 g8 V0 g8 r8 V1 g4 g16 @58 O2 V1 c2~ c16 V0 @26 W0,98,70 O2 YLR [ c16 r16 c16 c16 ]2 @9 W0,98,22 O1 V0 a+2 V1 a+16 r16 a+8 V0 a+8 V1 a+16 @58 O2 V1 c2~ c16 V0 @26 W0,98,70 O2 YLR [ d+16 r16 d+16 d+16 ]2 @9 W0,98,44 O1 V1 a+2~ a+16 r16 a+8 V0 a+8 V1 a+8 V1 O2 c2.~ c8 V0 c8 c8. r16 @57 W0,98,44 O0 V1 g8 V0 g8 V1 a+8 > d8 V0 d8 V1 c8~ c2.~ c8 V0 c8 @10 W0,98,30 O2 V1 c8 Y.R V0 c8 YL. c8 YLR V1 c16. r32 d4. V0 Y.R d8 @10 W0,98,30 O2 V1 c8 YL. V0 c8 Y.R c8 YLR V1 c16. r32 d4. V0 YL. d8 YLR V1 
!6  @4 O1 V0 c32 c32 YLR V1 c2 r4 V1 YLR c8 g8 c2 r4 V1 c8 g8 c2 r4 V1 YLR c8 g8 < a+2 r4 V1 YLR a+8 > f8 c2 r4 V1 YLR c8 g8 c2 r4 V1 YLR c8 g8 c1 r4. @13 O2 V1 d16 V0 d16 V1 d16 r16 d16 r16 r8 d16 r16 d16 r16 r8 r4 V0 @9 W0,98,61 O1 f2 V1 @4 c4. YLR @10 O2 V1 c16. r32 @9 W0,98,61 V1 c4 O1 @4 c8 g8 V1 @4 c4. YLR @10 O2 V1 c16. r32 @9 W0,98,61 V1 c4 O1 @4 c8 g8 L @4 V1 O1 c6 Y.R V0 c12 YLR V0 @26 W0,98,70 O1 [ g16 r16 g16 g16 ]12 Y.R V0 D-1 O2 r64 c8 d+8 a+4 g8.~ g32. YLR < [ g+16 r16 g+16 g+16 ]4 [ g16 r16 g16 g16 ]4 [ f16 r16 f16 f16 ]2 [ g16 r16 g16 g16 ]2 d+16 r16 d+16 d+16 d+16 r16 Y.R V0 D-1 r64 YL. O2 c8 g8.~ f32. YLR @40 W0,97,0 V1 c16 V0 d16 d+16 g16 > V1 c1 d+2. c4 < a+2 g+2 g2.~ g8 V0 g8 > V1 c2. < g4 a+2 < a+2 > c1~ c8 V0 c8 r4 V1 g2~ g1~ g2.~ g8 V0 g8 @56 W0,98,43 YLR O2 V1 d+6 V0 Y.R d+6 YL. d+6 V0 @26 W0,98,70 O2 YLR [ d+16 r16 d+16 d+16 ]2 @56 W0,98,43 YLR O2 V1 d6 V0 YL. d6 Y.R d6 V0 @26 W0,98,70 O2 YLR [ d16 r16 d16 d16 ]2 @56 W0,98,43 YLR O2 V1 c6 V0 Y.R c6 YL. c6 V0 @26 W0,98,70 O2 YLR [ c16 r16 c16 c16 ]2 @56 W0,98,43 YLR O2 V1 d+6 V0 YL. d+6 Y.R d+6 V0 @26 W0,98,70 O2 YLR [ d+16 r16 d+16 d+16 ]2 @56 W0,98,43 YLR O2 V1 c6 V0 Y.R c6 YL. c6 V0 @26 W0,98,70 O2 YLR [ d+16 r16 d+16 d+16 ]2 @56 W0,98,43 YLR O2 V1 d+6 V0 YL. d+6 Y.R d+6 V0 @26 W0,98,70 O2 YLR [ d+16 r16 d+16 d+16 ]2 @56 W0,98,43 YLR O2 V1 d+6 V0 Y.R d+6 YL. d+6 V0 @26 W0,98,70 O2 YLR [ g16 r16 g16 g16 ]2 @56 W0,98,43 YLR O1 V0 g6 V0 YL. g6 Y.R g6 V0 @26 W0,98,70 O2 YLR [ g16 r16 g16 g16 ]2 @56 W0,98,43 YLR O1 V0 g6 V0 Y.R g6 YL. g6 V0 @26 W0,98,70 O1 YLR [ a+16 r16 a+16 a+16 ]2 @56 W0,98,43 YLR O1 V0 g+6 V0 YL. g+6 Y.R g+6 V0 @26 W0,98,70 O1 YLR [ f16 r16 f16 f16 ]2 YLR @40 W0,97,0 O2 V0 g4 V1 g4 a+8 > d4 c8~ c2. V0 c4 @4 YLR V1 O1 c6 Y.R V0 c6 YL. c6 r4 YLR V1 c8 g8 @4 YLR V1 O1 c6 YL. V0 c6 Y.R c6 r4 YLR V1 c8 g8 
