;008 001DAE44
!1  T183 r16 L @@1,2,0 EP-2,0,0,1,0 E80,100,70,2,7 P10,7,2 D-1 r32 Y.R O3 V4 d4 f4 g8 f4 g+4 g8 f8 d8 f4 g8 V2 g16. YLR D0 V4 a8 V6 a8 V2 a8 V7 a8 V2 a8 V8 a8 V2 a8 V7 a8 V8 Y.R V5 a6 Y.R V2 a6 YL. a6 D-1 r32 YL. V4 a8 g4 f8 d8 V2 d16. @@0,1,3 E100,50,20,3,14 EPX Y.R O2 V4 a16. r32 r4 g4. V2 g8 V4 r8 f16. r32 r4 g4 V2 g8 @@1,3,1 EPX E100,70,70,2,0 P10,7,2 D-1 r32 Y.R O2 V4 d4 f8 f8 g8 f8 d8 c8 d8 d8 d8 c8 d8 f4~ g8~ a2 a16. @@1,2,0 EP-4,0,0,1,0 E80,100,70,2,7 P10,7,2 D0 YLR O2 V6 a4 a16. r32 > c8 < a8 V2 a8 V6 a8~ a4. r8 @@1,3,1 EPX E100,70,70,2,0 P10,7,2 D-1 r32 YL. V4 g8 g8 g8 d8~ d16. @@1,2,0 EP-4,0,0,1,0 E80,100,70,2,7 P10,7,2 D0 YLR O2 V6 d4. @@1,3,1 EPX E100,70,70,2,0 P10,7,2 D-1 r32 YL. V4 g4 g8 d8~ d16. @@1,2,0 EP-4,0,0,1,0 E80,100,70,2,7 P10,7,2 D0 YLR O2 V6 d4. @@1,3,1 EPX E100,70,70,2,0 P10,7,2 D-1 r32 Y.R V4 e8 r8 [ e16. r32 ]3 e4 a8~ a8.~ a32 @@1,2,0 EP-4,0,0,1,0 E80,100,70,2,7 P10,7,2 D0 YLR O2 V6 a8~ > c4 < a8~ > c4 @@1,3,1 EPX E100,70,70,2,0 P10,7,2 D-1 r32 YL. V4 d8 V2 d8 V4 d16. r32 d16. r32 d8 V2 d8 V4 c8 < a8 > c8 V2 c8 V4 EP0,0,-12,5,11 d16. @@1,2,0 EP-4,0,0,1,0 E80,100,70,2,7 P10,7,2 D0 YLR O2 V6 a8 V2 a8 V6 a8 V2 a8 V6 a8 @@1,3,1 EPX E100,70,70,2,0 P10,7,2 D-1 r32 EPX O3 Y.R V4 d4. V2 d8 V4 d8 V2 d8 V4 d4 f4~ f16. @@1,2,0 EP-4,0,0,1,0 E80,100,70,2,7 P10,7,2 D0 YLR O2 V6 a+8 V2 a+8 V6 a+8 V2 a+8 V6 a+8 @@1,3,1 EPX E100,70,70,2,0 P10,7,2 D-1 r32 YL. V4 O3 e4. V2 e8 V4 c4~ c16 r16 c8 < a+8 V4 a+8 a+8 a+8~ a+4. V2 a+8 V6 Y.R a4 > c+2 e4 d8~ d16. @@1,2,0 EP-4,0,0,1,0 E80,100,70,2,7 P10,7,2 D0 YLR O2 V6 a4 > d8 f4 V3 f8 @@1,3,1 EPX E100,70,70,2,0 P10,7,2 D-1 r32 YL. V4 c8. V2 c16 V4 c16 r16 c16. V2 c32 V4 c8 < a4 g8 [ V4 f8. V2 f16 ]2 V4 f8 g4 a8 d2 V2 d16. @@1,2,0 EP-4,0,0,1,0 E80,100,70,2,7 P10,7,2 D0 YLR O2 V6 d8 r8 d8 a4 g8 f8 g8 f4. @@1,3,1 EPX E100,70,70,2,0 P10,7,2 D-1 r32 Y.R > [ V4 c16. V2 c32 ]4 V4 c8 < a4 g8 f4. V2 f8 V4 f8. g8. a8 >~ B7 d2 V2 d16. B2 @@1,2,0 EP-4,0,0,1,0 E80,100,70,2,7 P10,7,2 D0 YLR O2 V6 d8 r8 d8~ f8 e8 d8 c8 r8 d4. @@1,3,1 EPX E100,70,70,2,0 P10,7,2 D-1 r32 O3 YL. V4 d4 < a+8 a8 [ g16. r32 g16. r32 ]2 [ g16. r32 g16. r32 ]2 > d4. V2 d8 Y.R V4 c8.~ c32 r32 c16. r32 c16. r32 d8 c8 < a8 g8 [ f8.~ f32 r32 ]2 f8 g4 a8~ a8.~ a32 @@1,2,0 EP-4,0,0,1,0 E80,100,70,2,7 P10,7,2 D0 YLR O3 V6 d8 V3 Y.R d8 YL. d8 V6 YLR d4 V4 d8 V6 c+16 r16 c+8 V3 c+8 V6 c+8 V3 c+8 c+4 V3 c+8 @@1,3,1 EPX E100,70,70,2,0 P10,7,2 O2 YLR [ V7 f16 r16 f4 f8 a8 f4 r8 ]2 d4~ d16 r16 d8 [ g8. r16 ]2 a+8. r16 a+4.~ a+16 r16 a+8. V4 a+16 [ V7 a8. V3 a16 ]2 V7 a16. r32 a8. V3 a16 V7 a6 V4 Y.R a6 V2 YL. a6 r8 YLR V7 e8 g8 V5 g8 V7 EP0,0,-12,2,14 a6 V6 Y.R a6 V3 YL. a6 r8 r2 r1 EPX YLR @@1,2,0 EP-2,0,0,1,0 E80,100,70,2,7 P10,7,2 D-1 r32 O3 V4 d4 f4 g8 f4 g+4 g8 f8 d8 c4 d8 < V2 a16. @@0,1,3 E100,50,20,3,14 EPX Y.R O2 V4 [ a16. r32 ]2 r4 [ g16. r32 ]2 r4 r8 a16. r32 r4 [ g16. r32 ]2 r4 YLR 
!2  r16 L @@1,2,0 EP-2,0,0,1,0 E80,100,70,2,7 P10,7,2 O3 V8 d4 f4 g8 f4 g+4 g8 f8 d8 f4 g8 V4 g8 V6 d8 V8 d8 V4 d8 V8 d8 V4 d8 V8 d8 V4 d8 V8 d8 V10 c+6 YL. V4 c+6 Y.R V2 c+6 YLR V8 a8 g4 f8 d8 V4 d8 @@0,1,3 E100,50,20,3,14 EPX Y.R O3 V6 c16. r32 r4 < b4. V2 b8 V6 r8 a16. r32 r4 b4 V2 b8 @@1,3,1 EPX E100,70,70,2,0 P10,7,2 YLR O2 V10 d4 f8 f8 g8 f8 d8 c8 d8 d8 d8 c8 d8 f4~ g8~ a1~ a2 V4 a4 r4 V10 g8 g8 g8 d8~ d4. V4 d8 V10 g4 g8 d8~ d4. V4 d8 V10 e8 r8 [ e16. r32 ]3 e4 a8~ a2. V4 a4 V10 > d8 V4 d8 V10 d16. r32 d16. r32 d8 V4 d8 V10 c8 < a8 > c8 V4 c8 V13 EP0,0,-8,5,11 d4 Y.R V10 d4 YL. V8 d4 EPX YLR V10 d4. V4 d8 V10 d8 V6 d8 V10 d4 f4. d8~ d4. V4 d8 V10 e4. V4 e8 V10 c4~ c16 r16 c8 < a+8 V8 a+8 a+8 V10 a+8~ a+4. V4 a+8 V10 a4 > c+2 e4 d2. V4 d4 V10 c8. V4 c16 V10 c16 r16 c16. V4 c32 V10 c8 < a4 g8 [ V10 f8. V4 f16 ]2 V10 f8 g4 a8 d1~ d4. V6 d4. V3 d8 r8 > [ V10 c16. V4 c32 ]4 V10 c8 < a4 g8 f4. V4 f8 V10 f8. g8. a8 > V12~ B7 d1~ d4 V8 d4 V6 d4. r8 B2 V10 d4 < a+8 a8 [ g16. r32 V8 g16. r32 V10 ]2 [ g16. r32 V8 g16. r32 V10 ]2 > d4. V6 d8 V10 c8.~ c32 r32 c16. r32 c16. r32 d8 c8 < a8 g8 [ f8.~ f32 r32 ]2 f8 g4 a8~ a1~ a2 V6 a8 V3 a8 r4 [ V10 a16 r16 a4 a8 > d8 < a4 r8 ]2 g4~ g16 r16 g8 [ a+8. r16 ]2 > d8. r16 d4.~ d16 r16 d8. V6 d16 [ V10 e8. V4 e16 ]2 V10 e16. r32 V10 e8. V4 e16 V10 e6 V6 Y.R e6 V3 YL. e6 r8 YLR V10 < a8 > c8 V6 c8 V10 EP0,0,-12,2,14 d6 V6 Y.R d6 V3 YL. d6 r8 r2 r1 YLR EPX @@1,2,0 EP-2,0,0,1,0 E80,100,70,2,7 P10,7,2 O3 V8 d4 f4 g8 f4 g+4 g8 f8 d8 c4 d8 < a8 @@0,1,3 E100,50,20,3,14 EPX Y.R O3 V6 [ c16. r32 ]2 r4 < [ b16. r32 ]2 r4 > r8 c16. r32 r4 < [ b16. r32 ]2 r4 YLR 
!3  r16 `9F00 `AE00 L E100,75,75,3,0 P8,8,4 @A3 O1 V3 d4 V2 d8 V3 d8 < a16. r32 a4 > d8 < a+4 V2 a+8 V3 a+16. r32 a+16. r32 a+4 a+8 a16. r32 a4 a4 a4 a16. r32 > EP0,0,-100,2,7 a4 r2. EPX [ V3 d4~ d16 r16 d8 g16. r32 g8.~ g32 r32 g8 ]2 V3 [ d4~ d16 r16 d8 < a16. r32 a8~ a16 r16 a16. r32 > ]3 d4~ d16 r16 < a4 > c8 d4 g4~ g16 r16 g8 d16. r32 d8~ d16 r16 d8 g4. d8~ d16 r16 d8 g8 g+8 a4~ a16 r16 [ a16. r32 ]2 [ a8. r16 ]2 < [ a8. r16 ]2 a8 > c8 c+8 [ d4~ d16 r16 d16. r32 < a16. r32 a8.~ a32 r32 V2 a8 V3 > ]2 < a+4~ a+16 r16 a+16. r32 f16. r32 f8.~ f32 r32 V2 a+8 V3 < a+4~ a+16 r16 > f8.~ f32 r32 f8 < a+8 > f8 c4~ c16 r16 c16. r32 c16. r32 c8.~ c32 r32 V2 c8 V3 < a+4~ a+16 r16 a+16. r32 a+16. r32 a+8.~ a+32 r32 V2 a+8 V3 a4~ a16 r16 a16. r32 a16. r32 a8.~ a32 r32 > c16 r16 V3 d8.~ d32 r32 d8.~ d32 r32 d16. r32 d4 < a16 r16 > f4~ f16 r16 f16. r32 f4~ f16 r16 f16. r32 c8 d8 f16. r32 f4 c8 f8 c8 d4~ d16 r16 d16. r32 < a4~ a16 r16 a16. r32 > d16. r32 d8 r8 < a4 > c8 d8. r16 f4~ f16 r16 f16. r32 c4~ c16 r16 f8 r8 f8 r8 c8 d8 f16. r32 f8. r16 d4~ d16 r16 d16. r32 < a4~ a16 r16 > d16. r32 d8. r16 d8 < a8 > d16. r32 d8.~ d32 r32 d8 g4~ g16 r16 g16. r32 g4~ g16 r16 d16. r32 g16. r32 g4 d16. r32 g8 d8 g8 a+8 > c4~ c16 r16 c16. r32 c16. r32 c4 < g16. r32 [ f16. r32 ]2 r8 c8~ c8 d8 f8 g8 a4~ a16 r16 a16. r32 a4~ a16 r16 a16. r32 a16 r16 < [ a8~ a16 r16 ]2 a8 > c8 c+8 d4~ d16 r16 d16. r32 < a4~ a16 r16 > d16. r32 d4~ d16 r16 < a8.~ a32 r32 a8 > c8 d8 g4~ g16 r16 g16. r32 d4~ d16 r16 g16. r32 g4. d8 g8 d8 g8 g+8 a4~ a16 r16 a16. r32 a4~ a16 r16 a8 < [ a16 r16 a8.~ a32 r32 a16. r32 ]2 [ d4~ d16 r16 d16. r32 g16 r16 g8.~ g32 r32 g16. r32 ]2 d4~ d16 r16 d16. r32 < a16. r32 a8.~ a32 r32 a16. r32 > d4. < a8.~ a32 r32 a16. r32 a4 [ d4~ d16 r16 d16. r32 g16. r32 g8.~ g32 r32 g16. r32 ]2 
!4  r16 L [ @1 x8 @6 x8 @3 x8 @1 x8 ]3 @1 x8 x8 @3 x8 @1 x8 x8 x8 @3 x8 @1 x8 @6 x8 @1 x8 @3 x8 @3 x24 @4 x24 x24 @3 x4 x4 @6 x4 x4 [ @1 x8 @6 x8 @3 x8 @1 x8 ]2 @1 x8 @6 x8 @3 x16 x16 x4 @5 x4 @1 x8 [ @1 x8 @6 x8 @3 x8 @1 x8 x8 x8 @3 x8 @1 x8 [ @1 x8 @6 x8 @3 x8 @1 x8 ]2 ]2 @1 x8 @6 x8 @3 x8 @1 x8 x8 x8 @3 x8 @1 x8 [ @1 x8 @6 x8 @3 x8 @1 x8 ]2 @1 x8 @6 x8 @3 x8 @1 x8 x8 x8 @3 x8 @1 x8 @1 x8 @5 x8 @3 x8 @7 x4 x8 @3 x8 @1 x8 [ @1 x8 @6 x8 @3 x8 @1 x8 x8 x8 @3 x8 @1 x8 ]4 @1 x8 @6 x8 @3 x8 @1 x8 x8 x8 @3 x8 @1 x8 @1 x8 @6 x8 @3 x8 @1 x8 x8 @7 x8 @3 x8 @1 x8 @1 x8 @6 x8 @3 x8 @1 x8 x8 @4 x16 x16 @3 x8 x8 @7 x8 @5 x8 @7 x8 @1 x24 @4 x24 x24 @3 x8 @8 x4 @3 x8 [ @1 x8 @6 x8 @3 x8 @1 x8 x8 x8 @3 x8 @1 x8 ]6 @1 x8 @6 x8 @3 x8 @1 x8 x8 @3 x8 @4 x16 x16 @3 x8 @7 x4 @7 x8 @4 x16 x16 @3 x8 x8 x16 x16 x8 [ @1 x8 @6 x8 @3 x8 @1 x8 x8 x8 @3 x8 @1 x8 ]4 @1 x8 @6 x8 @3 x8 @1 x8 @1 x8 @4 x16 x16 @3 x16 x16 x8 @1 x8 @7 x4 x4 x4 x8 [ @1 x8 @6 x8 @3 x8 @1 x8 x8 x8 @3 x8 @1 x8 ]6 @1 x8 @6 x8 @3 x8 @1 x8 @1 x8 @3 x8 x8 @7 x8 @1 x8 @4 x16 x16 @3 x8 x8 [ @1 x8 @6 x8 ]2 [ @1 x8 @6 x8 @3 x8 @1 x8 x8 x8 @3 x8 @1 x8 ]4 
!5  @1 O2 V0 c32 V1 c32 L YLR @32 O2 V0 [ c8 c8 V1 c8 V0 c8 ]6 @3 O2 V0 a8 @4 YLR O1 V1 a6 V0 Y.R a6 YL. a6 r8 r4 YLR @32 O2 V0 c8 c8 V1 @4 O2 d8 < a8 Y.R V0 a8 YLR @32 O2 V0 c8 V1 c8 V0 c8 c8 c8 V1 @4 YLR O2 d8 < a8 YL. a8 YLR @2 O1 g+8 Y.R O2 c16 YLR < g+16 YL. f8 YLR [ O2 Y.R @20 W0,98,56 V0 f8. r16 YLR @32 O2 c8 V0 c8 c8 Y.R @20 f16 r16 YLR @32 O2 V1 c8 Y.R @20 V0 f16 r16 YLR @32 O2 c8 Y.R @20 f16 r16 YLR @32 O2 V1 c8 V0 c8 O2 Y.R @20 W0,98,56 V0 f4 YLR @32 O2 V1 c8 V0 c8 ]2 [ O2 @21 W0,98,56 V0 Y.R d4 YLR @32 O2 c8 V0 c8 ]2 c8 Y.R @21 d16 r16 YLR @32 O2 V1 c8 V0 c8 Y.R O2 @21 W0,98,56 V0 d4 YLR @32 O2 c8 V0 c8 Y.R @18 V0 O1 d16 r16 YLR @32 O2 V0 c8 V1 c8 Y.R @18 O1 V0 d16 r16 Y.R @18 V0 O1 d8 YLR @32 O2 V0 c8 V1 c8 Y.R @20 O1 V0 a16 r16 YLR @32 O2 V0 c8 @20 Y.R O1 a8 YLR @32 O2 V1 c8 @20 Y.R O1 V0 a8~ a16 r16 @20 Y.R O1 a16. r32 YLR @32 O2 V1 c8 V0 c8 Y.R @40 W0,98,0 O3 V0 d2. V1 d4 r4. d8 V0 d8 V1 c8 V0 c8 V1 < a8 O3 V0 d2. V1 d4 r4. d8 V0 d8 V1 d8 V0 d8 V1 d8 c1 < a+1 a2 @2 O1 YLR g+8 Y.R @40 W0,98,0 O2 V1 a4 V0 a8 YLR O1 @3 W0,98,53 V1 d4 d4 f8 a4 Y.R V0 a8 YLR @40 W0,98,0 Y.R V1 O1 a1 V0 a4 V1 c2 f4 d4. V0 d4 YLR > V0 @11 W0,98,53 d8 r8 d8 a4 g8 f8 g8 f4. @40 W0,98,0 Y.R V1 O1 a1 V0 a4 V1 > c2 < a4 > d4. V0 d4 YLR V0 @11 W0,98,53 d8 r8 d8~ f8 e8 d8 c8 r8 d4. @40 W0,98,0 YLR V1 O2 a+4 @32 YLR V1 O2 c16 @40 W0,98,0 YLR V1 O2 a+8.~ a+4 @32 YLR V1 O2 c16 @40 W0,98,0 YLR V1 O2 a+8. V0 a+8 g8 @32 YLR V1 O2 c16 @40 W0,98,0 YLR V1 O2 d8.~ d8 g8 @32 YLR V1 O2 c16 @40 W0,98,0 YLR V1 O2 a+8.~ @40 W0,98,0 YLR V1 O2 a4 @32 YLR V1 O2 c16 @40 W0,98,0 YLR V1 O2 a8.~ a4 @32 YLR V1 O2 c16 @40 W0,98,0 YLR V1 O2 a8.~ a4 @32 YLR V1 O2 c16 @43 W0,98,0 YLR V1 O2 c8.~ c8 < a8 @32 YLR V1 O2 c16 @43 W0,98,0 YLR V1 O2 c8. d4 @4 YLR O1 V1 e8 a8 YL. V0 a8 @43 W0,98,0 YLR V1 O2 d8~ d4 c+4 @4 YLR O1 V1 e8 a8 Y.R V0 a8 V1 YLR a8 > c+4 [ @43 W0,98,0 YLR V1 O2 d4 @32 YLR V1 O2 c8 @43 W0,98,0 YLR V0 O2 d8 r8 d16. r32 @32 YLR V1 O2 c8 @43 W0,98,0 YLR V1 O2 d16 r16 ]4 @40 W0,98,0 YLR V1 O3 e4 @32 YLR V1 O2 c16 @40 W0,98,0 YLR V1 O3 e8.~ e4 @32 YLR V1 O2 c16 @40 W0,98,0 YLR V0 O3 e8. V1 e8 r8 @32 YLR V1 O2 c8 V0 c8 @40 W0,98,0 YLR V1 O2 a8 > c8 @32 YLR V1 O2 c16 @40 W0,98,0 YLR V1 O3 d8.~ d16 r16 @32 YLR V0 O2 c8 @4 O2 V1 d8 < a8 Y.R V0 a8 @32 YLR V0 O2 c8 V1 c8 V0 c8 @2 O1 V1 a16 a16 @32 YLR V0 O2 c8 @4 O2 V1 d8 < a8 @2 O2 Y.R c16 c16 c16 c16 < YLR g+16 g+16 g+16 V0 YL. f16 @2 YL. O1 V1 f8 YLR @32 O2 V0 c8 V1 c8 V0 c8 [ c8 c8 V1 c8 V0 c8 ]3 c8 @4 O2 V1 d8 < a8 Y.R V0 a8 YLR O2 V1 d8 < a8 YL. V0 a8 YL. a8 > YLR O2 V1 d8 < a6 YL. V0 a6 YL. a6 YLR @32 O2 V0 c8 V1 c8 V0 c8 
!6  r16 L @13 W0,98,51 V1 O2 P14,8,3 O2 V1 d4 f4 g8 f4 g+4 g8 f8 d8 f4 g8 V0 g8 V1 a8 a8 V0 a8 V1 a8 V0 a8 V1 a8 V0 a8 V1 a16. r32 @3 O1 V1 a4. YL. V0 a8 @13 W0,98,51 V1 O2 YLR V1 a8 g4 f8 d8 V0 d8 < V1 d8. V0 d16 r8 V1 d4 V0 d8 r4 V1 d8. V0 d16 r8 V1 d4 V0 d8 PX r1 r1 r2 r8 O2 V1 a8 r8 a16. r32 > c8 < a8 r8 V1 a8~ a4. r8 r2 r8 @3 O1 V1 g8~ g4 r8 @29 YL. V0 > d8 f8 d8 f8 < @3 O1 V1 YLR g8~ g4 @13 W0,98,51 V1 O2 YLR V1 r1 r4 a8 > c4 < a8 > c4 @28 W0,98,53 r4 O2 V0 d4 V1 d2~ d8 V0 d8 @3 V1 d4 @28 W0,98,53 V0 d8 V1 d8 V0 d8 V1 d8 @28 W0,98,53 r4 O2 V0 d4 V1 d2~ d8 V0 d8 r8 V1 d8 V0 d8 V1 d8 V0 d8 V1 d8 r4 V1 e8 V0 e8 r8 V1 e4 V0 e8 r4 V1 f8 V0 f8 r8 V1 f4 V0 f8 r2 @28 V1 c+16 r16 c+4~ c+16 V0 c+16 V1 d4 d4 f8 a4. [ @9 W0,97,53 O2 V1 c4 YLR @32 O2 V1 c8 @9 W0,97,53 O2 V0 c8 YLR @32 O2 V0 c8 @9 W0,97,53 O2 V1 c8 YLR @32 O2 V1 c8 @9 W0,97,53 O2 V0 c8 @9 W0,97,53 O2 V1 c4 YLR @32 O2 V1 c8 @9 W0,97,53 O2 V0 c8~ c4 YLR @32 O2 V0 c8 @9 W0,97,53 O2 V0 c8 YLR @32 O2 V0 [ c8 c8 V1 c8 V0 c8 ]2 c8 c8 @10 W0,97,53 O2 V1 d8 @32 O2 V0 c8 c8 @10 W0,97,53 O2 V1 d8 @32 O2 V1 c8 V0 c8 ]2 @28 W0,98,53 O2 V1 d2 r8 d4 f8 g4 V0 g8 V1 g4. V0 g4 @28 W0,98,53 O2 V1 c2 r8 c4 c8 f4 V0 f8 V1 f4. V0 f4 @2 O1 V1 g+16 g+16 r8 @28 W0,98,53 O2 V1 e8 V0 Y.R e8 YL. e8 V1 YLR e4 V0 e8 V1 e16 r16 e8 V0 e8 V1 e8 V0 e8 e4 V0 e8 r4 @3 W0,31,15 O1 V1 a4 V0 a4~ a8 V1 a8~ a8. r8. V1 d8 V0 d8 V1 f8 V0 f8 V1 a8 r4 V1 a+4 V0 a+4~ a+8 V1 a+8~ a+8. r8. V1 d8 V0 d8 V1 g8 V0 g8 V1 a+8 @3 O2 V1 e4 V0 YL. e8 r8 V1 YLR e16 r16 e8. r16 @3 e8~ e8 r8 r4 @3 O1 V1 YLR a8 > c4 d8~ d4 Y.R @19 W0,98,56 V0 O3 a16 r16 r8 @20 W0,98,56 g4 r8 g16 r16 @19 W0,98,56 V0 r8 a16 r16 r4 @20 W0,98,56 g16 r16 g8 r4 YLR @13 W0,98,51 V1 O2 P14,8,3 O2 V1 d4 f4 g8 f4 g+4 g8 f8 d8 c4 d8 < a8~ a1~ a2 V0 a4 r4 
