;009 001DC37A
!1  T170 V5 @2 B26 O3 Y.R r1 r2. f+8~ > f+8~ f+1~ f+2~ _V-4 f+4 _V4 < f+8~ b8 L V8 @@2,3,1 E60,100,50,19,39 O2 D1 Y.R r4 f+4 e16 _V-5 e16 _V5 d8. _V-5 d16 _V5 c+8~ _V-5 c+8 _V5 c+16 _V-5 c+16 _V5 [ c+16 ]4 V6 @2 B52 O3 D0 f+4~ > f+4~ f+1~ f+4 _V-4 f+4 _V4 r2 r1 V12 O1 @@2,1,0 E100,50,0,39,32 P10,10,2 YL. a2 a+2 b2 > d2 f+2. < b8 > d8 e2 < a+2 b1 V8 O2 @2 E50,100,80,3,32 P10,10,2 YL. e1 e4 a4 > c+2 < b1 a+4 V8 @2 B3 O3 YL. c+4~ f+4~ > c+4~ < b2~ g4~ > e4 d2~ < b2 g2~ f+4~ a+4~ b8 V12 @@1,3,1 E100,80,50,19,39 O3 Y.R d16 YL. _V-5 d16 _V5 Y.R d16 d16 YL. _V-5 d16 _V5 Y.R d16 YL. _V-5 d16 _V5 r8. V6 @2 E100,0,0,26,26 Y.R O2 D2 b32 > c+32 d+32 e32 f+32 g+32 a+32 b32 D0 V8 O2 @3 E100,90,60,19,32 P14,10,3 B10 Y.R < b4. b8 > c+4 d+4 e8 e8.~ _V-3 c+16 _V3 c+8 < g+4~ _V-3 g+4 _V3 > [ f+16~ _V-3 f+16 _V3 ]3 f+8 e4 f+8.~ _V-3 d+16 _V3 d+2~ _V-4 d+4 _V4 r4 e4~ e16~ _V-3 c+16 _V3 c+8 < a+8 a+8 b8 > c+8 YL. d+2~ _V-2 d+2 _V2 Y.R f+8 f+4 f+8 f8~ _V-3 f8 _V3 < g+4 > c+2~ _V-4 c+4 _V4 r4 V10 O1 @2 E60,100,80,3,32 P10,10,2 Y.R _V-2 b1 a+1 > e2 e2 d+1 _V2 g+4 b4 a+4 > c+4 < d+1 e1 V8 O2 @3 E100,90,60,19,32 P14,10,3 B10 YL. c+16 c+8.~ c+8~ _V-3 c+8 _V3 f+4~ _V-3 f+8 _V3 f+8 d+2 V6 @2 E100,0,0,26,26 Y.R O2 D2 b24 > c+24 d+24 e24 f+24 g+24 d+24 e24 f+24 g+24 a+24 b24 D0 V7 O2 @2 E60,100,80,3,32 P10,10,2 Y.R e1 c+1 d1 e2 V6 @2 E100,0,0,26,26 O2 D2 f+24 a+24 > c+24 e24 f+24 a+24 e24 f+24 a+24 > c+24 e24 f+24 D0 V7 O2 @2 E60,100,80,3,32 P10,10,2 Y.R e1 e1 
!2  V12 @@2,3,1 E80,100,40,19,39 O2 [ r4 f+16 _V-5 f+16 _V5 f+16 _V-5 f+16 _V5 > e16 _V-5 e16 _V5 f4 f+8~ f+4. ) g16 ( _V-5 g16 _V5 r2 < ]2 L V12 @@2,3,1 E80,100,40,19,39 O3 YLR r4 f+4 e16 _V-5 e16 _V5 d8. _V-5 d16 _V5 c+8~ _V-5 c+8 _V5 c+16 _V-5 c+16 _V5 [ c+16 ]4 c+8 _V-5 c+8 _V5 r4 V12 O2 @@2,2,1 E100,90,60,19,32 P14,10,3 B10 f+2~ f+8 b8 a8 g8 f+8 d4 e8 f+4~ _V-6 f+8 _V6 r8 e16~ _V-6 e16 _V6 e8.~ _V-5 e16 _V5 e8 a16~ _V-6 a16 _V6 a4 b8 f+2~ _V-6 f+4 _V6 r4 f+8~ _V-4 f+8 _V4 b8~ _V-4 b8 _V4 a8~ _V-4 a8 _V4 g8~ _V-4 g8 _V4 f+16 f+16~ _V-4 f+8 _V4 b8~ _V-4 b8 _V4 f+4~ _V-4 f+8 _V4 r8 e4 g4 f+8 e8 d8 c+8 < b2~ _V-6 b4 _V6 r4 b16~ > c+4~ _V-4 c+16 _V4 c+8 c+4 d4 e4~ _V-4 e8 _V4 e8 a4 e4 g16~ _V-4 g16 _V4 g4. d4 e4 f+2~ _V-6 f+4 _V6 r4 g4~ _V-4 g8 _V4 g8 e8~ _V-4 e8 _V3 e4 f+16 f+16~ _V-4 f+8 _V4 b8~ _V-4 b8 _V4 f+4~ _V-4 f+8 _V4 r8 e8 e8 g8 g8 f+4 c+4 < b4.~ _V-6 b4 _V6 r8 > V6 @2 E100,0,0,26,26 YL. O2 d+32 e32 f+32 g+32 a+32 b32 > c+32 d+32 V12 O2 @@2,2,1 E100,90,60,19,32 P14,10,3 B10 YLR d+4. d+8 e4 f+4 g+8 g+8.~ _V-3 e16 _V3 e8 c+4~ _V-4 c+4 _V4 [ a+16~ _V-5 a+16 _V5 ]3 a+8 g+4 a+8.~ _V-3 f+16 _V3 f+2~ _V-6 f+4 _V6 r4 g+4~ g+16~ _V-3 e16 _V3 e8 c+8 c+8 d+8 e8 f+2~ _V-6 f+4 _V6 r4 a+8 a+4 a+8 g+8~ _V-4 g+8 _V4 c+4 f+2~ _V-6 f+4 _V6 r4 g+4. g+8 b4.~ _V-8 > d+8 < _V8 a+8 a+4 a+8 f+4~ _V-4 f+8 _V4 r8 g+8 g+8 g+8 g+8 a+4 > c+4 < b2~ _V-6 b4 _V6 r4 r1 > d+4. c+8 < b4. a+8 g+8.~ _V-4 g+16 _V4 a+8.~ _V-4 a+16 _V4 b4~ _V-4 b8 _V4 r8 f+16 f+8.~ f+8~ _V-4 f+8 _V4 > c+4~ _V-4 c+8 _V4 c+8 < b2~ _V-6 b4 _V6 V6 @2 E100,0,0,26,26 YL. O2 f+24 g+24 a+24 b24 > c+24 d+24 V7 O1 @2 E60,100,80,3,32 P10,10,2 YL. b1 a1 a1 a+2 V6 @2 E100,0,0,26,26 O2 f+24 a+24 > c+24 e24 f+24 a+24 e24 f+24 a+24 > c+24 e24 f+24 V7 O1 @2 E60,100,80,3,32 P10,10,2 YL. g1 a+1 
!3  V3 O0 `9F00 @A3 @B0 @~3 [ f+1~ f+4 r8 f+8 r8 f+16 r16 f+4 ]2 L b8 ( b8 ) b8 ( b8 ) b8 b8 ( b8 ) < g8~ g8 g8 [ g16 ]4 f+8 r4. [ b4 > d8 f+8 < ]4 [ a4 > c+8 e8 < ]2 > d4 f+8 a8 c+4 f+8 c+8 < [ b4 > d8 f+8 < ]4 > e4 g8 b8 f+4 a+8 > c+8 < < [ b4 > d8 f+8 < ]2 [ a4 > c+8 e8 < ]4 [ g4 b8 > d8 < ]2 [ f+4 a+8 > c+8 < ]2 [ e4 g8 b8 ]2 [ b4 > d8 f+8 < ]2 > e4 g8 b8 f+4 a+8 > c+8 < b16 ( b16 ) f+16 ( f+16 ) d16 c+16 r16 < b16 r4 B10 b8~ < ( f+8 ) b16 ( b16 ) b16 ( b16 ) > f+8. < b16 ( b16 ) b16 ( b16 ) b16 > f+8 < b16 ( b16 ) b16 ( b16 ) b16 ( b16 ) > b8. < b16 ( b16 ) b16 ( b16 ) b16 > b8 < b16 ( b16 ) > f+16 ( f+16 ) f+16 ( f+16 ) f+8. c+16 f+16 ( f+16 ) f+4 f+8 < b16 ( b16 ) b16 ( b16 ) b16 ( b16 ) > b8 ( b8 ) f+8 ( f+8 ) < b8 > c+16 ( c+16 ) c+16 ( c+16 ) c+4 f+16 ( f+16 ) f+16 ( f+16 ) f+4 < b16 ( b16 ) b16 ( b16 ) r8 > b8 ( b8 ) f+16 ( f+16 ) f+16 ( f+16 ) < b8 > f+16 ( f+16 ) f+4 ( f+16 ) f+16 c+16 ( c+16 ) c+8. ( c+16 ) c+8 f+16 ( f+16 ) f+4 c+8 f+16 ( f+16 ) f+16 ( f+16 ) c+8 f+8 g+16 ( g+16 ) g+4 ( g+8 ) g+16 ( g+16 ) g+8 > d+8 < b8 d+16 ( d+16 ) d+8 ( d+8 ) > d+8 ( d+8 ) < a+16 ( a+16 ) a+8 d+8 e16 ( e16 ) e4 ( e16 ) c+16 f+16 ( f+16 ) f+8. ( f+16 ) f+8 < b16 ( b16 ) b8 ( b8 ) > b8 ( b8 ) f+8. ( f+16 ) b8 e16 ( e16 ) e16 ( e16 ) e8 ( e16 ) c+16 f+16 ( f+16 ) f+8. ( f+16 ) f+8 b16 ( b16 ) b8 ( b8 ) f+8 ( f+8 ) < b16 ( b16 ) b16 ( b16 ) > f+8 e16 ( e16 ) e8 ( e8 ) b8 ( b8 ) e16 ( e16 ) b8 e16 ( e16 ) f+16 ( f+16 ) f+16 ( f+16 ) f+8. c+16 f+16 ( f+16 ) f+8 c+8 f+8 < b16 ( b16 ) b4 ( b16 ) b16 > f+16 ( f+16 ) f+16 ( f+16 ) b8 f+8 [ e4 g8 b8 ]2 a4 > c+8 e8 < a4 > c+8 < a8 [ d4 f+8 a8 ]2 [ f+4 a+8 > c+8 < ]2 > c4 < e8 g8 c4 e8 g8 f+4 a+8 > c+8 < f+4 c+8 f+8 
!4  V15 [ @5 x4 r2. r2 r8 x8 x4 ]2 L YLR r4 @8 x4 @6 x8 @7 x8 @5 x8 @8 x4. r2. Y.R [ @5 x16 @6 x16 x16 @5 x16 x16 @6 x16 @5 x16 @6 x16 ]15 @5 x16 @6 x16 x16 @5 x16 x16 @6 x16 @7 x8 [ @5 x16 @6 x16 x16 @5 x16 x16 @6 x16 @5 x16 @6 x16 ]14 YLR @6 x8 x8 x16 x8 x16 r4 Y.R @8 x4 YLR @8 x4 [ @5 x16 @21 x16 @6 x16 @21 x16 ]3 [ @5 x16 @21 x16 @6 x16 @21 x16 ]3 @5 x16 @6 x16 @7 x8 [ @5 x16 @21 x16 @6 x16 @21 x16 ]3 @7 x8 @5 x16 @21 x16 @5 x16 @21 x16 @6 x16 @21 x16 @7 x8 @5 x16 @6 x16 x16 @7 x8 @6 x16 x8 x8 @8 x4 @7 x8 @6 x16 @21 x16 @5 x16 @21 x16 @6 x16 @21 x16 @7 x8 @6 x16 @21 x16 [ @5 x16 @21 x16 @6 x16 @21 x16 ]3 @5 x16 @6 x16 @7 x8 [ @5 x16 @21 x16 @6 x16 @21 x16 ]3 @7 x8 x8 @5 x4. @7 x8 @6 [ x8 ]4 @8 x4 [ @7 x16 @21 x16 ]2 @5 x16 @21 x16 @6 x16 @21 x16 @7 x8 @6 x16 @21 x16 [ [ @5 x16 @21 x16 @6 x16 @21 x16 ]4 ]2 @5 x16 @21 x16 @6 x16 @21 x16 @5 x16 @21 x16 @7 x16 @21 x16 @7 x8 @6 x16 @21 x16 @6 x16 @21 x16 @7 x8 [ @5 x16 @21 x16 @6 x16 @21 x16 ]4 [ [ @5 x16 @21 x16 @6 x16 @21 x16 ]3 @7 x8 @6 x16 @21 x16 ]2 [ @5 x16 @21 x16 @6 x16 @21 x16 @7 x8 @6 x16 @21 x16 ]2 @5 x16 @21 x16 @6 x16 @21 x16 [ @7 x8 @6 x16 @21 x16 ]2 @5 x16 @21 x16 @6 x16 @21 x16 Y.R [ @5 x16 @6 x16 x16 @5 x16 x16 @6 x16 @5 x16 @6 x16 ]12 
!5  V1 O1 YLR @4 [ f+4 @33 ( b8 b8 b8 b8 ) r8 b32 ( [ g32 g32 ]7 ) g32 @4 f+4 ( f+8 f+4 ) ]2 L YLR @4 b4 @1 x8. @0 x16 @1 x8 @0 x8 r8 x8 r8 @2 b8 [ b16 ( b16 ) ]2 g4 r4 @33 YL. [ b8. ( b16 ) b8 g16 ( g16 ) ]2 b8. ( b16 ) b8 g16 ( g16 ) b8 YLR @35 b4. YL. @33 [ b8. ( b16 ) b8 g16 ( g16 ) ]12 [ b8. ( b16 ) b8 g16 ( g16 ) ]14 YLR @1 x8 @2 b8 b16 b8 g4 r16 d4 @0 x8 @33 g8 @1 x4 @0 x8 @33 b8 @1 x8 @33 g8 @0 x8 @33 g8 @1 x4 @0 x8 @33 b16 @0 x16 @1 x8 @33 g8 @0 x8 @33 g16 @0 x16 @1 x4 @0 x8 @33 b8 @1 x8 @33 g8 @0 x8 @33 g8 @1 x4 x16 x16 @0 x16 @1 x16 @1 x16 x16 @2 b16 b16 @0 x8 x8 @1 x4 @0 x8 @33 g8 @1 x8 @33 g8 @0 x8 x8 @1 x4 @0 x8 @33 g8 @1 x16 @33 [ g16 ]3 @0 x8 x8 @1 x4 @0 x8 @33 g8 @1 x8 @33 g8 @0 x8. @1 x16 x8 @0 x8 r8 @1 [ x16 ]4 @2 b16 b16 @0 x4 @1 x4 @0 x8 @33 b8 @1 x8 @33 g8 @0 x8 x8 @1 x4 @0 x8 @33 b8 @1 x8 @33 [ g16 ]2 @0 x8 x8 @1 x4 @0 x16 @33 b16 g8 @1 x8 @33 [ g16 ]2 @0 x8 x8 @1 x4 @0 x8 @1 x16 x16 x4 @0 x4 @1 x4 @0 x8 x8 @1 x4 @0 x8. x16 @1 x4 @0 x8 @33 g8 @1 x8 @33 g8 @0 x8 x8 @1 x4 @0 x8 @33 g8 @1 x8 @33 g8 @0 x8. x16 @1 x4 @0 x8 @33 g8 @1 x8 @33 g8 @0 x4 @1 x4 @0 x8 @1 [ x16 ]4 @2 b8 @33 YL. [ [ b8. ( b16 ) b8 g16 ( g16 ) ]2 ]6 
!6  V1 [ r4 @9 W0,90,20 O1 YLR c+16 YL. ( c+16 ) YLR c+16 YL. ( c+16 ) YLR b16 YL. ( b16 ) > YLR c4 c+8~ c+4. d16 YL. ( d8 ) r16 YLR @36 c8 @37 c4 ]2 L @9 W0,90,20 O1 YLR r4 f+8 YL. ( f+8 ) YLR f+16 YL. ( f+16 ) YLR f+8 YL. ( f+8 ) YLR f+8~ f+16 YL. ( f+16 ) YLR f+16 YL. ( f+16 ) YLR [ f+16 ]4 @27 f+8 YL. ( f+8 ) r4 YLR [ r1 ]3 @28 W0,100,55 Y.R r8 d16 e16 f+16 g16 a16 YL. ( a16 ) Y.R a+16 YL. ( a+16 ) Y.R f+16 YL. ( f+16 ) Y.R a+8 YL. ( a+8 ) @40 W0,100,0 O1 YLR b1~ b1 b2 a+2 b8 @28 W0,100,55 Y.R b16 > c+16 d16 e16 f+16 YL. ( f+16 ) Y.R < b16 > c+16 d16 e16 f+16 e16 f+16 YL. ( f+16 ) Y.R @40 W0,100,0 O2 YLR c+8 @27 O1 Y.R a16 YL. ( a16 ) @40 W0,100,0 O2 YLR c+4 @27 O1 Y.R a16 YL. ( a16 ) @40 W0,100,0 O2 YLR c+4. @40 W0,100,0 O2 YLR c+8 @27 O1 Y.R a16 YL. ( a16 ) @40 W0,100,0 O2 YLR e4 @27 O1 Y.R a16 YL. ( a16 ) @40 W0,100,0 O2 YLR a4. @40 W0,100,0 O2 YLR b8 @27 O1 Y.R g16 YL. ( g16 ) @40 W0,100,0 O2 YLR ( b4 ) @27 W0,90,20 O1 Y.R g8 YL. ( g8 ) @40 W0,100,0 O2 YLR ( b4 ) @10 O2 r8 Y.R [ c+16 ]5 YL. ( Y.R c+16 ) [ c+16 ]5 ( YL. c+16 ) r8 @40 W0,100,0 O2 YLR e1~ d2~ d8 @28 O2 Y.R f+16 YL. ( f+16 ) Y.R f+16 f+16 YL. ( f+16 ) r16 @40 W0,100,0 O2 YLR b2 a+4 > e4 d8 @28 O2 Y.R f+16 YL. ( f+16 ) Y.R f+16 f+16 YL. ( f+16 ) Y.R f+16 YL. ( f+16 ) r8. Y.R f+4 @42 W0,100,0 O1 YL. d+2 e4 f+4 g+2~ g+8 f+8 e8 d+8 c+2 d2 d+1 < b2 a+2 > c+8 @11 O1 Y.R f+16 YL. ( f+16 ) > Y.R e16 d+16 YL. ( d+16 ) < Y.R b16 YL. ( b16 ) Y.R g+16 f+8 ( f+8 ) r8 @42 W0,100,0 O1 YL. f+2 f2 f+2 e2 d+2~ d+8 d+8 g+8 b8 a+2~ a+8 d+8 f+8 a+8 g+2 a+2 b4 @11 O1 Y.R f8 f+8 YL. ( f+8 ) < Y.R b16 YL. ( b16 ) > Y.R d+16 e16 f+16 YL. ( f+16 ) @42 W0,100,0 O1 YL. g+4 b4 a+4 > c+4 < < b1 b2 @11 W0,100,55 O1 r8 Y.R b16 YL. ( b16 ) > Y.R e16 YL. ( e16 ) Y.R g+16 YL. ( g+16 ) Y.R f+1 r4. f+16 YL. ( f+16 ) Y.R f+16 g16 g+16 a+16 b8 YL. ( b8 ) @42 W0,100,0 O1 YLR g2~ g8 e8 f+8 g8 a8 b8 ( b8 ) a8~ a8 e8 f+8 g8 f+8 ( f+8 ) e8 ( e8 ) d8 e4 f+8~ f+2 r8 f+16 g+16 a+16 b16 > c+16 d+16 @11 W0,100,55 O2 [ g16 ( g16 ) ]3 g8 ( g8 ) e8 f+8 g8 f+8 ( f+8 ) g8 f+8~ f+4 r4 
