;010 001DD26C
!1  T147 V6 O3 Y.R @@3,2,1 E100,90,60,15,38 P15,15,2 B7 r16 D1 c+8 c+8 d+8 f8 < a+8 _V-4 a+8 _V4 > f8 f+8 f16 d+16~ d+8 c+8 c8 _V-4 c8 _V4 g+8~ _V-3 f+8 _V3 f4 _V-4 f8 _V4 r8 f8 f16 f16~ f8 f8 f+8 f8 d+8 c+8 c8 c+8 d+8 c+8 _V-4 c+16 _V4 _V2 D0 f8 f8 f+8 g+8 c+8 _V-4 c+8 _V4 g+8 a+8 g+16 f+16~ f+8 f8 d+8 _V-4 d+8 _V4 > c8~ _V-3 < a+8 _V3 g+4 _V-4 g+8 _V4 r8 _V-2 r16 D1 f8 f16 f16~ f8 f8 f+8 f8 d+8 c+8 c8 c+8 d+8 c+8~ c+4~ _V-3 f16 _V3 r8 @3 EX V4 O1 [ [ Y.R g+16 YL. g+16 ]5 Y.R > d+16 < YL. g+16 Y.R g+16 YL. g+16 Y.R b16 YL. g+16 ]3 [ Y.R g+16 YL. g+16 ]4 [ Y.R a+16 YL. a+16 ]4 L @3 EX V4 O1 [ [ Y.R g+16 YL. g+16 ]5 Y.R > d+16 < YL. g+16 Y.R g+16 YL. g+16 Y.R b16 YL. g+16 ]2 [ Y.R g+16 YL. g+16 ]3 > [ Y.R g+16 YL. g+16 ]3 [ Y.R f+16 YL. f+16 ]2 [ Y.R g+16 YL. g+16 ]4 [ Y.R a+16 YL. a+16 ]4 @2 O3 Y.R V3 r4 ( g+16 < g+16 g+16 > g+16 r8 a+16 a+16 ) a+16 d+16 f+16 a+16 r4 ( g+16 < g+16 g+16 > g+16 r8 f+16 f+16 ) f+16 < b16 > d+16 f+16 r4 ( g+16 < g+16 g+16 > g+16 r8 a+16 a+16 ) a+16 d+16 f+16 a+16 r2 r8 g+16 d+16 g+16 d+16 g+16 d+16 V9 O3 Y.R @@3,2,1 E100,90,60,15,38 P15,15,2 B7 d+8 c+16 < b16~ b8 a+8 b8 a+16 a+16~ a+16 _V-4 a+8 _V4 r16 > e8 g+16 g+16~ g+8 e8 d+16 f+8 f+16~ f+16~ _V-4 f+8 < _V4 r16 D2 V6 r16 b8 a+16 g+16~ g+8 f+8 f+8 f+16 f+16~ f+16~ _V-4 f+8 _V4 D0 V9 b8 > d+8 c+8 < a+16 b16~ b8 _V-4 b8 _V4 < r4 D2 V6 r16 O2 [ b8. g+8. b16~ _V-4 b16 _V4 ]2 > c+8. < a+8. g+8 f+4~ _V-4 f+8 _V4 r8 > d+8 d+16 d+16~ d+8 d+8 d+8 f+8 d+8 < b8 > c+4. < b8 a+8~ g+16~ a+16~ a+8 _V-4 a+8 _V4 r4 g+8 g+8 a+8. g+8. a+8 > c+8. < a+8. g+8 f+8~ _V-4 f+8 _V4 r4 > d+8 d+16 d+16~ d+8 d+8 c+8 c+8 < b8 > c+8 < g+8. > d+16~ _V-4 d+16 _V4 r16 d+16. _V-4 d+32 _V4 d+4~ d+16. _V-4 d+32 _V4 f+16~ e16 d+4. _V-4 d+8 _V4 D0 V9 r16 < a+8 a+8 > c8 c+8 c+8~ _V-4 c+8 _V4 g+8 a+8 g+16 f+16~ f+8 f8 g+8~ _V-4 g+8 _V4 > c8~ < _V-3 a+8 _V3 g+4~ _V-4 g+8 _V4 r8 V10 O2 @@3,1,0 E90,100,50,7,38 P15,13,2 D1 [ f8 f16~ _V-4 f16 _V4 ]2 f+8 f16~ _V-4 f16 _V4 d+8 c+16~ _V-4 c+16 _V4 c8 c+16~ _V-4 c+16 _V4 d+8 c+8~ c+8 V9 O3 @@3,2,1 E100,90,60,15,38 P15,15,2 B7 D0 < a+8 a+8 > c8 c+8 c+8~ _V-4 c+8 _V4 g+8 a+8 g+16 f+16~ f+8 f8 g+8~ _V-4 g+8 _V4 > c8~ < _V-3 a+8 _V3 g+4~ _V-4 g+8 _V4 r8 V10 O2 @@3,1,0 E90,100,50,7,38 P15,13,2 D1 [ f8 f16~ _V-4 f16 _V4 ]2 f+8 f16~ _V-4 f16 _V4 d+8 c+16~ _V-4 c+16 _V4 c8 c+16~ _V-4 c+16 _V4 d+8 c+8~ c+4.~ _V-4 c+8 _V4 V8 O2 @2 E80,100,60,23,38 P13,15,2 D0 B7 f4~ f8. _V-4 f16 _V4~ f+2~ g+2~ f4 f4 f4~ f8. _V-4 f16 _V4~ f+2~ g+4~ g+16 _V-4 g+16 _V4 g+8~ g+2 
!2  V10 O3 YLR @@3,2,1 E100,90,60,15,38 P15,15,2 B7 c+8 c+8 d+8 f8 < a+8 _V-4 a+8 _V4 > f8 f+8 f16 d+16~ d+8 c+8 c8 _V-4 c8 _V4 g+8~ _V-3 f+8 _V3 f4 _V-4 f8 _V4 r8 f8 f16 f16~ f8 f8 f+8 f8 d+8 c+8 c8 c+8 d+8 c+8 _V-4 c+8 _V4 c+8 c+8 d+8 f8 < a+8 _V-4 a+8 _V4 > f8 f+8 f16 d+16~ d+8 c+8 c8 _V-4 c8 _V4 g+8~ _V-3 f+8 _V3 f4 _V-4 f8 _V4 r8 f8 f16 f16~ f8 f8 f+8 f8 d+8 c+8 c8 c+8 d+8 c+8~ c+4~ _V-3 f16 _V3 r8. V10 O3 @2 E100,80,50,15,38 P16,9,4 YLR r1 B11 > c+16~ d+16~ d+4.~ d+2 < < _V-6 d+8 _V6 P0,3,30 @1 g+16~ d+16~ b16 > _V-4 B49 b16~ < < c2 _V4 > @2 B11 PX > c+16~ d+16~ d+24 f+24 d24 f24 c+24 e24 c24 d+24 < b24 > d24 < a+24 > c+24 B7 P0,3,25 < a+16~ _V-2 d+8. _V2 PX B23 > _V-2 a+16~ _V-2 > f8. _V4 L V10 O2 @@3,1,0 E90,100,50,7,38 P15,13,2 YLR g+4 > d+8. < g+16 > c+16 _V-4 c+16 _V4 f+16 _V-4 f+16 _V4 f8. _V-4 f16 _V4 d+16 _V-4 d+16 _V4 < b16 _V-4 b16 _V4 > c+8. d+16 c+16 < b16 a+16 _V-4 a+16 _V4 f+8. _V-4 f+16 _V4 g+4 > d+8. < g+16 > c+16 _V-4 c+16 _V4 f+16 _V-4 f+16 _V4 f8. _V-4 f16 _V4 d+16 _V-4 d+16 _V4 b16 _V-4 b16 _V4 a+8. _V-4 a+16 _V4 g+16 a+16 b16 _V-4 b16 _V4 g+8. _V-4 g+16 _V4 V10 O2 YLR @@3,2,1 E100,90,60,15,38 P15,15,2 B7 b8 a+16 g+16~ g+8 f+8 f+8 f+16 f+16~ f+16~ _V-4 f+8 _V4 r16 g+8 g+16 b16~ b8 > c+8 c+16 d+8 d+16~ d+16~ _V-4 d+8 < _V4 r16 b8 a+16 g+16~ g+8 f+8 f+8 f+16 f+16~ f+16~ _V-4 f+8 _V4 r16 g+8 b8 a+8 f+16 g+16~ g+8 _V-4 g+8 _V4 r4 b8 a+16 g+16~ g+8 f+8 f+8 f+16 f+16~ f+16 _V-4 f+8 _V4 r16 g+8 g+16 b16~ b8 > c+8 c+16 d+8 d+16~ d+16~ _V-4 d+8 < _V4 r16 b8 a+16 g+16~ g+8 f+8 f+8 f+16 f+16~ f+16~ _V-4 f+8 _V4 r16 g+8 b8 a+8 f+16 g+16~ g+8 _V-4 g+8 _V4 r4 [ b8. g+8. b16~ _V-4 b16 _V4 ]2 > c+8. < a+8. g+8 f+4~ _V-4 f+8 _V4 r8 > d+8 d+16 d+16~ d+8 d+8 d+8 f+8 d+8 < b8 > c+4. < b8 a+8~ g+16~ a+16~ a+8 _V-4 a+8 _V4 r4 g+8 g+8 a+8. g+8. a+8 > c+8. < a+8. g+8 f+8~ _V-4 f+8 _V4 r4 > d+8 d+16 d+16~ d+8 d+8 c+8 c+8 < b8 > c+8 < g+8. > d+16~ _V-4 d+16 _V4 r16 d+16. _V-4 d+32 _V4 d+4~ d+16. _V-4 d+32 _V4 f+16~ e16 d+4. _V-4 d+8 _V4 r8 c+8 c+8 d+8 f8 < a+8 _V-4 a+8 _V4 > f8 f+8 f16 d+16~ d+8 c+8 c8 _V-4 c8 _V4 g+8~ _V-3 f+8 _V3 f4 _V-4 f8 _V4 r8 f8 f16 f16~ f8 f8 f+8 f8 d+8 c+8 c8 c+8 d+8 c+8 _V-4 c+8 _V4 c+8 c+8 d+8 f8 < a+8 _V-4 a+8 _V4 > f8 f+8 f16 d+16~ d+8 c+8 c8 _V-4 c8 _V4 g+8~ _V-3 f+8 _V3 f4 _V-4 f8 _V4 r8 f8 f16 f16~ f8 f8 f+8 f8 d+8 c+8 c8 c+8 d+8 c+8~ c+4.~ _V-4 c+8 _V4 V10 O3 @@3,1,0 E90,100,50,7,38 P15,13,2 YLR f8. < a+16~ _V-4 a+16 _V4 r16 > f16~ _V-4 f16 _V4 f+8 f16 d+16~ d+8 c+16 _V-4 c+16 _V4 c8~ _V-4 c8 _V4 g+8~ _V-4 g+8 _V4 f4.~ _V-4 f16 _V4 r16 f8 f16 f16~ f8 f16~ _V-4 f16 _V4 f+8 f16 _V-4 f16 _V4 d+8 c+16 _V-4 c+16 _V4 c8 c+16 _V-4 c+16 _V4 d+16 _V-4 d+16 _V4 c+8~ c+4.~ _V-4 c+16 _V4 r16 
!3  V3 r4. `9F00 @A3 @B0 @~3 O0 a+2 d+2 > c2 c+4 c4 < a+2 > d+2 < g+2 > c+4 c4 < a+2 d+2 > c2 c+4 c4 < a+2 d+2 g+2 > c+2 < [ g+16~ ( g+16 ) f+16~ ( f+16 ) ]2 g+16 g+16 f+16 g+16 f+16 g+16 b8 [ g+16~ ( g+16 ) f+16~ ( f+16 ) ]2 g+8~ ( g+16 ) > d+16 < f+16 g+16 b16 > d+16 < [ g+16~ ( g+16 ) f+16~ ( f+16 ) ]2 g+16 d+16 f+16 g+16 f+16 g+16 b8 [ > c+16~ ( c+16 ) < b16~ ( b16 ) ]2 > d+16 < f+16 a+16 b16 d+16 f+16 a+16 b16 L O0 [ g+16~ ( g+16 ) f+16~ ( f+16 ) ]2 g+16 g+16 f+16 g+16 f+16 g+16 b8 [ g+16~ ( g+16 ) f+16~ ( f+16 ) ]2 g+8~ ( g+16 ) > d+16 < f+16 g+16 b16 > d+16 < [ g+16~ ( g+16 ) f+16~ ( f+16 ) ]2 g+16 d+16 f+16 g+16 f+16 g+16 b8 [ > c+16~ ( c+16 ) < b16~ ( b16 ) ]2 > d+16 < f+16 a+16 b16 d+16 f+16 a+16 b16 g+4.~ ( g+16 ) g+16 d+4. a+16 d+16 e4. ( e16 ) e16 b2 g+4.~ ( g+16 ) g+16 > d+4. c+16 d+16 e4 f+4 g+4 d+8 g+8 < [ g+8~ ( g+16 ) g+16 ]2 f+8.~ ( f+16 ) d+8 f+8 e8~ ( e16 ) e16 ( e16 ) e16 ( e16 ) e16 b8 a+16 b16 f+16 g+16 b8 g+8~ ( g+16 ) g+16 ( g+16 ) b16 ( b16 ) > c+16 d+8. ( d+16 ) d+16 < a+16 > c+16 d+16 e16 < e16 b16 > e16 f+16 < f+16 > c+16 f+16 g+16 < g+16 > d+16 g+16 d+16 < g+16 b16 c16 > [ c+8 > c+16 c+16 < ]3 < < g+16 g+16 b16 b16 [ f+8 > f+16 f+16 < ]3 f+16 f+16 a+16 a+16 [ b8 > b16 b16 < ]4 [ a+8 > a+16 a+16 < ]2 > d+8 > d+16 d+16 < < a+16 a+16 b16 b16 > [ c+8 > c+16 c+16 < ]2 < f+8 > f+16 f+16 < f+8 > f+16 e16 [ d+8 > d+16 d+16 < ]2 < g+8 > g+16 g+16 < d+16 f+16 g+16 g+16 > [ c+8 > c+16 c+16 < ]2 [ d+8 > d+16 d+16 < ]2 [ e8 > e16 e16 < ]2 d+16 d+16 c+16 c+16 < b16 b16 a+16 a+16 g+2~ ( g+8 ) r4. [ a+8. ( a+16 ) a+8. ( a+16 ) d+8. ( d+16 ) d+8 a+8 > c8. ( c16 ) c8 < a+16 > c16 < c+8 g+16 > c+16 c4 < a+8. ( a+16 ) a+8. ( a+16 ) d+8. ( d+16 ) a+8 d+16 a+16 g+8 g+8 g+16 g+16 a+16 > c16 c+8. ( c+16 ) c8. ( c16 ) < ]2 [ a+16 ( a+16 ) a+16 a+16 ]2 d+16 ( d+16 ) d+16 d+16 > d+16 d+16 < a+16 a+16 > c16 ( c16 ) c16 c16 c16 ( c16 ) < a+16 > c16 c+16 ( c+16 ) c+16 c+16 c16 ( c16 ) c8 < [ a+16 ( a+16 ) a+16 a+16 ]2 d+16 ( d+16 ) d+16 d+16 d+16 d+16 f+16 g16 g+16 ( g+16 ) g+16 g+16 g+16 g+16 > c+8~ c+16 ( c+16 ) c+16 ( c+16 ) c+16 ( c+16 ) d+8 < 
!4  r4. [ @8 x4 r2. r1 ]2 @8 x8 @5 x16 x16 [ x16 r16 x16 x16 ]2 [ x16 ]4 @8 x8 @5 x16 x16 r16 x16 r16 x16 x16 r16 @8 YL. x8 @5 YLR x16 @8 YL. x8 @5 YLR x16 @5 [ x16 r16 x16 x16 ]2 @8 x8 @5 x16 x16 x16 r16 x16 x16 [ x16 r16 x16 x16 ]4 @8 x4 @6 x16 x16 @5 x16 @6 x16 x16 x16 @5 x16 @6 x16 @5 x16 @6 x16 @7 x8 @5 x16 @6 x16 x16 x16 @5 x16 @6 x16 @5 x16 x16 @6 x16 @5 x16 @6 x16 x16 @5 x16 @6 x16 @7 x8 @5 x16 @6 x16 x16 x16 @5 x16 @6 x16 x16 @5 x16 @6 x16 x16 @5 x16 @6 x16 @5 x16 @6 x16 @7 x8 [ @5 x16 @6 x16 x16 x16 ]3 @5 x16 @6 x16 @7 x8 L @8 x4 @5 x16 @6 x16 x16 @5 x16 @6 x16 x16 @5 x16 @6 x16 @5 x16 @6 x16 @7 x8 @5 x16 @6 x16 x16 x16 @5 x16 @6 x16 @5 x16 x16 @6 x16 @5 x16 @6 x16 x16 @5 x16 @6 x16 @7 x8 @5 x16 @6 x16 x16 x16 x16 x16 @5 x16 x16 @6 x16 x16 x16 x16 @5 x16 @6 x16 @7 x8 [ @5 x16 @6 x16 x16 x16 ]3 @5 x16 @6 x16 @7 x8 @8 x4 @7 x8 @5 x16 x16 [ @6 x16 @5 x16 ]2 [ @5 x16 @6 x16 ]2 [ @5 x16 @6 x16 ]2 @5 x16 @6 x16 @5 x16 x16 [ @6 x16 @5 x16 ]2 [ @5 x16 @6 x16 ]2 [ @5 x16 @6 x16 ]2 @7 x16 @6 x16 @5 x16 x16 [ @6 x16 @5 x16 ]2 @5 x16 @6 x16 x16 x16 [ @5 x16 @6 x16 @7 x8 ]2 [ @6 x16 @5 x16 ]2 [ @5 x16 @6 x16 ]2 @8 x4 @7 x8 @5 x16 x16 [ @6 x16 @5 x16 ]2 @5 x16 @6 x16 x16 @5 x16 [ @5 x16 @6 x16 ]2 @5 x16 @6 x16 @7 x16 @6 x16 [ @6 x16 @5 x16 ]3 @7 x8 [ @5 x16 @6 x16 ]2 @6 x16 @5 x16 @6 x16 x16 [ @6 x16 @5 x16 ]2 @5 x16 @6 x16 @5 x16 x16 [ @5 x16 @6 x16 ]2 @5 x16 x16 x16 @6 x16 [ @6 x16 @5 x16 ]2 [ @5 x16 @6 x16 ]2 @8 x8 @7 x8 @5 x16 @6 x16 @7 x8 [ @5 x16 @6 x16 x16 x16 ]2 [ @5 x16 @6 x16 @7 x8 ]2 @6 x16 x16 [ x24 ]3 @5 x16 @6 x16 @7 x8 [ @5 x16 @6 x16 @7 x8 ]2 [ @5 x16 @6 x16 x16 x16 ]2 [ @5 x16 @6 x16 @7 x8 ]2 @6 x16 x16 [ x24 ]3 @5 x16 @6 x16 @7 x8 @8 x8 @7 x8 @5 x16 @6 x16 @7 x8 [ @5 x16 @6 x16 x16 x16 ]2 [ @5 x16 @6 x16 @7 x8 ]2 @6 x16 x16 [ x24 ]3 @5 x16 @6 x16 @7 x8 [ @5 x16 @6 x16 @7 x8 ]2 [ @5 x16 @6 x16 x16 x16 ]2 [ @5 x16 @6 x16 @7 x8 ]2 @6 x16 x16 [ x24 ]3 @5 x16 @6 x16 @7 x8 @5 x8 @7 x8 x16 @5 x16 x16 @7 x16 r2 @8 x4 [ @5 x16 @6 x16 @5 x16 x16 ]3 [ [ @5 x16 @6 x16 @5 x16 x16 ]3 @5 x16 @6 x16 @7 x8 ]2 [ @5 x16 @6 x16 @5 x16 x16 ]4 @8 x4 [ @5 x16 @6 x16 @5 x16 x16 ]2 @5 x16 @6 x16 @7 x8 [ [ @5 x16 @6 x16 @5 x16 x16 ]3 @5 x16 @6 x16 @7 x8 ]2 [ @5 x16 @6 x16 @5 x16 x16 ]4 @8 x4 [ @5 x16 @6 x16 @5 x16 x16 ]2 @5 x16 @6 x16 @7 x8 [ @5 x16 @6 x16 @5 x16 x16 ]3 @5 x16 @6 x16 @7 x8 [ @7 x8 @5 x16 x16 ]3 @5 x16 @6 x16 @7 x8 @5 x16 @6 x16 @5 x16 x16 x16 @6 x16 @8 x4 @5 x16 x16 @7 x8 @6 x8 
!5  V1 O1 r4. @0 x4 r2. r1 @0 x4 r2. r2 @1 x8 x8 [ x16 ]4 @0 [ x4 ]4 x4 x4 x8 @1 x8 @0 x16 @1 x8. @0 x8. @2 e16 @0 x8 @2 Y.R c16 c16 YLR @0 x4 x4 @0 x4 [ @30 x16 [ @1 x16 ]3 ]3 [ @0 x4 @30 x4 ]2 @0 x4 @30 x4 @0 x16 @1 x8. @30 x4 [ @0 x4 @30 x4 ]2 @0 x4 @30 x4 @0 x16 @1 x8. @30 x8 @1 x16 x16 L [ @0 x4 @30 x4 ]2 @0 x4 @30 x4 @0 x16 @1 x8. @30 x4 [ @0 x4 @30 x4 ]2 @0 x4 @30 x4 @0 x16 @1 x8. @30 x16 @1 [ x16 ]3 @0 [ x4 ]3 @30 x4 @0 [ x4 ]3 @30 x8 @1 x16 x16 @0 [ x4 ]3 @30 x4 @0 x4 x4 @0 x16 @2 YLR b16 g8 @30 x16 [ x16 ]3 [ [ @0 x4 @30 x4 ]2 ]3 @0 x4 @30 x4 @2 YL. b16 g16 YLR e16 Y.R c16 YLR @30 x16 [ x16 ]3 [ @0 x4 @30 x4 ]2 @0 x4 @30 x4 @0 x4 @30 x8 @0 x8 [ @0 x4 @30 x4 ]2 @0 x4 @30 x4 @0 x4 @30 x8 @0 x16 @1 x16 [ @0 x4 @30 x4 ]2 @0 x4 @30 x4 @0 x4 @30 x8 @0 x8 [ @0 x4 @30 x4 ]2 @0 x4 @30 x8 @2 e16 e16 @0 x16 @2 YL. g16 YLR e16 Y.R c16 YLR @30 x24 @1 x24 x24 @30 x16 @1 x16 @0 x8 > ( g8 ) > @1 c8 @0 < ( g16 ) > @1 c16 @0 < ( g8 ) < r4. @0 [ x4 ]3 @30 x4 [ @0 x4 @30 x4 ]4 @0 x4 @30 x4 @0 x16 @1 x8. @30 x8 @1 x16 x16 [ @0 x4 @30 x4 ]6 @0 x4 @30 x8 @1 x16 x16 @0 x16 @2 YL. g16 YLR d16 Y.R c16 YLR @0 x16 @2 c16 @1 x16 x16 [ @0 x4 @30 x4 ]2 @0 x4 @30 x4 @0 x16 @1 x8. @30 x4 [ @0 x4 @30 x4 ]2 @0 x16 @2 YL. b16 g8 YLR @30 x8 @0 x16 x16 x8. @1 x16 [ @30 x16 @1 x16 ]2 
!6  V1 O1 r4. @61 W0,100,33 B15 YL. a+2 > d+2 c2 c+4 c4 < a+2 > d+2 < g+2 > c+4 c4 < a+2 > d+2 c2 c+4 c4 < a+2 > d+2 < g+2 > c+4.~ < g+8 @38 O1 YL. r8 b8 Y.R ( b16 ) YL. a+8 Y.R ( a+16 ) YL. b8 Y.R ( b16 ) YL. a+8 Y.R ( a+16 ) YL. b8 Y.R ( b16 ) r16 YL. b8 Y.R ( b16 ) YL. a+8 Y.R ( a+16 ) YL. b8 Y.R ( b16 ) YL. a+8 Y.R ( a+16 ) YL. b8 Y.R ( b16 ) r16 YL. b8 Y.R ( b16 ) YL. a+8 Y.R ( a+16 ) YL. b8 Y.R ( b16 ) YL. a+8 Y.R ( a+16 ) YL. b8 Y.R ( b16 ) r16 @39 YL. b8 Y.R ( b16 ) YL. b8 Y.R ( b16 ) > YL. c+8 Y.R ( c+16 ) YL. c+8 Y.R ( c+16 ) YL. c+8 L @38 O1 YL. r8 b8 Y.R ( b16 ) YL. a+8 Y.R ( a+16 ) YL. b8 Y.R ( b16 ) YL. a+8 Y.R ( a+16 ) YL. b8 Y.R ( b16 ) r16 YL. b8 Y.R ( b16 ) YL. a+8 Y.R ( a+16 ) YL. b8 Y.R ( b16 ) YL. a+8 Y.R ( a+16 ) YL. b8 Y.R ( b16 ) r16 YL. b8 Y.R ( b16 ) YL. a+8 Y.R ( a+16 ) YL. b8 Y.R ( b16 ) YL. a+8 Y.R ( a+16 ) YL. b8 Y.R ( b16 ) r16 @39 YL. b8 Y.R ( b16 ) YL. b8 Y.R ( b16 ) > YL. c+8 Y.R ( c+16 ) YL. c+8 Y.R ( c+16 ) YL. c+8 < @38 YL. g+4 Y.R ( g+4 ) @39 W0,100,50 > YL. c+4 Y.R ( c+4 ) < YL. b4 Y.R ( b4 ) @38 W0,100,50 YL. b4 Y.R ( b4 ) @38 YL. g+4 Y.R ( g+4 ) @39 W0,100,50 > YL. c+4 Y.R ( c+4 ) < YL. b4 > c+4 d+4 Y.R ( d+4 ) < @38 YL. g+8. g+16 Y.R ( g+4 ) @39 W0,100,50 > YL. c+8. c+16 Y.R ( c+4 ) < YL. b8. b16 Y.R ( b4 ) @38 W0,100,50 YL. b8. b16 Y.R ( b4 ) @38 YL. g+8. g+16 Y.R ( g+4 ) @39 W0,100,50 > YL. c+8. c+16 Y.R ( c+4 ) < b4 > c+4 d+4 < @61 W0,100,33 B15 YL. O2 g+8~ < g+8 > c+1 < f+2 > f+4.~ f16~ < b16 b1 a+2 > d+2 c+2 < f+2 > d+2 < g+4 > g+4 c+2 d+2 e2 f+2 @39 W75,100,75 YLR r4 < ( g+4 ) g+8 > r4. @61 W0,100,33 B15 O1 YL. a+2 > d+2 c4. < a+16 > c16 c+4 c4 < a+2 > d+2 < g+2 > c+4 c4 < a+2 > d+2 c4. < a+16 > c16 c+4 c4 < a+2 > d+2 < g+2 > c+4 c4 < [ a+8 a+16 a+16 ]2 > [ d+8 d+16 d+16 ]2 [ c8 c16 c16 ]2 c+8 c+8 c8 c8 < [ a+8 a+16 a+16 ]2 > [ d+8 d+16 d+16 ]2 < g+4 g+8 > c+8 c+2 < 
