;011 001DE608
!1  T153 V6 O2 @@1,2,3 E50,100,60,7,29 P11,11,2 Y.R c2 e2 f+1 < a2 b2 > c6 V8 O3 @2 E60,100,60,3,29 P11,11,2 Y.R Y.R b24 YL. _V-3 b24 _V3 > Y.R c24 YL. _V-3 c24 _V3 Y.R e24 YL. _V-3 e24 _V3 Y.R g24 YL. _V-3 g24 _V3 Y.R a24 YL. _V-3 a24 _V3 r6 V5 O2 @@2,1,2 E100,80,50,29,36 P11,13,2 Y.R a4 L e2.~ _V-3 e6 _V3 r12 e12~ _V-3 e12 _V3 r12 e12~ _V-3 e12 _V3 d12 c12~ _V-3 c12 _V3 c12 c6 d12 e12~ _V-3 e12 _V3 r12 e12~ _V-3 e12 _V3 a12 e4~ _V-3 e6 _V3 r12 < a6 b12 > c6 d12 e12~ _V-3 e12 _V3 e12 a6~ _V-3 a12 _V3 b12~ _V-3 b12 _V3 b12 b4 b4~ _V-3 b6 _V3 r12 V10 > e12~ _V-3 e12 _V3 e12 e6 d12 c4~ _V-3 c6 _V3 r12 c12~ _V-3 c12 _V3 c12 c6 < b12 a4~ _V-3 a6 _V3 r12 a6 a12 a6 g+12 a12~ _V-3 a12 _V3 a12 > e6~ _V-3 e12 _V3 d+6 d+12 d+6 d+12 d6~ _V-3 d12 _V3 d4 c2~ _V-3 c8 _V3 r8 r4 V8 O2 @2 E50,100,60,7,29 P11,11,2 Y.R B7 g+16 a8.~ a2. g16 g+8.~ g+2. a+16 b8.~ b2. g16 g+8.~ g+2 @@1,2,1 _V-2 < b32 > c+32 d32 d+32 e32 g+32 a32 b32 _V2 _V2 > e1~ e6 YL. e12 e12 _V-4 e12 _V4 e12 e4 Y.R d6 c+12 d1 c+6 YL. e12 e12 _V-4 e12 _V4 e12 e4 V8 O2 @@2,1,2 E100,80,50,29,36 P11,13,2 Y.R c+4 d6~ YL. _V-3 d12 _V3 Y.R f+6~ YL. _V-3 f+12 _V3 Y.R f+6~ YL. _V-3 f12 _V3 Y.R f+6~ YL. _V-3 f+12 _V3 Y.R f2~ f12~ YL. _V-4 f12~ _V4 r12 Y.R f4 f+4~ f+12 YL. _V-3 f+12 _V3 Y.R f+12 d+6 YL. _V-3 d+12 _V3 Y.R d+4 e2. YL. _V-4 e8 _V4 r8 Y.R e4~ e12~ YL. _V-3 e12 _V3 Y.R e12 f+4 e4 d+6~ YL. _V-3 d+12 _V3 Y.R d+6~ YL. _V-3 d+12 _V3 Y.R d+4~ YL. _V-3 d+8 _V3 r8 < Y.R b4~ b12~ YL. _V-3 b12 _V3 Y.R b12 b4 b4 > c+2. YL. _V-4 c+8 _V4 r8 V10 O2 @@1,2,1 E50,100,60,7,29 P11,11,2 Y.R a1~ a2 g2 f+1 g+2 g4 e4 a1~ a2 g2 f+2 g+2 a12 YL. _V-3 a12 _V3 Y.R a12 [ Y.R a24 YL. _V-3 a24 _V3 ]3 Y.R a12 YL. _V-4 a12 _V4 r12 V5 O2 @@2,1,2 E100,80,50,29,36 P11,13,2 Y.R a4 
!2  V8 O3 @@1,3,2 E50,100,60,7,29 P11,11,2 YL. a2 g2 f+1 f2 g2 a6~ _V-3 a12~ _V-3 a12~ _V2 a12~ _V2 a12~ _V2 a12 _V-4 a12 _V4 r12 V10 O3 @@2,2,3 E100,80,50,29,36 P11,13,2 YLR a4 L e2.~ _V-4 e6 _V4 r12 e12~ _V-4 e12 _V4 r12 e12~ _V-4 e12 _V4 d12 c12~ _V-4 c12 _V4 c12 c6 d12 e12~ _V-4 e12 _V4 r12 e12~ _V-4 e12 _V4 a12 e4~ _V-4 e6 _V4 r12 < a6 b12 > c6 d12 e12~ _V-4 e12 _V4 e12 a6~ _V-4 a12 _V4 b12~ _V-4 b12 _V4 b12 b4 b4~ _V-4 b6 _V4 r12 > c12~ _V-4 c12 _V4 c12 c6 < b12 a4~ _V-4 a6 _V4 r12 a12~ _V-4 a12 _V4 a12 a6 g12 f4~ _V-4 f6 _V4 r12 e6 f12 e6 d+12 e12~ _V-4 e12 _V4 e12 > c6~ _V-4 c12 _V4 < b6 > c12 < b6 a12 g+6~ _V-4 g+12 _V4 b4 a2~ _V-4 a8 _V4 r8 < a6 b12 > c+6 c+12 c+6 c+12 c+6 _V-4 c+12 _V4 c+6 e12 d4 c+4 < b6~ _V-4 b12 _V4 b6 > c+12 d6 _V-4 d12 _V4 d6 e12 f+6 _V-4 f+12 _V4 f+6 a12 g+4 f+4 e6 _V-4 e12 _V4 e6 _V-4 e12 _V4 a6~ _V-4 a12 _V4 a4~ _V-4 a6 _V4 a12 b6 > c+12 < g+2~ g+8~ _V-6 g+8 _V6 f+6 e12 f+6~ _V-4 f+12 _V4 f+4~ _V-4 f+6 _V4 f+12 g+6 a12 e2~ e12~ _V-6 e12 _V6 r12 e4 f+6~ _V-4 f+12 _V4 g+6~ _V-4 g+12 _V4 a6~ _V-4 a12 _V4 b6~ _V-4 b12 _V4 > c+2~ c+12~ _V-6 c+12~ _V6 r12 d4 c+4~ c+12 _V-4 c+12 _V4 c+12 < b6 _V-4 b12 _V4 a4 b2. _V-6 b8 _V6 r8 > c+4~ c+12~ _V-4 c+12 _V4 c+12 d4 c+4 < b6~ _V-4 b12 _V4 b6~ _V-4 b12 _V4 f+4~ _V-4 f+8 _V4 r8 g+4~ g+12~ _V-4 g+12 _V4 g+12 f+4 e4 a2. _V-6 a8 _V6 r8 V12 O4 @2 E60,100,60,3,29 P11,11,2 YLR YLR f24 YL. _V-3 f24 _V3 YLR e24 YL. _V-3 e24 _V3 YLR f24 YL. _V-3 f24 _V3 YLR d24 YL. _V-3 d24 _V3 YLR c+24 YL. _V-3 c+24 _V3 YLR d24 YL. _V-3 d24 _V3 YLR < a16. b32 > c32 c+32 d32 e32 f24 YL. _V-3 f24 _V3 r6 YLR e24 YL. _V-3 e24 _V3 YLR d+24 YL. _V-3 d+24 _V3 YLR e24 YL. _V-3 e24 _V3 YLR c24 YL. _V-3 c24 _V3 YLR < b24 YL. _V-3 b24 > _V3 YLR c24 YL. _V-3 c24 _V3 YLR < a8 b32 > c32 c+32 d32 e24 YL. _V-3 e24 _V3 r6 [ YLR d+24 _V-3 d+12 _V3 r24 < YLR b24 YL. _V-3 b24 _V3 YLR b24 YL. _V-3 b24 _V3 YLR a+24 YL. _V-3 a+24 _V3 YLR b24 YL. _V-3 b24 _V3 > ]2 YLR [ e24 _V-2 f24 _V2 e24 _V-2 f24 _V2 e24 _V-2 f24 ) ]3 _V3 e24 _V-4 e24 _V4 r6 YLR f24 YL. _V-3 f24 _V3 YLR e24 YL. _V-3 e24 _V3 YLR f24 YL. _V-3 f24 _V3 YLR d24 YL. _V-3 d24 _V3 YLR c+24 YL. _V-3 c+24 _V3 YLR d24 YL. _V-3 d24 _V3 YLR < a16. b32 > c32 c+32 d32 e32 f24 YL. _V-3 f24 _V3 r6 YLR e24 YL. _V-3 e24 _V3 YLR d+24 YL. _V-3 d+24 _V3 YLR e24 YL. _V-3 e24 _V3 YLR c24 YL. _V-3 c24 _V3 YLR < b24 YL. _V-3 b24 > _V3 YLR c24 YL. _V-3 c24 _V3 YLR < a8 b32 > c32 c+32 d32 e24 YL. _V-3 e24 _V3 r6 YLR d+24 YL. _V-3 d+24 _V3 r12 YLR e24 YL. _V-3 e24 _V3 YLR f+24 YL. _V-3 f+24 _V3 r12 < YLR b24 YL. _V-4 b24 _V4 > YLR g+6 YL. _V-3 g+12 _V3 YLR b6 YL. _V-3 b12 _V3 YLR a2~ _V-4 a8 _V4 r8 V10 O3 @@2,2,3 E100,80,50,29,36 P11,13,2 YLR a4 
!3  O0 V3 `9F00 @A3 @B0 @~3 [ a6 ( a12 ) ]2 > c6 ( c12 ) c12 < a12 > c12 [ d6 ( d12 ) ]3 d6 e12 [ f6 ( f12 ) ]2 g6 ( g12 ) g12 d12 g12 a12 ( a12 ) a12 a12 e12 c12 < a6 r12 r4 L [ [ a6 ( a12 ) ]3 a6 e12 ]4 [ b6 ( b12 ) ]2 > [ e6 ( e12 ) ]2 < [ a6 ( a12 ) ]3 a6 > e12 [ d6 ( d12 ) ]3 d6 < a12 [ a6 ( a12 ) ]3 a6 a12 [ b6 ( b12 ) ]2 > [ e6 ( e12 ) ]2 < a12 ( a12 ) a12 > a12 e12 c12 < a6 r12 r4 [ a6 ( a12 ) e6 ( e12 ) ]2 b6 ( b12 ) e6 ( e12 ) f+6 ( f+12 ) g+6 ( g+12 ) b6 ( b12 ) f+6 ( f+12 ) a6 ( a12 ) b6 ( b12 ) e6 ( e12 ) f6 ( f12 ) f+6 ( f+12 ) g+6 e12 [ a6 ( a12 ) ]3 a6 e12 > [ c+6 ( c+12 ) ]3 c+6 < a12 > [ d6 ( d12 ) ]3 d6 < a12 [ a6 ( a12 ) ]3 a6 a12 > [ d6 ( d12 ) ]3 d6 < a12 > [ c+6 ( c+12 ) ]3 c+6 < g+12 [ f+6 ( f+12 ) ]2 [ b6 ( b12 ) ]2 [ e6 ( e12 ) ]3 e6 e12 [ a6 ( a12 ) ]2 [ f+6 ( f+12 ) ]2 [ b6 ( b12 ) ]3 b6 f+12 e1 [ a6 ( a12 ) ]3 a6 a12 > [ d6 ( d12 ) ]3 d6 < a12 [ a6 ( a12 ) ]3 a6 a12 [ b6 ( b12 ) ]3 b6 b12 > e6 < b12 e6 ( e12 ) a6 ( a12 ) > c+6 ( c+12 ) [ d6 ( d12 ) ]3 d6 < a12 [ a6 ( a12 ) ]3 a6 a12 [ b6 ( b12 ) ]2 [ e6 ( e12 ) ]2 a6 ( a12 ) e6 ( e12 ) a6 r12 r4 
!4  @8 x4 [ @7 x6 @6 x12 ]3 [ @7 x6 @6 x12 ]4 [ @7 x6 @6 x12 ]4 @8 x6 @6 x12 @5 x12 x12 x12 @8 x4 r4 L @8 x4 [ @5 x12 @6 x12 x12 ]2 @5 x12 @7 x12 @6 x12 [ @5 x12 @6 x12 x12 ]3 @5 x12 @6 x12 @5 x12 [ @5 x12 @6 x12 x12 ]3 @5 x12 @6 x12 @7 x12 [ @5 x12 @6 x12 x12 ]3 @5 x12 @6 x12 @5 x12 @7 x4 [ @5 x12 @6 x12 x12 ]2 @5 x12 @6 x12 @7 x12 @8 x4 [ @5 x12 @6 x12 x12 ]2 @5 x12 @6 x12 @7 x12 [ @5 x12 @6 x12 x12 ]3 @5 x12 @6 x12 @5 x12 [ @5 x12 @6 x12 x12 ]3 @5 x12 @6 x12 @7 x12 [ @5 x12 @6 x12 x12 ]3 @5 x12 @6 x12 @5 x12 @5 x6 @5 x12 @5 x12 @6 x12 @5 x12 @8 x4 r4 @8 x6 @5 x12 @21 x12 @5 x12 @21 x12 @5 x12 @21 x12 @5 x12 @21 x12 @5 x12 @21 x12 [ @5 x12 @21 x12 @5 x12 @21 x12 @5 x12 @21 x12 ]2 [ @5 x12 @21 x12 @5 x12 @21 x12 @5 x12 @21 x12 ]2 @5 x12 @21 x12 @5 x12 @21 x12 @5 x12 @21 x12 @5 x12 @21 x12 @5 x12 x12 x12 @7 x12 @8 x4 [ @5 x12 @6 x12 x12 ]2 @5 x12 @6 x12 @5 x12 [ @5 x12 @6 x12 x12 ]3 @5 x12 @6 x12 @7 x12 [ @5 x12 @6 x12 x12 ]3 @5 x12 @6 x12 @5 x12 [ @5 x12 @6 x12 x12 ]3 @7 x6 @6 x12 @8 x4 [ @5 x12 @6 x12 x12 ]2 @5 x12 @6 x12 @5 x12 [ @5 x12 @6 x12 x12 ]3 @5 x12 @6 x12 @7 x12 [ @5 x12 @6 x12 x12 ]3 @5 x12 @6 x12 @5 x12 [ @5 x12 @6 x12 x12 ]3 @5 x12 @6 x12 @7 x12 [ @5 x12 @6 x12 x12 ]3 @5 x12 @6 x12 @5 x12 [ @5 x12 @6 x12 x12 ]3 @5 x12 @6 x12 @7 x12 @8 x4 @6 [ x4 ]3 @8 x4 @5 x12 @6 x12 x12 [ x4 ]2 @8 x4 [ @7 x6 @6 x12 ]3 [ @7 x6 @6 x12 ]4 [ @7 x6 @6 x12 ]4 [ @7 x6 @6 x12 ]3 @5 x12 @6 x12 @7 x12 @8 x4 [ @7 x6 @6 x12 ]3 [ @7 x6 @6 x12 ]4 [ @7 x6 @6 x12 ]4 @8 x6 @6 x12 @5 x12 x12 x12 @8 x4 r4 
!5  V1 O1 [ @0 x6 ( x12 ) @24 x4 ]2 @0 x6 ( x12 ) @24 x4 @0 x6 ( x12 ) @24 x12 @0 ( x6 ) [ @0 x6 ( x12 ) @24 x4 ]2 @24 x6 x12 x12 @2 Y.R g12 YL. d12 @24 YLR x4 r4 L [ @0 x6 ( x12 ) @24 x4 ]2 [ [ @0 x6 ( x12 ) @24 x4 ]3 @0 x6 ( x12 ) @24 x6 @0 ( x12 ) ]2 [ @0 x6 ( x12 ) @24 x4 ]8 @24 x6 x12 x12 @2 Y.R g12 YL. d12 @0 YLR x4 r4 [ @0 x4 @24 x4 ]2 @0 x4 @24 x4 @0 x4 @24 x6 @0 ( x12 ) [ @0 x4 @24 x4 ]2 @0 x4 @24 x4 @0 x6 @24 x12 x12 @2 Y.R g12 YL. g12 YLR [ @0 x4 @24 x4 ]7 @0 x4 @24 x6 @0 ( x12 ) [ @0 x4 @24 x4 ]7 @0 x4 @24 x6 @0 ( x12 ) [ @0 x4 @24 x4 ]4 @0 x4 r6 @2 Y.R g12 r6 YL. d12 d4 YLR @0 x4 @24 x4 x6 x12 x12 x12 x12 [ @0 x6 ( x12 ) @24 x4 ]7 @0 x6 ( x12 ) @24 x12 @2 Y.R g12 YL. d12 YLR [ @0 x6 ( x12 ) @24 x4 ]5 @0 x6 ( x12 ) @24 x6 @0 x12 @24 x6 x12 x12 x12 x12 x4 r4 
!6  V1 O2 @28 W0,100,39 YLR e12 d12 e12~ e4~ ( e4 ) r12 d12 c12 d6 < a12~ a4~ ( a4 ) r12 a12 b12 > c4~ ( c12 < ) b12 a12 b4~ ( b12 ) a12 g12 a4~ ( a4~ ) a12~ ( a12 ) r12 r4 L @45 W0,100,50 O2 YL. P14,13,8 r6 c12 < b12 > c12 < a12~ a4. ( a8 ) > r1 r2 r12 c12 d12 e8 ( d32 c32 < b32 a32 g32 f+32 e32 r32 ) r8 r2. r2 r6 g+12 > e6 d12 e2~ ( e12 ) r12 e12 a6 g12 f2~ ( f12 ) r12 d12 g6 f12 e1 d+2 d2 @28 W0,100,39 YL. PX c12 c12 d12 c12 < b12 > c12 < a12 r6 r4 O1 @40 W0,100,0 [ YLR e6 YL. e12 ]4 [ YLR d6 YL. d12 ]4 [ YLR f+6 YL. f+12 ]4 [ YLR d6 YL. d12 ]3 @42 W0,100,0 YL. < e32 f+32 g+32 a32 b32 > c+32 d32 d+32 e6 O2 @28 W0,100,39 YL. c+12 Y.R ( c+12 ) r12 YL. c+12~ c+4 @40 W0,100,0 e4~ e6 @28 W0,100,39 c+12 c+12 Y.R ( c+12 ) YL. c+12 c+4 @40 W0,100,0 d6 c+12 d6 @28 W0,100,39 d12 Y.R ( d12 ) r12 YL. d12~ d4 @40 W0,100,0 d4 c+6 @28 W0,100,39 c+12 c+12 Y.R ( c+12 ) YL. c+12 c+4 @42 W0,100,0 O1 a6 g+12 f+1 f2 g+4 b4 a1 g+6 @28 W0,100,39 O2 e12 e12 d+12 f+12 e4 @42 W0,100,0 O0 b24 > c+24 d24 e24 f+24 g+24 a2 a+2 b2 ( b12 ) < b12 > d12 f+12 b12 a12 g+1 e2. ( e4 ) @40 W0,100,0 O1 YL. f2.~ f6 @28 W0,100,39 O1 b12 > c12 Y.R ( c12 ) < @40 W0,100,0 O1 YL. c4~ c12 c4~ c6 @28 W0,100,39 O1 a+12 b12 Y.R ( b12 ) @40 W0,100,0 O1 YL. < b12~ b2. > d2 c+4~ c+6 @28 W0,100,39 O1 > c+12 d12 Y.R ( d12 ) < @40 W0,100,0 O1 YL. f12~ f2~ f6 @28 W0,100,39 O1 b12 > c12 Y.R ( c12 ) < @40 W0,100,0 O1 YL. e4~ e12 e4~ e4 d+2 d2 c6 @28 W0,100,39 O1 > c12 [ YL. c24 Y.R ( c24 ) ]3 YL. c12 Y.R ( c12 ) r12 r4 < 
