;012 001DF534
!1  T205 [ r1 ]4 V4 O1 @@0,0,1 E100,70,30,16,27 YL. e12 < b12 g12 > e12 < b12 g12 > g12 e12 < b12 > b12 g12 e12 ) > d12 < b12 g12 > g12 d12 < b12 > b12 g12 d12 > d12 < b12 g12 ) > e12 c+12 < a12 > a12 e12 c+12 ) > c+12 < a12 e12 > e12 c+12 < a12 ) > g12 e12 c12 > c12 < g12 e12 > c12 < g12 e12 > d12 < a12 f+12 V9 O1 @@1,0,1 E100,70,40,16,16 YLR g2. Y.R _V-5 g4 _V5 YLR b2. Y.R _V-5 g4 _V5 > YLR c+2. Y.R _V-5 g4 _V5 YLR e2. Y.R _V-5 g4 _V5 YLR g2. Y.R _V-5 g4 _V5 O2 V14 @@1,2,0 E70,100,60,11,32 P8,11,3 r8 YL. d+8 _V-3 d+8 _V-3 Y.R d+8 _V6 r8 YL. d+8 _V-3 d+8 _V-3 Y.R d+8 _V6 L V5 O2 @@1,2,1 E100,90,60,16,27 P6,8,4 YL. D2 r16 r4 g8 _V-4 g8 _V4 f+8 _V-4 f+8 _V4 g8 _V-4 g8 _V4 a8 _V-4 a8 _V4 g8 _V-4 g8 _V4 f+8 _V-4 f+8 _V4 g8 _V-4 g8 _V4 f+4 _V-4 f+8 _V4 g8 e2~ _V-4 e4 _V-2 e4 _V2 _V4 r2 r4 g8 _V-4 g8 _V4 f+8 g8~ g8 _V-4 g8 _V4 a8 _V-4 a8 _V4 g8 _V-4 g8 _V4 f+8 g8~ g8 _V-4 g8 _V4 f+4 _V-4 f+8 _V4 g8 e2~ _V-4 e4 _V-2 e4 _V2 _V4 r2 Y.R r4 [ f+8 ]6 f+8 f+8 g8 f+8~ f+8 _V-4 f+8 _V-2 f+8 _V2 r8 _V4 r4 [ g8 ]6 g8 g8 a8 g8~ g8 _V-4 g8 _V-2 g8 _V2 r8 _V4 r4 a4 [ a8 ]4 a8 a8 b8 a8~ a8 _V-4 a8 _V-2 a8 _V2 r8 _V4 r4 > [ c8. _V-5 c16 _V5 ]3 d8 _V-4 d8 _V4 c8 < g8 _V-4 g8 _V4 r4 r16 O3 V8 @@1,2,0 E70,100,60,11,32 P8,11,3 YLR r8 e4 _V-4 e8 _V4 r8 e4 _V-4 e8 _V4 d+8 _V-4 d+8 @1 O0 V10 SD6 SR1 [ Y.R c48 YL. f48 H> H> H> ]18 [ H< H< H< ]18 SR0 V5 O2 @@1,2,1 E100,90,60,16,27 P6,8,4 YL. D2 r16 r4 g8 _V-4 g8 _V4 f+8 _V-4 f+8 _V4 g8 _V-4 g8 _V4 a8 _V-4 a8 _V4 g8 _V-4 g8 _V4 f+8 _V-4 f+8 _V4 g8 _V-4 g8 _V4 f+4 _V-4 f+8 _V4 g8 e16 V9 O3 @1 D0 P8,11,4 B5 d32~ e16. d8 < b8 > d8~ e8~ e16 _V-4 e16 _V4 f+16~ g16~ g8 g8 e8~ d8~ d32~ e32~ e8.~ e2.~ e2. B16~ < _V-3 e4 _V3 B5 r2. d8~ e8 g8 e8 a8 e8 g2 V6 O3 @@1,2,1 E100,90,60,16,27 P6,8,4 Y.R r4 [ d8 ]6 d8 d8 e8 d8~ d8 _V-4 d8 _V-2 d8 _V2 r8 _V4 r4 [ e8 ]6 e8 e8 f+8 e8~ e8 _V-4 e8 _V-2 e8 _V2 r8 _V4 r4 f+4 [ f+8 ]4 f+8 f+8 g8 f+8~ f+8 _V-4 f+8 _V-2 f+8 _V2 r8 _V4 r4 [ g8. _V-5 g16 _V5 ]3 g8 _V-4 g8 _V4 e8 c8 _V-4 c8 _V4 r4. r2 @2 O6 V4 SD6 SR2 [ Y.R c48 YL. d48 H< H< ]36 [ H> H> ]36 SR0 O3 V8 @@1,2,0 E70,100,60,11,32 P8,11,3 YLR r8 d+4 _V-4 d+8 _V5 r8 d+4 _V-4 d+8 _V4 d+4 r2. Y.R [ V12 r4 b8 b8 YL. _V-6 b8 _V6 Y.R b8 _V-6 Y.R b4 V2 r4 Y.R [ b8 _V2 ]6 V12 r4 a8 a8 YL. _V-6 a8 _V6 Y.R a8 _V-6 Y.R a4 V4 Y.R [ g8 _V2 ]5 V10 YLR f+4 _V-4 f+8 _V4 Y.R ]2 V7 O1 @1 D0 P8,11,4 B5 YL. [ e8 f+8 _V-4 f+8 _V4 g8 _V-4 g8 _V5 g8 a8 _V-4 a8 _V4 a16~ b8.~ b4 a2 ]2 V7 O2 @@1,2,1 E100,90,60,16,27 P6,8,4 Y.R c8 d8 _V-3 d8 _V3 e8 _V-3 e8 _V3 e8 e8 e8 f+8 _V-3 f+8 _V3 r4 b4 f+4 g1~ g2~ _V-3 g4 _V-3 g4 _V3 _V3 
!2  [ r1 ]4 V4 O1 @@0,0,1 E100,70,30,16,27 Y.R g12 e12 < b12 g12 e12 < b12 > b12 g12 e12 > e12 < b12 g12 ) > g12 d12 < b12 > b12 g12 d12 > d12 < b12 g12 > g12 d12 < b12 ) > a12 e12 c+12 > c+12 < a12 e12 ) > e12 c+12 < a12 > a12 e12 c+12 ) > c12 < g12 e12 > e12 c12 < g12 > g12 e12 c12 a12 f+12 d12 V9 O1 @@1,0,1 E100,70,40,16,16 YLR b2. YL. _V-5 b4 _V5 > YLR d2. YL. _V-5 d4 _V5 YLR e2. YL. _V-5 e4 _V5 YLR g2. YL. _V-5 g4 _V5 YLR b2. YL. _V-5 b4 _V5 V12 O2 @@1,2,0 E70,100,60,11,32 P8,11,3 r8 Y.R a8 _V-3 a8 _V-3 YL. a8 _V6 r8 Y.R a8 _V-3 a8 _V-3 YL. a8 _V6 L V12 O2 @@1,2,1 E100,90,60,16,27 P6,8,4 B5 YLR r4 g8 _V-4 g8 _V4 f+8 _V-4 f+8 _V4 g8 _V-4 g8 _V4 a8 _V-4 a8 _V4 g8 _V-4 g8 _V4 f+8 _V-4 f+8 _V4 g8 _V-4 g8 _V4 f+4 _V-4 f+8 _V4 g8 e2~ _V-4 e4 _V-2 e4 _V2 _V4 r2 r4 g8 _V-4 g8 _V4 f+8 g8~ g8 _V-4 g8 _V4 a8 _V-4 a8 _V4 g8 _V-4 g8 _V4 f+8 g8~ g8 _V-4 g8 _V4 f+4 _V-4 f+8 _V4 g8 e2~ _V-4 e4 _V-2 e4 _V2 _V4 r2 r4 [ f+8 ]6 f+8 f+8 g8 f+8~ f+8 _V-4 f+8 _V-2 f+8 _V2 r8 _V4 r4 [ g8 ]6 g8 g8 a8 g8~ g8 _V-4 g8 _V-2 g8 _V2 r8 _V4 r4 a4 [ a8 ]4 a8 a8 b8 a8~ a8 _V-4 a8 _V-2 a8 _V2 r8 _V4 r4 > [ c8. _V-5 c16 _V5 ]3 d8 _V-4 d8 _V4 c8 < g8 _V-4 g8 _V4 r8 _V2 a8 a8 b2. _V-6 b4 _V4 r1 r4 g8 _V-4 g8 _V4 f+8 _V-4 f+8 _V4 g8 _V-4 g8 _V4 a8 _V-4 a8 _V4 g8 _V-4 g8 _V4 f+8 _V-4 f+8 _V4 g8 _V-4 g8 _V4 f+4 _V-4 f+8 _V4 g8 e2~ _V-4 e4 _V-2 e4 _V2 _V4 r2 r4 g8 _V-4 g8 _V4 f+8 g8~ g8 _V-4 g8 _V4 a8 _V-4 a8 _V4 g8 _V-4 g8 _V4 f+8 g8~ g8 _V-4 g8 _V4 f+4 _V-4 f+8 _V4 g8 e2~ _V-4 e4 _V-2 e4 _V2 _V4 r2 r4 [ f+8 ]6 f+8 f+8 g8 f+8~ f+8 _V-4 f+8 _V-2 f+8 _V2 r8 _V4 r4 g8 _V-5 g8 _V5 [ g8 ]4 g8 g8 a8 g8~ g8 _V-4 g8 _V-2 g8 _V2 r8 _V4 r4 [ a8 ]4 a4 a8 a8 b8 a8~ a8 _V-4 a8 _V-2 a8 _V2 r8 _V4 r4 > [ c8. _V-5 c16 _V5 ]3 d8 _V-4 d8 _V4 c8 < g8 _V-4 g8 _V4 r8 _V2 a8 a8 b1~ b2~ _V-6 b4 _V-3 b4 _V3 _V4 r1 r4 b8 _V-4 b8 _V4 > c+8 _V-4 c+8 _V4 d+8 _V-4 d+8 _V4 e2. _V-6 e8 _V6 e8 d4 _V-4 d4 _V4 < b8~ _V-2 a8 _V2 g4 a8 _V-4 a8 _V4 a8 _V-4 a8 _V4 a8~ _V-3 g8 _V3 e8 g8~ g2 _V-4 g8 _V-4 g8 _V4 _V4 r4 > e2. _V-6 e8 _V6 e8 d4 _V-4 d4 _V4 < b8~ ( a8 ) g4 a8 _V-4 a8 _V4 a8 _V-4 a8 _V4 a4 e8 g8~ g2 _V-4 g8 _V-4 g8 _V4 _V4 r4 e8 f+8 _V-4 f+8 _V4 g8 _V-4 g8 _V4 g8 a8 _V-4 a8 _V4 b4. _V-5 b8 _V5 a4 _V-5 a4 _V5 e8 f+8 _V-4 f+8 _V4 g8~ g4 a8 _V-4 a8 _V4 b4. _V-5 b8 _V5 a4 _V-5 a4 _V5 e8 f+8 _V-4 f+8 _V4 g8 _V-4 g8 _V4 g8 a8 a8 b8 _V-4 b4 _V4 r8 > d4 < b4 > e1~ e2~ _V-6 e4 _V-3 e4 _V3 _V6 
!3  O0 V3 `9F00 @A3 @B0 @~3 B5 [ e1 g1 a1 > c2. d8 ( d8 ) < ]2 [ e8 ]8 [ g8 ]8 [ a8 ]8 > [ c8 ]4 c8 ( c8 ) d8 ( d8 ) < [ e8 ]8 r8 b4. ( b8 ) b4. L > [ [ e8 ( e8 ) > e8 ( e8 ) < e8 e8 > e8 ( e8 ) < ]2 [ c8 ( c8 ) > c8 ( c8 ) < c8 c8 > c8 ( c8 ) < ]2 ]2 [ d8 ( d8 ) > d8 ( d8 ) < d8 d8 < b8 a8 > ]2 e8 ( e8 ) > e8 ( e8 ) < e8 e8 d8 d+8 e8 ( e8 ) > e8 ( e8 ) < e8 e8 d8 e8 d8 ( d8 ) > d8 ( d8 ) < d8 d8 < b8 a8 > d8 ( d8 ) > d8 ( d8 ) < d8 d8 < b8 > d8 [ c8 ]7~ g8 > [ c8 ]7 < ( a8 ) < r8 b4. ( b8 ) b4. b8 ( b8 ) r2. > [ [ e8 ( e8 ) > e8 ( e8 ) < e8 e8 > e8 ( e8 ) < ]2 [ c8 ( c8 ) > c8 ( c8 ) < c8 c8 > c8 ( c8 ) < ]2 ]2 [ d8 ( d8 ) > d8 ( d8 ) < d8 d8 < b8 a8 > ]2 e8 ( e8 ) > e8 ( e8 ) < e8 e8 d8 d+8 e8 ( e8 ) > e8 ( e8 ) < e8 e8 d8 e8 [ d8 ( d8 ) > d8 ( d8 ) < d8 d8 < b8 a8 > ]2 [ c8 ]7~ g8 > [ c8 ]7 < a8 < b4 ( b8 ) b4 ( b4 ) b8~ b4 ( b8 ) b4 ( b8 ) b4 ( b8 ) b4. ( b8 ) b4. [ b8 ( b8 ) ]4 [ e8 ]8 [ g8 ]8 [ a8 ]8 > [ c8 ]3~ g8~ > d16 ( d16 ) B19 d32 <~ d16.~ d4 < [ e8 ]8 [ g8 ]8 [ a8 ]8 > [ c8 ]4 ( c8 ) d4. [ e8 e8 ( e8 ) e8 ( e8 ) e8 e4 [ d8 ]8 ]2 c8 c8 ( c8 ) c8 ( c8 ) c8 c8 ( c8 ) d4 ( d4 ) < b4.~ > ( b8 ) < < e1~ e2. ( e4 ) 
!4  @8 [ Y.R x1 YL. x1 Y.R x1 YL. x1 ]2 YLR @8 x4 [ @5 x8 @6 x8 ]3 [ [ @5 x8 @6 x8 ]4 ]2 @5 x8 @6 x8 @7 [ x4 ]3 [ @5 x8 @6 x8 ]3 @7 x4 @5 x4 @6 [ x4 ]3 L @8 x4 [ @5 x8 @6 x8 ]3 [ [ @5 x8 @6 x8 ]4 ]6 @5 x8 @6 x8 @7 [ x4 ]3 @8 x4 [ @5 x8 @6 x8 ]3 [ [ @5 x8 @6 x8 ]4 ]2 [ @5 x8 @6 x8 ]2 @5 x4 x4 @8 x4 [ @5 x8 @6 x8 ]3 [ [ @5 x8 @6 x8 ]4 ]2 [ @5 x8 @6 x8 ]3 @7 x4 @5 x8 @7 x4. @5 x8 @7 x4. @5 x4 @22 x2. @8 x4 [ @5 x8 @6 x8 ]3 [ [ @5 x8 @6 x8 ]4 ]6 [ @5 x8 @6 x8 ]2 @5 x4 x4 @8 x4 [ @5 x8 @6 x8 ]3 [ [ @5 x8 @6 x8 ]4 ]2 [ @5 x8 @6 x8 ]2 @5 x4 x4 @8 x4 [ @5 x8 @6 x8 ]3 [ [ @5 x8 @6 x8 ]4 ]2 @5 x8 @6 x8 [ @7 x8 @6 x8 ]3 @8 Y.R x4 @5 YLR x8 @8 YL. x8~ x4 @5 YLR x8 @8 x8~ x4 @5 x8 @7 x8 @5 x4 x4 r8 @8 Y.R x4. r8 @8 YL. x4. @8 YLR x4 @22 x2. @8 x4 [ @7 x8 @6 x8 ]3 [ [ @7 x8 @6 x8 ]4 ]2 [ @7 x8 @6 x8 ]2 @5 x8 @7 x4. @8 x4 [ @7 x8 @6 x8 ]3 [ [ @7 x8 @6 x8 ]4 ]2 @7 x8 @6 x8 @7 x4 @5 x8 @7 x4. @8 x4 [ @5 x8 @6 x8 ]3 [ [ @5 x8 @6 x8 ]4 ]2 [ @5 x8 @6 x8 ]3 @7 x4 @8 x4 @6 x4 x4 x4 @8 Y.R x2 YL. x2 YLR @8 x1 r2. r8 @7 x8 
!5  V1 O1 [ @0 x1 x1 x1 x2. @2 YL. d4 YLR ]2 [ @0 x4 @30 x4 @0 x4 @30 x4 ]3 @0 x4 @30 x4 @0 x4 x4 @0 x4 @30 x4 @0 x4 @30 x4 r8 @0 x8 r4 r8 @0 x8 r4 L [ @0 x4 @30 x4 @0 x4 @30 x4 @0 x4 @30 x4 @0 x4 @46 x4 ]3 @0 x4 @30 x4 @0 x4 @30 x4 @0 x4 @30 x4 @0 x4 @46 x8 @30 x16 x16 @0 x4 @30 x4 @0 x4 @30 x4 @0 x4 @30 x4 @0 x4 @46 x4 @0 x4 @30 x4 @0 x4 @30 x4 @0 x4 @30 x4 @0 x8 @2 Y.R g16 g16 @46 YLR x8 @2 YL. d16 d16 YLR [ @0 x4 @30 x4 @0 x4 @30 x4 @0 x4 @30 x4 @0 x4 @46 x4 ]2 r8 @0 x8 r4 r8 @0 x8 r4 @30 x4 r2 @2 YL. d4 YLR [ @0 x4 @30 x4 @0 x4 @30 x4 @0 x4 @30 x4 @0 x4 @46 x4 ]3 @0 x4 @30 x4 @0 x4 @30 x4 @0 x8 @2 Y.R g16 g16 YLR @0 x8 @2 Y.R g8 @0 YLR x8 @2 YLR g16 g16 @46 x8 @2 YL. d16 d16 YLR @0 x4 @30 x4 @0 x4 @30 x4 @0 x4 @30 x4 @0 x4 @46 x4 @0 x4 @30 x4 @0 x4 @30 x4 @0 x4 @30 x4 @0 x8 @2 Y.R g16 g16 @46 YLR x8 @2 YL. d16 d16 YLR [ @0 x4 @30 x4 @0 x4 @30 x4 @0 x4 @30 x4 @0 x4 @46 x4 ]2 @0 x4 @1 x8 @0 x8 r8 @2 Y.R g8 YL. d8 @0 YLR x8 r8 @2 YL. d8 d8 @0 YLR x8 r4 @2 g4 r8 @0 x8 r4 r8 @0 x8 r4 @30 x4 @2 Y.R b4 YLR g4 YL. d4 YLR [ [ @0 x4 @30 x4 @0 x4 @30 x4 ]3 @0 x4 @30 x4 @30 x8 @0 x8 r4 ]2 [ @0 x4 @30 x4 @0 x4 @30 x4 ]4 @0 x8 @2 Y.R g8 r8 g8 r8 YL. d8 d4 YLR @0 x2 x2 @28 W0,100,56 YL. ( b1~ b2. ) YLR @1 x8 x16 x16 
!6  O2 V1 @61 W0,100,33 B5 ( [ e1 g1 a1 > c2.~ d4 < ]2 ) @47 W0,100,50 O1 YLR e4~ ( e4 Y.R e4 YL. e4 ) YLR g4~ ( g4 Y.R g4 YL. g4 ) YLR a4~ ( a4 Y.R a4 YL. a4 ) > YLR c4~ ( c4 Y.R c4 YL. c4 ) YLR e4~ ( e4 Y.R e4 YL. e4 ) @14 O2 YLR r8 d4 ( d8 ) r8 d4 ( d8 ) L @26 W0,100,75 O2 Y.R [ [ r4 b8 r8 r8 b8 b4 ]2 > [ r4 c8 r8 r8 c8 c4 ]2 < ]2 @47 W0,100,50 O1 YL. d1~ ( [ YL. d8 Y.R d8 ]3 ) YL. d4 e1~ ( [ YL. e8 Y.R e8 ]3 ) YL. e4 d1~ ( [ YL. d8 Y.R d8 ]3 ) YL. d4 c1~ ( [ YL. c8 Y.R c8 ]4 @14 O2 YLR r8 b4 ( b8 ) r8 b4 ( b8 ) b8 ( b4. ) r2 @26 W0,100,75 O2 Y.R [ [ r4 b8 r8 r8 b8 b4 ]2 > [ r4 c8 r8 r8 c8 c4 ]2 < ]2 @47 W0,100,50 O1 YL. d1~ ( [ YL. d8 Y.R d8 ]3 ) YL. d4 e1~ ( [ YL. e8 Y.R e8 ]3 ) YL. e4 d1~ ( [ YL. d8 Y.R d8 ]3 ) YL. d4 c1~ ( [ YL. c8 Y.R c8 ]4 YLR < e4 ( e8 ) e4. ( e8 ) e8~ e4 ( e8 ) e4 ( e8 ) e4 > @14 O1 r8 b4. ( b8 ) b4. b4 @43 W0,100,0 O0 YL. < b4 > c+4 d+4 < [ @43 W0,100,0 YL. e1 d1 c+1 c2~ c8 @14 YLR > > d4. < < ]2 @26 W0,100,75 O2 Y.R [ b8 b8 r8 b8 r8 b8 b8 r8 b2 a2 ]2 @28 W0,100,56 O1 YL. e8 f+8 Y.R ( f+8 ) YL. g8 Y.R ( g8 ) YL. g8 a8 Y.R ( a8 ) YL. b4. Y.R ( b8 ) YL. > d4 < b8 Y.R ( b8 ) YL. > e4 e1~ e2 r4 
