;013 001E05C0
!1  T157 V7 O2 @2 E30,100,30,63,49 P14,11,2 YLR b1~ b1 a2. E80,100,30,14,49 b24 > c24 d24 e24 f24 g24 a12 Y.R _V-2 e24 f24 g24 a24 YL. _V-2 e24 f24 g24 a24 Y.R ( e24 f24 g24 a24 YL. ( e24 f24 g24 a24 r4 YLR _V4 E30,100,30,63,49 d1 < b2 g2 a1~ a1 e1~ e2 _V-2 e4 _V4 r4 L O2 V8 Y.R B7 @@5,1,2 E100,50,0,28,35 [ [ r8 [ Y.R g16 YL. _V-3 g16 _V3 ]2 Y.R e16 YL. _V-3 e16 _V3 Y.R g8. a16 YL. _V-3 a16 _V3 r8. ]2 r8 [ Y.R f+16 YL. _V-3 f+16 _V3 ]2 Y.R d16 YL. _V-3 d16 _V3 Y.R f+8. a16 YL. _V-3 a16 _V3 r16 Y.R d8~ f+8 > d16 YL. _V-3 d16 _V3 r8 Y.R c16 YL. _V-3 c16 _V3 < r8 Y.R b16 YL. _V-3 b16 _V3 r8 Y.R a16 YL. _V-3 a16 _V3 ]2 V7 O2 YLR B7 @@2,1,2 E100,80,50,42,42 P10,10,4 g+32~ a16.~ _V-3 a4 _V3 > c32~ c16.~ c4 _V-3 c8 _V3 < a+32~ b16.~ b1~ b1 g+8. _V-4 Y.R g+8. _V-2 YL. g+8 r2 V8 O1 @2 E100,80,50,42,42 P10,10,1 Y.R a1~ a1 g1~ g1 f+1~ f1 d+1 e1 a2 V9 O1 @@1,0,1 E50,100,80,3,35 P10,11,2 Y.R a2~ a2 > c2 < b1 > d1 c1 < a2 g2 V5 O2 @0 E100,60,0,49,42 P10,11,2 Y.R r8 e16 a16 > c16 e16 < a16 > c16 e16 a16 c16 e16 a16 > c16 < e16 a16 > c1 V7 O2 @@1,0,1 E50,100,80,3,35 P10,11,2 Y.R e2 < b2 > c2. _V-4 c4 _V4 < a2 g2 e2 g2 V10 O2 @@2,1,2 E100,80,50,28,42 P10,10,4 Y.R B7 e32~ f16.~ f16 e32~ f16.~ f16 f8~ f4.~ _V-5 d8 _V5 d+32~ e16.~ e16 d+32~ e16.~ e16 e8~ e4.~ _V-5 c8 _V5 d+4. _V-4 d+8 _V4 f+4. a8~ a1~ g+8~ _V-7 e8 _V7 r2 V8 O2 @@1,0,1 E80,100,80,3,35 P10,11,2 Y.R D2 d32 e32 f+32 g+32 a32 b32 > c+32 d32 D0 V7 O2 @@2,2,1 E100,90,60,21,35 P13,11,3 B7 Y.R > c+4. < b8 a4 _V-4 a8 _V4 r8 > c+4. < b8 a8. _V-3 a16 _V3 a8 b8 a8~ _V-3 g+8 _V3 f+8 a8 _V-3 a8 _V3 f+4 _V-3 f+8 _V3 a8 a8 a8 g8 e8 e8 g8 _V-3 g8 _V3 > c+4. < b8 a4 _V-4 a8 _V4 r8 > c+4. < b8 a8. _V-3 a16 _V3 a8 b8 a8~ _V-3 g+8 _V3 f+8 a8 _V-3 a8 _V3 f+4 _V-3 f+8 _V3 a8 a8 a8 g8 e8 e8 g8 _V-3 g8 _V3 a8 g8 e4. _V-4 e4 _V4 r8 g8 g8 g8 g8 g8 g8 g8 a8 g8 e8~ e2 _V-6 e8 V6 Y.R @0 f+8~ f+1~ ) f+4~ ) f+4~ ) f+4~ ) f+4 
!2  V8 O2 YLR @2 E100,50,0,28,28 P7,10,2 [ r4 YLR a16 ( Y.R a16 ( YL. a16 ( Y.R a16 _V3 > YLR d16 ( Y.R d16 ( YL. d16 ( Y.R d16 _V3 YLR g16 ( Y.R g16 ( YL. g16 ( Y.R g16 _V3 YLR e16 ( Y.R e16 ( YL. e16 ( Y.R e16 _V3 YLR b16 ( Y.R b16 ( YL. b16 ( Y.R b16 _V3 YLR a16 ( Y.R a16 ( YL. a16 ( Y.R a16 _V3 > YLR e16 ( Y.R e16 ( YL. e16 ( Y.R e16 _V3 YLR d16 ( Y.R d16 ( YL. d16 ( Y.R d16 _V3 < YLR a16 ( Y.R a16 ( YL. a16 ( Y.R a16 _V3 > YLR c16 ( Y.R c16 ( YL. c16 ( Y.R c16 _V3 YLR b16 ( Y.R b16 YL. b16 ( Y.R b16 YL. b16 ( Y.R b16 YL. b16 ( Y.R b16 YL. b16 ( Y.R b16 YL. b16 ( Y.R b16 YL. b16 _V6 r16 r4. < < ]2 YLR _V-4 a32 > _V2 c32 _V2 e16 ( Y.R e16 ( YL. e16 ( Y.R e16 ( YL. e16 ( Y.R e16 ( YL. e16 _V5 V2 O2 @2 EX YLR c2~ c2. r4 L V8 O2 YL. B7 @@1,0,1 E50,100,80,7,35 P10,11,2 [ e1~ e2~ e8~ g4. f+4.~ d2~ a8 a2. _V-4 a4 _V4 ]2 V10 O3 YLR B7 @@2,1,2 E100,80,50,28,42 P10,10,4 e32~ f16.~ _V-4 f4 _V4 d+32~ e16.~ e4 _V-4 e8 _V4 d32~ d+16.~ d+1~ d+1 e8. _V-7 YL. e8. _V-2 Y.R e8 r4 V10 O2 @@2,2,1 E100,90,60,21,35 P13,11,3 B7 YLR e8 _V-4 e8 _V4 > e2. _V-5 e4 _V5 r4 c8 d8 e8 f8 e8 d8 d4. < b4. _V-5 b4 _V5 r4 b8 > c8 d8 e8 d8 c8 c4. < a4. _V-5 a4 _V5 r4 a8 b8 > c8 d8 c4 < b2 a8. b8. a8 g+2 _V-6 g+4 _V6 r8 e8 > e8 e8~ e2 _V-5 e4 _V5 r4 c8 d8 e8 f8 e8 c8~ d4. < b4. _V-5 b4 _V5 r4 b8 > c8 d8 e8 d8 < b8~ > c4. < a4. _V-5 a4 _V5 r8 > c8 c8 c8 < b8. g8. b8 b8 a8~ a2 _V-6 a4 _V6 O3 V4 @0 c16 e16 a16 > c16 < e16 a16 > c16 e16 a4 _V-3 a4 _V3 O2 V10 @@2,2,1 b8 b8 b8 b8 b8~ _V-4 a8 _V4 a8 b8 > c2 _V-6 c4 _V6 r4 d8 d8 d8 d8~ d8 d8 e8 f8 _V-4 f8 _V4 e4~ e16~ _V-6 c16 _V6 r2 f8 f4 f8 e8 d8 d8 e8~ e8 e8 d8 c8~ c8 _V-5 c4 _V5 r8 < b8 b8 b8 b8 > d+8 d+4 e8~ e1 _V-5 e8 _V5 r8 r2. e4. d8 c+4 _V-5 c+8 _V5 r8 e4. d8 c+8. _V-4 c+16 _V4 c+8 d8 e8~ _V-4 d+8 _V4 d8 a8 _V-4 a8 _V4 d4 _V-4 d8 _V4 c8 c8 c8 < b8 a8 a8 b8 _V-4 b8 _V4 > e4. d8 c+4 _V-5 c+8 _V5 r8 e4. d8 c+8. _V-4 c+16 _V4 c+8 d8 e8~ _V-4 d+8 _V4 d8 a8 _V-4 a8 _V4 d4 _V-4 d8 _V4 c8 c8 c8 < b8 a8 a8 b8 _V-4 b8 _V4 > c8 < b8 a4. _V-4 a4 _V4 r8 b8 b8 b8 b8 b8 b8 b8 > c8 < b8 a8~ a2 _V-6 a8 V8 YL. @1 d8~ d1~ d1 
!3  O0 V2 `9F00 @A1 B7 a2.~ a8 > a16~ b16 B18 a2.~ a8~ e8 f+1~ f+2.~ f+8~ < g8 B7 a2.~ a8 > a16~ b16 B18 a1 d16 > d+16 e16 f+16~ f+2.~ f+2~ d2 < < f1~ f2. r4 V3 L `9F00 @A3 @B0 @~3 B7 [ a8 ( a8 ) a8 ( a8 ) a8 ( a8 ) a8 > a8 ( a8 ) a8 < a8 ( a8 ) a8 ( a8 ) a8 a8 > d8 ( d8 ) d8 ( d8 ) d8 ( d8 ) d8 > d8 ( d8 ) d8 < d8 ( d8 ) d8 ( d8 ) d8 ( d8 ) < ]2 > f4 ( f8 ) e4. ( e8 ) d+8~ d+1~ d+1 e8 ( e8 ) < r2 e8 ( e8 ) a8 ( a8 ) a8 ( a8 ) a8 ( a8 a8 ) > a8 ( a8 ) a8 < a8 ( a8 ) a8 ( a8 ) a8 e8 g8 ( g8 ) g8 ( g8 ) g8 ( g8 g8 ) > g8 ( g8 ) g8 < g8 ( g8 ) g8 ( g8 ) g8 e8 f+8 ( f+8 ) f+8 ( f+8 ) f+8 > f+8 < ( f+8 ) e8 f8 ( f8 ) f8 ( f8 ) f8 > f8 < f8~ ( a8 ) b8 ( b8 ) b8 ( b8 ) P0,14,20 > d+4. < PX b8 e8 > e8 ( e8 ) e8 < e8 > e4 < e8 a8 ( a8 ) a8 ( a8 ) a8 ( a8 a8 ) > a8 ( a8 ) a8 < a8 e8 a8 ( a8 ) a8 e8 g8 ( g8 ) g8 ( g8 ) g8 ( g8 ) g8 > g8 ( g8 ) g8 < g8 e8 g8 > g8 < g8 e8 f+8 ( f+8 ) f+8 > f+8 < f+8 ( f+8 ) f+8 e8 f8 > f8 < f8 f8 e8 ( e8 ) e8 e8 a8 ( a8 ) a8 ( a8 ) a8 > a8 < a8 ( a8 ) a2. `9F00 @A1 B21 ( > > e32~ > d16.~ d8~ d2 < < ) e2 < `9F00 @A3 @B0 @~3 B7 a2 ( a4. ) a8 > d4. ( d8 ) < g4. ( g8 ) > c2 > `9F00 @A1 d4 c4 < < `9F00 @A3 @B0 @~3 a+8 ( a+16 ) a+16 ( a+8 ) a+8~ a+2 a8 ( a16 ) a16 ( a8 ) a8~ a2 [ b8 ]7 e8 ( e8 ) [ e8 ]7 e8 ( e8 ) r2. a8 ( a8 ) a8 ( a8 ) a8 ( a8 ) a8 a8 g8 ( g8 ) g8 ( g8 ) g8 ( g8 ) g8 g8 f+8 ( f+8 ) f+8 ( f+8 ) f+8 ( f+8 ) f+8 f+8 f8 ( f8 ) f8 ( f8 ) e8 ( e8 ) e8 ( e8 ) a8 ( a8 ) a8 ( a8 ) a8 ( a8 ) a8 a8 g8 ( g8 ) g8 ( g8 ) g8 ( g8 ) g8 g8 f+8 ( f+8 ) f+8 ( f+8 ) f+8 ( f+8 ) f+8 f+8 f8 ( f8 ) f8 ( f8 ) e8 ( e8 ) e8 e8 f8 > f8 < f8 ( f8 ) f8 ( f8 ) f8 f+8 g8 > g8 < g8 ( g8 ) g8 ( g8 ) g8 g+8 a8 > a8 < a8 ( a8 ) a8 ( a8 ) a8 > d8~ d1~ B18 d2 ( d8 ) d8 a32~ d16.~ < e8 
!4  `8E00 `8F00 `9E00 V3 E100,0,0,3,0 r1 r6 x12 r12 x12 r12 E100,0,0,28,0 x2 E100,0,0,3,0 r2 r6 x12 r12 x12 r12 r6 x12 r12 x12 r12 E100,0,0,28,0 x2 E100,0,0,3,0 r2 r6 x12 r12 x12 r12 r6 x12 r12 x12 r12 E100,0,0,28,0 x2 V1 EX x6 [ x6 ) ]5 x12 [ ( x12 ]5 r2 x2 [ x8 ) ]4 [ x8 ) ]4 [ x16 ( ]4 @1 x4 L @8 x4 [ @5 x8 x16 x16 ]3 [ [ @5 x8 x16 x16 ]4 ]3 @8 x4 [ @5 x8 x16 x16 ]3 [ [ @5 x8 x16 x16 ]4 ]3 @8 x4 @6 x8 @8 x4 @5 x8 x8 @8 x4 @23 x8~ x2.~ x1 @8 x4 r2 @5 x4 @8 x4 [ @5 x8 x16 x16 ]3 [ [ @5 x8 x16 x16 ]4 ]7 @8 x4 [ @5 x8 x16 x16 ]3 [ [ @5 x8 x16 x16 ]4 ]5 @5 x8 x16 x16 @7 x8 @5 x16 x16 [ @5 x8 x16 x16 ]2 @8 x4 r2. @8 x4 @5 x16 @6 x16 x16 x16 @7 x8 @6 x16 x16 @5 x16 @6 x16 x16 x16 [ [ @5 x16 @6 x16 x16 x16 ]2 @7 x8 @6 x16 x16 @5 x16 @6 x16 x16 x16 ]2 [ @5 x16 @6 x16 x16 x16 ]2 @7 x8 @6 x16 x16 @5 x8 x8 @8 x4 @5 x8 @7 x8 @5 [ x8 ]4 @5 x8 x8 x8 @7 x8 @5 x8 @7 x8 @5 x8 x8 @5 [ x8 ]7 @8 x8~ x1 r2. x4 @8 x4 @7 x8 @5 x16 x16 x8 x16 x16 @7 x8 @5 x16 x16 [ @5 x8 x16 x16 @7 x8 @5 x16 x16 x8 x16 x16 @7 x8 @5 x16 x16 ]3 @8 x4 @7 x8 @5 x16 x16 x8 x16 x16 @7 x8 @5 x16 x16 [ @5 x8 x16 x16 @7 x8 @5 x16 x16 x8 x16 x16 @7 x8 @5 x16 x16 ]3 @8 x4 @7 x8 @5 x16 x16 x8 x16 x16 @7 x8 @5 x16 x16 @5 x8 x16 x16 @7 x8 @5 x16 x16 x8 x16 x16 @7 x8 @5 x16 x16 @5 x8 x16 x16 @7 x8 @5 x16 x16 x8 x16 x16 x8 @8 x8~ x1 @5 [ x4 ]4 
!5  V1 O2 Y.R @40 W0,100,0 Y.R g1~ g2. ( g4 ) f+1~ f+2. ( f+4 ) < g1~ g2. ( g4 ) f+1~ f+2. ( f+4 ) > a1~ a2 ( a4 ) O1 YLR H-5 @2 d4 L [ @0 x4 @30 x4 @0 x4 @30 x4 ]3 @0 x4 @30 x4 @0 x4 @30 x8 @2 YL. g8 YLR [ @0 x4 @30 x4 @0 x4 @30 x4 ]3 @0 x4 @30 x4 @0 x4 @30 x8 @2 YL. b8 YLR @0 x4 @1 x8 @0 x8 r8 @2 Y.R b8 YL. g8 YLR @0 x8 O1 Y.R H0 @40 W0,100,0 r8 d+24 f+24 a24 b24 f+24 a24 b24 > d+24 < a24 b24 > d+24 f+24 < b24 > d+24 f+24 a24 d+24 f+24 a24 b24 f+24 a24 b24 > d+24 < a24 b24 > d+24 f+24 < b24 > d+24 f+24 a24 d+24 f+24 a24 b24 f+24 a24 b24 > d+24 < a24 b24 > d+24 f+24 < b24 O1 H-5 YLR @0 x4 r2 @2 d4 [ @0 x4 @30 x4 @0 x4 @30 x4 ]7 @0 x8 @2 Y.R b16 b16 YLR @30 x8 Y.R @2 b8 YLR @0 x8 @2 g8 @30 x8 @2 YL. d8 YLR [ @0 x4 @30 x4 @0 x4 @30 x4 ]6 @0 x4 @30 x4 @0 x8 @2 Y.R b8 [ b24 ]3 YL. [ g24 ]3 YLR @0 x4 r2 @2 g4 @0 x2 @2 g2 r2 @2 g2 @0 x2 @2 g2 @0 x2 @2 g4 @1 x16 x16 @2 Y.R b8 YLR @0 x8. x16 @1 x8 @0 x8 @0 x4 @1 x4 @0 x8. x16 @1 x8 @0 x8 @0 x8 x8 @1 x8 x16 x16 @0 x4 @30 x4 @0 x4 @30 x8 @0 x8 r8 @0 x8 x8 x8 @2 d8 d8 d8 d8 @30 x8 @2 Y.R b24 YLR g24 YL. d24 YLR @0 x8 @1 x8 x32 @2 Y.R b32 YLR g32 YL. d32 YLR @0 x8 @1 x4 @0 x4 @30 x4 @0 x4 @30 x4 [ @0 x4 @30 x4 @2 g4 @30 x4 ]2 @0 x4 @30 x4 @2 g8 @1 x8 x16 x16 @2 Y.R b8 YLR [ @0 x4 @30 x4 @2 g4 @30 x4 ]3 @0 x8 @2 Y.R ( b16 b16 ) YLR @30 x8 @2 ( g16 g16 ) YL. d8 ( g8 ) YLR @30 x8 @2 YL. ( d8 ) YLR [ @0 x4 @30 x4 @2 g4 @30 x4 ]2 @0 x4 @30 x4 @0 x4 @30 x8 @0 x8 r1 [ @1 x8 @0 x8 ]4 
!6  V1 O2 YL. @40 W0,100,0 c1~ c2. ( c4 ) d1~ d2. ( d4 ) < c1~ c2. ( c4 ) d1~ d2. ( d4 ) a1~ a2 ( a4 ) r4 L O1 YLR B7 @42 W0,100,0 [ e1~ e2~ e8~ g4. f+4.~ d2~ a8 a2. ( a4 ) ]2 r1 O0 @40 W0,100,0 YL. d+24 f+24 a24 b24 f+24 a24 b24 > d+24 < a24 b24 > d+24 f+24 < b24 > d+24 f+24 a24 d+24 f+24 a24 b24 f+24 a24 b24 > d+24 < a24 b24 > d+24 f+24 < b24 > d+24 f+24 a24 d+24 f+24 a24 b24 f+24 a24 b24 > d+24 < a24 b24 > d+24 f+24 < b24 > d+24 f+24 a24 > e8 ( e8 ) r2. O2 YL. @26 W0,100,75 [ r8 a8 a8 r8 g+16 a8 a16 r4 ]2 [ r8 b8 b8 r8 a+16 b8 b16 r4 ]2 [ r8 a8 a8 r8 g+16 a8 a16 r4 ]2 [ r8 b8 b8 r8 a+16 b8 b16 r4 ]2 [ r8 a8 a8 r8 g+16 a8 a16 r4 ]2 [ r8 b8 b8 r8 a+16 b8 b16 r4 ]2 r8 a8 a8 r8 g+16 a8 a16 r4 r8 a8 a8 r8 g16 g8 g16 r4 O0 @43 W0,100,0 e16 a16 > c16 e16 < a16 > c16 e16 a16 c16 e16 a16 > c16 < e16 a16 > c16 e16 a2 ( a2 ) < < < g+1 a2. ( a4 ) > c2 < b2 ( b4 ) g4 b4 > e4 d1 c1 < b1 c16 d16 e16 f16 g16 a16 b16 > c16 d16 e16 f16 g16 a16 b16 > c16 d16 @42 W0,100,0 e8 Y.R ( e8 ) @43 W0,100,0 YL. ( e8 Y.R e8 ) YL. r4 O0 @42 W0,100,0 d32 e32 f+32 g+32 a32 b32 > c+32 d32 ( e1~ e1~ e1~ e2 r8 < e24 f+24 g+24 a16 b16 > c+16 d16 e1~ e1~ e1~ e1 r4 c16 < b16 a16 g16 a2 g1 ) @43 W0,100,0 c2. r8 > YLR ( e8~ e2. e4 ) [ [ c24 e24 ]3 ]4 < 
