;014 001E158E
!1  T138 L O3 V10 Y.R @@1,2,1 E100,80,30,16,32 P13,8,2 f+16 _V-5 f+16 _V5 f+8~ f+8 _V-5 f+8 _V5 r4. c+8 < b4 > c+4 < g+4 b4 @2 P8,8,4 V14 B16 Y.R b16~ > c+16~ c+4 < b8 a4 e4 g+16~ a16~ a4 g+8 a4 b8.~ _V-5 < f+16~ _V-5 f+8 [ ) ]10 r8 r2. r2. r8 @1 V5 YL. ( d+16 Y.R _V-3 d+16 _V3 [ YL. e8 Y.R _V-3 e8 _V3 r8 YL. d+16 Y.R _V-3 d+16 _V3 ]2 @2 V2 O2 Y.R a8 ) a8 ) a8 ) a8 ) a8 _V2 a8 _V2 a8 _V2 a8 [ ( ]10 O3 V10 Y.R @@1,2,1 E100,80,30,16,32 P13,8,2 f+16 _V-5 f+16 _V5 f+8~ f+8 _V-5 f+8 _V5 r4. c+8 < b4 > c+4 < g+4 b4 @2 P8,8,4 V14 B16 Y.R b16~ > c+16~ c+4 < b8 a4 e4 g+16~ a16~ a4 g+8 a4 b8.~ _V-5 < f+16~ _V-5 f+8 [ ) ]10 r8 r2. r2. r8 @1 V5 YL. ( d+16 Y.R _V-3 d+16 _V3 [ YL. e8 Y.R _V-3 e8 _V3 r8 YL. d+16 Y.R _V-3 d+16 _V3 ]2 @2 V2 O2 Y.R a8 ) a8 ) a8 ) a8 ) a8 _V2 a8 _V2 a8 _V2 a8 [ ( ]10 @1 V5 O3 YLR [ b16 _V-2 e16 < b16 > e16 _V2 ]4 [ a16 _V-2 d16 < a16 > d16 _V2 ]4 V8 @@1,2,1 E100,80,30,16,32 P13,8,2 Y.R < a4 > c+4 d+4 f+4 d2 e2 c+8 _V-4 c+8 _V4 r2. r1 r1 r2. r8 @1 V5 YL. ( d+16 Y.R _V-3 d+16 _V3 [ YL. e8 Y.R _V-3 e8 _V3 r8 YL. d+16 Y.R _V-3 d+16 _V3 ]2 @2 V2 O2 YL. a8 ) a8 ) a8 ) a8 ) a8 _V2 a8 _V2 a8 _V2 a8 [ ( ]10 
!2  L O3 V11 YLR @@1,2,1 E100,80,30,16,32 P13,8,2 B12 < a16 _V-5 a16 _V5 a8~ a8 _V-5 a8 > _V5 r4. a8 g+4 a4 c+4 e4 _V2 f+4 _V-2 _V-3 f+8 _V3 O2 @2 P8,8,4 V8 B16 YL. g+8 f+4 c+4 e16~ f+16~ f+4 e8 f+4 g+8.~ _V-3 c+16~ _V-3 c+8 r8 _V6 @3 EX O3 V4 B8 Y.R [ c+32~ f+32~ f+8 r16 ]3 [ c+32~ f+32~ f+8 r16 c+32~ f+32~ f+8 r16 ) ]4 @2 V2 O2 Y.R e8 ) e8 ) e8 ) e8 ) e8 _V2 e8 _V2 e8 _V2 e8 [ ( ]10 O3 V11 YLR @@1,2,1 E100,80,30,16,32 P13,8,2 B12 < a16 _V-5 a16 _V5 a8~ a8 _V-5 a8 > _V5 r4. a8 g+4 a4 c+4 e4 _V2 f+4 _V-2 _V-3 f+8 _V3 O2 @2 P8,8,4 V8 B16 YL. g+8 f+4 c+4 e16~ f+16~ f+4 e8 f+4 g+8.~ _V-3 c+16~ _V-3 c+8 r8 _V6 @3 EX O3 V4 B8 Y.R [ c+32~ f+32~ f+8 r16 ]3 [ c+32~ f+32~ f+8 r16 c+32~ f+32~ f+8 r16 ) ]4 @2 V2 O2 Y.R e8 ) e8 ) e8 ) e8 ) e8 _V2 e8 _V2 e8 _V2 e8 [ ( ]10 O2 V14 @@1,2,1 E100,80,30,16,32 P13,8,2 B4 r8 [ YL. b16 Y.R _V-8 b16 _V8 ]3 > [ YL. e16 Y.R _V-8 e16 _V8 ]2 YL. e8 Y.R _V-7 e8 _V7 r8 [ Y.R f+16 YL. _V-8 f+16 _V8 ]2 Y.R g+16 YL. _V-5 g+16 _V5 Y.R a16 YL. _V-5 a16 _V5 Y.R a8 YL. _V-7 a8 _V7 r8 V11 YLR c+4 e8. _V-3 e16 _V3 f+4 a8. _V-3 a16 _V3 a4 _V-4 a8 _V4 r8 g+2 f+6~ _V-3 e12 _V3~ c+8 _V-4 c+8 _V4 @3 EX O3 V2 B8 Y.R [ c+32~ f+32~ f+8 r16 ]2 [ c+32~ f+32~ f+8 r16 c+32~ f+32~ f+8 r16 ) ]6 [ c+32~ f+32~ f+8 r16 ]4 @2 V2 O2 Y.R e8 ) e8 ) e8 ) e8 ) e8 _V2 e8 _V2 e8 _V2 e8 [ ( ]10 
!3  L O0 V3 `9F00 @A3 @B0 @~3 [ f+16 ( f+16 ) ]8 g+4 a4 c+4 e4 f+4. g+8 a4 c+4 d4. c+8 d4 e4 [ [ f+16 ( f+16 ) ]7 f+16 e16 ]4 [ f+16 ( f+16 ) ]8 g+4 a4 c+4 e4 f+4. g+8 a4 c+4 d4. c+8 d4 e4 [ [ f+16 ( f+16 ) ]7 f+16 e16 ]4 [ g+16 ( g+16 ) ]4 [ g16 ( g16 ) ]4 [ f+16 ( f+16 ) ]4 [ f16 ( f16 ) ]4 e4 a8 > c+8 d+4 f+4 [ d16 ( d16 ) ]3 c+16 d16 e8 < b8 > e4 < [ [ f+16 ( f+16 ) ]7 f+16 e16 ]6 
!4  L @8 x4 @5 x8 x8 @15 x8 @5 x8 x8 x8 @8 YL. x4 @5 YLR x4 @8 Y.R x4 @7 YLR x4 [ YLR @8 x4. Y.R x8 @8 YL. x4 r4 ]2 YLR @5 x8 x8 @25 x8 @5 x8 x8 x16 x16 @25 x8 x8 @5 x8 x8 @25 x8 @5 x8 x8 x16 x16 r16 @25 x8 x16 @5 x8 x8 @25 x8 @5 x8 x8 x16 x16 @25 x8 x8 @24 x1 @8 x4 @5 x8 x8 @15 x8 @5 x8 x8 x8 @8 YL. x4 @5 YLR x4 @8 Y.R x4 @7 YLR x4 [ YLR @8 x4. Y.R x8 @8 YL. x4 r4 ]2 YLR @5 x8 x8 @25 x8 @5 x8 x8 x16 x16 @25 x8 x8 @5 x8 x8 @25 x8 @5 x8 x8 x16 x16 r16 @25 x8 x16 @5 x8 x8 @25 x8 @5 x8 x8 x16 x16 @25 x8 x8 @24 x1 @8 x4 [ @7 x8 @5 x16 x16 ]3 [ @7 x8 @5 x16 x16 ]4 @8 x4 [ @7 x8 @5 x16 x16 ]3 @8 x4 [ @7 x8 @5 x16 x16 ]3 [ @5 x8 x8 @25 x8 @5 x8 x8 x16 x16 @25 x8 x8 @5 x8 x8 @25 x8 @5 x8 x8 x16 x16 r16 @25 x8 x16 ]2 @5 x8 x8 @25 x8 @5 x8 x8 x16 x16 @25 x8 x8 @24 x1 
!5  O1 V1 L @0 x8 x8 x8 @4 ( [ f+24 ]3 ) f+8 @0 x8 x8 x8 @4 ( a4 ) @0 x4 @4 ( c+4 ) @0 x8 @2 [ c24 ]3 @2 c4. @0 x8 x8 @1 ( x24 x24 ) x24 x4 @0 x4. x8 x8. @1 x16 x8 @2 [ c24 ]3 @2 c8 @0 [ x8 ]7 [ [ x8 ]8 ]3 @0 x8 x8 x8 @4 ( [ f+24 ]3 ) f+8 @0 x8 x8 x8 @4 ( a4 ) @0 x4 @4 ( c+4 ) @0 x8 @2 [ c24 ]3 @2 c4. @0 x8 x8 @1 ( x24 x24 ) x24 x4 @0 x4. x8 x8. @1 x16 x8 @2 [ c24 ]3 @2 c8 @0 [ x8 ]7 [ [ x8 ]8 ]3 [ @1 x8 @0 x8 @1 x8 @0 x16 x16 @1 x8 @0 x8 @1 x8 @0 x16 x16 ]3 @1 x8 @0 x8 @1 x8 @0 x8 @1 x8 @0 [ x24 ]3 @30 x16 @1 x16 x16 x16 @0 [ [ x8 ]8 ]6 
!6  V1 O1 YL. L O2 YL. @21 W0,100,0 c+16 ( c+16 ) c+8 ( c+8 ) r8 r4. ( e8 @20 W0,100,0 e4 @21 W0,100,0 e4 @20 W0,100,0 e4 @19 W0,100,0 g+4 ) O1 YLR @61 W0,100,33 ( f+4. g+8 a4 > c+4 d4. c+8 d4 e4 < ) r1 r2. r8 O1 @20 W0,100,0 YL. ( g+16 Y.R g+16 [ YL. a8 Y.R a8 r8 YL. g+16 Y.R g+16 ]2 YL. a8 Y.R a8 ) @43 W0,100,0 YLR ( c+2. ) O2 YL. @21 W0,100,0 c+16 ( c+16 ) c+8 ( c+8 ) r8 r4. ( e8 @20 W0,100,0 e4 @21 W0,100,0 e4 @20 W0,100,0 e4 @19 W0,100,0 g+4 ) O1 YLR @61 W0,100,33 ( f+4. g+8 a4 > c+4 d4. c+8 d4 e4 < ) r1 r2. r8 O1 @20 W0,100,0 YL. ( g+16 Y.R g+16 [ YL. a8 Y.R a8 r8 YL. g+16 Y.R g+16 ]2 YL. a8 Y.R a8 ) @43 W0,100,0 YLR ( c+2. ) O2 YLR @61 W0,100,33 B16 ( [ d+8~ e4. ]2 [ c+8~ d4. ]2 YL. < e4 a8 > c+8 d+4 f+4 d2 e2 ) [ r1 ]3 r2. r8 O1 @20 W0,100,0 YL. ( g+16 Y.R g+16 [ YL. a8 Y.R a8 r8 YL. g+16 Y.R g+16 ]2 YL. a8 Y.R a8 ) @43 W0,100,0 YLR ( c+2. ) 
