;015 001E1E34
!1  T135 V12 O1 Y.R @0 E70,100,60,16,49 P13,16,3 D2 g+4.~ g+16 _V-3 g+16 _V3 a+4 D0 @2 E80,100,60,33,49 P8,13,2 f8~ f24 _V-3 a+24 > c24 _V3 f2.~ f8 _V-3 f8 _V3 < @0 E70,100,60,16,49 P13,16,3 D2 a+4.~ a+16 _V-3 a+16 _V3 > c4 < D0 @2 E80,100,60,33,49 P8,13,2 a+8~ a+24 _V-3 > d+24 f24 _V3 a+2.~ a+8 _V-3 a+8 _V3 [ r4 f2 g8 _V-4 g8 _V4 ]2 L V12 O2 Y.R @0 E70,100,60,16,49 P13,16,3 [ d+16 d+16 f16 _V-4 f16 _V4 r2. r1 ]2 V8 O2 Y.R @3 E80,100,60,16,49 P8,13,2 c+1 g+8 _V-4 g+8 _V4 g+4. _V-4 g+8 _V4 g+12 _V-4 g+12 _V4 g+12 g+4. _V-4 g+8 _V4 f+4. _V-4 f+8 _V4 f8 _V-4 f8 _V4 d+2. c+2. < a+4 > c+12 _V-4 c+12 _V4 c+12 < a+4. _V-4 a+8 _V4 > d+12 _V-4 d+12 _V4 d+12 d+4. _V-4 d+8 _V4 c+4. _V-4 c+8 _V4 < a+12 _V-4 a+12 _V4 a+12 > c+2 _V-4 c+4 _V4 V10 O2 Y.R @1 E80,100,70,16,49 P8,13,2 f4 d+8 _V-4 d+8 _V4 f8 d+4 < a+8~ a+8 > c8 _V-6 c8 _V6 c8 d+8 _V-4 d+8 _V4 < a+8 _V-6 a+8 _V6 > f4 d+8 _V-4 d+8 _V4 f8 d+4 c8~ c8 d8 _V-4 d8 _V4 d+8 f2 f4 d+8 _V-4 d+8 _V4 f8 d+4 < a+8~ a+8 > c8 _V-6 c8 _V6 c8 d+8 _V-4 d+8 _V4 < a+8 _V-6 a+8 _V6 > f4. _V-4 f8 _V4 g4. _V-4 g8 _V4 
!2  V10 O2 @0 E70,100,60,16,49 P13,16,3 g+4.~ g+16 _V-3 g+16 _V3 a+2~ a+2. _V-4 a+4 _V4 a+4.~ a+16 _V-3 a+16 _V3 > c2~ c2~ c8. _V-3 c16 _V3 c12 _V-6 c12 _V6 c12 [ c+2. d+8 _V-4 d+8 _V4 ]2 L V10 O2 @0 E70,100,60,16,49 P13,16,3 [ c+16 c16 < a+16 _V-4 a+16 > _V4 r2. r1 ]2 V8 O1 YL. @3 E80,100,60,16,49 P8,13,2 g+1 > c+8 _V-4 c+8 _V4 c4. _V-4 c8 _V4 c12 _V-4 c12 _V4 c12 c4. _V-4 c8 _V4 < a+4. _V-4 a+8 _V4 a+8 _V-4 a+8 _V4 g+2 _V-4 g+4 _V4 YLR D1 r4 f8. _V-4 f16 _V4 a+8. _V-4 a+16 _V4 > f8. _V-4 f16 _V4 g+24 _V-4 g+24 _V4 g24 _V-4 g24 _V4 g+24 _V-4 g+24 _V4 a+4. _V-4 a+8 _V4 g12 _V-4 g12 _V4 g+12 a+4. _V-4 a+8 _V4 g+4. _V-4 g+8 _V4 g24 _V-4 g24 _V4 f24 _V-4 f24 _V4 d+24 _V-4 d+24 _V4 f2 _V-4 f8 _V4 r8 V12 O2 YL. D0 @1 E80,100,60,16,49 P8,13,2 > > g+4 g8 _V-4 g8 _V4 < < g+16 _V-4 g+16 _V4 g4 d+8~ d+8 f4 < a+16 _V-4 a+16 _V4 > d+16 c+16 c16 _V-4 c16 _V4 < a+8 _V-4 a+8 _V4 > > > g+4 g8 _V-4 g8 _V4 < < g+16 _V-4 g+16 _V4 g4 d+8~ d+8 f4 < a+8 > c4 _V-4 c4 _V4 > > _V-2 g+4 g8 _V-4 g8 _V4 < < g+16 _V-4 g+16 _V4 g4 d+8~ d+8 f4 < a+16 _V-4 a+16 _V4 > d+16 c+16 c16 _V-4 c16 _V4 < a+8 _V-4 a+8 _V4 > r1 
!3  V3 O0 `9F00 @A3 @B0 @~5 [ r1 r4 [ a+16 ]4 g16 ( g16 ) g+16 ( g+16 ) r4 ]2 > [ r4 c+2 d+8 ( d+8 ) ]2 < L V3 O0 [ `9F00 @A3 @B0 @~5 [ a+16 ( a+16 ) ]2 ( @A3 @~X a+2.~ a+1 ) ]2 V3 O0 `9F00 @A3 @B0 @~5 [ a+8 ( a+8 ) a+8 ( a+4 ) a+16 ( a+16 ) a+8 ( a+8 ) ]3 a+8 ( a+8 ) a+8 ( a+4 ) a+8 [ f16 ( f16 ) ]2 [ a+8 ( a+8 ) a+8 ( a+4 ) a+16 ( a+16 ) a+8 ( a+8 ) ]3 a+8 ( a+8 ) a+8 ( a+4 ) a+16 ( a+16 ) a+4 > c+4 d+8 ( d+8 ) c+8 d+4 c8~ c8 d4 d+8 f4 < a+8 ( a+8 ) > c+4 d+8 ( d+8 ) c+8 d+4 c8~ c8 d4 d+8 f4. ( f8 ) c+4 d+8 ( d+8 ) c+8 d+4 c8~ c8 d4 d+8 f4 < a+8 ( a+8 ) > c+2 d+2 
!4  [ r1 r4 @3 [ x16 ]4 x8 x8 r4 ]2 [ r4 @3 [ x16 ]4 x4 @8 x4 ]2 L [ @8 x8 @4 x16 x16 @8 x8 @4 x16 @3 x16 x16 @4 x16 @8 x8 x8 @3 x16 @4 x16 @8 x8 @4 x16 x16 @8 x8 @4 x16 @3 x16 x16 x16 @8 x8 @4 [ x16 ]4 ]2 [ @1 x8 @3 x16 @4 x16 @1 x8 @3 x16 @4 x16 @3 x16 @4 x16 @1 x8 @3 x8 @4 x16 x16 ]3 @8 x8 @3 x16 @4 x16 @8 x8 @3 x16 @4 x16 @3 x16 @4 x16 @8 x8 @4 [ x16 ]4 [ @1 x8 @3 x16 @4 x16 @1 x8 @3 x16 @4 x16 @3 x16 @4 x16 @1 x8 @3 x8 @4 x16 x16 ]3 @8 x8 @3 x16 @4 x16 @8 x8 @3 x16 @4 x16 @3 x16 @4 x16 @8 x8 @4 [ x16 ]4 @8 x8 @4 x16 x16 @3 x8 @4 x16 x16 @3 x8 @4 [ x32 ]4 [ x32 ]4 @3 x16 @4 [ x32 ]2 @4 [ x32 ]4 @3 x16 @4 [ x32 ]2 [ x32 ]4 @3 x8 x16 @4 [ x32 ]6 @3 x8 @4 x16 x16 @8 x8 @4 x16 x16 @3 x8 @4 x16 x16 @3 x8 @4 [ x32 ]4 [ x32 ]4 @3 x16 @4 [ x32 ]2 @4 [ x32 ]4 @3 x16 @4 [ x32 ]2 [ x32 ]4 @3 x8 @4 [ x16 ]4 @3 x16 @4 [ x32 ]6 @8 x8 @4 x16 x16 @3 x8 @4 x16 x16 @3 x8 @4 [ x32 ]4 [ x32 ]4 @3 x16 @4 [ x32 ]2 @4 [ x32 ]4 @3 x16 @4 [ x32 ]2 [ x32 ]4 @3 x8 x16 @4 [ x32 ]6 @3 x8 @4 x16 x16 @8 x8 @3 x16 @4 x16 @3 x16 @4 [ x32 ]6 @8 x8 @3 x16 @4 x16 @3 x16 @4 [ x32 ]6 
!5  V1 O2 @11 W0,100,55 c+4.~ c+16 ( c+16 ) d+2~ d+2. ( d+4 ) d+4.~ d+16 ( d+16 ) f2~ f2~ f8 ( f8 ) f12 ( f12 ) f12 [ g+2. a+8 ( a+8 ) ]2 L V1 O2 @11 W0,100,55 g+16 g16 f16 ( f16 ) @4 < a+4 r8 a+8 a+4 a+4 a+4 r8 a+8 [ f16 ]4 > @11 W0,100,55 < g+16 g16 f16 ( f16 ) @4 a+4 r8 a+8 a+4 a+4 a+4 r8 a+8 [ f16 ]4 a+4 V1 O0 @11 W0,100,55 a+8. ( a+16 ) > f8. ( f16 ) a+8. ( a+16 ) > c+24 ( c+24 ) c24 ( c24 ) c+24 ( c+24 ) d+4. ( d+8 ) c12 ( c12 ) c+12 d+4. ( d+8 ) c+4. ( c+8 ) c24 ( c24 ) < a+24 ( a+24 ) > c24 ( c24 ) < g+2 ( g+4 ) r4 f8. ( f16 ) a+8. ( a+16 ) > f8. ( f16 ) g+24 ( g+24 ) g24 ( g24 ) g+24 ( g+24 ) a+4. ( a+8 ) g12 ( g12 ) g+12 a+4. ( a+8 ) g+4. ( g+8 ) g24 ( g24 ) f24 ( f24 ) d+24 ( d+24 ) f2 ( f8 ) r8 O1 YLR @4 c+4 r2. @48 W0,100,45 r2. r8 a+16 a+16 @4 c+8 > @48 W0,100,45 f8~ f2~ f8 ( f8 ) r2. r8 d+16 d+16 a+1 ( a+8 ) r8 r2. @4 < c+8 > @11 W0,100,55 c+16 f16 g+8 ( g+8 ) @4 < d+8 > @11 W0,100,55 d+16 g16 a+8 ( a+8 ) 
!6  V1 O1 YL. @11 W0,100,55 D1 > c+4.~ c+16 ( c+16 ) d+4 < D0 @42 W0,97,0 f24 g+24 a+24 > c24 c+24 d+24 f2.~ f8 ( f8 ) < @11 W0,100,55 D1 > d+4.~ d+16 ( d+16 ) f4 < D0 @42 W0,97,0 a+24 > c24 c+24 d+24 f24 g+24 a+2.~ a+8 ( a+8 ) < [ r4 @42 W0,97,0 YL. c+2 @4 YLR d+4 ]2 L V1 O0 YL. @42 W0,97,0 [ g+16 g16 f16 ( f16 ) r2. r1 ]2 V1 O0 YL. @42 W0,97,0 r4 a+8. ( a+16 ) > f8. ( f16 ) a+8. ( a+16 ) > c+24 ( c+24 ) c24 ( c24 ) c+24 ( c+24 ) d+4. ( d+8 ) c12 ( c12 ) c+12 d+4. ( d+8 ) c+4. ( c+8 ) c24 ( c24 ) < a+24 ( a+24 ) > c24 ( c24 ) < @48 W0,100,45 a+4 > d+4 g+4 f2. < a+4 > f12 ( f12 ) f12 d+4. ( d+8 ) d+12 ( d+12 ) d+12 g4. ( g8 ) f4. ( f8 ) d+12 ( d+12 ) d+12 f4. ( f8 ) < @42 W0,97,0 YLR a+24 > c24 c+24 d+24 f24 g24 O1 g+4 g8 ( g8 ) g+16 ( g+16 ) g4 d+8~ d+8 f4 < a+16 ( a+16 ) > d+16 c+16 c16 ( c16 ) < a+8 ( a+8 ) > g+4 g8 ( g8 ) g+16 ( g+16 ) g4 d+8~ d+8 f4 < a+8 > c4. ( c8 ) g+4 g8 ( g8 ) g+16 ( g+16 ) g4 d+8~ d+8 f4 < a+16 ( a+16 ) > d+16 c+16 c16 ( c16 ) < a+8 ( a+8 ) > @48 W0,100,45 g+4. ( g+8 ) a+4. ( a+8 ) 
