;016 001E2714
!1  T162 r1 @0 P15,11,3 YL. V7 O2 B7 D2 a24~ b24~ b12 ( b12 ) a24~ b24~ b12~ a12~ a12. ( a24 ) a12 f+4~ f+4~ e12 _V-3 e12 _V3 e24~ f+24~ f+12 g+12 a12 g+12 f+12 e12 c+12~ d6~ d6 < b12~ b6 a12 g+4~ g+12~ _V-3 e12 _V3~ g+12~ _V-3 e12 _V3~ g+12~ _V-3 e12 _V3~ g+4~ g+8~ _V-4 e8 _V4 > L @0 EX P15,11,3 YL. V7 O2 B7 D2 a24~ b24~ b12 ( b12 ) a24~ b24~ b12~ a12~ a12. ( a24 ) a12 f+4~ f+4~ e12 _V-3 e12 _V3 e24~ f+24~ f+12 g+12 a12 g+12 f+12 e12 c+12~ d6~ d6 < b12~ b6 a12~ g+4~ _V-4 e4 _V4 r2. V6 O2 @@3,2,1 E100,90,60,20,34 f+12 b4 > c+4 d4 e6 e12 f+6 < b12~ b6 > d12~ d4 _V-3 d6 _V3 r12 < b4 > c+4 d4 e6 f+12~ f+4 e4 d4 e4 c+6 < a12~ a6 a12~ a2 _V-3 a6 _V3 r12 r2 r6 f+12 g6 > d12~ d4. _V-3 d8 _V3 r6 < g12 g6 > d12~ d4. _V-3 d8 _V3 r6 f+12~ f+6 f+12 e6 d12 e4 d6 f+12~ f+2~ f+8 _V-3 f+12~ f+8 _V3 r12 < f+4 a4 b4 > c+6 c+12 d6 < f+12~ f+6 a12~ a4 _V-3 a6 _V3 r12 f+4 a4 b4 > c+6 c+12 d4 c+4 < b4 > c+4 < a6 e12~ e6 e12~ e2 _V-3 e6 _V3 r12 r12 r2 r6 f+12 g6 g12~ g4. _V-3 g8 _V3 r6 g12 g6 g12~ g4. _V-3 g8 _V3 r6 > f+12~ f+6 f+12 e6 d12 e4 f+6 e12~ e2~ e8 _V-4 e8 _V4 r8 r24 c6 c4 c4 c4 c12~ c4 < b4 a4 > c4 < b6 f+4 a12~ a2 _V-3 a4 _V3 r2. > c6 c4 c4 c4 c+12~ c+4 c+4 c+4 < b4 a+12 > c+6 d12 e6 c+12 e6 e12 f+6 f12 r2 r12 < b12 > c+6 d12~ d6 d12 c+6 < b12 > c+6 < f+4 a12~ a2 _V-3 a12 _V3 r12 b12 > c+6 d12~ d6 d12 c+6 < b12 > c+6 < f+12 f+6 > c+12~ c+12~ _V-2 c12 _V2 < b12~ b2 _V-3 b6 _V3 r6 r4 > c+4 d4 e6 a12~ a4 d4 d4 e4 f+6 g12 a6 f+4 g12 a6 f+12~ f+4. _V-3 f+8 _V3 r12 < b12 > c+6 d12~ d6 d12 c+6 < b12 > c+6 < f+4 a12~ a2 _V-3 a6 _V3 r12 b12 > c+12 < b12 > d6 e12 f+6 g+12~ g+4 f+6 d12~ d6 < b12~ b2 _V-3 b6 _V3 r12 > r12 d6 g4 g4 a4 g12~ g4 f+4 e4 d4 f+6 g6 a6 a+6 f+6 e6 f+4 _V-3 f+6 _V3 r12 f+4 < b6 V8 O2 YLR @0 P15,11,3 EX B7 > f24~ f+24~ f+12 ( f+12 ) f24~ f+24~ f+12~ e12~ e12. ( e24 ) e12 < b4~ b4~ a12 _V-3 a12 _V3 a24~ b24~ b12 > c+12 d12 c+12 < b12 a12 g12~ g+6~ g+6 e12~ e6 d+12 d4~ d12~ < _V-2 b12 _V2~ > d12~ < _V-2 b12 _V2~ > d12~ < _V-2 b12 _V2~ > d4~ d8~ < _V-3 g+8 _V3 > 
!2  r1 V8 O2 @0 P15,11,3 EX B7 > f24~ f+24~ f+12 ( f+12 ) f24~ f+24~ f+12~ e12~ e12. ( e24 ) e12 < b4~ b4~ a12 _V-3 a12 _V3 a24~ b24~ b12 > c+12 d12 c+12 < b12 a12 g12~ g+6~ g+6 e12~ e6 d+12 d4~ d12~ < _V-2 b12 _V2~ > d12~ < _V-2 b12 _V2~ > d12~ < _V-2 b12 _V2~ > d4~ d8~ < _V-3 g+8 _V3 > L V8 O2 B7 @0 P15,11,3 EX > f12~ f+12 ( f+12 ) f24~ f+24~ f+12~ e12~ e12. _V-2 e24 _V2 e12 < b4~ b4~ a12 _V-4 a12 _V4 a24~ b24~ b12 > c+12 d12 c+12 < b12 a12 g12~ g+6~ g+6 e12~ e6 > e12~ d4 d12~ < f+12~ g12~ > d12 f+12 d12 _V-2 e12 g+6~ g+12~ a12 < _V2 V11 @@3,2,1 E100,90,60,20,34 f+12 b4 > c+4 d4 e6 e12 f+6 < b12~ b6 > d12~ d4 _V-4 d6 _V4 r12 < b4 > c+4 d4 e6 f+12~ f+4 e4 d4 e4 c+6 < a12~ a6 a12~ a2 _V-4 a6 _V4 r12 r2 r6 f+12 g6 > d12~ d4. _V-4 d8 _V4 r6 < g12 g6 > d12~ d4. _V-4 d8 _V4 r6 f+12~ f+6 f+12 e6 d12 e4 d6 f+12~ f+2~ f+8 _V-4 f+12~ f+8 _V4 r6 < b4 > c+4 d4 e6 e12 f+6 < b12~ b6 > d12~ d4 _V-4 d6 _V4 r12 < b4 > c+4 d4 e6 e12 f+4 e4 d4 e4 c+6 < a12~ a6 a12~ a2 _V-4 a6 _V4 r12 r2 r6 f+12 g6 > d12~ d4. _V-4 d8 _V4 r6 < g12 g6 > d12~ d4. _V-4 d8 _V4 r6 f+12~ f+6 f+12 e6 d12 e4 f+6 e12~ e2~ e8 _V-4 e8 _V4 r4 g6 g4 g4 g4 g12~ g4 f+4 e4 g4 f+6 < b4 > d12~ d2 _V-4 d4 _V4 r2. g6 g4 g4 a4 g12~ g4 f+4 e4 d4 c+6 d12 e6 c+12 e6 e12 f+6 f12~ f+4 r4 r6 d12 e6 f+12~ f+6 f+12 e6 d12 e6 < b4 > d12~ d2 _V-4 d12 _V4 r12 d12 e6 f+12~ f+6 f+12 e6 d12 e6 < b12 b6 > e12~ e12~ _V-2 d+12 _V2 d12~ d2 _V-4 d6 _V4 r12 r4 c+4 d4 e6 a12~ a4 d4 d4 e4 f+6 g12 a6 f+4 g12 a6 f+12~ f+4. _V-4 f+8 _V4 r6 d12 e6 f+12~ f+6 f+12 e6 d12 e6 < b4 > d12~ d2 _V-4 d6 _V4 r12 d12 e12 d12 f+6 g12 a6 b12~ b4 a6 f+12~ f+6 d12~ d2 _V-4 d6 _V4 r12 d6 g4 g4 a4 g12~ g4 f+4 e4 d4 f+6 g6 a6 a+6 f+6 e6 f+4 _V-4 f+6 _V4 r12 B20 _V2 f+4 a6 b12~ b1~ b2~ _V-6 d4 _V6 r4 r1 r1 _V-2 
!3  `9F00 @A3 @B0 @~5 V3 O1 ( r2 f+24 b24 > c+24 e24 f+24 c+24 f+24 c+24 f+24 a24 f+24 a24 < ) O0 [ b6 b12 ]7 b12 a+12 a12 [ g+6 g+12 ]7 g+12 a12 a+12 L [ b6 b12 ]7 b12 a+12 a12 [ g+6 g+12 ]3 > e12 d+12 d12 < g+12 > d12 < g+12 a12 > d+12 < a12 a+6 r12 a+6 r12 [ b6 b12 ]15 b12 f+12 b12 [ a6 a12 ]7 e12 a12 e12 [ g6 g12 ]8 [ f+6 f+12 ]4 [ f+6 ]6 [ b6 b12 ]15 b12 f+12 b12 [ a6 a12 ]8 [ g6 g12 ]8 [ f+6 f+12 ]4 [ f+6 ]6 > c6 c12 c6 c12 c12 < g12 > c12 c6 c12 [ c6 c12 ]3 c12 d12 c12 < b6 b12 b12 d12 > f+12 b12 f+12 a12 f+12 < b6 b12 > c+12 d12 e12 f12 f+12 < b6 b12 b6 b12 > [ c6 c12 ]3 c12 a+12 g12 [ c+6 c+12 ]3 c+12 e12 f12 f+6 f+12 > f+6 f12 e12 c+12 < b12 a+12 e12 f12 f+6 r12 < r2 r6 b12~ b6 b12 [ b6 b12 ]2 e12 f+12 a12 [ b6 b12 ]3 b12 > d12 d+12 e6 e12 < g+6 g+12 a6 a12 b6 b12 > e6 e12 < g+6 g+12 a6 a12 a12 a+12 b12 > [ c+6 c+12 ]3 c+12 < b12 > c+12 [ d6 d12 ]4 [ e6 e12 ]4 r12 f+12 r12 f+6 f+12 c+12 < a+12 f+12 a+6 a+12 [ b6 b12 ]7 b12 > d12 d+12 e6 e12 < g+6 g+12 a6 a12 b6 b12 > e6 e12 < g+6 g+12 a6 a12 b12 > d12 e12 < [ g6 g12 ]2 g12 > d12 g12 d6 d12 < [ a6 a12 ]4 f+12 r12 g12 r12 a12 r12 a+12 r12 a12 r12 g12 r12 f+1 [ b6 b12 ]3 > e12 f+12 a12 < b6 b12 b12 > c+12 d12 e12 f12 f+12 b12 f+12 d12 < [ g+6 g+12 ]3 > e12 d+12 d12 < [ g+6 g+12 ]4 
!4  @11 r2 x2 @8 x4 @5 [ x12 r12 x12 ]15 L @8 x4 @5 [ x12 r12 x12 ]11 [ x4 ]4 @8 x4 @5 [ x12 r12 x12 ]3 [ [ x12 r12 x12 ]4 ]8 x12 x12 x12 x12 r12 x12 x4 x4 @8 x4 @5 [ x12 r12 x12 ]3 [ [ x12 r12 x12 ]4 ]3 @8 x4 @5 [ x12 r12 x12 ]3 [ [ x12 r12 x12 ]4 ]4 x12 x12 x12 x12 r12 x12 x4 x4 @8 x4 @5 [ x12 r12 x12 ]3 [ [ x12 r12 x12 ]4 ]5 x12 r12 x12 x4 x4 x4 r2. r6 @8 x4 @5 x12 [ x12 r12 x12 ]3 [ [ x12 r12 x12 ]4 ]6 [ x4 ]4 @8 x4 @5 [ x12 r12 x12 ]3 [ [ x12 r12 x12 ]4 ]4 [ x12 r12 x12 ]2 [ x4 ]2 @8 x1 r1 @8 x4 @5 [ x12 r12 x12 ]6 x4 @8 x4 @5 [ x12 r12 x12 ]5 x4 x4 
!5  V1 @22 D2 Y.R [ c24 ( c24 ) ]4 @23 YL. [ c24 ( c24 ) ]3 Y.R ( c12 YL. c12 Y.R c12 YL. c12 Y.R c12 ) YLR D0 O1 [ @0 b4 @24 x4 @0 b6 b12 @24 b4 ]3 @0 b4 @24 x4 @0 b12 @24 ( b12 ) @0 b12 @24 b6 b12 L [ @0 b12 r12 b12 @24 b12 r12 @0 b12 ]6 @0 b12 @24 [ b24 ]2 b12 [ b12 ]3 @2 Y.R b4 b12 YLR g12 YL. d12 YLR [ @0 b4 @24 b4 @0 b12 r12 b12 @24 b4 ]9 @0 b12 @24 b6 b6 b12 @0 b12 @24 b12 b12 b12 b12 @2 g12 [ @0 b4 @24 b4 @0 b12 r12 b12 @24 b4 ]9 @0 b12 @24 b12 b12 @0 b12 @24 b12 b12 b12 @2 Y.R b12 b12 YLR g12 g12 YL. d12 YLR [ @0 b4 @24 b4 @0 b12 r12 b12 @24 b4 ]6 @0 b4 @24 b4 r12 b12 b12 b12 b12 b12 b2 b12 b12 @2 Y.R b12 YLR g12 YL. d12 @0 YLR b12 r12 r12 b12 @24 b4 @0 b6 b12 @24 b4 [ @0 b4 @24 b4 @0 b12 r12 b12 @24 b4 ]6 [ @0 b12 @24 b12 b12 ]2 @0 b12 @24 b12 @2 Y.R b12 YLR g12 g12 YL. d12 YLR [ @0 b4 @24 b4 @0 b12 r12 b12 @24 b4 ]5 @0 b4 @24 b4 @0 b12 @24 b12 b12 b12 b12 b12 @0 b2 @24 b6 @2 g6 d6 @24 [ b12 ]7 @2 Y.R b12 b12 YLR g12 g12 YL. d12 YLR @0 b4 @24 b4 @0 b6 b12 @24 b4 @0 b6 b12 @24 b4 @0 b6 b12 @24 b12 b12 b12 @0 b4 @24 b4 @0 b6 b12 @24 b4 @0 b4 @24 b4 @0 b12 @24 b6 b12 @0 b12 @24 b12 
!6  V1 @22 D1 Y.R [ c12 ]4 @23 YL. [ c12 ]3 ( YLR c12 c12 c12 c12 c12 ) D0 O2 @61 W0,100,33 B14 Y.R b4 b12 r12 b12 [ b12 ( b12 ) b12 ]2 [ b12 ( b12 ) b12 ]3 b12 a+12 a12 [ g+12 ( g+12 ) g+12 ]2 g+12 > d12 < g+12 > e12 d12 < g+12 [ g+12 ( g+12 ) g+12 ]2 [ g+6 ( g+12 ) ]2 L @61 W0,100,33 B14 Y.R b4 ( b6 ) b12 ( b6 ) b12 ( b12 r12 b12 b12 r12 b12 ) b4 ( b12 r12 b12 ) b4 g+12 ( g+12 ) g+12 ( g+12 ) r12 g+12 ( g+12 ) r12 g+12 ( g+12 ) r12 g+12 g6 ( g12 ) g+6 ( g+12 ) @15 < ( YLR c8 YL. c8 @17 YLR c8 Y.R c8 ) > @61 W0,100,33 b2.~ b6~ a12 < [ ( b6 ) b12 ]2 > e4 e4~ ( d12 < b12 ) b12 [ ( b6 ) b12 ]3 [ ( b6 ) b12 ]2 > r12 b12 ( b12 ) b4 a2~ a12 ( a12 ) a12 a4 b4~ b6 e12~ e4~ e12 ( e12 ) e12~ ( c+12 < g12 ) g12 [ ( g6 ) g12 ]2 > a12 a12 g12 g6 ( g12 < ( g6 ) g12 ( g6 ) > g12~ g4~ ( f12 < f+12 ) f+12 [ ( f+6 ) f+12 ]2 > ) c+12 e12 f12 ( f+12 ) b12 r12 b6 b12 ( f+12 ) a+12 r12 a+8~ f+8~ ( e12 < b12 ) b12 [ ( b6 ) b12 ]3 [ ( b6 ) b12 ]2 ) > e4 e4~ ( d12 < b12 ) b12 [ ( b6 ) b12 ]3 > r12 b12 ( b12 ) b4 r12 > f+12 < ( f+12 ) > f+8~ d8 < a4 > a2. b6 a12 < b6 a12~ a2 g4 < [ ( g6 ) g12 ]2 ) > a12 a12 g12~ g6 < g12 [ ( g6 ) g12 ]3 [ ( f+6 ) f+12 ]3 > ) f+4 ( f+12 ) b12 r12 b6 b12 d4~ c+4 c4~ c6 e12~ e4 g4 > c16~ d8.~ d6 c12~ c4. <~ b16~ a+16 < b4~ b6 > d12~ d4 f+4 b32~ > c32~ c+8.~ c+2~ c16 <~ b16~ a+16~ a16 c4~ c6 e12~ e4 g4 c+2.~ c16 <~ b16~ a+16~ a16 f+2 r12 > f+12 a+12 > c+12 e12 f+12 < < @15 YLR ( > c12 YL. c12 Y.R c12 r2 r6 @16 YLR < a12~ a12 Y.R a12 ) @61 W0,100,33 b12 ( b6 ) b12 ( b6 ) b12 > e6 d12~ d4~ d12 ( d12 ) d12 ( d6 ) d12 d12 ( d12 ) d12 e12 r12 e12 e12 r12 d12 d12 ( d12 ) d12 d6 e12~ e6 d12 d12 ( d12 ) r12 ( d12 r12 d12 ) d4 c+4 e4 a2 d6 a6 > d6 e2 < b6 > d6 e6 f+6 e6 d6 < YLR @15 ( r12 c12 Y.R c12 YLR c6 YL. c12 Y.R c12 @17 YLR c12 YL. c12 YLR c6 Y.R c12 YL. c16 < r8 @16 YLR d32 e32 a12 YL. a12 r12 Y.R ) @61 W0,100,33 > b12 ( b12 ) b12 ( b6 ) b12 ( b6 ) f+12 b6 > d12~ d4 < b4 [ ( e6 ) e12 ]4 > e12 r12 e12 e6 r12 d4.~ < b8 [ ( g6 ) g12 ]2 > d2 < a12 ( a12 ) a12 a12 r12 > a12~ a2 < @18 f+12 YL. ( f+12 ) Y.R g12 ( YL. g12 ) Y.R a12 ( YL. a12 ) Y.R a+12 ( YL. a+12 ) Y.R f+12 ( YL. f+12 ) Y.R e12 ( YL. e12 ) f+12 ( YL. f+12 Y.R f+12 ) < r2. YL. @60 W0,100,60 O2 B7 P14,11,3 a24~ b24~ b12 ( b12 ) a24~ b24~ b12~ a12~ a12. ( a24 ) a12 f+4~ f+4~ e12 ( e12 ) e24~ f+24~ f+12 g+12 a12 g+12 f+12 e12 c+12~ d6~ d6 < b12~ b6 a12 g+4~ g+12~ ( e12 )~ g+12~ ( e12 )~ g+12~ ( e12 )~ g+4~ g+8~ ( e8 ) > 
