;017 001E344A
!1  T178 V8 O3 Y.R @2 B5 _V-2 b1~ b1 < b8 > b4. b32~ e32~ b16~ b4 b32~ e32~ b16~ b4 b32~ e32~ b16~ b8~ B31 a4~ B19 g+8~ g8~ f+8~ f8~ e4~ g+4 r4 < _V2 r1 ) f+8 a16 f+16 [ a16 f+16 ]6 a8 f+16 a16 f16 f+16 f16 e16 d16 < b16 a16 f+16 f16 f+16 f16 d16 > > ( L @@3,2,1 E100,90,60,19,31 YL. P11,12,3 D1 _V-2 r8 [ f+8 ]4 [ g+8 ]3 f+4. r8 r2 f+4 [ f+8 ]3 g+4 a8 f+4. r8 r4 < b8 > f+4 < b4 r8 > r8 r4. e4 d8 e8 d8 e8 e8 d8 f+8~ f+4. r8 r2 r2 r8 < [ b8 ]3 > [ f+8 ]4 [ g+8 ]3 f+4. r8 r4 < [ b8 ]3 > [ f+8 ]4 g+4 a8 f+4. r8 r4 < b8 > f+8 f+8 < b4. > r8 r4. e4 d8 e8 d8 e4 d8 f+8~ f+2 r2 r2. r8 _V2 _V2 @2 d+4 c+4 < b8 a+4 b8~ b8 @1 < g+8 a+8 d+8 b8 @2 > g+8 g+8 > d+8~ d+8 d+8 c+8 c+8 < b8 a+4 b8 @1 g+8 < b8 > e8 < b8 > e16. r32 e8 < @2 b8 > g+4 g+8 g+8 a+8 b4 _V-5 b8 _V5 g+8~ g+8 g+8 g+8 a+8 [ b8 ]4 b4 > c+8 < a+8~ a+2~ a+2. _V-5 a+4 _V5 r1 > r8 e8 e8 c+8 e4 f+4 @0 B3 a16~ b8. a8 e16~ f+8. e8 d16~ d+16~ d16~ d+16~ d+4 < b8 b8 @2 > e8 e8 c+8 f+8~ f+2 _V-5 f+8 _V5 r4. r8 e8 e8 c+8 e4 f+4~ f+4. _V-5 f+8 _V5 r4. _V-3 b8~ b8 b8 b8 b8 > e4 d8 < b8~ b4 _V3 @0 < a+16~ b16 > d+8 e8 f32~ f+16. r8 a8 r8 f16~ f+16 d+8 < b8 > d16~ d+8. < b8 b8 > _V-2 
!2  V9 O3 [ r1 ]2 @1 E70,100,60,3,25 YL. P12,12,3 B3 _V2 r4 a8 _V-5 a8 _V5 g16~ g+8.~ g+4 _V-5 g+8 _V5 a4 g+8 f16~ f+8. e8 f+8~ f+4. a8~ a2~ a1 b1~ b4. _V-4 b8 _V2 @@3,2,1 E100,90,60,19,31 YLR r8 < b8 b8 b8 > L [ f+8 ]4 [ g+8 ]3 f+4. r8 r2 f+4 [ f+8 ]3 g+4 a8 f+4. r8 r4 < b8 > f+4 < b4 r8 > r8 r4. e4 d8 e8 d8 e8 e8 d8 f+8~ f+4. r8 r2 r2 r8 < [ b8 ]3 > [ f+8 ]4 [ g+8 ]3 f+4. r8 r4 < [ b8 ]3 > [ f+8 ]4 g+4 a8 f+4. r8 r4 < b8 > f+8 f+8 < b4. > r8 r4. e4 d8 e8 d8 e4 d8 f+8~ f+2 r2 r1 b4 a+4 g+8 f+4 g+8~ g+2 _V-5 g+8 _V5 < b8 b8 > b8~ b8 b8 a+8 a+8 g+8 f+4 g+8~ g+2 _V-5 g+8 _V5 r4 f8~ f8 f8 f8 f+8 g+4 _V-5 g+8 _V5 f8~ f8 f8 f8 f+8 [ g+8 ]3 f+8 g+4 a+8 f+8~ f+2~ f+2. _V-5 f+4 _V5 r1 r8 a8 a8 f+8 a4 b4~ b4 _V-5 b4 _V5 r2 r8 a8 a8 f+8 a8 a8 f+8 b8~ b2 _V-5 b4 _V5 r4 r8 a8 a8 f+8 a4 b4~ b4. _V-5 b4 _V5 r4 _V2 f+8~ f+8 f+8 f+8 f+8 b4 b8 e8~ e8 d8 < b2 _V-5 b4 _V5 _V-2 r2 r8 b8 b8 b8 > 
!3  `9F00 @A3 @B0 @~3 V3 O0 > a8 e8. ( e16 ) a8. ( a16 ) e8. ( e16 ) a8. ( a16 ) e8. ( e16 ) a8. ( a16 ) e4. < [ b8 ]16 > a8 e8. ( e16 ) a8. ( a16 ) e8. ( e16 ) a8. ( a16 ) e8. ( e16 ) a8. ( a16 ) e4. < [ b8 ]8 > b8 < b8 b8 > b8 < b8 b8 > e8 d8 < L [ b8 ]16 [ a8 ]16 e8 e8 > e8 d+8 d8 < b8 > d8 < b8 e8 e8 > e8 d+8 d8 < b8 > d8 < a8 [ b8 ]8 b8 > b8 a8 < b8 > b8 < b8 > a8 < b8 [ b8 ]16 [ a8 ]16 e8 e8 > e8 d+8 d8 < b8 > d8 < b8 e8 e8 > e8 d+8 d8 < b8 > d8 < a8 [ b8 ]8 `2E63 r8 b8 > f+8 b8 a8 f+8 > B3 c16~ c+16 < f+8 < [ g+8 ]8 g+8 g+8 b8 > c+8 d+8 g+8 d+8 < g+8 [ e8 ]6 f+8 g+8 [ e8 ]8 > [ c+8 ]16 < [ f+8 ]16 a4 f+8 a4 f+8 a4 f+8 a4 f+8 a8. r16 b8. r16 a8 e8. r16 a8. r16 e8. r16 a8. r16 e8. r16 a8. r16 e4. [ b8 ]8 b8 b8 > b8 < b8 > a8 < b8 > b8 < b8 a8 e8. r16 a8. r16 e8. r16 a8. r16 e8. r16 a8. r16 e4. [ b8 ]8 b8 b8 > b8 < b8 > a8 e8 f+8 a8 < 
!4  @8 Y.R x8 YL. x4 Y.R x4 YL. x4 Y.R x4 YL. x4. r2 YLR x4 @5 [ x8 ]14 @8 Y.R x8 YL. x4 Y.R x4 YL. x4 Y.R x4 YL. x4 Y.R x4. r4 YLR x4 @5 [ x8 ]10 r2 L @8 x4 @5 [ x8 ]6 [ x8 ]7 @7 x8 @5 [ [ x8 ]8 ]2 [ @5 [ x8 ]7 @7 x8 ]2 @5 [ x8 ]8 [ x8 ]4 x4 x4 @8 x4 @5 [ x8 ]6 [ [ x8 ]8 ]2 [ x8 ]7 @7 x8 @5 [ x8 ]3 @7 x8 @5 [ x8 ]4 [ x8 ]8 [ x8 ]5 @7 x8 @5 x8 x8 [ x4 ]4 @8 x4 @5 [ x8 ]6 [ [ x8 ]8 ]6 [ x8 ]4 x4 x4 @8 x4. x4. r4 @5 x4 x4 @8 x4 x4 [ @8 Y.R x8 YL. x4 Y.R x4 YL. x4 Y.R x4 YL. x4 Y.R x4 YL. x4. YLR x4 @5 [ x8 ]6 [ x4 ]4 ]2 
!5  V1 O1 @0 b8 [ b4 ]4 b8 @2 Y.R b16 b16 @0 YLR b8 @2 ( g16 g16 ) @0 b8 @2 YL. d16 d16 @0 YLR b8 [ @0 b4 @1 b4 @0 b8 b8 @1 b4 ]2 @0 b8 b8 @1 b8 @0 b4 b8 @1 b8 @0 b8 r8 b8 @1 b8 @0 b4 b8 @2 ( g16 g16 ) YL. d8 @0 YLR b4 @1 b4 @0 b8 b8 @1 b8 @0 b8 @0 b8 @1 b8 b8 @0 b16 b16 @2 ( g16 g16 g8 ) YL. d16 d16 d8 YLR L [ @0 b4 @1 b4 @0 b8 b8 @1 b8 @0 b8 ]7 @0 b4 @1 b4 @0 b8 @1 b16 b16 @2 b8 g8 [ @0 b4 @1 b4 @0 b8 b8 @1 b8 @0 b8 ]7 @1 b8 @0 b8 @1 b8 @2 Y.R b8 b8 YLR ( g8 g8 ) YL. d8 YLR @0 b4 @1 b4 @0 b8 b8 @1 b4 [ @0 b4 @1 b4 @0 b8 b8 @1 b8 @0 b8 ]3 [ @0 b4 @1 b4 @0 b8 b8 @1 b4 ]3 @0 b4 @1 b4 @0 b8 @1 b8 b16 b16 @2 g8 @0 b4 @1 b8 @0 b4 @1 b8 @0 b16 @2 b16 g8 [ d8 ]4 d4 d4 @0 b8 b8 @1 b8 @0 b4 b8 @1 b8 @0 b4 b8 @1 b8 @0 b4 b8 @2 g16 g16 d8 @0 b4 @1 b4 @0 b8 b8 @1 b4 @0 b8 @1 b16 b16 @0 b8 @2 Y.R b16 b16 @0 YLR b8 @2 Y.R b16 b16 YLR ( g16 g16 ) YL. d8 YLR @0 b8 b8 @1 b8 @0 b4 b8 @1 b8 @0 b4 b4 b4 b8 @1 b8 @0 b8 b4 @1 b4 @0 b8 b8 @1 b4 @0 b8 @1 b8 b8 @0 b8 @1 b8 @0 b8 @1 b8 @0 b8 
!6  @61 V1 O2 W0,100,33 B3 ( > e8 < b4 > e4 < b4 > e4 < b4 > e4 < b4 < a8 b8 b8 > b8 < b8 > a2 < b8 > b8 < b8 > a4 b8 b8 f+8 > e8 < b4 > e4 < b4 > e4 < b4 > e4 < b4 < a8 b8 b8 > b8 < b8 > a2 < b8 > b8 < b8 > a4 a8 b8 > d8 < ) Y.R L < ( b8 b8 ) > b8 ( b8 ) a2 ( a8 ) b8 ( b8 ) a4 a+8 b8 > d8 ( d8 < < b8 ) > b8 ( b8 ) a2 ( a8 ) b8 ( b8 ) a4 a+8 b8 d8 ( d8 < e8 ) > > e8 ( e8 ) d2 ( d8 ) e8 ( e8 ) d4 d+8 e8 < a8 ( a8 < b8 ) > b8 ( b8 ) a2 ( a8 ) b8 ( b8 ) a4 a+8 b8 < a8 ( a8 b8 ) > b8 ( b8 ) a2 ( a8 ) b8 ( b8 ) a4 a+8 b8 b8 ( b8 < b8 ) > b8 ( b8 ) a2 ( a8 ) b8 ( b8 ) a4 a+8 b8 d8 ( d8 e8 ) > e8 ( e8 ) d2 ( d8 ) e8 ( e8 ) d4 d+8 e8 < a8 ( a8 < b8 ) > b8 ( b8 ) a4. b8 r8 b8 > f+8 b8 a8 f+8 > c32~ c+16. < f+8 < @19 W0,100,0 g+1~ g+1 g+1~ g+1 @21 W0,100,0 g+1~ g+1 > c+1~ c+1 < @61 W0,100,33 a4 f+8 a4 f+8 a4 f+8 a4 f+8 a8. ( a16 ) b8. ( b16 ) a8 e4 a4 e4 a4 e4 a4 e4 < a8 ( a8 b8 ) > b8 ( b8 ) a2 ( a8 ) b8 ( b8 ) a4 b8 b8 f+8 a8 e4 a4 e4 a4 e4 a4 e4 < a8 ( a8 b8 ) > b8 ( b8 ) a2 ( a8 ) b8 ( b8 ) a4 b8 b8 d8 
