;018 001E3D20
!1  T182 r8 V7 O2 YL. P13,10,2 D1 @@2,2,1 E100,0,0,12,0 > [ r4 a+8 _V-4 a+8 _V4 r4 a+8 _V-4 a+8 _V4 ]7 r4 a+8 _V-4 a+8 _V4 r4 @@2,2,0 E100,90,60,18,30 _V3 < a+4 a+8 _V-3 @@2,2,1 E100,0,0,12,0 r8 > a+8 _V-4 a+8 _V4 r4 a+8 _V-4 a+8 _V4 r4 a+8 _V-4 a+8 _V4 < @@2,2,0 E100,90,60,18,30 _V3 a+2 a8 _V-3 @@2,2,1 E100,0,0,12,0 r8 > a+8 _V-4 a+8 _V4 r4 a+8 _V-4 a+8 _V4 r4 a+8 _V-4 a+8 _V4 r4 @@2,2,0 E100,90,60,18,30 _V3 < a4 g8 _V-3 @@2,2,1 E100,0,0,12,0 r8 > a+8 _V-4 a+8 _V4 r4 a+8 _V-4 a+8 _V4 r4 a+8 _V-4 a+8 _V4 r4 @@2,2,0 E100,90,60,18,30 _V3 < a+4 a+8 _V-3 @@2,2,1 E100,0,0,12,0 r8 > a+8 _V-4 a+8 _V4 r4 a+8 _V-4 a+8 _V4 [ r4 a+8 _V-4 a+8 _V4 r4 a+8 _V-4 a+8 _V4 ]2 r4 a+8 _V-4 a+8 _V4 r4 @@2,2,0 E100,90,60,18,30 _V3 < a+4 L a+8 > V4 @@1,2,1 E100,75,60,12,18 r4 c+32~ d16. _V-4 d8 _V4 < a+4 _V-5 a+8 _V5 > d32~ d+16.~ d+8 d+8 d8 _V2 < a+8. r16 a+8. r16 a8 > _V-2 c4 r4 c+32~ d32~ d8. d+8 d8~ d4 d8 c4 _V2 < a4 g8 > _V-2 c8~ _V-4 < b8 _V4 a+8 a+8~ a+2 r2. a+8 > c8~ c8. r16 c8 d8~ d16 r16 d+4 f8~ f8 d8~ _V-4 c8 _V4 c8~ c8 _V2 c4 < a+8 > _V-2 r4 d8~ _V-4 c8 _V4 < a+4 > r8 d+8~ d+8 d+8 d8 _V2 < a+8. r16 a+8. r16 a8 > _V-2 c4 r4 d4 d+8 c+16~ d16~ d8 d8 d8 c4 _V2 < a4 g8 > _V-2 c8~ _V-4 < b8 _V4 a+8 a+8~ a+2 r4 a+4 > a16~ a+8. f8 f+32~ g16.~ g8 g8 g8 g8~ a8 a+4 g4 V11 @2 d8 _V-5 d8 _V5 c8 d4 < a+8~ a+4 _V-5 a+4 _V5 > V4 @@1,2,1 g8 a4 a+8 g16~ a8. V11 @2 d8 _V-5 d8 _V5 c8 d4 < a+8~ a+4 _V-5 a+4 _V5 > V4 @@1,2,1 f4 g4 g+8~ g+8 g+8 g8 f8~ _V-3 e8 _V3 f8 d+8 f8~ f2~ f16 r16 g8 d8 ( f8 ) r4. V9 c8 d8 d+8 f8~ f8 f8 f8 f4 f8 _V-4 f8 _V4 d8~ d4 _V-4 d8 _V4 r8 d8 d8 f8 g+32~ a16.~ a8 a8 g8 g8 f4 g8 d8~ d8.~ _V-4 c+16 _V4 c2 _V-4 c8 _V4 r8 V6 r8 g8 g8 g8 a4 a+4 r8 g8 g8 a8 a4 a+4 r8 g8 g8 g8 g8 g8 a8 a+8 a8~ a8 g8 f8 V9 c8 d8 d+8 f8~ f8 f8 f8 f8 f8 f8 _V-4 f8 _V4 d8~ d4 _V-4 d8 _V4 r8 d8 _V-4 d8 _V4 f8 a8~ a8~ _V-4 g+8 _V4 g8 g8 f4 g8 d8~ d8 c4 _V-4 c8 _V4 d8 _V-4 d8 _V4 d8 d8~ d2~ d4 _V-4 d4 _V4 V6 < a+8 > a+8 a+8 g8 a+4 a+8 a+8 a+8 > c8 < a+4 g+4 g4 f8~ f8 V9 c8 c8 c8 c8 d+8 f8~ f1~ f2 < V7 @@2,2,0 E100,90,60,18,30 _V3 a+2 a8 r8 r2. r2. a4 g8 r8 r2. r2. a+4 a+8 r8 r2. r2. a+4 
!2  r8 V9 O2 @1 EX PX B5 r1 r4. > c16~ c+16~ d8 c8 < a+8 > e32~ f16.~ P12,11,5 f1~ PX ( e16~ _V-2 d+16~ _V-2 d16~ ( c16 _V6 r4 r8 g16~ P18,11,4 g+4.~ g+4 PX g+16 g16 f16 _V-3 f16 _V3 r12 e12 f12 d+12 e12 f12 _V-5 f16 _V5 c16~ d16 < a+8 g16 P12,11,4 a+16~ a+4~ ( a16~ ( PX g+16~ _V-2 g16~ _V-2 f+16 _V6 g+16~ a+8 g+8~ a+16 g+16~ a16 P6,11,3 a+4~ a+8 PX g+16 f16 a16 ( a16 ) f16 ( f16 ) e16 ( e16 ) d+16 ( d+16 ) d16~ d+16 < a+8 g+8 d8 P3,11,5 a+2. _V-4 a+8 _V4 PX g16~ g+16~ B12 g+8~ ( g8~ ( f8~ ( d+8~ ( d8~ ( c8~ ( < a+8~ ( g+8 _V7 B6 r2. r8 > > c8 f12 g+24~ a24 > c12 d+6~ d12 d+4. < g16 f16 P6,11,4 d+2.~ d+8 < PX _V-2 a+16 ( c16 _V3 > r12 d+12 f12 g12 f12 g+12 a+16 > c16 < a+16 > c16 d+12 c12 d+12 d8 P12,11,5 a8~ a+2~ a+8 PX e16~ f16~ f4 g+8 d+4 g+8 d4 g+8 d8 g16~ g+16 d8~ d8 c16 < a+16 > c8 < a+8 g+8 f8 d+8 d8~ d+8~ d8~ d+8~ d8 L V11 O3 @@1,2,1 E100,75,60,12,18 P13,11,2 B6 r4 c+32~ d16. _V-4 d8 _V4 < a+4 _V-5 a+8 _V5 > d32~ d+16.~ d+8 d+8 d8 d8 c8 _V-3 c8 _V3 f8~ _V-5 d8 _V5 c4 r4 c+32~ d32~ d8. d+8 d8~ d4 d8 c4. d8 c8~ c8~ _V-4 < b8 _V4 a+8 a+8~ a+2 r2. a+8 > c8~ c8. r16 c8 d8~ d16 r16 d+4 f8~ f8 d8~ _V-4 c8 _V4 c8~ c2 r4 d8~ _V-4 c8 _V4 < a+4 > r8 d+8~ d+8 d+8 d8 d8 c4 f8~ _V-5 d8 _V5 c4 r4 d4 d+8 c+16~ d16~ d8 d8 d8 c4 c8 d8 c8~ c8~ _V-4 < b8 _V4 a+8 a+8~ a+2 r4 a+4 > a16~ a+8. f8 f+32~ g16.~ g8 g8 g8 g8~ a8 a+4 g8~ g2 r4. < a+8 > g8 g8 g8 g8 a4 a+8 g16~ a16~ a8 g8~ g4~ g8 _V-4 g8. _V4 r16 g8 g+8 g+8 g8 f4 g4 g+8~ g+8 g+8 g8 f8~ _V-3 e8 _V3 f8 d+8 f8~ f2~ f16 r16 g8 d8 f8 Y.R _V-8 f8 _V8 YLR r4. f8 g8 a8 a+8~ a+8 a+8 a+8 a4 a+8 _V-4 a+8 _V4 f8~ f4 _V-4 f8 _V4 r8 f8 f8 a+8 b32~ > c16.~ c8 c8 < a+8 a+8 a4 a+8 g8~ g8.~ _V-4 f+16 _V4 f2 _V-4 f8 _V4 r8 g8 g8 g8 a4 a+4 r8 g8 g8 a8 a4 a+4 r8 g8 g8 g8 g8 g8 a8 a+8 a8~ a8 g8 f8 r8 f8 g8 a8 a+8~ a+8 a+8 a+8 a+8 a8 a+8 _V-4 a+8 _V4 f8~ f4 _V-4 f8 _V4 r8 f8 _V-5 f8 _V5 a+8 > c8~ c8~ < _V-3 b8 _V3 a+8 a+8 a4 a+8 g8~ g8 f4 _V-4 f8 _V4 f+8 _V-4 f+8 _V4 f+8 g8~ g2 _V-4 g4 _V4 r8 < a+8 > a+8 a+8 g8 a+4 a+8 a+8 a+8 > c8 < a+4 g+4 g4 f8~ f8 r8 f8 f8 f8 f8 a16 a16 a+8~ a+1~ a+2 _V-4 a+2 _V4 [ r1 ]6 
!3  `9F00 @A3 @B0 @~3 V3 O1 r8 < a+4. r8 r2 r1 f4. r8 r2 r2. r8 f8 > d+4. r8 r2 r1 < a+2 r2 r8 a+8 a+8 a+8 a+8 a+8 g+8 a8 [ [ a+8 ]8 ]2 [ f8 ]8 [ f8 ]4 f8 a8 > c8 < a8 > [ [ d+8 ]8 ]2 < [ a+8 ]8 a+8 a+8 g8 g8 g+8 g+8 a8 a8 [ a+8 ]8 [ a+8 ]4 b8 g8 g+8 a8 L [ [ a+8 ]8 ]2 [ a8 ]8 > [ d8 ]8 [ g8 ]8 [ f8 ]8 [ c8 ]8 < f8 f8 g8 f8 g+8 f8 a8 f8 [ [ a+8 ]8 ]2 [ a8 ]6 > c8 c+8 [ d8 ]3 c16 c+16 [ d8 ]4 [ g8 ]8 [ f8 ]8 [ d+8 ]8 [ d+8 ]6 d8 d8 [ c8 ]8 [ c8 ]6 < a+8 a+8 [ g+8 ]8 [ g+8 ]6 g8 g8 [ f8 ]5 > d+8 e8 f8 < r1 [ [ a+8 ]8 ]2 [ f8 ]8 [ f8 ]4 f8 > c8 f8 c8 [ [ d+8 ]8 ]2 [ c8 ]8 < [ f8 ]8 [ [ a+8 ]8 ]2 [ f8 ]8 [ f8 ]4 [ f+8 ]4 [ g8 ]4 [ f8 ]4 > [ d+8 ]8 < [ g+8 ]8 [ f8 ]8 [ [ a+8 ]8 ]2 [ [ f8 ]8 ]2 > [ [ d+8 ]8 ]2 < [ a+8 ]8 [ a+8 ]4 b8 g8 g+8 a8 
!4  r8 @5 [ r4 b4 r4 b4 ]8 @8 x4 @5 [ x8 ]6 [ [ x8 ]8 ]2 [ x8 ]7 @7 b8 @5 [ [ x8 ]8 ]3 [ x4 ]4 @8 x4 @5 [ x8 ]6 [ x8 ]4 x4 x4 L @8 x4 @5 [ x8 ]6 [ [ x8 ]8 ]6 [ x8 ]4 x4 r4 @8 x4 @5 [ x8 ]6 [ [ x8 ]8 ]2 [ x8 ]7 @7 b8 @5 [ x8 ]7 @7 x8 @5 [ x8 ]8 @5 [ [ x8 ]8 ]6 [ x8 ]5 r4. r1 @8 x4 @5 [ x8 ]6 [ [ x8 ]8 ]4 [ x8 ]7 @7 x8 @5 [ x8 ]8 [ x4 ]4 @8 x4 @5 [ x8 ]6 [ [ x8 ]8 ]2 [ x8 ]4 @8 x4 @5 x4 @8 x4 @5 [ x8 ]6 [ [ x8 ]8 ]2 [ x4 ]4 @8 x4 @5 [ x8 ]6 [ x8 ]8 [ x8 ]7 @7 x8 @5 [ [ x8 ]8 ]4 [ x4 ]4 
!5  V1 O1 @2 g16 YL. d16 YLR @0 b4 @24 b4 r2 r8 @0 b8 @24 b4 r8 @0 b8 @24 b8 @0 b8 @0 b4 @24 b4 r2 r8 @24 b8 @0 b8 b8 @24 b8 @0 b8 @24 b4 @0 b4 @24 b4 r8 @0 b8 @24 b4 r2 @24 b8 @0 b8 @24 b8 @0 b8 r8 @0 b8 @24 b4 r8 @0 b8 @24 b4 @0 b8 @24 b8 [ b8 b8 ]3 [ @0 b4 @24 b4 @0 b8 b8 @24 b4 ]7 @0 b8 @24 b8 b8 @0 b8 @24 b16 b16 @2 Y.R b8 YL. g8 g8 YLR @0 b4 @24 b4 @0 b8 b8 @24 b4 @0 b4 @24 b4 @0 b8 @2 Y.R b16 b16 b8 YL. g16 g16 YLR L [ @0 b4 @24 b4 @0 b8 b8 @24 b4 ]7 @0 b4 @24 b4 [ @0 b8 @24 b16 b16 ]2 [ @0 b4 @24 b4 @0 b8 b8 @24 b4 ]6 @0 b4 @24 b4 @0 b8 b8 @24 b4 @0 b4 @24 b4 @0 b8 b16 b16 @24 b4 [ @0 b4 @24 b4 @0 b8 b8 @24 b4 ]3 @0 b4 @24 b4 @0 b8 b16 b16 @24 b4 @0 b4 @24 b4 @0 b8 @24 b8 b8 b8 r2 @24 b16 b16 @0 b8 @2 Y.R g16 g16 YL. d8 YLR @0 b4 @24 b4 @0 b8 b8 @24 b4 @0 b8 b8 @24 b4 @0 b8 b8 @24 b4 [ @0 b4 @24 b4 @0 b8 b8 @24 b4 ]5 @0 b8 @24 b16 b16 b16 b16 @2 Y.R b16 b16 YLR [ g16 ]4 YL. [ d16 ]4 YLR [ @0 b4 @24 b4 @0 b8 b8 @24 b4 ]3 @0 b4 @24 b4 @0 b4 @24 b8 b16 b16 [ @0 b4 @24 b4 @0 b8 b8 @24 b4 ]3 @0 b8 @24 b16 b16 r16 b16 b8 b16 b16 b8 @2 Y.R b16 b16 YL. g8 YLR @0 b4 @24 b4 @0 b8 b8 @24 b4 @0 b8 b8 @24 b4 @0 b8 b8 @24 b4 @0 b4 @24 b4 @0 b8 b8 @24 b4 @0 b4 @24 b4 @0 b8 b16 b16 @24 b4 [ @0 b4 @24 b4 @0 b8 b8 @24 b4 ]2 @0 b4 @24 b4 @0 b8 b8 @24 b8 @0 b8 @0 b8 @24 b8 b8 @0 b8 @24 b16 b16 @2 Y.R b8 YLR g16 g16 YL. d8 YLR 
!6  V1 O2 Y.R r8 @61 W0,100,33 a+8 f8 a+8 ( a+8 ) > d+8 d8 < a+8 f8 a+8 a+8 f8 > d+4 d8 < a+8 f8 f8 c8 f8 ( f8 ) a+8 a8 f8 c8 f8 c8 ( c8 ) a+4 a8 f8 c8 > d+8 < a+8 > d+8 ( d+8 ) g+8 g8 d+8 < a+8 > d+8 < a+8 ( a+8 ) > g+4 g8 d+8 < a+8 a+8 f8 a+8 ( a+8 ) > d+8 d8 < a+8 f8 a+8 f8 a+8 > d+4 d8 < @11 W0,100,55 YL. d+8 ( d+8 ) d8 @61 W0,100,33 Y.R f8 a+8 ( a+8 ) > d+8 d8 < a+8 f8 a+8 a+8 f8 > d+8 < @11 W0,100,55 YL. d4. ( d8 ) c8 @61 W0,100,33 Y.R c8 f8 ( f8 ) a+8 a8 f8 c8 f8 f8 ( f8 ) a+4 a8 @11 W0,100,55 YL. c8 ( c8 ) < a+8 @61 W0,100,33 Y.R a+8 > d+8 ( d+8 ) g+8 g8 d+8 < a+8 > d+8 d+8 < ( d+8 ) > g+4 g8 @11 W0,100,55 YL. d+8 ( d+8 ) d8 @61 W0,100,33 Y.R f8 a+8 ( a+8 ) a+8 f8 d8 < a+8 > a+8 a+8 ( a+8 ) a+4 a+8 f8 f8 ( f8 ) f8 a+8 ( a+8 ) r8 a+8 ( a+8 ) r8 g+8 ( g+8 ) r8 a+8 ( a+8 ) a+8 @11 W0,100,55 YL. d+8 ( d+8 ) L d8 ( d8 ) @61 W0,100,33 Y.R < ( [ a+16. r32 ]7 ) > a+8 ( a+8 ) r8 @28 W0,100,50 YL. d8 ( d8 ) d8 ( d8 ) c8 ( c8 ) @61 W0,100,33 Y.R < ( [ a16. r32 ]6 ) > d8 ( d8 ) r8 d8 ( d8 ) r8 @28 W0,100,50 YL. c8 ( c8 ) < a+8 ( a+8 ) > @61 W0,100,33 Y.R ( g16. r32 ) > c8 < a+4 g8 ( g8 ) ( [ f16. r32 ]3 ) > c8 < a+4 f8 ( f8 ) @12 W0,100,50 r8 < ( c8 d8 d+8 a+4. f8 g8 a+8 ) > f2 @28 W0,100,50 YL. d+8 ( d+8 ) d8 ( d8 ) @61 W0,100,33 Y.R r8 a+8 ( a+8 ) ( [ a+16. r32 ]6 ) a+8 @28 W0,100,50 YL. d8 ( d8 ) d8 ( d8 ) c8 ( c8 ) @61 W0,100,33 Y.R ( [ a16. r32 ]6 ) d8 ( d8 d16. r32 ) d8 ( d8 d16. r32 ) @28 W0,100,50 YL. c8 ( c8 ) < a+8 ( a+8 ) > @61 W0,100,33 Y.R ( g16. r32 ) > c8 < a+4 g8 ( g8 ) ( [ f16. r32 ]3 ) > c8 < a+4 f8 ( f8 ) @28 W0,100,50 YL. < g8 ( g8 ) > @61 W0,100,33 Y.R ( [ d+16. r32 ]9 ) > f8 ( f8 ) d+4 < a+8 < @12 W0,100,50 > ( d4. d+4. a+4~ a+8 d4. d+4 a+4 g+4. d+4. c4~ c8 < g+8~ g+2. f2~ f8 ) @61 W0,100,33 > d+8 e8 f8 r2. @28 W0,100,50 YL. d+8 ( d+8 ) d8 ( d8 ) @61 W0,100,33 Y.R B6 ( a+8 ) a+8 ( a+8 ) a+8 ( a+8 ) a+8 ( a+8 a+8 ) a+8 ( a+8 ) > c8 < a+4~ g8 f8 ( f8 f16. r32 ) f8 ( f8 f16. r32 ) f8 ( f8 f8 ) f8 ( f8 f16. r32 ) f4 f8~ e8 d+4 ( d+8 [ d+16. r32 ]2 ) g8 ( g8 g16. r32 ) g8 ( g8 g16. r32 ) f4 d+4 < a+8 > c8 ( c8 ) a+8 ( a+8 ) > e8 < a+8 g8 c8 f8 ( f8 f16. r32 ) f4. g8 a8 a+8 ( a+8 a+16. r32 ) a+8 ( a+8 a+16. r32 ) > c8 ( c8 ) < r8 a+8 ( a+8 a+16. r32 ) > c4 < a+4 f8 ( f8 f16. r32 ) f8 ( f8 f16. r32 ) f8 ( f8 f16. r32 ) f4~ d8 f+4. g8~ g2 f2 ( f8 ) a+8 a+8 > f4 d+4 < a+8 g+8 ( g+8 g+16. r32 ) g+8 ( g+8 g+16. r32 ) g+8~ g8 f8 ( f8 f16. r32 ) f4. @11 W0,100,55 YL. d+8 ( d+8 ) d8 @61 W0,100,33 Y.R f8 a+8 ( a+8 ) > d+8 d8 < a+8 f8 a+8 a+8 ( a+8 ) > d+8 < @11 W0,100,55 YL. d4. ( d8 ) c8 @61 W0,100,33 Y.R f8 f8 ( f8 ) a+8 a8 f8 c8 f8 f8 ( f8 ) a+4 a8 @11 W0,100,55 YL. c8 ( c8 ) < a+8 @61 W0,100,33 Y.R a+8 > d+8 ( d+8 ) g+8 g8 d+8 < a+8 > d+8 d+8 < ( d+8 ) > g+4 g8 @11 W0,100,55 YL. d+8 ( d+8 ) d8 @61 W0,100,33 Y.R f8 f8 a+8 a+8 > d+8 d+8 < f8 > d8 < a+8 > d+8 < a+8 > f8 < a+8 @11 W0,100,55 YL. d+8 ( d+8 ) 
