;019 001E4C4A
!1  T195 V6 O2 r4 [ r1 ]6 @0 P11,9,5 B17 D1 r8 > d4.~ d+4.~ e8~ e2~ < b8 r4. YL. c8 e8 c8 c8 e8 d4. < @0 P11,9,5 B17 D1 L Y.R < a8 > e8 d8 e8 g4. r8 YL. ) g8 > e8 c8 < g8 > f+8 d8 < a4 ( Y.R < a8 > e8 d8 e8 g2 YL. > c8 e8 c8 c8 e8 d4. < Y.R < a8 > e8 d8 e8 g4. r8 YL. ) g8 > e8 c8 < g8 > f+8 d8 < a4 > ( @@2,2,1 E100,90,60,17,28 P11,9,3 B5 YL. > r8 r4 [ e8.~ e32 r32 ]3 d+16~ e8. e8 d8~ d8 r8 c8 c8 < a4 a4 > c8 d4 e8~ e4 _V-4 e8 _V4 r4 @2 b16. r32 b8~ b8 _V-4 b8 _V4 a8 g8~ g4 _V-4 g8 _V4 r4 r4. @@2,2,1 c8~ c8 d8 c8 d8 e4~ _V-4 d8 _V4 r8 r2 r1 r4 [ e8.~ e32 r32 ]3 e4 e8 d8~ d8 r8 c8 c8 < a4 a4 > c8 d4 e8~ e4 _V-4 e8 _V4 r4 @2 b8 b8~ b8 _V-4 b8 _V4 a8 g8~ g4 _V-4 g4 _V4 _V2 g4. d8~ d2 _V-2 @@2,2,1 d8 e4~ _V-4 d+8 _V4 r2 r1 @2 ) f+4 _V-3 f+8 _V3 f+4 _V-3 f+8 _V3 f+4 _V-3 f+8 _V3 f+4 e8 f+4 g+4 _V-3 g+8 _V3 r8 f+4 _V-3 f+8 _V3 f+4 f+8~ f+8 f+4 e8 f+4 g+4 ( r8 r2 f4 ( g+32 )~ a32~ a8 _V-4 a16 _V4 g4 g8 e4 d8 _V-3 c8 _V3 c8 d4 e8 f8~ f2 r4. ) f4 a8. _V-4 a16 _V4 g+4 _V-3 g+8 _V3 r8 a4 _V-3 a8 _V3 r8 b1 ( @0 YLR < < b8 _V-2 b8 _V2 r8 b8 _V-2 b8 _V2 r8 b8 _V-2 b8 _V-2 b4 _V4 r4 YL. _V7 r8 > a8 b8 > c8~ c16. r32 c8 _V-3 @2 c8 _V-4 c8 _V4 d8 e8~ e8 _V-4 e8 _V4 r4 c8 c8 d8 e4 e8 d4 e8 d8~ d2 _V-4 d8~ d8 _V4 r4. @0 _V3 < a8 b8 > c8~ c16. r32 c8 _V-3 @2 c8 _V-4 c8 _V4 d8 e8~ e8 _V-4 e8 _V4 r4 c8 c8 d8 e4 e8 d4 e8 d8~ d2 _V-4 d8 _V4 r8 r4 _V-4 @@2,2,1 e16~ f8. f8 e8 d8 e4 _V-4 e8~ _V-3 d+8 _V3 _V4 r4 r8 < @0 P11,9,5 B17 D1 YL. c8 e8 c8 c8 e8 d4. < 
!2  V11 O2 r4 [ r1 ]6 @0 P11,9,5 B17 _V-3 > d4.~ d+4.~ e4~ e4.~ < b8 _V-3 > e4.~ < b8 _V6 r1 L [ r1 ]6 @@2,2,1 E100,90,60,17,28 P11,9,3 B5 > r4 [ e8.~ e32 r32 ]3 d+16~ e8. e8 d8~ d8 r8 c8 c8 < a4 a4 > c8 d4 e8~ e4 _V-4 e8 _V4 r8 r4 g16. r32 g8~ g8 _V-5 g8 _V5 e8 d8~ d4 _V-4 d8 _V4 r8 r4. c8~ c8 d8 c8 d8 e4~ _V-6 d8 _V6 r8 r2 r1 r4 [ e8.~ e32 r32 ]3 e4 e8 d8~ d8 r8 c8 c8 < a4 a4 > c8 d4 e8~ e4 _V-4 e8 _V4 r8 r4 g8 g8~ g8 _V-4 g8 _V4 e8 d8~ d4 _V-4 d8 _V4 r8 r4. c8~ c8 d8 c8 d8 e4~ _V-6 d+8 _V6 r8 r2 r1 d4 _V-4 d8 _V4 d4 _V-4 d8 _V4 d4 _V-4 d8 _V4 d4 c8 d4 e4 _V-4 e8 _V4 r8 d4 _V-4 d8 _V4 d4 d8~ d8 d4 c8 d4 e4 _V-4 e8 _V4 r4. f4 ( g+32 )~ a32~ a8 _V-4 a16 _V4 g4 g8 e4 d8 _V-3 c8 _V3 c8 d4 e8 f8~ f2 r2 d4 f8. _V-5 f16 _V5 e4 _V-4 e8 _V4 r8 f+4 _V-4 f+8 _V4 r8 B8 g+1~ _V-6 e8 _V6 r8 r2. B5 @0 YL. r2 r8 < _V3 e8 g8 a8~ a16. r32 a8 _V-3 > YLR @@2,2,1 e8 _V-4 e8 _V4 g8 a8~ a8 _V-4 a8 _V4 r4 e8 e8 g8 a4 a8 g4 a8 g8~ g2 _V-4 g8~ g8 _V4 r4. @0 YL. < _V3 e8 g8 a8~ a16. r32 a8 _V-3 > YLR @@2,2,1 e8 _V-4 e8 _V4 g8 a8~ a8 _V-4 a8 _V4 r4 e8 e8 g8 a4 a8 g4 a8 g8~ g2 _V-4 g8 _V4 r8 r8 e16~ f8. f8 e8 d8 e4 _V-4 e8~ _V-3 d+8 _V3 _V4 r2 r1 < 
!3  `9F00 @A3 @B0 @~2 V3 O1 r4 r1 < a4. g+4. g4. f+4. f4 e4 @A0 B17 a16~ g16~ f16~ e16 r2. [ r1 ]2 r2 r8 > e16~ d+16~ d16~ c+16~ < c16~ b16 `9F00 @A3 @B0 @~4 [ [ a8 ]8 ]2 L [ a8 ]7 > f8~ f8 f8 e8 e8 d8 d8 e8 e8 < [ [ a8 ]8 ]2 [ a8 ]7 > f8~ f8 f8 e8 e8 d8 d8 e8 e8 < [ [ a8 ]8 ]3 [ a8 ]6 e8 a8 [ [ g8 ]8 ]2 [ a8 ]7 > f8~ f8 f8 e8 e8 d8 d8 e8 e8 < [ [ a8 ]8 ]3 [ a8 ]6 e8 a8 [ [ g8 ]8 ]2 [ a8 ]7 > a8~ a8 a8 a8 e8 a8 e8 @A0 a16~ e8. `9F00 @A3 @B0 @~4 [ [ d8 ]8 ]2 c8 [ d8 ]7 [ d8 ]6 d4 < [ f8 ]8 > [ c8 ]7 < e8 [ a+8 ]8 [ a+8 ]6 a+4 [ e8 ]7 e8~ e8 e8 e4 e8 e8 e4 e8 r4 e8 r4 e4~ e8 e8 b8 > c8 d8 c8 < b8 > c8 < [ a8 ]8 [ f8 ]8 [ g8 ]7 > c8~ c8 c8 < b8 g8 > c8 < b8 a8 g8 [ a8 ]8 [ f8 ]8 [ g8 ]8 [ g8 ]4 [ g+8 ]4 [ [ a8 ]8 ]2 
!4  r4 r1 @8 Y.R x4. YLR x4. YL. x4. YLR x4. Y.R x4 YL. x4 YLR x8 r8 r2. [ r1 ]3 @8 x4 [ @7 x8 @5 x8 ]3 [ @7 x8 @5 x8 ]4 L [ [ @7 x8 @5 x8 ]4 ]5 @7 x4 r2. @8 x4 [ @7 x8 @5 x8 ]3 [ [ @7 x8 @5 x8 ]4 ]5 [ @7 x8 @5 x8 ]3 x8 @8 x8~ x4 [ @7 x8 @5 x8 ]3 @8 x4 [ @7 x8 @5 x8 ]3 [ [ @7 x8 @5 x8 ]4 ]3 @8 x4 [ @7 x8 @5 x8 ]3 [ @7 x8 @5 x8 ]4 [ @7 x8 @5 x8 ]3 x8 @8 x4. [ @7 x8 @5 x8 ]3 @8 x4 [ @7 x8 @5 x8 ]3 [ [ @7 x8 @5 x8 ]4 ]3 @8 x4 [ @7 x8 @5 x8 ]3 [ [ @7 x8 @5 x8 ]4 ]3 @8 x4 [ @7 x8 @5 x8 ]3 [ @7 x8 @5 x8 ]4 @5 [ x8 ]7 @8 x8~ x2. r4 @8 x4 [ @5 x4 ]3 [ x8 x8 [ x4 ]3 ]2 [ x8 ]4 x4 x8 x8 @8 x4 @5 x4 [ x8 ]4 [ [ x8 ]8 ]2 @7 x4 r2. @8 x4 [ @7 x8 @5 x8 ]3 [ @7 x8 @5 x8 ]4 
!5  V1 O1 @1 b16 @2 Y.R b16 YLR g16 YL. d16 @0 YLR b16 b16 @1 b16 @2 Y.R b16 YLR g16 YL. d16 @0 YLR b16 b16 @1 b16 @2 Y.R b16 YLR g16 YL. d16 @1 YLR b4 @0 b4. b4. b4 r8 b4. b4 b4 b4 r2. r1 r1 @2 g16 @1 b16 b16 b16 b8 @2 g16 @1 b16 b16 b16 b8 b16 b16 b16 b16 @0 b8 b8 @1 b8 @0 b8 r8 b8 @1 b4 r8 @0 b8 @1 b4 @0 b8 b8 @1 b8 @0 b8 L @0 b8 b8 @1 b8 @0 b8 r8 b8 @1 b4 r8 @0 b8 @1 b4 @0 b8 b8 @1 b8 @0 b8 @0 b8 b8 @1 b8 @0 b8 r8 b8 @1 b4 r8 @0 b8 @1 b4 @0 b8 b8 @1 b8 @0 b8 @0 b8 b8 @1 b8 @0 b8 r8 b8 @1 b4 @2 g16 @1 b16 b16 b16 [ b8 ]6 [ @0 b8 b8 @1 b8 @0 b8 r8 b8 @1 b4 r8 @0 b8 @1 b4 @0 b8 b8 @1 b8 @0 b8 ]3 @0 b8 b8 @1 b8 @0 b8 r8 b8 @1 b4 r8 @0 b8 @1 b4 @0 b8 @1 b8 b8 b8 [ @0 b8 b8 @1 b8 @0 b8 r8 b8 @1 b4 r8 @0 b8 @1 b4 @0 b8 b8 @1 b8 @0 b8 ]3 @0 b8 b8 @1 b8 @0 b8 r8 b8 @1 b8 @0 b8 r8 @0 b8 @1 b4 @0 b8 @1 b8 b8 b16 b16 [ @0 b8 b8 @1 b4 @0 r8 b8 @1 b8 @0 b8 r8 @0 b8 @1 b4 @0 b8 b8 @1 b4 ]5 @1 b8 @0 b8 b8 @1 b8 @0 b8 b8 @1 b8 @0 b8 r8 @1 b8 b8 b8 b16 b16 @0 b16 b16 @1 b8 @0 b8 r8 @0 b8 @1 b4 @0 b8 b8 @1 b8 @0 b8 r8 b8 @1 b4 @0 b8 b8 @1 b8 @0 b8 [ @0 b4 @1 b4 @0 b8 b8 @1 b8 @0 b8 r8 b8 @1 b4 @0 b8 b8 @1 b8 @0 b8 ]2 @0 b4 @1 b4 @0 b8 b8 @1 b8 @0 b8 r8 b8 @1 b4 @0 b8 @1 b8 b8 b16 b16 @0 b8 b8 @1 b8 @0 b8 r8 b8 @1 b4 r8 @0 b8 @1 b4 @0 b8 b8 @1 b8 @0 b8 
!6  V1 O2 @61 W0,100,33 B20 r4 r2 r8 r16. b32~ < a4 > a4. g+4. g4. f+4. f4 e4 < a8 > a8 g8 < a8 > > c8 < b8 < a8 g8 > a8 > c8 < a8 a8 > g8 f+4. < < a8 > a8 g8 < a8 > > c8 < b8 < g8 a8 > d8 > c8 c8 d8~ d8~ d16. < b32~ < a4 a8 > a8 g8 < a8 > > c8 < b4. a8 > c8 < a8 a8 > g8 f+4. < < L a8 > a8 g8 < a8 > > c8 < b4 < a8 > > c4. d8~ d4.~ < g8 < a8 > a8 g8 < a8 > > c8 < b4. a8 > c8 < a8 a8 > g8 f+4. < < a8 > a8 g8 < a8 > > c8 < b4 < a8 > > c4. d8~ d4.~ < g8 < [ Y.R a16 YL. ( a16 ) ]16 > Y.R a1 YL. ( a8 ) Y.R a8 YL. ( a8 ) Y.R < a16 YL. ( a16 ) > Y.R a8 YL. ( a8 ) Y.R a8~ e8 g1 YL. ( g8 ) Y.R > > c8 < b8 g8 d8 < g4 g+8 a2. r8 YLR f8~ f8 f8 e8 e8 > d8 d8 e8 e8 < < [ Y.R a16 YL. ( a16 ) ]16 > Y.R a1 YL. ( a8 ) Y.R a8 YL. ( a8 ) < Y.R a16 YL. ( a16 ) > Y.R a8 YL. ( a8 ) Y.R a8~ e8 g1 YL. ( g8 ) Y.R > > c8 < b8 g8 d8 < g4. < [ Y.R a16 YL. ( a16 ) ]8 > Y.R a8 YL. ( a8 ) < Y.R a16 YL. ( a16 ) Y.R > a4 < [ Y.R a16 YL. ( a16 ) ]3 > [ Y.R d16 YL. ( d16 ) ]8 > Y.R d8 YL. ( d8 ) < Y.R d16 YL. ( d16 ) > Y.R d8 YL. ( d8 ) < Y.R d16 YL. ( d16 ) > Y.R d8 YL. ( d8 ) < [ Y.R d16 YL. ( d16 ) ]9 Y.R > d8 < d16 YL. ( d16 ) > Y.R d8 YL. ( d8 ) Y.R d8~ < g4 f2. f8~ a8 > c2.~ c8~ < b8 a+1~ a+2. a+8~ f8 e8 g8 g+8 e8 g8 g+8 e8 g8 g+8 e8 g8 g+8 e2 YLR ( e8 e8 r8 e8 e8 r8 e4~ e8 ) Y.R a8 b8 a8 > c8 < a8 > d8 < a8 @20 W0,100,0 c1 @19 W0,100,0 < a1 b1 > @61 W0,100,33 YLR ( > c8 c8 < b8 b8 > c8 < b8 g8 g8 ) Y.R @20 W0,100,0 c1 @19 W0,100,0 < a1 b1~ b2 > @61 W0,100,33 YLR ( g+2 ) < a8 > a8 g8 < a8 > > c8 < b4. a8 > c8 < a8 a8 > g8 f+4. < < 
