;020 001E5820
!1  T143 V8 O2 Y.R @1 E100,90,60,15,39 P15,12,3 d1 c+1 L V8 O2 Y.R D0 YLR @1 E100,80,50,12,23 P15,12,2 b8 b4. a4 g8 a8~ a8 f+4. Y.R _V-4 f+4 _V4 r4 YLR b8 b4. a4 g8 a8~ a8 f+4 Y.R _V-4 f+4 _V4 r4. YLR > c8 c4 c8 c4 c8 d8~ d8 < g8 g8 g8 g8 g4 a8~ a1 Y.R _V-4 a4 _V4 r2. YLR [ b8 b4. a4 g8 a8~ a8 f+8 f+4 Y.R _V-4 f+4 _V4 r4 YLR ]2 > c8 c4 c8 c8 c8 c8 d8~ d8 < b8 b8 b8 b8 b4 a8~ a2.~ a8 r8 a1 r8 a8 a16. r32 a16. r32 a16. r32 a16. r32 r8 a8~ a8 a16. r32 a16. r32 a8 r8 g4. V6 O3 YL. B15 D1 @@3,2,1 E100,80,50,12,23 r16 e8 d8 e8 d8 e16 d16 e8 _V-3 e8 _V3 e8 e8 d8 e8 e8~ e4 _V-3 e8 _V3 e8 f+8 e8 f+8 e8 f+16 e16 f+8 _V-3 f+8 _V3 f+8 f+8 e8 f+8 f+8~ f+4 _V-3 f+8 _V3 f+8 g8 _V-3 g8 _V3 g8 f+8 g16 f+16 g8 _V-3 g8 _V3 g8 g8 f+8 g8 g8~ g4 _V-3 g8 _V3 g8~ b16 _V-3 b16 _V3 a8 a8 a8 a8 a8 a8 a8 > c+8 < a8 g8 a8~ a16~ _V-3 c8 _V3 r4 
!2  V5 O2 YL. @1 EX PX a1 a1 V10 O3 YLR B15 @@3,2,1 E100,80,50,12,23 P15,12,2 L g8 g4. f+4 e8 f+8~ f+8 d4. YL. _V-5 d4 _V4 r4 YLR g8 g4. f+4 e8 f+8~ f+8 d4 YL. _V-5 d4 _V5 r4. YLR g8 g4 g8 g4 g8 a8~ a8 d8 d8 d8 d8 d4 e8~ e1 YL. _V-5 e4 _V5 r2. YLR [ g8 g4. f+4 e8 f+8~ f+8 d8 d4 YL. _V-5 d4 _V5 r4 YLR ]2 g8 g4 g8 g8 g8 g8 a8~ a8 d8 d8 d8 d8 e4 d8~ d2.~ d8 r8 _V-3 d1 r8 d8 d16. r32 d16. r32 d16. r32 d16. r32 r8 d8~ d8 d16. r32 d16. r32 f+8 r8 e4. _V3 e8 d8 e8 d8 e16 d16 e8 Y.R _V-4 e8 _V4 YLR e8 e8 d8 e8 e8~ e4 Y.R _V-4 e8 _V4 YLR e8 f+8 e8 f+8 e8 f+16 e16 f+8 Y.R _V-4 f+8 _V4 YLR f+8 f+8 e8 f+8 f+8~ f+4 Y.R _V-4 f+8 _V4 YLR f+8 g8 Y.R _V-4 g8 _V4 YLR g8 f+8 g16 f+16 g8 Y.R _V-4 g8 _V4 YLR g8 g8 f+8 g8 g8~ g4 Y.R _V-4 g8 _V4 YLR g8~ b16 _V-4 b16 _V4 a8 a8 a8 a8 a8 a8 a8 > ( c32 )~ c+16. < a8 g8 a8~ a8~ _V-6 c8 _V6 r4 
!3  V3 O1 YLR @A0 B15 [ g+16 a16~ a8~ a4 ]2 g+16 a16~ a8 a4 `9F00 @A3 @B0 @~3 B12 f+8 e8 c+8 < e16~ f+16 L g4 g8 g8~ g16 a16 a8 > e8 d+8 d4 d8 d16 d16 r16 d16 < e8 f8 f+8 g4 g8 g16 g16 r16 a16 a8 > e8 d+8 d4 r8 > d8 r8 d8 < < a8 b8 > c4 c8 c16 c16 r16 c16 < e8 f8 f+8 g4 g8 g8~ g8 f+8 g8 g+8 [ a8 ]4 a8 > c+8 d8 d+8 d+8 e8 f8 f+8 g8 g+8 g+8 a8 < g8 g8 g8 g16 g16 r16 a16 a8 > e8 d+8 d4 [ d8 ]4 < f8 f+8 g4 g8 g16 a16 r8 a8 > e8 d+8 d8 d8 r8 d8 r8 d8 < a8 b8 > c4 c8 c16 c16 r16 c16 < e8 f8 f+8 g4 g8 g8 g8 f+8 g8 a8 > d4 d8 d4 d8 d8 d8 d4 d8 d8 d16 d16 d8 d8 d8 d4 d8 d8~ d16 d16 d8 d8 g16 a16 > d8 d8 d8 d8 r8 < c4. d8 e8 r4 d8 e8 r4 d8 e8 r8 e8 r8 e8~ e8~ < b8 > e8 f+8 r4 e8 f+8 r4 e8 f+8 r8 f+8 r8 f+8~ f8~ c8 < f+8 g8 r4 f+8 g8 r4 f+8 g8 r8 g8 r8 g4 e8 g8 a8 r4 g8 a8 r4 g8 a8 r4 r8 a8 r8 a8 
!4  @8 x4 @5 [ x8 ]6 @8 x4 @5 x8 x8 x4 x4 L [ @8 x4 @5 x8 x8 ]2 @8 x4 @5 [ x8 ]6 [ @8 x4 @5 x8 x8 ]2 @8 x4 @5 x8 @8 x4 @8 x4. @8 x4 @5 [ x8 ]6 @8 x4 @5 [ x8 ]6 @8 x4 @7 x8 x8 @5 x8 x8 @7 x4 @8 x8 @7 x8 @5 x8 x8 x4 x4 [ @8 x4 @5 x8 x8 ]2 @8 x4 @5 [ x8 ]6 [ @8 x4 @5 x8 x8 ]2 @8 x4 @5 x8 @8 x4 @8 x4. @8 x4 @5 [ x8 ]6 @8 x4 @5 [ x8 ]6 [ @8 x4 @7 x8 x8 @5 x8 x8 @7 x8 @5 x8 ]3 @8 x4 @5 [ x8 ]5 @7 x8 @8 x4 @5 [ x8 ]5 @7 x8 [ @5 [ x8 ]7 @7 x8 ]6 @8 x4 @5 x4 x8 @8 x4 x8 
!5  V1 O1 @1 [ b8 ]8 [ b8 ]4 @2 Y.R b16 b16 b16 YLR ( g16 g16 g16 ) YL. d16 d16 YLR L @0 b4 @1 b8 @0 b8 r8 b8 @1 b8 @0 b8 @0 b4 @1 b8 @0 b8 @1 b16 b16 @2 Y.R b16 b16 YLR ( g16 g16 ) YL. d16 d16 YLR @0 b4 @1 b8 @0 b8 r8 b8 @1 b8 @0 b8 @0 b4 b8 @1 b8 r8 b8 @2 g16 g16 YL. d16 d16 YLR [ @0 b4 @1 b8 @0 b8 r8 b8 @1 b8 @0 b8 ]2 @1 [ b8 ]8 [ b8 ]4 [ b16 ]8 @0 b4 @1 b8 @0 b8 r8 b8 @1 b8 @0 b8 @0 b4 @1 b8 @0 b8 @1 b16 b16 @2 Y.R b16 b16 YLR ( g16 g16 ) YL. d16 d16 YLR @0 b4 @1 b8 @0 b8 r8 b8 @1 b8 @0 b8 @0 b4 b8 @1 b8 r8 b8 @2 g16 g16 YL. d16 d16 YLR @0 b4 @1 b8 @0 b8 r8 b8 @1 b8 @0 b8 @0 b4 @1 b8 @0 b8 r8 b8 @2 g16 g16 d16 d16 [ @0 b4 @1 b8 @0 b8 r8 b8 @1 b8 @0 b8 ]2 @1 [ b8 ]4 [ b16 ]8 b16 b16 @2 Y.R b16 b16 YLR ( g16 g16 ) YL. d16 d16 YLR @1 b8 b4 @0 b8 [ [ @0 b8 b8 @1 b4 ]2 @0 b8 b8 @1 b8 @0 b8 r8 b8 @1 b8 @0 b8 ]3 [ @0 b8 b8 @1 b4 ]2 @2 Y.R b16 b16 b16 YLR ( g16 g16 g16 ) YL. d16 d16 Y.R b8 YLR @0 b4 b8 
!6  V1 O2 B15 @61 W0,100,33 YLR ( a2.~ a8 [ a16 ]2 a4. a4. a4 ) L @28 W0,100,47 YL. [ r8 < YL. b16 Y.R ( b16 ) > YL. d16 Y.R ( d16 ) YL. g8 Y.R ( g8 ) YL. c+16 Y.R ( c+16 ) YL. e16 Y.R ( e16 ) YL. a8 Y.R ( a8 ) YL. d16 Y.R ( d16 ) YL. f+16 Y.R ( f+16 ) > YL. d16 Y.R ( d16 ) r8 YL. d4 Y.R ( d8 ) < ]2 r8 YL. c8 e16 Y.R ( e16 ) YL. g8~ g2 Y.R ( g8 ) YL. < b8 > d16 Y.R ( d16 ) YL. g8~ g4 b4 Y.R ( b8 ) YL. d8 e16 Y.R ( e16 ) YL. a8~ a8 d8 e16 Y.R ( e16 ) YL. a8 Y.R ( a8 ) YL. a16 Y.R ( a16 ) YL. a16 Y.R ( a16 ) YL. a8~ a2 r8 < YL. b16 Y.R ( b16 ) > YL. d16 Y.R ( d16 ) YL. g8 Y.R ( g8 ) YL. c+16 Y.R ( c+16 ) YL. e16 Y.R ( e16 ) YL. a8 Y.R ( a8 ) YL. d16 Y.R ( d16 ) YL. f+16 Y.R ( f+16 ) > YL. d16 Y.R ( d16 ) r8 YL. d4 Y.R ( d8 ) < r8 < YL. b16 Y.R ( b16 ) > YL. d16 Y.R ( d16 ) YL. g8 Y.R ( g8 ) YL. c+16 Y.R ( c+16 ) YL. e16 Y.R ( e16 ) YL. a8 Y.R ( a8 ) YL. d16 Y.R ( d16 ) YL. f+16 Y.R ( f+16 ) > YL. d16 Y.R ( d16 ) r8 YL. d4 < d8 r8 YL. c8 e16 Y.R ( e16 ) YL. g8~ g2 Y.R ( g8 ) YL. < b8 > d16 Y.R ( d16 ) YL. g8~ g4 b4 f+1 g1 r8 g8 g16 Y.R ( g16 ) YL. g16 Y.R ( g16 ) YL. g16 Y.R ( g16 ) YL. g16 Y.R ( g16 ) r8 YL. g8~ g8 f+16 Y.R ( f+16 ) YL. f+16 Y.R ( f+16 ) YL. > d8 r8 c4. < @61 W0,100,33 Y.R d8 e8 ( e8 ) [ d32 r32 ]2 d8 e8 ( e8 ) [ d32 r32 ]2 d8 e8 ( e8 ) e8 ( e8 ) e8~ e8~ < b8 > e8 f+8 ( f+8 ) [ e32 r32 ]2 e8 f+8 ( f+8 ) [ e32 r32 ]2 e8 f+8 ( f+8 ) f+8 ( f+8 ) f+8~ f8~ c8 < f+8 g8 ( g8 ) [ f+32 r32 ]2 f+8 g8 ( g8 ) [ f+32 r32 ]2 f+8 g8 ( g8 ) g8 ( g8 ) g4 e8 g8 a8 ( a16 ) [ a32 r32 ]3 g8 a8 ( a16 ) [ a32 r32 ]3 > d2 r8 d8 r8 c+8 
