;021 001E6144
!1  T183 V5 O2 YL. @0 Y.R [ b16 > c16 c+16 d16 < ]4 L [ b16 > c16 c+16 d16 < ]4 YLR ( [ b16 > c16 c+16 d16 < ]4 [ b16 > c16 c+16 d16 < ]4 ) YL. [ b16 > c16 c+16 d16 < ]4 [ b16 > c16 c+16 d16 < ]4 YLR ( [ b16 > c16 c+16 d16 < ]4 ) r1 @@2,2,1 E100,90,60,12,30 P12,11,3 D1 B3 YL. > r8 ( r4 e8 e8 e4 c8 f8~ f4 e8 d8~ d4 c4 d4. e8~ e2~ e2. r4 r8 e4 e8 e4 c8 f8~ f4 e8 d8~ d4 c8 d8~ d1~ d2 r4. ) @0 E60,100,65,24,30 _V7 r1 r4. < a8~ a4 > c4 c1 < g4. a4. > c4 < a+1~ a+1~ a+1 > d2 c2 < a1 > e1 f8 e8 d8 c8 < b8 a8 g8 a8~ a2 > _V-7 @@2,2,1 E100,90,60,12,30 < r8 d8 d8 d8 > _V3 f4 e8 e8~ e4 _V-4 e4 _V4 f4 e8 e4 _V-3 r16 g8 g8 g+32~ a16.~ a4 e8 e8~ e8 d4 c8~ c2. r8. _V3 f4 e8 e8~ e4 _V-4 e4 _V4 f4 e8 e4 _V-3 r16 g8 g8 g+32~ a16.~ a4 e8 e8~ e4 d4 d4 c8 c8~ c4. r16 _V3 f4 e8 e8~ e4 _V-4 e4 _V4 f4 e8 e4 _V-3 r16 g8 g8 g+32~ a16.~ a4 e8 e8~ e8 d4 d8~ d4. c8~ c4. r16 _V3 f4 e8 e8~ e4 _V-4 e4 _V4 f4 e8 e4 e8 e8 g16~ a16~ a4 g4 g4 f4 f4 e16. r32 e8~ e2~ e2. _V-3 < Y.R b16 > c16 c+16 d16 < 
!2  V10 O2 @@5,1,2 > c8 ( [ c8 _V-2 ]4 c8 [ ) ]9 r4 L [ g8 _V-3 ]2 g8 [ ) ]6 [ f8 _V-3 ]2 f8 [ ) ]6 e8 [ ( ]4 e8 [ ) ]4 < a+8 ( [ a+8 _V-2 ]4 a+8 [ ) ]9 r4 [ a+8 _V-3 ]2 a+8 [ ) ]6 > [ c8 _V-3 ]2 c8 [ ) ]6 d8 [ ( ]4 d8 [ ) ]4 < a8 [ a8 _V-2 ]4 a8 [ ) ]9 r4 > [ g8 _V-3 ]2 g8 [ ) ]6 [ f8 _V-3 ]2 f8 [ ) ]6 e8 [ ( ]4 e8 [ ) ]4 < g8 [ g8 _V-3 ]4 g8 [ ) ]9 r4 r1 > @@2,2,1 E100,90,60,12,30 P11,11,3 B3 r4 e8 e8 e4 c8 f8~ f4 e8 d8~ d4 c4 d4. e8~ e2~ e2. r4 r8 e4 e8 e4 c8 f8~ f4 e8 d8~ d4 c8 d8~ d1~ d2 r2 r4 g8 g8 g4 e8 g+32~ a16.~ a4 g8 e8~ e8 f8 g4 _V-4 g4 _V4 g8 g8 g4 e8 g+32~ a16.~ a4 g8 e8~ e8 _V-4 e8 _V4 d8 e8 f4 g8 f8~ f8 e4 d8~ d4. _V-4 d4 _V4 d4 e8 f4 g8 f8~ f8 e4 d8~ d4. _V-4 d4 _V4 r8 f4 e4. c4. < a4 > d4. c4. < b4 b4. a8~ a2~ a2. _V-4 a4 _V4 > a4 g8 g8~ g4 _V-4 g4 _V4 a4 g8 g4 g8 g8 g+32~ a16.~ a4 e8 e8~ e8 d4 c8~ c2. r4 a4 g8 g8~ g4 _V-4 g4 _V4 a4 g8 g4 g8 g8 g+32~ a16.~ a4 e8 e8~ e4 d4 d4 c8 c8~ c4. r8 a4 g8 g8~ g4 _V-4 g4 _V4 a4 g8 g4 g8 g8 g+32~ a16.~ a4 e8 e8~ e8 d4 d8~ d4. c8~ c4. r8 a4 g8 g8~ g4 _V-4 g4 _V4 a4 g8 g4 g8 g8 b16~ > c16~ c4 < b4 b4 a4 a4 g16. r32 g8~ g2~ g2. _V-4 g4 _V4 @@5,1,2 
!3  V3 O1 `9F00 @A3 @B0 @~4 c4 r8 c8 r8 [ c8 ]3 L [ c8 ]4 r8 c8 > c8 < c8 < a+4 r8 a+8 r8 [ a+8 ]3 [ a+8 ]4 r8 f8 a+8 f8 a4 r8 a8 r8 [ a8 ]3 [ a8 ]4 r8 e8 g8 a8 g4 r8 g8~ g8 d8 f8 d8 r8 f8 f4 r8 g8 g8 g8 [ > c4 r8 c8 r8 < g8 a8 g8 > c8 < g8 a8 > c8 < r8 g8 a8 g8 ]2 a4 r8 a8 r8 e8 g8 e8 a8 e8 g8 a8 r8 e8 g8 a8 g4 r8 g8 r8 d8 f8 d8 g8 d8 d8 d8 g8 g8 a8 b8 e4 r8 e8 r8 > c8 < b8 > c8 < f4 r8 f8 r8 > c8 < b8 > c8 < g4 r8 g8 r8 > c8 < b8 > c8 < a4 r8 a8 r8 > c8 < b8 > c8 < [ a+4 r8 a+8 r8 a+8 a+8 a+8 a+8 f8 g8 a+8 r8 f8 g8 f8 ]2 a4 r8 a8 r8 e8 g8 e8 g8 d8 f8 g8 r8 d8 f8 d8 f8 f8 r8 f8 f8 c8 d8 c8 [ f8 ]5 g8 g8 g8 > c4 r8 c8 < r8 g8 a8 g8 b4 r8 b8 r8 g8 a8 g8 a4 r8 a8 r8 e8 g8 e8 f8 e8 d8 c8 d8 e8 f8 g8 > c4 r8 c8 < r8 g8 a8 g8 b4 r8 b8 r8 g8 a8 g8 a4 r8 a8 r8 > e8 g8 e8 f8 f8 a8 f8 g8 g8 d8 g8 < > c4 r8 c8 < r8 g8 a8 g8 b4 r8 b8 r8 g8 a8 g8 a4 r8 a8 r8 e8 g8 e8 f8 e8 d8 c8 d8 e8 f8 g8 > c4 r8 c8 < r8 g8 a8 g8 > e4 r8 e8 r8 < b8 > e8 < b8 > f4 r8 f8 r8 c8 f8 c8 g8 g8 d8 g4 d8 f8 g8 c4 r8 c8 r8 [ c8 ]3 
!4  @8 x4 [ @7 x8 @5 x8 ]3 L [ @7 x8 @5 x8 ]4 [ @8 x4 [ @7 x8 @5 x8 ]3 [ @7 x8 @5 x8 ]4 ]2 @8 x4 [ @7 x8 @5 x8 ]3 r4. @8 x4. r4 [ @8 x4 [ @7 x8 @5 x8 ]3 [ [ @7 x8 @5 x8 ]4 ]3 ]2 [ @8 x4 [ @7 x8 @5 x8 ]3 ]3 [ @7 x8 @5 x8 ]4 [ @8 x4 [ @7 x8 @5 x8 ]3 [ @7 x8 @5 x8 ]4 ]2 [ @8 x4 [ @7 x8 @5 x8 ]3 ]3 [ @7 x8 @5 x8 ]4 [ [ @8 x4 [ @7 x8 @5 x8 ]3 ]3 [ @7 x8 @5 x8 ]4 ]3 @8 x4 [ @7 x8 @5 x8 ]3 [ [ @7 x8 @5 x8 ]4 ]3 @8 x4 [ @7 x8 @5 x8 ]3 
!5  V1 O1 @0 x4 @24 x8 @0 x8 r8 x8 @24 x8 @0 x8 L r8 x8 @24 x4 @0 x8 x8 @24 x4 [ @0 x4 @24 x8 @0 x8 r8 x8 @24 x8 @0 x8 r8 x8 @24 x4 @0 x8 x8 @24 x4 ]2 @0 x4 @24 x8 @0 x8 r8 x8 @24 x8 @0 x8 r8 @24 x8 x8 @0 x8 x8 @24 x8 x8 x8 [ @0 x4 @24 x8 @0 x8 r8 x8 @24 x8 @0 x8 r8 x8 @24 x4 @0 x8 x8 @24 x4 ]4 [ @0 x4 @24 x8 @0 x8 r8 x8 @24 x8 @0 x8 ]3 r8 x8 @24 x4 @0 x8 x8 @24 x8 @0 x8 [ @0 x4 @24 x8 @0 x8 r8 x8 @24 x8 @0 x8 r8 x8 @24 x8 @0 x8 r8 x8 @24 x4 ]2 @0 x4 @24 x8 @0 x8 r8 x8 @24 x8 @0 x8 r8 x8 @24 b4 r8 @0 x8 @24 x8 @0 x8 @24 x8 @0 x8 r8 @24 x8 @0 x8 r8 @24 x8 @0 x8 r8 @24 x8 r8 x8 @0 x8 @24 x8 x8 x8 [ [ @0 x4 @24 x8 @0 x8 r8 x8 @24 x8 @0 x8 ]3 r8 x8 @24 x8 @0 x8 x8 x8 @24 x8 @0 x8 ]3 [ @0 x4 @24 x8 @0 x8 r8 x8 @24 x8 @0 x8 ]3 r8 @2 g8 d8 d8 @0 x8 x8 @24 x8 x8 @0 x4 @24 x8 @0 x8 r8 x8 @24 x8 @0 x8 
!6  V1 O2 @61 W0,100,33 YL. c4 Y.R c32 ( c16. ) c8 [ c32 ( c16. ) ]2 c8 c32 ( c16. ) L c32 ( c16. ) c8 [ c32 ( c16. ) ]2 c8 c32 ( c16. ) c8 YL. [ c32 ( c32 ) ]2 [ YL. c4 Y.R c32 ( c16. ) c8 [ c32 ( c16. ) ]2 c8 c32 ( c16. ) c32 ( c16. ) c8 [ c32 ( c16. ) ]2 c8 c32 ( c16. ) c8 YL. [ c32 ( c32 ) ]2 ]2 YL. c4 Y.R c32 ( c16. ) c8 [ c32 ( c16. ) ]2 c8 c32 ( c16. ) @8 YLR < r8 f8 f8 ( f8 ) r8 g8 g8 g8 > @61 W0,100,33 Y.R B9 c1~ c1 c32 ( c16. ) > c8 < g8 c8 [ > c8 < c32 ( c16. ) ]2 > c8 < [ c32 ( c16. ) ]2 > c8~ c4~ < g8 [ c32 ( c32 ) ]2 c1~ c2.~ c8 < [ a32 ( a32 ) ]2 g8 > g8 > c8 < b8 > c8 < b8 [ d32 ( d32 ) ]2 > c8~ c8 < b8 d32 ( d16. ) > g8~ g4~ g8 < [ d32 ( d32 ) ]2 d1 c1 d8 ( d8 ) d2~ <~ a4 > c8 ( c8 ) c2~ <~ a4 [ [ a+8 [ a+16 ( a+16 ) ]2 ]4 a+8 ( a+8 ) a+8 ( a+8 ) ]2 > a4. > c4. g4 < b4. g4. d4 f1~ f2 ( f8 ) g8 g8 g8 c4. c4 c8 d8 c8 < b2~ b8 > c8 d8 c8 < a2~ a8 > c8 d8 c8 ( c8 ) g8 a8 > c4 c8 < a8 g8 c4. c4 c8 d8 c8 < b2~ b8 > c8 d8 c8 < a2~ a8 > c8 d8 c8 ( c8 ) g8 a8 > c8 r8 c8 < a8 g8 c4. c4 c8 d8 c8 < b2~ b8 > c8 d8 c8 < a2~ a8 > c8 d8 c8 ( c8 ) g8 a8 > c4 c8 < a8 g8 c4. c4 c8 d8 c8 < e2~ e8 > c8 d8 c8 < f2~ f8 > c8 d8 c8 < g2~ g8 > c8 d8 c8 YL. c4 Y.R c32 ( c16. ) c8 [ c32 ( c16. ) ]2 c8 c32 ( c16. ) 
