;022 001E6A66
!1  T168 V10 O2 @0 P0,13,2 O1 E100,80,60,20,33 B13 YL. r4. _V-2 < f8 > f8 d+8 < a+8 > c8 d+8 c8~ d8~ d2 _V2 > d16~ d+8.~ d+4~ d+1 a+4~ a+16~ _V-3 a+16 _V3 a+8~ a+2 < [ f8 > f8 d+8 < a+8 > c8 d+8 c8~ d8~ d8 c8 < g+8 > d8~ d4. d+8 d+8 g8 g+8 d+8 a+8 g8 g+8 d+8 c4~ c16~ _V-3 c16 _V3 d8~ d2 < ]2 L YLR > > _V2 d+2.~ d+8~ < _V-2 _V-3 d+8 _V3 YL. V10 @3 c+4. c8 ( c8 ) < a+8 ( a+8 ) g+8 g4. g+4 > d+4. c+4. c8 ( c8 ) < a+4. YLR _V-3 > > c1~ c1 < < _V3 YL. g4. g+4 > d+4. c+4. c8 ( c8 ) < a+8 ( a+8 ) g+8 g4. g+4 > d+4. c+4. c8 ( c8 ) < a+4. YLR ( > > c1~ c2 c8. < b8. a+8 g+1~ g+1 ) YL. a+8 g+8 a+8 g+8 a+4 > c+8 c8~ c8 d+8 _V-3 d+8 _V3 ) c+8 c4 < g+8 ( _V-3 g+8 _V3 g+1 g+4. > c8~ c2 ( a+8 c+8 f+8 g+8 c+8 f+8 g+8 c+8 f+8 c+8 f8 c+8 d+8 c8 f8 c+8 ) < d+4. g4 g+4. YLR _V-4 > r8 a+8 r8 g+8 a+16. r32 a+16. r32 r8 g+8 _V4 YL. < ( r8 g+8 a+8 g+8 a+16. _V-3 a+32 _V3 a+16. _V-3 a+32 _V3 g+8 a+8 r8 a+8 _V-3 a+8 _V3 g+8 a+16. _V-3 a+32 _V3 a+16. _V-3 a+32~ a+8 _V3 g+8 ) > @@1,3,2 ) g+2 a+2 > c2 f2 d+4 < ( @3 < ( a+8 g+8 a+16. _V-3 a+32 _V3 a+16. _V-3 a+32 _V3 g+8 a+8 r8 a+8 _V-3 a+8 _V3 g+8 a+16. _V-3 a+32 _V3 a+16. _V-3 a+32~ a+8 _V3 g+8 r8 g+8 a+8 g+8 a+16. _V-3 a+32 _V3 a+16. _V-3 a+32 _V3 g+8 a+8 r8 a+8 _V-3 a+8 _V3 g+8 a+16. _V-3 a+32 _V3 a+16. _V-3 a+32~ a+8 _V3 g+8 r8 g+8 a+8 g+8 a+16. _V-3 a+32 _V3 a+16. _V-3 a+32 _V3 g+8 a+8 r8 a+8 _V-3 a+8 _V3 g+8 a+16. _V-3 a+32 _V3 a+16. _V-3 a+32~ a+8 _V3 g+8 ) > @@1,3,2 ) g+2 f4 g+4 g+2 f2~ ( _V-3 f8 _V3 @3 < ( g+8 a+8 g+8 a+16. _V-3 a+32 _V3 a+16. _V-3 a+32 _V3 g+8 a+8 r8 a+8 _V-3 a+8 _V3 g+8 a+16. _V-3 a+32 _V3 a+16. _V-3 a+32~ a+8 _V3 g+8 ) < f8 > f8 d+8 < a+8 > c8 d+8 c8~ d8~ d8 c8 < g+8 > d8~ d4. d+8 d+8 g8 g+8 d+8 a+8 g8 g+8 d+8 c4~ c16~ _V-3 c16 _V3 d8~ d2 < f8 > f8 d+8 < a+8 > c8 d+8 c8~ d8~ d8 c8 < g+8 > d8~ d4. d+8 d+8 g8 g+8 d+8 a+8 g8 g+8 d+8 c1 d2.~ _V-3 d4 _V3 < 
!2  V12 O3 @2 P53,10,3 r4. _V-10 g+1~ g+1~ g+1 _V8 @0 E100,80,60,20,33 P0,13,2 YL. < c4~ c16~ _V-3 c16 _V3 d8~ d2 > _V2 YLR P23,12,3 B10 f16~ g16~ g4 d+8~ d+2~ d+2.~ d+8~ _V-3 c+8 _V3 g4. d+8~ d+4 < a+8 g+8~ g+4~ _V-3 f8 _V2~ g8~ g2~ _V-3 c8 _V3~ d+4. f16~ g16~ g4 > d16~ d+16~ d+2~ d+8~ _V-4 > c8 < _V4 r8 a+16~ > c16~ c8 _V-3 c16 _V3 < b16~ > c16~ _V-3 c16 _V3 c16~ _V-3 c16 _V3 < b16~ > c16~ _V-3 c16 _V3 < b16~ > c16~ _V-3 c16 _V3 < a+16 g+16 b16~ > c16~ c4.~ < _V-2 f8 < f8 _V2 > f4 L V10 @@1,3,2 E100,80,60,20,33 P16,10,2 B6 r4 a+8 a+8 a+8 g+4 g8~ g8 f4 g+8~ g+8 g4.~ _V-6 g4 _V6 a+8 a+8 a+8 g+4 g8~ g8 f4 g+8~ g+8 g4 f8 _V2 d+8 Y.R d+8 ( YL. d+8 Y.R d+8 _V-2 YL. d+8 Y.R d+8 _V-2 YL. d+8 _V3 r8 @3 P0,16,2 YL. < _V3 g+4 _V-3 g8 _V3 g+8~ g+8 > d+4.~ _V-3 d+4 @@1,3,2 P13,10,2 YLR a+8 a+8 a+8 g+4 g8~ g8 f4 g+8~ g+8 g4.~ _V-6 g4 _V6 a+8 a+8 a+8 g+4 g8~ g8 f4 g+8~ g+8 g4 f8 d+4. c+8 c2 @3 P0,16,2 YL. _V-3 d+1 _V3 @@1,3,2 P13,10,2 YLR r4 f8 d+8 f8~ _V-3 f8 _V3 a+4 g+4 d+8 d+8~ d+4 _V-6 d+8 _V6 c8 c+8 c8 c+8 c8 c+8~ _V-3 c+8 _V3 f8 d+8~ _V-3 d+8 _V3 g+8~ g+4 _V-6 g+4 _V6 r4 r4 f8 d+8 f8 _V-3 f8 _V3 a+4 g+4~ _V-3 g8 _V3 d+4. g+4 a+1~ a+4.~ _V-6 b8 _V6 r4 g+4 g4. a+8~ a+2~ _V-4 a+8 _V4 @3 P0,16,2 _V-2 f8 r8 f8 f16. r32 f16. r32 r8 f8 _V2 @@1,3,2 P13,10,2 YLR d+4 > c4 < a+4 g+4 g4 f4 d+4 f8.~ _V-3 f16 _V2 f2 g2 g+2 > c+2 c4 ) c4 < a+4 g+4 > c+4 c4 < a+4 g+4 g4 g+8 a+8~ a+2~ _V-6 a+4 _V6 r2. d+4 > c4 < a+4 g+4 g4 f4 d+4 f4 > c2 < g+4 > c+4 c4.~ c16~ _V-5 d+16 _V5 < g+2~ _V-6 g+4 _V6 r8 g+8 g+8 g8 g+8 a+8~ a+8 _V-6 a+4 _V6 f8 > c8 c8 < g+8 g+8~ g+8 V12 @0 E100,80,60,20,33 P23,12,3 B10 d16~ d+16~ d+4~ d+4.~ d8~ c+8~ c8~ < b8~ a+8~ a8~ g+8~ g8 > c8 d+2. < a+8 a+8~ a+2~ a+8 g+8 g8~ a+8~ a+4. g+16 g16 f2~ f2 a+16 c16 d+16 f16 a+16 > c16 d+16 f16 a+8 _V-3 a+8 _V3 a+2~ a+8 g+16 g16 a+2.~ a+8 g+16 g16 a+16~ > c16~ c2.~ < _V-4 f8 _V4 
!3  V3 O0 `9F00 @A0 B13 a16 > a16 < a32~ < c16.~ c8 f1~ f2.~ ( f8 ) g8 g+2~ g+2 g+4. a+8~ a+4.~ d+8 `9F00 @A3 @B0 @~3 [ f8 > f8 d+8 < a+8 > c8 d+8 c8 < f8~ f8 [ f8 ]6 g8 [ g+8 ]8 [ g+8 ]3 g+16 a16 [ a+8 ]4 ]2 L > d+2~ d+8 < a+8 > d+8 d+8~ d+2.~ ( d+8 ) < a+8 > d+2~ d+8 < a+8 > d+8 d+8~ d+2~ ( d+8 ) < g8 > d+8~ < g8 g+2~ ( g+8 ) g+8 > d+8 a+8~ a+8 g+8 d+8 < g+8~ g+8 g+8 > c8 c+8 d+2~ d+8 < a+8 > d+8 d+8~ d+2~ ( d+8 ) < a+8 > d+8 < a+8 > d+2~ d+8 < a+8 > d+8 d+8~ d+2.~ ( d+8 ) < a+8 g+2~ ( g+8 ) g+8 ( g+8 ) g+8~ g+8 g+8 g+8 g+8~ g+8 g+8 g+8 > c8 [ c+8 ]8 < [ g+8 ]7 f8 f+8 f8 f+8 f8 a+8 > c+8 d+8 < g+8~ g+8 [ g+8 ]7 > [ c+8 ]6 d+8 e8 [ f8 ]8 f+4~ ( f+8 ) f4~ ( f8 ) d+4~ ( d+8 ) c+4~ ( c+8 ) c4 c+4 [ d+8 ]8 d+8 r8 r2. < [ g+8 ]6 > c8 c+8 [ d+8 ]8 < [ f8 ]6 > c8 c+8~ c+8 [ c+8 ]4 c8 < a+8 a+8 [ g+8 ]8 f+8 f+8 > f+8 f+8 c+8 c+8 c8 c+8 [ d+8 ]7 c+8 d+8 > d+8 d8 c+8 < a+8 d+4. < [ g+8 ]6 > c8 c+8 [ d+8 ]8 [ f8 ]8 [ c+8 ]6 d+4 f2. < f4 > d+2.~ d+8 c16 < ( a+16 ) f8 > f8 d+8 < a+8 > c8 d+8 c8 < f8~ f8 [ f8 ]6 g8 [ g+8 ]8 [ g+8 ]3 a+4 [ a+8 ]3 f8 > f8 d+8 < a+8 > c8 d+8 c8 < f8~ f8 [ f8 ]6 g8 [ g+8 ]8 [ g+8 ]7 a8 a+2. > g+16~ < a+8. 
!4  r4. [ r1 ]4 @8 x4 @5 [ x8 ]6 [ x8 ]8 [ x8 ]7 @7 x8 @5 [ x8 ]4 x4 x4 @8 x4 @5 [ x8 ]6 [ x8 ]7 @7 x8 @5 [ x8 ]8 x8 x8 [ x4 ]3 L @8 x4 @5 [ x8 ]6 [ x8 ]7 @7 x8 @5 [ x8 ]8 x8 x8 [ x4 ]3 @8 x4 @5 [ x8 ]4 x4 [ x8 ]6 x4 [ [ x8 ]8 ]4 @8 x4 @5 [ x8 ]6 x4 [ x8 ]6 @8 x4 @5 [ x8 ]6 [ x8 ]8 x8 x8 @7 x8 @5 x8 x4. @8 x8~ x4 @5 x8 x8 x8 @7 x8 @5 x8 x8 [ [ x8 ]4 x8 @7 x8 @5 x8 x8 ]2 @8 Y.R x4. YL. x4. YLR x4 r1 @8 x4 @5 [ x8 ]6 x4 r2. @8 x4 @5 [ x8 ]6 [ x8 ]7 @7 x8 @5 [ x8 ]8 [ x8 ]6 x4 [ x8 ]7 @7 x8 @5 [ x8 ]8 [ x8 ]4 x8 @7 x8 @5 x8 x8 [ x4 ]4 @8 x4 @5 [ x8 ]6 [ x8 ]7 @7 x8 @5 [ x8 ]8 [ x8 ]4 x8 @7 x8 @5 x8 x8 x8 x8 x4 [ x8 ]4 @8 x4 @5 x8 x8 x4 x4 @8 x4 @5 [ x8 ]6 [ [ x8 ]4 x8 @7 x8 @5 x8 x8 ]3 [ x8 ]8 [ x8 ]4 x8 @7 x8 @5 x8 x8 [ x8 ]8 x8 @7 x8~ x2. @8 x2. r4 
!5  V1 O1 r4. [ @0 x4 @1 x4 @0 x8 x8 @1 x4 ]3 @0 x4 @1 [ x8 x16 x16 ]3 [ @0 x4 @1 x4 @0 x8 x8 @1 x4 ]3 @0 x4 @1 x4 @0 x8 x8 @1 x8 x16 x16 [ @0 x4 @1 x4 @0 x8 x8 @1 x4 ]3 @0 x4 @1 x8 x16 x16 x8 @2 g8 g8 YL. d8 YLR L @0 x4 @1 x4 r8 @0 x8 @1 x4 [ @0 x4 @1 x4 @0 x8 x8 @1 x4 ]2 @0 x8 @1 x8 x8 @0 x8 @1 x8 @0 x8 @1 x8 x16 x16 [ @0 x4 @1 x4 @0 x8 x8 @1 x4 ]2 [ @0 x4 @1 x4 @0 x8 x8 @1 x4 ]3 @0 x4 @1 x4 @0 x8 x8 @1 x8 x8 [ @0 x4 @1 x4 @0 x8 x8 @1 x4 ]2 [ @0 x4 @1 x4 @0 x8 x8 @1 x4 ]2 @0 x4 @1 x4 @0 x8 @1 x8 x8 @0 x8 r4 @1 x4 @0 x8 x8 @1 x4 @0 x4 @1 x4 @0 x8 x8 @1 x4 @0 x4 @1 x4 @0 x8 @1 x8 x8 x16 x16 @0 x4 @2 Y.R b8 YLR @0 x8 r8 @2 Y.R b8 YLR @0 x8 @2 Y.R b8 @2 Y.R b8 YLR g16 g16 g8 YL. d8 d8 YLR g8 Y.R b8 @0 YLR x8 @0 x8 x8 @1 x4 @0 x8 x8 @1 x16 x16 x8 @0 x4 r2 @1 [ x16 ]4 [ @0 x4 @1 x4 @0 x8 x8 @1 x4 ]3 @0 x4 @1 x4 @0 x8 x16 x16 @1 x4 [ @0 x4 @1 x4 @0 x8 x8 @1 x4 ]3 @0 x8 @1 x16 x16 @0 x8 @1 x8 x16 x16 x8 @0 x8 @1 x16 x16 [ @0 x4 @1 x4 @0 x8 x8 @1 x4 ]3 [ @0 x4 @1 x4 @0 x8 x16 x16 @1 x4 ]2 @0 x4 @1 x4 @0 x8 @1 [ x16 ]6 [ @0 x4 @1 x4 @0 x8 x8 @1 x4 ]3 @0 x4 @1 x4 @0 x8 x8 @1 x8 x8 [ @0 x4 @1 x4 @0 x8 x8 @1 x4 ]3 @1 x16 x16 @2 Y.R ( b16 ) b16 b16 ( b16 ) YLR g16 g16 ( g16 ) YL. d16 d16 ( d16 ) @1 YLR x8 x8 @0 x4 r2 @1 x16 x16 @2 YL. d8 YLR 
!6  V1 O2 @61 W0,100,33 B6 Y.R r4. < [ f8 > f8 d+8 < a+8 > c8 d+8 c8~ d8 g+8 g8 d8 g+8~ g+4. d+8 d+8 g8 g+8 g8 a+8 g8 g+8 d+8 < g+4~ g+16 (~ g+16 ) a+8~ a+2 ]3 > Y.R L @21 W0,100,0 r4 a+4 ( a+4 ) a+4 [ ( a+4 ) a+4 ( a+4 ) a+4 ]3 @61 W0,100,33 [ g+16 ( g+16 ) ]2 g+4 [ g+16 ( g+16 ) ]3 g+8 ( g+8 ) g+8 [ g+16 ( g+16 ) ]4 g+8 [ g+16 ]2 ( d+4 ) @21 W0,100,0 a+4 ( a+4 ) a+4 [ ( a+4 ) a+4 ( a+4 ) a+4 ]3 @61 W0,100,33 [ g+16 ( g+16 ) ]2 g+4 [ g+16 ( g+16 ) ]3 g+8 [ g+16 ( g+16 ) ]3 g+4 g+8 g+8 [ g+16 ]2 > c+4 < [ c+16 ( c+16 ) ]3 c+8 > c+8 < ( a+8 ) g+4 g+16 ( g+16 ) g+8 [ g+16 ( g+16 ) ]2 g+8 f8 f+8 f8 f+8 f8 a+8 > c+8 d+8 < g+8~ g+8 [ g+16 ( g+16 ) ]2 g+8~ g+4 g+8 [ g+16 ]2 c+2 d+2 f4. f8~ f2 f+4. f4. d+4. c+4. c4 c+4 [ d+16 ( d+16 ) ]8 d+8 r8 r2. < g+2. > c8 c+8 d+2~ d+8 ( d+8 ) d+4 > c2 c8 < a+8 > c8 d+8 c+4 ( c+8 ) c+4 ( c+8 ) c+4 < g+1 f+1 d+2. [ d+16 ( d+16 ) ]2 [ d+16 ( d+16 ) ]5 d+4~ ( g8 ) < g+2. > c8 c+8 d+2~ d+8 ( d+8 ) e4 f2 > c8 < a+8 > c8 d+8 c+2 < c+4 d+4 f1 d+1 < f8 > f8 d+8 < a+8 > c8 d+8 c8~ d8 g+8 g8 d8 g+8~ g+4. d+8 d+8 g8 g+8 g8 a+8 g8 g+8 d+8 < g+4~ g+16 (~ g+16 ) a+8~ a+2 f8 > f8 d+8 < a+8 > c8 d+8 c8~ d8 g+8 g8 d8 g+8~ g+4. d+8 d+8 g8 g+8 g8 a+8 g8 g+8 d+8 < g+1 a+2. > a+8~ < a+8 > 
