;023 001E771A
!1  T185 r4. @2 V4 O6 SD6 SR2 r2 [ Y.R c32 YL. d32 H< H< ]36 [ H> H> ]36 r4 r1 r2 [ Y.R c32 YL. d32 H< H< ]36 [ H> H> ]36 r4 r1 SR0 L V7 O3 @2 E100,50,0,24,30 P6,9,2 r2 Y.R g8 _V-3 YL. g8 ( Y.R g8 YL. g8 _V4 > Y.R c8 _V-3 YL. c8 ( Y.R c8 YL. c8 _V4 Y.R f8 _V-3 YL. f8 ( Y.R f8 YL. f8 < _V4 r2 Y.R a8 _V-3 YL. a8 ( Y.R a8 YL. a8 _V4 > Y.R d8 _V-3 YL. d8 ( Y.R d8 YL. d8 _V4 Y.R g8 _V-3 YL. g8 ( Y.R g8 YL. g8 _V4 r2 Y.R c8 _V-3 YL. c8 ( Y.R c8 YL. c8 _V4 Y.R f8 _V-3 YL. f8 ( Y.R f8 YL. f8 _V4 Y.R a+8 _V-3 YL. a+8 ( Y.R a+8 YL. a+8 _V4 r2 Y.R d8 _V-3 YL. d8 ( Y.R d8 YL. d8 _V4 Y.R g8 _V-3 YL. g8 ( Y.R g8 YL. g8 _V4 > Y.R c8 _V-3 YL. c8 ( Y.R c8 YL. c8 _V4 O2 V12 B3 @0 EX [ Y.R a32~ > d32~ d16 _V-5 YL. d16 < _V5 r16 r4 [ Y.R a32~ > d32~ d16 _V-5 YL. d16 < _V5 r16 ]2 r4 [ Y.R a32~ > d32~ d16 _V-5 YL. d16 < _V5 r16 ]2 r4 [ Y.R a32~ > d32~ d16 _V-5 YL. d16 < _V5 r16 ]2 r4 Y.R a32~ > d32~ d16 _V-5 YL. d16 < _V5 r16 [ Y.R a32~ > d32~ d16 _V-5 YL. d16 < _V5 r16 ]2 r2 ]2 O2 V7 Y.R D2 @@1,2,1 E100,80,60,24,30 P12,9,4 d1 d8 c8 d8 c8 d8 c8 d8 e8 D0 > r4 f12 e12 d12 c12 < b12 a12 ( a12 ) r6 O2 V6 Y.R @2 E50,100,50,30,48 P0,9,3 f1~ f1 g1~ g1 a1~ a1 g1~ g1 f1~ f1 g1~ g1 a1~ a1 g1~ g1 V9 O1 @@4,1,2 E100,50,0,18,24 P9,9,3 [ Y.R a16 YL. _V-3 a16 _V3 Y.R a+16 YL. _V-3 a+16 _V3 Y.R > c16 YL. _V-3 c16 _V3 Y.R d16 YL. _V-3 d16 _V3 Y.R c16 YL. _V-3 c16 _V3 Y.R < a+16 YL. _V-3 a+16 _V3 Y.R a16 YL. _V-3 a16 _V3 Y.R a+16 YL. _V-3 a+16 _V3 Y.R > c16 YL. _V-3 c16 _V3 Y.R d16 YL. _V-3 d16 _V3 Y.R c16 YL. _V-3 c16 _V3 Y.R < a+16 YL. _V-3 a+16 _V3 Y.R a24 YL. _V-3 a24 _V3 Y.R a+24 YL. _V-3 a+24 _V3 Y.R > c24 YL. _V-3 c24 _V3 Y.R d24 YL. _V-3 d24 _V3 Y.R c24 YL. _V-3 c24 < _V3 Y.R a+24 YL. _V-3 a+24 _V3 ]4 
!2  r4. O3 V11 Y.R @2 E100,70,30,54,54 P18,11,2 [ a1~ a1~ a1~ a1 ]2 L O1 V11 @@1,2,1 E100,80,60,24,30 P12,9,4 YL. _V-3 d2 _V3 YLR g2 > c2 f2 < YL. < _V-3 a+2 _V3 YLR > a2 > d2 g2 < YL. _V-3 g2 _V3 YLR > c2 f2 a+2 YL. < _V-3 a2 _V3 YLR > d2 g2 > c2 O3 V12 @2 E80,100,0,12,36 P6,7,2 [ Y.R f16 YL. _V-3 f16 _V3 < ( Y.R a16 YL. _V-2 a16 _V3 > Y.R e16 YL. _V-3 e16 _V3 < ( Y.R a16 YL. _V-2 a16 _V3 > Y.R f16 YL. _V-3 f16 _V3 < ( Y.R a16 YL. _V-2 a16 _V3 > Y.R d16 YL. _V-3 d16 _V3 < ( Y.R a16 YL. _V-2 a16 _V3 > ]8 O2 V7 YL. @@1,2,1 E100,80,60,24,30 P12,9,4 d1 d8 c8 d8 c8 d8 c8 d8 e8 r4 f12 e12 d12 c12 < b12 a12 ( a12 ) r6 V11 O2 @@4,1,2 E100,50,0,18,24 P9,9,3 [ YLR d16 Y.R _V-3 d16 _V3 YLR e16 YL. _V-3 e16 _V3 YLR f16 Y.R _V-3 f16 _V3 YLR g16 YL. _V-3 g16 _V3 YLR f16 Y.R _V-3 f16 _V3 YLR e16 YL. _V-3 e16 _V3 YLR d16 Y.R _V-3 d16 _V3 YLR e16 YL. _V-3 e16 _V3 YLR f16 Y.R _V-3 f16 _V3 YLR g16 YL. _V-3 g16 _V3 YLR f16 Y.R _V-3 f16 _V3 YLR e16 YL. _V-3 e16 _V3 YLR d24 Y.R _V-3 d24 _V3 YLR e24 YL. _V-3 e24 _V3 YLR f24 Y.R _V-3 f24 _V3 YLR g24 YL. _V-3 g24 _V3 YLR f24 Y.R _V-3 f24 _V3 YLR e24 YL. _V-3 e24 _V3 ]4 [ YLR d16 Y.R _V-3 d16 _V3 YLR e16 YL. _V-3 e16 _V3 YLR f16 Y.R _V-3 f16 _V3 YLR g16 YL. _V-3 g16 _V3 YLR f16 Y.R _V-3 f16 _V3 YLR e16 YL. _V-3 e16 _V3 YLR d16 Y.R _V-3 d16 _V3 YLR e16 YL. _V-3 e16 _V3 YLR f16 Y.R _V-3 f16 _V3 YLR g16 YL. _V-3 g16 _V3 YLR f16 Y.R _V-3 f16 _V3 YLR e16 YL. _V-3 e16 _V3 YLR d24 Y.R _V-3 d24 _V3 YLR e24 YL. _V-3 e24 _V3 YLR f24 Y.R _V-3 f24 _V3 YLR g24 YL. _V-3 g24 _V3 YLR f24 Y.R _V-3 f24 _V3 YLR e24 YL. _V-3 e24 _V3 ]4 [ YLR d16 Y.R _V-3 d16 _V3 YLR e16 YL. _V-3 e16 _V3 YLR f16 Y.R _V-3 f16 _V3 YLR g16 YL. _V-3 g16 _V3 YLR f16 Y.R _V-3 f16 _V3 YLR e16 YL. _V-3 e16 _V3 YLR d16 Y.R _V-3 d16 _V3 YLR e16 YL. _V-3 e16 _V3 YLR f16 Y.R _V-3 f16 _V3 YLR g16 YL. _V-3 g16 _V3 YLR f16 Y.R _V-3 f16 _V3 YLR e16 YL. _V-3 e16 _V3 YLR d24 Y.R _V-3 d24 _V3 YLR e24 YL. _V-3 e24 _V3 YLR f24 Y.R _V-3 f24 _V3 YLR g24 YL. _V-3 g24 _V3 YLR f24 Y.R _V-3 f24 _V3 YLR e24 YL. _V-3 e24 _V3 ]4 
!3  r4. O1 V3 `9F00 @A3 @B0 @~3 [ [ d16 ( d16 ) ]8 ]4 [ [ d16 ( d16 ) ]8 ]4 L O1 [ d16 ( d16 ) ]16 < [ a+16 ( a+16 ) ]16 [ g16 ( g16 ) ]16 [ a16 ( a16 ) ]16 > d8 ( d8 ) r4 d8 ( d8 ) d8 ( d8 ) r4 d8 ( d8 ) d8 ( d8 ) r4 d8 ( d8 ) d8 ( d8 ) r4 d8 ( d8 ) d8 ( d8 ) d8 ( d8 ) r2 < a+8 ( a+8 ) r4 a+8 ( a+8 ) a+8 ( a+8 ) r4 a+8 ( a+8 ) a+8 ( a+8 ) r4 a+8 ( a+8 ) a+8 ( a+8 ) r4 a+8 ( a+8 ) a+8 ( a+8 ) a+8 ( a+8 ) r2 > d1 d8 c8 d8 c8 d8 c8 d8 e8 r4 f12 e12 d12 c12 < b12 a12 ( a12 ) r6 g1~ g1 a1~ a1 a+1~ a+1 > c1~ c1 < g8 g8 ( g16 ) r8. r4 g8 g8 ( g16 ) r8. g8 g8 ( g16 ) r16 r4. a8 a8 ( a16 ) r8. r4 a8 a8 ( a16 ) r8. a8 a8 ( a16 ) r16 r4. a+8 a+8 ( a+16 ) r8. r4 a+8 a+8 ( a+16 ) r8. a+8 a+8 ( a+16 ) r16 r4. > c8 c8 ( c16 ) r8. r4 c8 c8 ( c16 ) r8. c8 c8 ( c16 ) r16 r4. < [ g8 ( g8 ) ]8 [ a8 ( a8 ) ]8 [ a+8 ( a+8 ) ]8 > [ c8 ( c8 ) ]8 < 
!4  r8 @7 x4 @8 x4 @5 x8 @6 x8 @7 x4 @5 x8 @6 x8 [ @5 x8 @6 x8 ]4 [ @5 x8 @6 x8 ]4 [ @5 x8 @6 x8 ]3 @7 x8 x8 @8 x4 @5 x8 @6 x8 @7 x4 @5 x8 @6 x8 [ @5 x8 @6 x8 ]4 [ @5 x8 @6 x8 ]4 [ @5 x8 @6 x8 ]3 @7 x8 x8 L @8 x4 [ @5 x8 @6 x8 ]3 [ @5 x8 @6 x8 ]4 [ @5 x8 @6 x8 ]4 [ @5 x8 @6 x8 ]3 @7 x8 x8 [ @5 x8 @6 x8 ]4 [ @5 x8 @6 x8 ]4 [ @5 x8 @6 x8 ]4 [ @5 x8 @6 x8 ]3 @7 x8 x8 @8 x4 [ @5 x8 @6 x8 ]3 [ @5 x8 @6 x8 ]4 [ @5 x8 @6 x8 ]4 [ @5 x8 @6 x8 ]3 @7 x8 x8 [ @5 x8 @6 x8 ]4 [ @5 x8 @6 x8 ]4 [ @5 x8 @6 x8 ]4 [ @5 x8 @6 x8 ]3 @7 x8 x8 [ @5 x8 @6 x8 ]4 [ @5 x8 @6 x8 ]3 @7 x4 @6 x4 r2. @8 x4 r2. r2 r2 r1 r2 @8 x4 r4 @8 ( x4 ) r2. r1 @8 x4 r2. r1 @8 x4 @6 x4 r4 x4 [ r4 @6 x4 r4 @6 x4 ]7 @8 x4 [ @7 x8 @6 x8 ]3 [ [ @7 x8 @6 x8 ]4 ]6 @7 x8 @6 x8 @8 x4 @6 x4 x4 
!5  V1 O1 @0 x16 x16 @24 x4 [ @0 x4 @24 x4 @0 x4 @24 x4 @0 x4 @24 x4 @0 x8 x8 @24 x4 @0 x4 @24 x4 @0 x4 @24 x4 @0 x4 @24 x4 r8 @0 x16 x16 @24 x8 x8 ]2 L [ @0 x4 @24 x4 @0 x4 @24 x4 @0 x4 @24 x4 @0 x8 x8 @24 x4 @0 x4 @24 x4 @0 x4 @24 x4 @0 x4 @24 x4 r8 @0 x16 x16 @24 x8 x8 ]2 [ @0 x4 @24 x4 @0 x4 @24 x4 @0 x4 @24 x4 @0 x8 x8 @24 x4 @0 x4 @24 x4 @0 x4 @24 x4 @0 x4 @24 x4 r8 @0 x16 x16 @24 x8 x8 ]2 @0 x4 @24 x4 @0 x4 @24 x4 @0 x4 @24 x4 @0 x8 x8 @24 x4 r4 @2 YL. d12 d12 @24 YLR x12 @2 YL. d12 d12 YLR g12 r4 @0 x4 r2. r1 @0 x4 r2. r2 @0 ( x8. @2 YL. d16 d4 ) YLR @0 x4 r2. r1 @0 x4 r2. r1 [ @24 x8 x8 r2 x8 x8 r4 x8 x8 r2 @24 x8 x8 r2 x8 x8 r4 x8 x8 r2 ]2 [ @0 x4 @24 x4 @0 x4 @24 x4 ]7 @0 x4 @24 x4 [ x16 ]8 
!6  V1 O2 r4. @61 W0,100,33 YLR [ ( d1~ d1~ d1~ d1 ) ]2 L O2 YLR ( d1~ d1 < a+1~ a+1 g1~ g1 a1~ a1 > ) YL. d8 ( Y.R d16 YL. d16 ) r4 YL. d8 ( Y.R d16 YL. d16 ) YL. d8 ( Y.R d16 YL. d16 ) r4 YL. d8 ( Y.R d16 YL. d16 ) YL. d8 ( Y.R d16 YL. d16 ) r4 YL. d8 ( Y.R d16 YL. d16 ) YL. d8 ( Y.R d16 YL. d16 ) r4 YL. d8 ( Y.R d16 YL. d16 ) YL. d8 ( Y.R d16 YL. d16 ) YL. d8 ( Y.R d16 YL. d16 ) r2 < YL. a+8 ( Y.R a+16 YL. a+16 ) r4 YL. a+8 ( Y.R a+16 YL. a+16 ) YL. a+8 ( Y.R a+16 YL. a+16 ) r4 YL. a+8 ( Y.R a+16 YL. a+16 ) YL. a+8 ( Y.R a+16 YL. a+16 ) r4 YL. a+8 ( Y.R a+16 YL. a+16 ) YL. a+8 ( Y.R a+16 YL. a+16 ) r4 YL. a+8 ( Y.R a+16 YL. a+16 ) YL. a+8 ( Y.R a+16 YL. a+16 ) YL. a+8 ( Y.R a+16 YL. a+16 ) r2 > YLR ( d1 d8 c8 d8 c8 d8 c8 d8 e8 r4 f12 e12 d12 c12 < b12 a12 ) r4 YL. ( a+1~ a+1 > c1~ c1 d1~ d1 c1~ c1 < ) YL. a+8 a+8 ( a+2 ) a+8 a+8 ( a+4 ) a+8 a+8 ( a+2 ) > c8 c8 ( c2 ) c8 c8 ( c4 ) c8 c8 ( c2 ) d8 d8 ( d2 ) d8 d8 ( d4 ) d8 d8 ( d2 ) c8 c8 ( c2 ) c8 c8 ( c4 ) c8 c8 ( c2 ) < ( [ YL. a+8 Y.R a+8 ]8 > [ YL. c8 Y.R c8 ]8 [ YL. d8 Y.R d8 ]8 [ YL. c8 Y.R c8 ]8 < ) 
