;024 001E8400
!1  T133 L V8 O3 Y.R @2 E80,100,90,33,42 P17,8,3 B8 c4.~ < a+2~ g+8~ g+2~ g+8 _V-3 g+8 _V3 a+4 > c4.~ < a+2~ g+8~ g+2.~ _V-3 g+4 _V3 V8 O1 YLR @1 E100,80,50,25,42 P4,12,4 B4 r8 a+16~ b16~ b16 > d8. g8. d8. g8 b8. g8. b8 > d8. < b8. > d8~ d16 _V-4 d16 _V4 < d+8. g+8. > c8. < g+8. > c8 [ d+12~ d+24 _V-4 d+24 _V4 ]3 d8 _V-3 d8 _V-3 d8 _V6 r8 V9 O2 B8 @3 E100,80,50,25,58 P13,15,1 YL. g1 > [ YL. f16 ( Y.R f16 ( ]3 [ _V2 ]3 [ YL. g16 ( Y.R g16 ( ]4 [ _V2 ]4 < r8 YL. _V-4 d1~ d4 _V4 > [ YL. d16 ( Y.R d16 ( ]2 [ _V2 ]2 [ YL. g16 ( Y.R g16 ( ]2 [ _V2 ]2 [ YL. d16 ( Y.R d16 ( ]2 [ _V2 ]2 [ YL. f16 ( Y.R f16 ( ]2 [ _V2 ]2 [ YL. d+16 ( Y.R d+16 ( ]4 YL. d+4 [ _V2 ]4 < _V-3 g1 f1~ f4 _V3 > [ YL. c16 ( Y.R c16 ( ]2 [ _V2 ]2 [ YL. f16 ( Y.R f16 ( ]2 [ _V2 ]2 YL. c16 ( Y.R c16 ) YL. d16 ( Y.R d16 ) [ YL. d+16 ( Y.R d+16 ( ]4 YL. d+2 [ _V2 ]4 [ YL. f16 ( Y.R f16 ( ]2 [ _V2 ]2 [ YL. d16 ( Y.R d16 ( ]2 [ _V2 ]2 [ YL. d+16 ( Y.R d+16 ( ]2 [ _V2 ]2 [ YL. f16 ( Y.R f16 ( ]2 [ _V2 ]2 [ YL. f16 ( Y.R f16 ( ]3 [ _V2 ]3 [ YL. g16 ( Y.R g16 ( ]4 [ _V2 ]4 r8 [ YL. g+16 ( Y.R g+16 ( ]2 [ _V2 ]2 [ YL. g16 ( Y.R g16 ( ]2 [ _V2 ]2 [ YL. f16 ( Y.R f16 ( ]2 [ _V2 ]2 [ YL. d+16 ( Y.R d+16 ( ]2 [ _V2 ]2 [ YL. f16 ( Y.R f16 ( ]4 YL. [ _V2 ]4 [ YL. d16 ( Y.R d16 ( ]4 YL. [ _V2 ]4 [ YL. f16 ( Y.R f16 ( ]4 YL. [ _V2 ]4 [ YL. a+16 ( Y.R a+16 ( ]4 YL. [ _V2 ]4 _V-2 < b1 > c2 d2 _V2 YL. O2 g1 > [ YL. f16 ( Y.R f16 ( ]3 [ _V2 ]3 [ YL. g16 ( Y.R g16 ( ]4 [ _V2 ]4 < r8 YL. _V-4 d1~ d4 _V4 > [ YL. d16 ( Y.R d16 ( ]2 [ _V2 ]2 [ YL. g16 ( Y.R g16 ( ]2 [ _V2 ]2 [ YL. d16 ( Y.R d16 ( ]2 [ _V2 ]2 [ YL. f16 ( Y.R f16 ( ]2 [ _V2 ]2 [ YL. d+16 ( Y.R d+16 ( ]4 YL. d+4 [ _V2 ]4 < _V-3 g1 f1~ f4 _V3 > [ YL. c16 ( Y.R c16 ( ]2 [ _V2 ]2 [ YL. f16 ( Y.R f16 ( ]2 [ _V2 ]2 YL. c16 ( Y.R c16 ) YL. d16 ( Y.R d16 ) [ YL. d+16 ( Y.R d+16 ( ]4 YL. d+2 [ _V2 ]4 [ YL. f16 ( Y.R f16 ( ]2 [ _V2 ]2 [ YL. d16 ( Y.R d16 ( ]2 [ _V2 ]2 [ YL. d+16 ( Y.R d+16 ( ]2 [ _V2 ]2 [ YL. f16 ( Y.R f16 ( ]2 [ _V2 ]2 [ YL. f16 ( Y.R f16 ( ]3 [ _V2 ]3 [ YL. g16 ( Y.R g16 ( ]4 [ _V2 ]4 r8 [ YL. g+16 ( Y.R g+16 ( ]2 [ _V2 ]2 [ YL. g16 ( Y.R g16 ( ]2 [ _V2 ]2 [ YL. f16 ( Y.R f16 ( ]2 [ _V2 ]2 [ YL. d+16 ( Y.R d+16 ( ]2 [ _V2 ]2 [ YL. f16 ( Y.R f16 ( ]4 YL. [ _V2 ]4 [ YL. d16 ( Y.R d16 ( ]4 YL. [ _V2 ]4 [ YL. f16 ( Y.R f16 ( ]4 YL. [ _V2 ]4 [ YL. a+16 ( Y.R a+16 ( ]4 YL. [ _V2 ]4 V7 O2 YL. @2 E60,100,50,50,42 P17,8,3 a+2 f2 a+2 > d2 V8 O3 Y.R @@2,3,2 E80,100,60,25,67 P17,12,2 B7 d+2. < a+16. _V-2 a+32 _V2 > c8~ c2 _V-3 c8 _V3 c8 d+8 d+8 d2 _V-3 d8 _V3 c8 d8 d+8~ d+4. V9 O4 YL. @2 E60,100,60,42,50 c16 g16 c16 < g16 V9 O3 Y.R @@3,2,1 E100,90,60,25,42 _V-4 < d+8 d8 c8~ c8 > _V4 c16 d16 d+16 _V-4 d+16 _V4 c16 d16 d+2 _V-4 < g8 _V4 a+16 > d16 d+16 _V-4 d+16 _V4 < a+16 > d16 d+2 V9 O2 YL. @2 E60,100,60,42,50 r8 d+8 d+16 g+16 > c16 d+16 Y.R g+16 d+16 c16 _V-4 c16 _V4 < g+8 _V-4 g+8 _V4 YL. d16 < b16 > g16 d16 < b16 g16 > g16 > d16 Y.R g16 d16 < g16 d16 < g8 _V-4 g8 _V4 V8 O3 Y.R @@2,3,2 E80,100,60,25,67 P17,12,2 B7 d+2. d+16. _V-4 d+32 _V4 c8~ c2 _V-3 c8 _V3 c8 d+8 d+8 d2~ d8 _V-3 d8 _V3 d8 d8~ d+4. V9 O4 YL. @2 E60,100,60,42,50 c16 g16 c16 < g16 V9 O3 Y.R @@3,2,1 E100,90,60,25,42 _V-4 < d+8 d8 c8~ c8 > _V4 c16 d16 d+16 _V-4 d+16 _V4 c16 d16 d+2 _V-4 < g8 _V4 a+16 > d16 d+16 _V-4 d+16 _V4 < a+16 > d16 d+2 V9 O2 YL. @2 E60,100,60,42,50 r8 d+8 d+16 g+16 > c16 d+16 Y.R g+16 d+16 c16 _V-4 c16 _V4 < g+8 _V-4 g+8 _V4 YL. d16 < b16 > g16 d16 < b16 g16 > g16 > d16 V7 O2 YLR @2 E60,100,50,50,42 P17,8,3 g2 b2 > d2 < V7 O2 YL. @@3,2,1 E100,60,30,33,50 PX [ g+12 _V-4 g+12 _V4 ]3 [ a+12 _V-4 a+12 _V4 ]3 [ g16 _V-4 g16 _V4 ]2 @2 E60,100,60,42,50 Y.R O4 D2 _V-4 r32 c16 < g16 > c16 g16 YL. c16 < g16 c16 < g32 _V4 D0 @@3,2,1 E100,60,30,33,50 YL. O2 [ g16 _V-4 g16 _V4 ]2 [ g+16 _V-4 g+16 _V4 ]2 @2 E60,100,60,42,50 YL. O4 D2 _V-4 r32 c+16 < g+16 > c+16 g+16 Y.R c+16 < g+16 c+16 < g+32 _V4 D0 @@3,2,1 E100,60,30,33,50 YL. O2 [ g+16 _V-4 g+16 _V4 ]2 V7 O3 YLR @1 E100,60,20,25,42 B3 g8~ g32~ c32~ g8~ g32~ c32~ g8~ g32~ c32~ g8. B42~ c8~ c8~ c6 V8 O2 YL. @@3,2,1 E100,60,30,33,50 a+6 b6 a+6 a6 g+6 
!2  L V8 O3 YL. @2 E80,100,90,33,42 P17,8,3 B8 d+4.~ d2~ c8~ c2~ c8 _V-3 c8 _V3 d4 d+4.~ d2~ c8~ c2.~ _V-3 c4 _V3 @1 < ( r2 d4.~ d16~ < b16~ b4.~ b16~ > d16~ d2 d+1 [ f12~ f24 _V-6 f24 _V6 ]3 f8 _V-3 f8 _V-3 f8 _V6 r8 V9 O3 YLR @@2,3,2 P17,12,2 B7 E100,80,50,25,42 f4 g8 g8~ g2~ g4 _V-4 g4 _V4 r4 g8 g8 g+4 g8 g8~ g4 f+4 g2. _V-4 g4 _V4 r2 g8 g4 a+16~ > c16~ c4 < a+8 g8~ g8 f8 d+4 f4 f8 f8~ f4 g8 c8~ c2. _V-4 c4 _V4 r2 c8. d8. d+8 d2 _V-4 d8 _V4 f8 g8 g+8 a+4 a+8 a+8~ a+4 g8 d+8~ d+2 _V-4 d+8 _V4 d+8 g+8 g8 f1~ f8 _V-4 f4 _V4 r8 r2 V8 O2 YLR @1 P8,12,3 g4. g+16 g16 f4. g16 f16 d+4. f16 d+16 d2 V9 O3 @@2,3,2 P17,12,2 B7 f4 g8 g8~ g2~ g4 _V-4 g4 _V4 r4 g8 g8 g+4 g8 g8~ g4 f+4 g2. _V-4 g4 _V4 r2 g8 g4 a+16~ > c16~ c4 < a+8 g8~ g8 f8 d+4 f4 f8 f8~ f4 g8 c8~ c2. _V-4 c4 _V4 r2 c8. d8. d+8 d2 _V-4 d8 _V4 f8 g8 g+8 a+4 a+8 a+8~ a+4 g8 d+8~ d+2 _V-4 d+8 _V4 d+8 g+8 g8 f1~ f8 _V-4 f4 _V4 r8 r2 V8 O2 YLR @1 B8 P8,12,3 r8 c+32~ d16.~ d16 f8. a+8. f8. a+8 > d8. < a+8. > d8 f8. d8. f8 V10 O3 @@2,3,2 P17,12,2 B7 a+2. d+16. _V-4 d+32 _V4 d+8~ d+2 _V-4 d+8 _V4 d+8 g+8 g8 f2 _V-4 f8 _V4 d+8 f8 g8~ g2 _V-4 g8 _V4 d+8 d8 c8~ c4. _V-4 c8 _V4 c4 > c8 < a+8~ a+2 _V-4 a+4 _V4 f8 g8 g+4 g4 f4 d+8 g8~ g2. _V-4 g4 _V4 a+2. d+16. _V-3 d+32 _V3 d+8~ d+2 _V-4 d+8 _V4 d+8 g+8 g8 f2~ f8 _V-4 f8 _V4 a+8 f16~ g16~ g2 _V-4 g8 _V4 d+8 d8 c8~ c4. _V-4 c8 _V4 c4 > c8 < a+8~ a+2 _V-4 a+4 _V4 g8 g8 g+4 g4 f4 d+8 g8~ g2. _V-4 g8 _V4 V9 O2 YL. @2 E60,100,60,42,50 g16 > d16 g16 d16 < Y.R g16 d16 < g8 _V-4 g8 _V4 V5 O2 YLR @2 E60,100,50,50,42 P17,8,3 g2 V7 O3 Y.R @@3,2,1 E100,60,30,33,50 PX [ c12 _V-4 c12 _V4 ]3 [ d12 _V-4 d12 _V4 ]3 [ c16 _V-4 c16 _V4 ]2 @2 E60,100,60,42,50 YL. O4 _V-2 c16 < g16 > c16 g16 Y.R c16 < g16 c16 < g16 _V2 @@3,2,1 E100,60,30,33,50 Y.R O3 [ c16 _V-4 c16 _V4 ]2 [ c+16 _V-4 c+16 _V4 ]2 @2 E60,100,60,42,50 Y.R O4 _V-2 c+16 < g+16 > c+16 g+16 YL. c+16 < g+16 c+16 < g+16 _V2 @@3,2,1 E100,60,30,33,50 Y.R O3 [ c+16 _V-4 c+16 _V4 ]2 [ c16 _V-4 c16 _V4 ]2 @2 E60,100,60,42,50 YL. O4 _V-2 c16 < g16 > c16 g16 Y.R c16 < g16 c16 < g16 YLR ( c8 _V-2 c8 _V5 @@3,2,1 E100,60,30,33,50 Y.R O3 V8 r6 d+6 e6 d+6 d6 c+6 
!3  L V3 O1 `9F00 @A3 @B0 @~1 c1~ c2. < a+4 > c4. < a+2 g+8~ g+1 [ g16 ( g16 ) ]8 [ g16 ( g16 ) ]8 [ g+16 ( g+16 ) ]8 g6 g6 g6 g4 r4 > [ c8 > c32. ( c64 ) c16 < ]2 c8 > c16 ( c16 ) < c8 g8 [ c8 > c32. ( c64 ) c16 < ]2 c8 d+16 ( d+16 ) d+16 c16 > c8 < [ < b8 > b16 ( b16 ) < b8 > b32. ( b64 ) b16 ]2 [ < b8 > b32. ( b64 ) b16 ]2 < b8 > d16 ( d16 ) g8 < b8 [ a+8 > a+32. ( a+64 ) a+16 < ]2 a+8 > a+16 ( a+16 ) < a+8 > a+32. ( a+64 ) a+16 < [ a+8 > a+32. ( a+64 ) a+16 < ]2 a+8 > d+16 ( d+16 ) g8 < a+8 [ a8 > a32. ( a64 ) a16 < ]2 a8 > a16 ( a16 ) < a8 > f8 < [ a8 > a32. ( a64 ) a16 < ]2 a8 > f16 ( f16 ) f8 < a8 [ g+8 > g+32. ( g+64 ) g+16 < ]2 g+8 ( g+16 ) g+16 ( g+16 ) d+16 f16 g+16 [ a+8 > a+32. ( a+64 ) a+16 < ]2 g+8 > g+32. ( g+64 ) g+16 < a+8 g+8 [ g8 > g16 ( g16 ) < ]3 g8 > g32. ( g64 ) g16 < g+8 > g+32. ( g+64 ) g+16 < g+8 > g+16 ( g+16 ) < [ g+8 > g+32. ( g+64 ) g+16 < ]2 a+8 > a+16 ( a+16 ) < a+8 ( a+8 ) a+8 > a+32. ( a+64 ) a+16 < a+8 > f16 g16 < [ a+8 > a+32. ( a+64 ) a+16 < ]2 a+8 > d16 ( d16 ) f8 < a+8 g8 > g16 ( g16 ) < [ g8 > g32. ( g64 ) g16 < ]3 [ g8 > g32. ( g64 ) g16 < ]2 g16 ( g16 ) g8 a8 b8 > [ c8 > c32. ( c64 ) c16 < ]2 c8 > c16 ( c16 ) < c8 g8 [ c8 > c32. ( c64 ) c16 < ]2 c8 d+16 ( d+16 ) g8 c8 [ < b8 > b32. ( b64 ) b16 < b8 > b16 ( b16 ) ]2 [ < b8 > b32. ( b64 ) b16 ]2 < b8 > d16 ( d16 ) g8 < b8 a+8 > a+16 ( a+16 ) < [ a+8 > a+32. ( a+64 ) a+16 < ]3 [ a+8 > a+32. ( a+64 ) a+16 < ]2 a+8 > d+16 ( d+16 ) g8 < a+8 [ a8 > a32. ( a64 ) a16 < ]2 a8 > a16 ( a16 ) < a8 > d+16 < a32. ( a64 ) [ a8 > a32. ( a64 ) a16 < ]2 a8 > c16 ( c16 ) f8 < a8 [ g+8 > g+32. ( g+64 ) g+16 < ]3 g+8 d+8 [ a+8 > a+32. ( a+64 ) a+16 < ]2 g+8 > g+32. ( g+64 ) g+16 < a+8 g+8 [ g8 > g32. ( g64 ) g16 < ]3 g8 g8 [ g+8 > g+32. ( g+64 ) g+16 < ]3 g+8 a8 a+8 > a+16 ( a+16 ) < [ a+8 > a+32. ( a+64 ) a+16 < ]2 a+8 > f16 g16 < [ a+8 > a+16 ( a+16 ) < ]2 a+8 > d16 ( d16 ) f8 d8 < [ a+16 ( a+16 ) ]3 [ a+32. ( a+64 ) ]2 [ g+16 ( g+16 ) ]3 [ g+32. ( g+64 ) ]2 [ g16 ( g16 ) ]3 [ g32. ( g64 ) ]2 f16 ( f16 ) [ f32. ( f64 ) ]2 d32. ( d64 ) d16 d+16 f16 [ d+16 ( d+16 ) > d+32. ( d+64 ) d+16 < ]4 [ g+16 ( g+16 ) > g+32. ( g+64 ) g+16 < ]4 [ a+16 ( a+16 ) > a+32. ( a+64 ) a+16 < ]4 > [ c16 ( c16 ) > c32. ( c64 ) c16 < ]2 c16 ( c16 ) c8 < a+8 > g+32. ( g+64 ) g+16 < [ g+16 ( g+16 ) > g+32. ( g+64 ) g+16 < ]4 [ g16 ( g16 ) > g32. ( g64 ) g16 < ]4 [ g+16 ( g+16 ) > g+32. ( g+64 ) g+16 < ]4 [ g16 ( g16 ) > g32. ( g64 ) g16 < ]4 [ d+16 ( d+16 ) > d+32. ( d+64 ) d+16 < ]4 [ g+16 ( g+16 ) > g+32. ( g+64 ) g+16 < ]4 [ a+16 ( a+16 ) > a+32. ( a+64 ) a+16 < ]4 > [ c16 ( c16 ) > c32. ( c64 ) c16 < ]2 c16 ( c16 ) c8 < a+8 g+8~ g+16 ( g+16 ) > g+32. ( g+64 ) g+16 < [ g+16 ( g+16 ) > g+32. ( g+64 ) g+16 < ]3 [ g16 ( g16 ) > g32. ( g64 ) g16 < ]4 [ g+16 ( g+16 ) > g+32. ( g+64 ) g+16 < ]4 [ g16 ( g16 ) > g32. ( g64 ) g16 < ]4 [ g16 ( g16 ) > g32. ( g64 ) g16 < ]4 g+8 ( g+8 ) r4 a+2 > c8 c8 `9F00 @A6 @~X < [ c16 ( c16 ) > c32. ( c64 ) c16 < ]2 > `9F00 @A3 @B0 @~1 c8 c8 c+8 c+8 `9F00 @A6 @~X < [ c+16 ( c+16 ) > c+32. ( c+64 ) c+16 < ]2 > `9F00 @A3 @B0 @~1 c+8 c+8 c8 c8 `9F00 @A6 @~X < [ c16 ( c16 ) > c32. ( c64 ) c16 < ]3 > `9F00 @A3 @B0 @~1 r6 d+6 e6 d+6 d6 c+6 
!4  L @8 x4 @5 [ x8 ]6 [ x8 ]6 @3 x8 @5 x8 [ x8 ]8 [ x8 ]6 @3 x8 @5 x8 @8 x4 @5 [ x8 ]6 [ x8 ]6 @3 x8 @5 x8 @8 x4 @5 [ x8 ]6 @1 x6 x6 x6 x4 r4 @8 x4 @5 [ x8 ]6 [ [ x8 ]8 ]7 @8 x4 @5 [ x8 ]6 [ [ x8 ]8 ]3 @5 [ x8 ]8 @1 x8 @5 [ x8 ]5 @3 x8 @5 x8 [ x8 ]8 [ x8 ]8 @8 x4 @5 [ x8 ]6 [ [ x8 ]8 ]7 @8 x4 @5 [ x8 ]6 [ [ x8 ]8 ]3 @5 [ x8 ]8 @1 x8 @5 [ x8 ]5 @3 x8 @5 x8 [ x8 ]7 @8 x4 @15 [ x8 ]7 @8 x4 @7 x8 @5 x8 [ @15 x8 @5 x8 ]2 [ @7 x8 @5 x8 ]3 @3 x8 @5 x8 [ @7 x8 @5 x8 ]2 [ @15 x8 @5 x8 ]2 [ @7 x8 @5 x8 ]3 @7 x8 @8 x4 @5 x8 @7 x8 @5 x8 [ @15 x8 @5 x8 ]2 [ @7 x8 @5 x8 ]3 @3 x8 @5 x8 [ @7 x8 @5 x8 ]2 [ @15 x8 @5 x8 ]2 [ @7 x8 @5 x8 ]4 @8 x4 @7 x8 @5 x8 [ @15 x8 @5 x8 ]2 [ @7 x8 @5 x8 ]3 @3 x8 @5 x8 [ @7 x8 @5 x8 ]2 [ @15 x8 @5 x8 ]2 [ @7 x8 @5 x8 ]3 @7 x8 @8 x4 @5 x8 @7 x8 @5 x8 [ @15 x8 @5 x8 ]2 [ @7 x8 @5 x8 ]3 @3 x8 @5 x8 [ @7 x8 @5 x8 ]2 [ @15 x8 @5 x8 ]2 [ @7 x8 @5 x8 ]8 r2 @6 YL. [ x32 ]16 [ x32 ]16 YLR [ x8 x16 x16 ]2 [ x8 x16 x16 ]4 [ x4 ]4 r6 @8 [ Y.R x6 YL. x6 ]2 YLR x6 
!5  L V1 O1 [ @0 x4 @24 x8 @0 x8 x4 @24 x4 @0 x4 @24 x4 @0 x4 @24 x4 ]2 @0 x4 @2 Y.R b8 YLR g8 @0 x4 @2 g8 YL. d8 YLR @0 x8 @2 Y.R b8 b8 YLR g8 g8 YL. d8 YLR @24 x4 @0 x4 @2 Y.R b8 YLR g8 @0 x4 @2 g8 YL. d8 YLR @24 x6 x6 x6 x4 r4 [ @0 x4 @24 x8 @0 x8 x4 @24 x4 @0 x4 @24 x4 @0 x4 @24 x4 ]3 @0 x4 @24 x8 @0 x8 x4 @24 x4 @0 x4 @24 x4 @0 x16 @24 x16 x8 x8 x16 x16 [ @0 x4 @24 x8 @0 x8 x4 @24 x4 @0 x4 @24 x4 @0 x4 @24 x4 ]2 @0 x8 @2 Y.R b8 @24 YLR x8 @0 x8 @2 g4 @24 x8 @2 Y.R r24 b24 b24 b4 YLR g8 YL. d8 @0 YLR x4 @24 x4 @0 x8 @2 g8 @24 x8 @0 x8 @2 YL. d4 @24 YLR x4 @0 x8 @2 YL. d8 d8 d8 YLR g8 g8 YL. d8 @24 YLR x16 x16 [ @0 x4 @24 x8 @0 x8 x4 @24 x4 @0 x4 @24 x4 @0 x4 @24 x4 ]3 @0 x4 @24 x8 @0 x8 x4 @24 x4 @0 x4 @24 x4 @0 x16 @24 [ x16 ]3 @0 x16 @24 [ x16 ]3 [ @0 x4 @24 x8 @0 x8 x4 @24 x4 @0 x4 @24 x4 @0 x4 @24 x4 ]2 @0 x8 @2 Y.R b8 @24 YLR x8 @0 x8 @2 g4 @24 x8 @2 Y.R r24 b24 b24 b4 YLR g8 YL. d8 @0 YLR x4 @24 x4 @0 x8 @2 g8 @24 x8 @0 x8 @2 YL. d4 @24 YLR x8 x8 @0 x8 @2 g8 g8 g8 g8 g8 d8 d8 [ @0 x4 @24 x4 @0 x4 @24 x4 ]3 @0 x4 @24 x4 @2 Y.R b8 YLR g8 @24 x8 @0 x8 r8 @0 x8 @24 x4 @0 x4 @24 x4 [ @0 x4 @24 x4 @0 x4 @24 x4 ]2 @0 x4 @24 x8 @2 Y.R r24 b24 b24 YLR g8 g8 YL. d8 d8 YLR [ @0 x4 @24 x4 @0 x4 @24 x4 ]3 @0 x4 @24 x4 @2 Y.R b8 YLR g8 @24 x8 @0 x8 r8 @0 x8 @24 x4 @0 x4 @24 x4 [ @0 x4 @24 x4 @0 x4 @24 x4 ]2 @0 x4 @2 Y.R b8 YLR g8 @0 x4 @2 g8 YL. d8 YLR @0 x8 @2 Y.R b8 b8 b8 YLR g8 g8 YL. d8 d8 YLR @24 x2 x2 [ @24 x8 x8 @0 x4 x4 @24 x8 x8 ]2 @24 x8 x8 r4 r8 @2 Y.R b16 b16 YLR g16 g16 YL. d16 d16 YLR r6 @0 x6 @24 x6 [ x6 ]3 
!6  L O1 V1 @43 W0,100,0 YLR d+4.~ d2~ c8~ c2~ c8~ ( c8 ) d4 d+4.~ d2~ c8~ c2.~ ( c4 ) Y.R < b1 g2 b2 > c1 < [ b12~ b24 ( b24 ) ]3 b8 ( b8 ) r4 O2 V1 @26 W0,100,75 r8 Y.R c16 YL. ( c16 ) Y.R c16 YL. ( c16 ) < Y.R g16 YL. ( g16 ) Y.R a+16 > c16 YL. ( c16 ) Y.R c16 YL. ( c16 ) r16 < Y.R a+16 > c16 r8 Y.R c16 YL. ( c16 ) Y.R c16 YL. ( c16 ) < Y.R g16 YL. ( g16 ) Y.R a+16 > c16 YL. ( c16 ) Y.R c16 YL. ( c16 ) r8. < r8 Y.R b16 YL. ( b16 ) Y.R b16 YL. ( b16 ) Y.R g16 YL. ( g16 ) Y.R a16 b16 YL. ( b16 ) Y.R b16 YL. ( b16 ) r16 Y.R a16 b16 r8 Y.R b16 YL. ( b16 ) Y.R b16 YL. ( b16 ) Y.R g16 YL. ( g16 ) Y.R a16 b16 YL. ( b16 ) Y.R b16 YL. ( b16 ) r8. > r8 Y.R c16 YL. ( c16 ) Y.R c16 YL. ( c16 ) < Y.R g16 YL. ( g16 ) Y.R a+16 > c16 YL. ( c16 ) Y.R c16 YL. ( c16 ) r16 < Y.R a+16 > c16 r8 Y.R c16 YL. ( c16 ) Y.R c16 YL. ( c16 ) < Y.R g16 YL. ( g16 ) Y.R a+16 > c16 YL. ( c16 ) Y.R c16 YL. ( c16 ) r8. < r8 Y.R a16 YL. ( a16 ) Y.R a16 YL. ( a16 ) Y.R f16 YL. ( f16 ) Y.R g16 a16 YL. ( a16 ) Y.R a16 YL. ( a16 ) r16 Y.R g16 a16 r8 Y.R a16 YL. ( a16 ) Y.R a16 YL. ( a16 ) Y.R f16 YL. ( f16 ) Y.R g16 a16 YL. ( a16 ) Y.R a16 YL. ( a16 ) r8. > r8 Y.R c16 YL. ( c16 ) Y.R c16 YL. ( c16 ) < Y.R g16 YL. ( g16 ) Y.R a+16 > c16 YL. ( c16 ) Y.R c16 YL. ( c16 ) r16 < Y.R a+16 > c16 < r8 Y.R a+16 YL. ( a+16 ) Y.R a+16 YL. ( a+16 ) Y.R g16 YL. ( g16 ) Y.R a+16 > c16 YL. ( c16 ) Y.R < a+16 YL. ( a+16 ) r16 Y.R g+16 a+16 r8 Y.R a+16 YL. ( a+16 ) Y.R a+16 YL. ( a+16 ) Y.R g16 YL. ( g16 ) Y.R a+16 > c16 YL. ( c16 ) Y.R c16 YL. ( c16 ) r16 Y.R < a+16 > c16 < r8 Y.R a+16 YL. ( a+16 ) Y.R a+16 YL. ( a+16 ) Y.R g+16 YL. ( g+16 ) Y.R a+16 > c16 YL. ( c16 ) Y.R c16 YL. ( c16 ) r16 Y.R < g16 g+16 r8 Y.R a+16 YL. ( a+16 ) Y.R a+16 YL. ( a+16 ) Y.R f16 YL. ( f16 ) Y.R a16 a+16 YL. ( a+16 ) Y.R a+16 YL. ( a+16 ) r16 Y.R f16 g16 r8 Y.R a+16 YL. ( a+16 ) Y.R a+16 YL. ( a+16 ) Y.R f16 YL. ( f16 ) Y.R g+16 YL. ( g+16 ) r16 Y.R a+16 r4 @43 W0,100,0 Y.R O0 d1 d+2 d2 O2 @26 W0,100,75 r8 Y.R c16 YL. ( c16 ) Y.R c16 YL. ( c16 ) < Y.R g16 YL. ( g16 ) Y.R a+16 > c16 YL. ( c16 ) Y.R c16 YL. ( c16 ) r16 < Y.R a+16 > c16 r8 Y.R c16 YL. ( c16 ) Y.R c16 YL. ( c16 ) < Y.R g16 YL. ( g16 ) Y.R a+16 > c16 YL. ( c16 ) Y.R c16 YL. ( c16 ) r8. < r8 Y.R b16 YL. ( b16 ) Y.R b16 YL. ( b16 ) Y.R g16 YL. ( g16 ) Y.R a16 b16 YL. ( b16 ) Y.R b16 YL. ( b16 ) r16 Y.R a16 b16 r8 Y.R b16 YL. ( b16 ) Y.R b16 YL. ( b16 ) Y.R g16 YL. ( g16 ) Y.R a16 b16 YL. ( b16 ) Y.R b16 YL. ( b16 ) r8. > r8 Y.R c16 YL. ( c16 ) Y.R c16 YL. ( c16 ) < Y.R g16 YL. ( g16 ) Y.R a+16 > c16 YL. ( c16 ) Y.R c16 YL. ( c16 ) r16 < Y.R a+16 > c16 r8 Y.R c16 YL. ( c16 ) Y.R c16 YL. ( c16 ) < Y.R g16 YL. ( g16 ) Y.R a+16 > c16 YL. ( c16 ) Y.R c16 YL. ( c16 ) r8. < r8 Y.R a16 YL. ( a16 ) Y.R a16 YL. ( a16 ) Y.R f16 YL. ( f16 ) Y.R g16 a16 YL. ( a16 ) Y.R a16 YL. ( a16 ) r16 Y.R g16 a16 r8 Y.R a16 YL. ( a16 ) Y.R a16 YL. ( a16 ) Y.R f16 YL. ( f16 ) Y.R g16 a16 YL. ( a16 ) Y.R a16 YL. ( a16 ) r8. > r8 Y.R c16 YL. ( c16 ) Y.R c16 YL. ( c16 ) < Y.R g16 YL. ( g16 ) Y.R a+16 > c16 YL. ( c16 ) Y.R c16 YL. ( c16 ) r16 < Y.R a+16 > c16 < r8 Y.R a+16 YL. ( a+16 ) Y.R a+16 YL. ( a+16 ) Y.R g16 YL. ( g16 ) Y.R a+16 > c16 YL. ( c16 ) Y.R < a+16 YL. ( a+16 ) r16 Y.R g+16 a+16 r8 Y.R a+16 YL. ( a+16 ) Y.R a+16 YL. ( a+16 ) Y.R g16 YL. ( g16 ) Y.R a+16 > c16 YL. ( c16 ) Y.R c16 YL. ( c16 ) r16 Y.R < a+16 > c16 < r8 Y.R a+16 YL. ( a+16 ) Y.R a+16 YL. ( a+16 ) Y.R g+16 YL. ( g+16 ) Y.R a+16 > c16 YL. ( c16 ) Y.R c16 YL. ( c16 ) r16 Y.R < g16 g+16 r8 Y.R a+16 YL. ( a+16 ) Y.R a+16 YL. ( a+16 ) Y.R f16 YL. ( f16 ) Y.R a16 a+16 YL. ( a+16 ) Y.R a+16 YL. ( a+16 ) r16 Y.R f16 g16 r8 Y.R a+16 YL. ( a+16 ) Y.R a+16 YL. ( a+16 ) Y.R f16 YL. ( f16 ) Y.R g+16 YL. ( g+16 ) r16 Y.R a+16 r4 @43 W0,100,0 Y.R O1 a+2 f2 a+2 > d2 O2 YL. H-5 @21 W0,100,50 ( [ YL. d+16 Y.R d+16 ]8 [ YL. g+16 Y.R g+16 ]8 [ YL. a+16 Y.R a+16 ]8 > [ YL. c16 Y.R c16 ]5 YL. c16 Y.R c16 < YL. a+16 Y.R a+16 YL. g+16 Y.R g+16~ [ YL. g+16 Y.R g+16 ]8 [ YL. g16 Y.R g16 ]8 [ YL. g+16 Y.R g+16 ]8 [ YL. g16 Y.R g16 ]8 [ YL. d+16 Y.R d+16 ]8 [ YL. g+16 Y.R g+16 ]8 [ YL. a+16 Y.R a+16 ]8 > [ YL. c16 Y.R c16 ]5 YL. c16 Y.R c16 < YL. a+16 Y.R a+16 YL. g+16 Y.R g+16~ [ YL. g+16 Y.R g+16 ]8 [ YL. g16 Y.R g16 ]8 [ YL. g+16 Y.R g+16 ]8 [ YL. g16 Y.R g16 ]8 [ YL. g16 Y.R g16 ]8 ) H0 O0 @43 W0,100,0 YLR [ g+12 ( g+12 ) ]3 [ a+12 ( a+12 ) ]3 > [ d+16 ( d+16 ) ]2 Y.R ( d+16 YL. d+16 ) r8 r4 YLR [ d+16 ( d+16 ) ]2 [ f16 ( f16 ) ]2 Y.R ( f16 YL. f16 ) r8 r4 YLR [ f16 ( f16 ) ]2 [ d+16 ( d+16 ) ]2 Y.R ( d+16 YL. d+16 ) r8 r2 YLR r6 g6 g+6 g6 f+6 f6 
