;025 001EA05E
!1  T153 V9 O2 Y.R @@0,2,0 E100,70,60,7,36 P14,11,2 D2 r32 f4. e16 f16 g4 c4 a+8. a8. g8 a16. D0 c16 f16 a16 f16 a16 > c16 d4. _V-4 d8 _V4 d8. e8. d8 d4. < < a16 > d16 e16 d16 e16 a16 e16 a16 > d16 e16 r1 L V9 O2 Y.R @2 E100,80,50,14,43 P7,9,3 B7 a32~ a+16.~ a+4 a16 a+16 > c16 < a+16 a16 a+16 a16 f16 d16 e16 f8 d16 < a16~ a2 _V-4 a8 _V4 g16 a16 > c16 < a16 > c16 d16 c16 d16 f16 d16 f16 g16 f16 g16 a16 g16 a16 > d16 e32~ f16.~ f4 e16 d16 c+4.~ < _V-4 a+8 _V4 V7 O3 Y.R @@2,2,1 E100,90,60,14,36 P11,11,2 B7 D2 r32 d8 d16 d16~ d8 e16 _V-3 e16 _V3 f4 e8 f8 g+32~ a32~ a8 g8. e8 c16. D0 _V2 < a16 _V-4 a16 _V4 YL. > a8 _V-4 Y.R a8 _V4 d8. d8. c8 d4 e4 e4. c8 f16~ ( e16~ ) f4 _V-4 f8 _V2 D2 r32 r8 d8 e8 f8 g4 c4 g8. > c8. < g8 f4 _V-4 f16. _V4 D0 _V2 < a+16 > c16 d4 _V-4 d8 _V4 r8 d8. e8. f8 e4. _V-4 e8 _V2 O3 V6 @2 E100,0,0,36,0 PX YLR c32 Y.R _V-3 YL. c32 ( Y.R c32 ( YL. c32 _V5 < YLR b32 Y.R _V-3 YL. b32 ( Y.R b32 ( YL. b32 _V5 > YLR c32 Y.R _V-3 YL. c32 ( Y.R c32 ( YL. c32 _V5 YLR c+32 Y.R _V-3 YL. c+32 ( Y.R c+32 ( YL. c+32 _V5 V8 O3 Y.R @@2,2,1 E100,90,60,14,36 P11,11,2 B7 D0 f8 f16 f16~ f8 g16 _V-3 g16 _V3 a4 g8 a8 _V-2 > d+32~ e32~ e8 c8. < g8 e8 _V2 < a16 _V-4 a16 _V4 YL. > a8 _V-4 Y.R a8 _V4 d8. d8. c8 d4 e4 e4. c8 f16~ ( e16~ ) f4 _V-4 f8 _V4 V9 O1 Y.R @@0,2,0 E100,70,60,7,36 P14,11,1 a+2 > c2 < a2 > d2 YL. r8 d16 g16 a+16 g16 a+16 > d16 g4. _V-4 g8 _V4 < Y.R r8 e16 g+16 b16 g+16 b16 > d16 g+4. _V-4 g+8 _V4 YLR d8 YL. _V-4 d16 _V4 YLR d8 Y.R _V-4 d16 _V4 YLR c+8 c+4. YL. _V-4 c+8 _V4 O2 V7 @2 E100,0,0,36,0 PX Y.R b32 YL. b32 > Y.R e32 YL. e32 Y.R f+32 YL. f+32 Y.R e32 YL. e32 Y.R f+32 YL. f+32 Y.R a32 YL. a32 Y.R b32 YL. b32 [ Y.R b16 ( YL. b16 ( ]4 r16 V9 O3 Y.R @@2,2,1 E100,90,60,14,36 P11,11,2 B7 g8 g8 e8 < b8 > d8. e16 _V-4 e8 _V4 d16 e16 f+8 g8 a8 b8 a8 g16 g16 _V-4 g8 _V4 c16 d16 e4 _V-4 e8 _V4 d16 e16 f+4 _V-4 f+8 _V4 d16 e16 f+4 e4 O2 V9 @0 E100,0,0,36,0 PX r16 Y.R b32 YL. b32 > Y.R e32 YL. e32 Y.R f+32 YL. f+32 Y.R e32 YL. e32 Y.R f+32 YL. f+32 Y.R a32 YL. a32 Y.R b32 YL. b32 V9 O3 Y.R @@2,2,1 E100,90,60,14,36 P11,11,2 B7 g8 g8 e8 < b8 > d8. e16 _V-4 e8 _V4 d16 e16 f+8 g8 a8 b8 a8 g16 g16 _V-4 g8 _V4 c16 d16 e8 YL. g16 _V-4 g16 _V4 > Y.R g8 _V-4 g8 _V4 < c8. c8. g8 a8 _V-4 a16 _V4 a8 _V-4 a16 _V4 f+8 a8 _V-4 a8 _V4 a8 _V-4 a16 _V4 b16~ b4 V11 O2 @@0,2,0 E100,70,60,7,36 P14,11,1 B14 < b4~ > e4~ Y.R f+4~ b2.~ b8~ < b8 
!2  V12 O2 @@0,2,0 E100,70,60,7,36 P14,11,2 f4. e16 f16 g4 c4 a+8. a8. g8 a4 _V-4 a8 _V4 d16 e16 f4. _V-4 f8 _V4 f8. g8. f8 a1 r1 L V9 O3 YLR @2 E100,80,50,14,43 P7,9,3 B7 c32~ d16.~ d4 c16 d16 f16 d16 c16 d16 c16 < a16 g16 g+16 a8 f16 d16~ d2 _V-4 d8 _V4 c16 d16 f16 d16 f16 g16 f16 g16 a16 g16 a16 > c16 < a16 > c16 d16 c16 d16 f16 g+32~ a16.~ a4 g16 f16 e4.~ _V-4 c+8 _V4 V9 O3 @@2,2,1 E100,90,60,14,36 P11,11,2 B7 d8 d16 d16~ d8 e16 _V-3 e16 _V3 f4 e8 f8 g+32~ a32~ a8 g8. e8 c4 _V-4 c8 _V4 r8 f8. f8. e8 f4 g4 g4. f8 a16~ ( g+16~ ) a4 _V-4 a8 _V4 r8 d8 e8 f8 g4 c4 g8. > c8. < g8 f4 _V-4 f8 _V4 d16 e16 f4 _V-4 f8 _V4 r8 f8. g8. a8 g4. _V-4 g8 _V4 @0 E100,0,0,36,0 PX _V2 YL. c16 > Y.R c16 < < YL. b16 > Y.R b16 YL. c16 > Y.R c16 < YL. c+16 > Y.R c+16 < YLR _V-2 V10 O3 @@2,2,1 E100,90,60,14,36 P11,11,2 B7 d8 d16 d16~ d8 e16 _V-3 e16 _V3 f4 e8 f8 g+32~ a32~ a8 g8. e8 c4 _V-4 c8 _V4 r8 f8. f8. e8 f4 g4 g4. f8 a4 _V-4 a8 _V4 V11 a+16 > c16 d8. c8. < a+8 g4 _V-4 g8 _V4 a16 a+16 > c+4 < a4 g8 f16 f16 _V-4 f8 _V4 d16 e16 f4. _V-4 f8 _V4 f8. g8. f8 f4 f4 e4 d4 e1 f+2 _V-4 f+8 _V4 r8 g8 a8 b8 b8 a8 e8 g8. a16 _V-4 a8 _V4 f+16 g16 a8 b8 > c8 d8 c8 < b16 b16 _V-4 b8 _V4 e16 f+16 g4 _V-4 g8 _V4 f+16 g16 a4 _V-4 a8 _V4 f+16 g16 a4 > c4 < b4 _V-4 b8 _V4 g16 a16 b8 b8 a8 e8 g8. a16 _V-4 a8 _V4 f+16 g16 a8 b8 > c8 d8 c8 < b16 b16 _V-4 b8 _V4 e16 f+16 g4 _V-4 g8 _V4 r8 e8. e8. b8 > d8 _V-4 d16 _V4 d8 _V-4 d16 _V4 < b8 > d8 _V-4 d8 _V4 d8 _V-4 d16 _V4 e16~ e1~ e2. _V-5 e4 _V5 
!3  V3 O0 `9F00 @A3 @B0 @~3 a+4. ( a+16 a+16 ) > c4. ( c16 c16 ) < f2 f8 e8 f8 f+8 g4. ( g16 g16 ) g+4. ( g+16 g+16 ) a2. a16 > c+16 e16 a16 < a16 a16 r4 a16 a16 r2 L [ a+16 ( a+16 ) ]3 a+16 a+16 > [ c16 ( c16 ) ]3 c16 c16 [ d16 ( d16 ) ]3 c16 d16 f16 d16 c16 d16 c16 < a16 g16 a16 [ g16 ( g16 ) ]3 g16 g16 [ g16 ( g16 ) ]3 g16 g+16 [ a16 ( a16 ) ]3 a16 a16 a8 g8 a8 > c8 [ d8 ( d8 ) ]3 d8 c16 d16 < [ a8 ( a8 ) ]4 [ a+8 ( a+8 ) ]4 [ f8 ( f8 ) ]2 f8 e8 f8 f+8 [ g8 ( g8 ) ]2 > c8 ( c8 ) c8 < a+8 [ a8 ( a8 ) ]2 > [ d8 ( d8 ) ]2 < [ g8 ( g8 ) ]3 g16 ( g16 ) g16 g16 > [ c8 ( c8 ) ]2 c8 < b8 > c8 c+8 [ d16 ( d16 ) ]6 d16 e16 f16 g16 < [ a16 ( a16 ) ]7 g16 a16 [ a+16 ( a+16 ) ]8 [ f16 ( f16 ) ]5 f8 g8 a8 [ a+16 ( a+16 ) ]3 a+16 a+16 > [ c16 ( c16 ) ]3 c8 [ c+16 ( c+16 ) ]3 c+16 c+16 d8 c8 < a+8 a8 < [ g16 ( g16 ) ]3 g16 g16 g16 g16 e16 e16 f16 f16 g16 g16 [ g+16 ( g+16 ) ]3 g+16 g+16 g+16 g+16 e16 e16 f+16 f+16 g+16 g+16 a8 ( a16 ) a8 ( a16 ) a4. a16 > c+16 e16 a16 b8 ( b16 ) b8 ( b16 ) < b8 r2 > [ e16 ( e16 ) e16 e16 ]2 c16 ( c16 ) c16 c16 c16 < b16 > c16 c+16 [ d16 ( d16 ) d16 d16 ]2 < [ g16 ( g16 ) ]4 > [ c16 ( c16 ) c16 c16 ]2 d16 ( d16 ) d16 d16 d8 c16 d16 < [ f+16 ( f+16 ) f+16 f+16 ]2 b16 ( b16 ) b16 b16 b16 > b16 f+16 < b16 > [ e16 ( e16 ) e16 e16 ]2 c16 ( c16 ) c16 c16 c16 > ( c16 ) < < a+16 > c16 [ d16 ( d16 ) d16 d16 ]2 g16 ( g16 ) g8 f+8 d8 [ c16 ( c16 ) c16 c16 ]3 c16 < b16 > c16 c+16 d8 ( d16 ) r2. < e16~ e1~ e1 
!4  @8 x4 @6 x4 @8 x4 @6 x4 @8 x4 @6 [ x4 ]3 @8 x4 @6 x4 @8 x4 @6 x4 @8 x4 [ @5 x8 @6 x8 ]3 @7 x8 @5 x8 x8 @7 x8 @22 x2 L @8 x4 @5 x8 @6 x8 @5 x8 @6 x16 x16 x16 @5 x16 x8 @5 x8 @6 x8 @5 x8 @6 x16 x16 @5 x8 @6 x16 x16 @5 x16 @6 x16 @7 x8 @8 x4 @5 x8 @6 x8 @5 x8 @6 x16 x16 x16 @5 x16 x8 @8 x4 @5 x8 @6 x8 @5 x4 x4 @8 x4 @5 x8 @6 x16 x16 @5 x8 @6 x8 @5 x8 @6 x8 @5 x8 @6 x8 @5 x8 @6 x16 x16 @5 x8 @6 x8 @5 x8 @7 x8 @5 x8 @6 x8 @5 x8 @6 x16 x16 @5 x8 @6 x8 @5 x8 @6 x8 @5 x8 @6 x8 @5 x8 @6 x16 x16 @5 x8 @7 x8 @5 x8 @7 x8 @8 x4 @5 x8 @6 x16 x16 @5 x8 @6 x8 @5 x8 @6 x8 @5 x8 @6 x8 @5 x8 @6 x16 x16 @5 x8 @6 x8 @5 x8 @7 x8 @5 x8 @6 x8 @5 x8 @6 x16 x16 @5 x8 @6 x8 @5 x8 @6 x8 @5 x8 @6 x8 @5 x8 @6 x16 x16 @5 x8 @7 x8 @5 x8 @6 x8 @12 x4 @5 x8 @6 x16 x16 @5 x8 @6 x8 @5 x8 @6 x8 @5 x8 @6 x8 @5 x8 @6 x16 x16 @5 x8 @6 x8 @5 x8 @7 x8 @5 x8 @6 x8 @5 x8 @6 x16 x16 @5 x8 @6 x8 @5 x8 @6 x8 @5 x8 @6 x8 @5 x8 @6 x16 x16 @5 x8 @7 x8 @5 x8 @7 x8 @8 x4 @5 x8 @6 x16 x16 @5 x8 @6 x8 @5 x8 @6 x8 @5 x8 @6 x8 @5 x8 @6 x16 x16 @5 x8 @6 x8 @5 x8 @7 x8 @8 x4 @5 x8 @6 x16 x16 @5 x8 @6 x8 @5 x8 @6 x8 @5 x8 @6 x8 @5 x8 @6 x16 x16 @5 x8 @7 x8 @5 x8 @7 x8 @8 Y.R x8. YL. x8. YLR x4 @5 x8 x8 x8 @8 x8. x8. x4 r4. @8 x4 [ @5 x16 @6 x16 x16 x16 ]3 [ [ @5 x16 @6 x16 x16 x16 ]4 ]3 @8 x4 [ @5 x16 @6 x16 x16 x16 ]3 [ [ @5 x16 @6 x16 x16 x16 ]4 ]2 @8 x4 r2 r8. x16~ x8 @6 x16 x16 [ @7 x8 @6 x16 x16 ]3 [ @7 x8 @6 x16 x16 ]2 @5 [ x8 ]4 
!5  V1 O1 @0 x2 @0 x2 @0 x2 r8 @24 x16 x16 @2 Y.R b16 YLR g16 YL. d8 YLR @0 x2 @0 x2 @0 x2. @24 x4 @24 x16 x16 @0 x8 x8 @24 x16 x16 r8 x16 x16 @2 Y.R b16 b16 YLR g16 Y.R d16 YLR L @0 x4 @24 x4 @0 x8 x8 @24 x4 @0 x4 @24 x4 @0 x8 x8 @24 x4 @0 x4 @24 x4 @0 x8 x8 @24 x8 @0 x8 @0 x4 @24 x4 [ x16 ]6 @2 d8 [ @0 [ x4 ]3 @24 x4 ]3 @0 [ x4 ]3 @24 x8 x16 x16 [ @0 [ x4 ]3 @24 x4 ]3 @0 x4 x4 @24 x8 x8 x8 x16 x16 @0 x4 @24 x4 @0 x8 x8 @24 x4 @0 x4 @24 x4 @0 x16 @24 x16 @0 x8 @24 x4 @0 x4 @24 x4 @0 x8 x8 @24 x4 @0 x4 @24 x4 @0 x16 @24 x16 @0 x8 @24 x8. x16 @0 x4 @24 x4 @0 x8 x8 @24 x4 @0 x8 x8 @24 x4 @0 x16 @24 x16 @0 x8 @24 x8 x16 x16 @0 x4 @24 x4 @0 x8 x8 @24 x4 @0 x4 @24 x4 @0 x8 x8 @24 x8 @0 x8 @0 x8. @24 x8. @0 x8 r8 @2 Y.R b16 b16 YLR g16 g16 YL. d16 d16 YLR @24 x8. x8. x8 r8 @0 x16 x16 @24 x8 x16 x16 [ @0 x4 @24 x4 @0 x8 x8 @24 x4 ]3 @0 x4 @24 x4 @0 x8 @24 x16 x16 @2 Y.R g16 YL. d16 @24 YLR x16 x16 @0 x4 @24 x4 @0 x8 x8 @24 x4 @0 x4 @24 x4 @0 x8 x8 @24 x8 @0 x8 @0 x4 @24 x4 @0 x8 x8 @24 x8 @0 x8 @24 x8. @2 Y.R b8. YLR g8 YL. d4 @0 YLR x8. x16 r4 @0 [ x4 ]5 @24 [ x16 ]8 
!6  V1 O1 @61 W0,100,33 YLR B7 a+4. YL. ( a+16 a+16 ) > YLR c4. YL. ( c16 c16 ) YLR f2.~ f8~ ( c8 ) < g4. YL. ( g16 g16 ) YLR g+4. YL. ( g+16 g+16 ) YLR a2. YL. ( a4 ) @8 YLR a16 a4 r8 a16 a4 r4 L O1 @61 W0,100,33 [ YLR a+8 YL. ( a+16 a+16 ) ]2 > [ YLR c8 YL. ( c16 c16 ) ]2 [ YLR d8 YL. ( d16 d16 ) ]2 ( d16 ) YLR d16 YL. ( d16 d16 ) YLR d8 YL. ( d16 d16 ) < [ YLR g8 YL. ( g16 g16 ) ]3 YLR g8 YL. ( g16 g+16 ) [ YLR a8 YL. ( a16 a16 ) ]2 YLR a8 g8 a8 > c8 O2 @61 W0,100,33 B7 [ YL. d8 Y.R ( d8 ) ]3 YL. d8 ( c16 d16 ) < [ YL. a8 Y.R ( a8 ) ]3 YL. a8 ( a16 a16 ) [ YL. a+8 Y.R ( a+8 ) ]4 [ YL. f8 Y.R ( f8 ) ]2 YL. f8 e8 f8 f+8 [ YL. g8 Y.R ( g8 ) ]2 > YL. c8 Y.R ( c8 ) YL. c8 < a+8 [ YL. a8 Y.R ( a8 ) ]2 > YL. d8 Y.R ( d8 ) YL. d8~ ( < a8 ) [ YL. g8 Y.R ( g8 ) ]3 YL. g8 ( g16 g16 ) > [ YL. c8 Y.R ( c8 ) ]2 @8 YLR c8 YL. < b8 > YLR c8 Y.R c+8 YLR d4 O2 @61 W0,100,33 B14 d8 YL. ( d16 d16 d16 ) YLR d16 YL. ( d16 d16 ) YLR d8 YL. ( d16 d16 < a16 a16 a16 a16 ) YLR a8 YL. ( a16 a16 a16 ) YLR a16 YL. ( a16 a16 ) YLR a8 YL. ( a16 a16 a+16 a+16 a+16 a+16 ) YLR a+8 YL. ( a+16 a+16 a+16 ) YLR a+16 YL. ( a+16 a+16 ) YLR a+8 YL. ( a+16 a+16 f16 f16 f16 f16 ) YLR f8 YL. ( f16 f16 ) YLR f16 ( f16 ) f8 g8 a8 a+4. a+16 b16 > c4.~ ( c+8 ) c+4. c+16 c+16 d4.~ < ( a8 ) g2.~ g8~ > ( d8 ) e2.~ e8~ < ( b8 ) a16 YL. ( a16 a16 ) YLR a16 YL. ( a16 a16 ) YLR a8~ a4 ( a16 > c+16 e16 a16 ) < B22 @8 YL. b8. Y.R b8. YLR b8~ < b2 O2 @61 W0,100,33 B14 [ YLR e8 YL. ( e16 e16 ) ]2 YLR c8 YL. ( c16 c16 ) YLR c16 ( < b16 > c16 c+16 ) YLR d8 YL. ( d16 d16 ) YLR d8 d16 d16 g16 YL. ( g16 ) YLR g8 f+8 d8 [ YLR c8 YL. ( c16 c16 ) ]2 YLR d8 YL. ( d16 d16 ) YLR d8 c16 d16 f+8 YL. ( f+16 f+16 ) YLR f+8 YL. ( f+16 ) YLR f+16 < [ b8 ]4 > [ YLR e8 YL. ( e16 e16 ) ]2 YLR c8 YL. ( c16 c16 ) YLR c8 < b16 > c16 d8 YL. ( d16 d16 ) YLR d8 c16 d16 g16 YL. ( g16 ) YLR g8 f+8 d8 c2~ c8 YL. ( c8 ) YLR c8 c16 c+16 B36 d8~ < ( d4 ) r2 r16 > ( e16~ e1~ e1 ) 
