;026 001EB076
!1  T145 L O3 V8 @2 E100,0,0,23,0 PX YLR f16 Y.R _V-2 f16 _V2 YLR c+16 YL. _V-2 c+16 _V2 < YLR a+16 YL. _V-2 a+16 _V2 YLR f8 [ Y.R _V-3 f8 _V3 YLR f8 YL. _V-3 f8 _V3 YLR f8 ]3 > YLR f16 Y.R _V-2 f16 _V2 YLR c+16 YL. _V-2 c+16 _V2 < YLR a+16 YL. _V-2 a+16 _V2 YLR f8 [ Y.R _V-3 f8 _V3 YLR f8 YL. _V-3 f8 _V3 YLR f8 ]2 ( < f16 a+16 > c+16 f16 a+16 > c+16 f16 a+16 ) V7 [ Y.R a+16 YL. f16 Y.R c+16 < YL. a+16 > ]8 [ Y.R g+16 YL. d+16 Y.R c16 < YL. g+16 > ]8 [ Y.R f+16 YL. c+16 < Y.R a+16 YL. f+16 > ]8 [ Y.R g+16 YL. d+16 Y.R c16 < YL. g+16 > ]6 YLR c16 d+16 g+16 > c16 d+16 c16 < g+16 d+16 [ Y.R a+16 YL. f16 Y.R c+16 < YL. a+16 > ]8 [ Y.R g+16 YL. d+16 Y.R c16 < YL. g+16 > ]8 [ Y.R f+16 YL. c+16 < Y.R a+16 YL. f+16 > ]4 [ Y.R g+16 YL. d+16 Y.R c16 < YL. g+16 > ]4 [ Y.R a+16 YL. f16 Y.R c+16 < YL. a+16 > ]6 < @0 Y.R _V2 f16 a+16 > c+16 f16 a+16 > c+16 f16 a+16 _V-2 O2 V8 YLR @0 E95,100,80,8,38 P15,12,2 a2. f+8 > c+8 < b2. a4 g+1 f+4. g+16 f+16 f2 f+1 g+1 a1 b4. a+16 b16 > c2 O2 V8 @0 E100,0,0,19,0 PX [ Y.R c+16 YL. g+16 > Y.R c+16 < YL. g+16 ]3 Y.R c+16 > YL. c+16 > Y.R c+16 < YL. c+16 < [ Y.R < b16 > YL. f+16 Y.R b16 YL. f+16 ]3 Y.R < b16 > YL. b16 > Y.R b16 < YL. b16 < [ Y.R a16 > YL. e16 Y.R a16 YL. e16 < ]3 Y.R a16 > YL. a16 > Y.R a16 < YL. a16 < [ Y.R b16 > YL. f+16 Y.R b16 YL. f+16 < ]3 Y.R < b16 > YL. b16 > Y.R b16 < YL. b16 > [ Y.R c+16 YL. g+16 > Y.R c+16 < YL. g+16 ]3 Y.R c+16 > YL. c+16 > Y.R c+16 < YL. c+16 < [ Y.R < b16 > YL. f+16 Y.R b16 YL. f+16 ]3 Y.R < b16 > YL. b16 > Y.R b16 < YL. b16 < [ Y.R a16 > YL. e16 Y.R a16 YL. e16 < ]3 Y.R a16 > YL. a16 > Y.R a16 < YL. a16 < [ Y.R g+16 > YL. d+16 Y.R g+16 YL. d+16 < ]3 Y.R g+16 > YL. g+16 > Y.R g+16 < YL. g+16 < O1 V7 @2 E100,0,0,23,0 PX Y.R a16 > YL. c+16 Y.R e16 YL. a16 Y.R c+16 YL. e16 Y.R a16 > YL. c+16 < Y.R e16 YL. a16 > Y.R c+16 YL. e16 Y.R a16 YL. e16 Y.R c+16 < YL. a16 < Y.R b16 > YL. d+16 Y.R f+16 YL. b16 Y.R d+16 YL. f+16 Y.R b16 > YL. d+16 < Y.R b16 > YL. d+16 Y.R f+16 YL. b16 > Y.R d+16 < YL. b16 Y.R f+16 YL. d+16 < [ Y.R c+16 YL. f+16 Y.R g+16 > YL. c+16 < Y.R f+16 YL. b16 > Y.R c+16 YL. f+16 ]2 [ Y.R f16 YL. c+16 < Y.R b16 YL. g+16 ]2 > Y.R c+16 YL. f16 Y.R g+16 > YL. c+16 Y.R f16 YL. g+16 > Y.R c+16 YL. f16 
!2  L O3 V8 @0 E100,0,0,11,0 PX [ Y.R a+16 > YL. a+16 < Y.R a+16 YL. a+16 > Y.R a+16 < YL. a+16 Y.R a+16 > YL. a+16 < Y.R a+16 YL. a+16 > Y.R a+16 < YL. a+16 > Y.R a+16 < YL. a+16 Y.R a+16 > YL. a+16 < ]3 Y.R a+16 > YL. a+16 < Y.R a+16 YL. a+16 > Y.R a+16 < YL. a+16 Y.R a+16 > YL. a+16 < O2 V8 @1 E90,100,60,8,31 P19,14,2 YLR a+4 > c4 c+1 Y.R _V-4 c+4 _V4 YLR c+4 c4 < a+4 g+4 a+8 > c8~ c2~ c4 Y.R _V-4 c4 _V4 YLR < a+4 g+4 f+1 Y.R _V-4 f+4 _V4 YLR f+4 f+4 f+4 g+2. a+8 > c8~ c4. Y.R _V-4 c8 _V4 YLR < a+4 > c4 c+1 Y.R _V-4 c+4 _V4 YLR c+4 c4 < a+4 > c4 d+8 c8~ c2~ c4 Y.R _V-4 c4 _V4 YLR < a+4 g+4 f+2. g+8 a+8 g+4. Y.R _V-4 g+8 _V4 YLR d+4 d+4 f16 d+16 c+8~ c+2.~ c+4 Y.R _V-4 c+4 _V4 O2 V9 @0 E100,0,0,23,0 PX YL. a+16 > c+16 f16 a+16 > c+16 f16 a+16 > c+16 O3 V10 YLR @2 E90,100,60,8,31 P19,14,2 r4 e8 _V-3 e8 _V3 e8. f+8. g+8 f+4 e4 d+4 c+4 d+16 c+16 < b4. _V-3 b8 _V3 g+8 b8 > c+8~ c+2. _V-3 c+4 _V3 r4 c+4 < a8. > c+8. e8 d+8 _V-3 d+8 _V3 d+4 e4 f+4 g+4. _V-3 g+8 _V3 g+8. e8. g+8 f+4. e16 f+16 g+2 O3 V8 @1 E90,100,60,8,31 P19,14,2 r4 YLR e8 Y.R _V-4 e8 _V4 YLR e8. d+8. c+8 d+8. f+8. d+8 Y.R _V-4 d+8 _V4 YLR d+8 c+8 < b8 > c+8. < a8. > e4. Y.R _V-4 e8 _V4 YLR d+16 c+16 d+8. < b8. > f+4 f+8 e8 d+8 Y.R _V-4 d+8 _V4 YLR r8 e8 Y.R _V-4 e8 _V4 YLR e8. d+8. c+8 d+8. f+8. d+8 Y.R _V-4 d+8 _V4 YLR d+8 c+8 < b8 a4. > e4. Y.R _V-4 e8 _V4 YLR d+16 e16 g+4. d+8 Y.R _V-4 d+8 _V4 YLR d+8 c+8 < b8 a8. e8. > c+4. d+8 e8 d+4. Y.R _V-4 d+8 _V4 YLR < b4 > f+4 f+2.~ f+8 g+16 f+16 f2. Y.R _V-4 f4 _V4 
!3  O0 V3 L `9F00 @A3 @B0 @~3 [ a+16 a+16 g+16 g+16 a+16 ( a+16 ) g+16 a+16 g+16 a+16 a+16 g+16 a+16 a+16 g+16 a+16 ]3 a+16 a+16 g+16 g+16 a+16 ( a+16 ) g+16 a+16 [ g+16 ]8 a+16 a+16 g+16 g+16 a+16 ( a+16 ) g+16 a+16 g+16 a+16 a+16 g+16 a+16 a+16 f16 g+16 a+16 a+16 g+16 g+16 a+16 ( a+16 ) g+16 a+16 g+16 a+16 a+16 g+16 a+16 > f16 a+16 f16 < a+16 a+16 g+16 g+16 a+16 ( a+16 ) g+16 a+16 g+16 a+16 a+16 g+16 a+16 a+16 f16 g+16 a+16 a+16 g+16 g+16 a+16 ( a+16 ) g+16 a+16 g+16 a+16 a+16 g+16 > c16 d+16 g+16 d+16 < a+16 a+16 g+16 g+16 a+16 ( a+16 ) g+16 a+16 g+16 a+16 a+16 g+16 a+16 a+16 f16 g+16 a+16 a+16 g+16 g+16 a+16 ( a+16 ) g+16 a+16 g+16 a+16 a+16 g+16 a+16 > c+16 f+16 c+16 < a+16 a+16 g+16 g+16 a+16 ( a+16 ) g+16 a+16 g+16 a+16 a+16 g+16 a+16 a+16 f16 g+16 a+16 a+16 g+16 g+16 a+16 ( a+16 ) g+16 a+16 g+16 a+16 a+16 g+16 > c16 d+16 g+16 > c16 < < a+16 a+16 g+16 g+16 a+16 ( a+16 ) g+16 a+16 g+16 a+16 a+16 g+16 a+16 a+16 f16 g+16 a+16 a+16 g+16 g+16 a+16 ( a+16 ) g+16 a+16 g+16 a+16 a+16 g+16 a+16 > f16 a+16 f16 < a+16 a+16 g+16 g+16 a+16 ( a+16 ) g+16 a+16 g+16 a+16 a+16 g+16 a+16 a+16 f16 g+16 a+16 a+16 g+16 g+16 a+16 ( a+16 ) g+16 a+16 g+16 a+16 a+16 g+16 > c16 d+16 g+16 d+16 < a+16 a+16 g+16 g+16 a+16 ( a+16 ) g+16 a+16 g+16 a+16 a+16 g+16 a+16 a+16 f16 g+16 a+16 a+16 g+16 g+16 a+16 ( a+16 ) g+16 a+16 g+16 a+16 a+16 g+16 a+16 > c+16 f+16 c+16 < a+16 a+16 g+16 g+16 a+16 ( a+16 ) g+16 a+16 g+16 a+16 a+16 g+16 a+16 a+16 f16 g+16 a+16 a+16 g+16 g+16 a+16 ( a+16 ) g+16 a+16 a+16 ( a+16 ) > a+16 a+16 < g+16 ( g+16 ) > g+16 g+16 < f+16 f+16 e16 e16 f+16 ( f+16 ) e16 f+16 ( f+16 ) f+16 e16 e16 f+16 f+16 a16 a16 b16 b16 a16 a16 b16 ( b16 ) a16 b16 ( b16 ) b16 a16 a16 b16 b16 > d+16 d+16 e16 e16 d+16 d+16 e16 ( e16 ) d+16 e16 ( e16 ) e16 d+16 d+16 e16 d16 c+16 < b16 > c+16 c+16 < b16 b16 > c+16 ( c+16 ) < b16 > c+16 ( c+16 ) c+16 < b16 b16 > c+16 < b16 a16 g+16 f+16 f+16 e16 e16 f+16 ( f+16 ) e16 f+16 ( f+16 ) f+16 e16 e16 a16 > c+16 f+16 c+16 < g+16 g+16 f+16 f+16 g+16 ( g+16 ) f+16 g+16 ( g+16 ) g+16 f+16 f+16 > c16 d+16 g+16 d+16 < a16 a16 g+16 g+16 a16 ( a16 ) g+16 a16 ( a16 ) a16 g+16 g+16 a16 a16 g+16 a16 b16 b16 a16 a16 b16 ( b16 ) a16 b16 g+16 c16 d+16 g+16 > c16 < g+16 d+16 < g+16 > c+16 c+16 < b16 b16 > c+16 ( c+16 ) < b16 > c+16 < b16 > c+16 c+16 < b16 > c+16 c+16 < b16 > c+16 < b16 b16 a16 a16 b16 ( b16 ) a16 b16 a16 b16 b16 a16 b16 b16 a16 b16 a16 a16 g+16 g+16 a16 ( a16 ) g+16 a16 g+16 a16 a16 g+16 a16 a16 g+16 a16 b16 b16 a16 a16 b16 ( b16 ) a16 b16 a16 b16 b16 a16 b16 > d+16 f+16 b16 c+16 c+16 < b16 b16 > c+16 ( c+16 ) < b16 > c+16 < b16 > c+16 c+16 < b16 > c+16 c+16 < b16 > c+16 < b16 b16 a16 a16 b16 ( b16 ) a16 b16 a16 b16 b16 a16 b16 b16 a16 b16 a16 a16 g+16 g+16 a16 ( a16 ) g+16 a16 g+16 a16 a16 g+16 a16 a16 g+16 a16 g+16 g+16 f+16 f+16 g+16 ( g+16 ) f+16 g+16 f+16 g+16 g+16 f+16 g+16 > c16 d+16 g+16 < a16 a16 g+16 g+16 a16 ( a16 ) g+16 a16 g+16 a16 a16 g+16 a16 a16 g+16 a16 b16 b16 a16 a16 b16 ( b16 ) a16 b16 a16 b16 b16 a16 b16 b16 a16 b16 > c+16 c+16 < b16 b16 > c+16 ( c+16 ) < b16 > c+16 < b16 > c+16 c+16 < b16 > c+16 c+16 < b16 > c16 c+16 c+16 < b16 b16 > c+16 ( c+16 ) < b16 > c+16 < b16 > c+16 c+16 < b16 > c+16 < b16 g+16 b16 
!4  L [ @8 x4 [ @5 x16 x16 @7 x8 ]3 [ @5 x16 x16 @7 x8 ]4 ]2 @8 x4 [ @5 x16 x16 @7 x8 ]3 [ [ @5 x16 x16 @7 x8 ]4 ]7 @8 x4 [ @5 x16 x16 @7 x8 ]3 [ [ @5 x16 x16 @7 x8 ]4 ]3 @8 x4 [ @5 x16 x16 @7 x8 ]3 Y.R @8 x8 YLR @7 x8 [ @5 x16 x16 @7 x8 ]3 YL. @8 x8 YLR @7 x8 [ @5 x16 x16 @7 x8 ]3 [ @5 x16 x16 @7 x8 ]4 @8 x4 [ @5 x16 x16 @7 x8 ]3 [ [ @5 x16 x16 @7 x8 ]4 ]3 @8 x4 [ @5 x16 x16 @7 x8 ]3 [ @5 x16 x16 @7 x8 ]4 Y.R @8 x8 YLR @7 x8 [ @5 x16 x16 @7 x8 ]3 YL. @8 x8 YLR @7 x8 [ @5 x16 x16 @7 x8 ]3 [ @8 x4 [ @5 x16 x16 @7 x8 ]3 [ [ @5 x16 x16 @7 x8 ]4 ]3 ]2 @8 x4 [ @5 x16 x16 @7 x8 ]3 Y.R @8 x8 YLR @7 x8 [ @5 x16 x16 @7 x8 ]3 YL. @8 x8 YLR @7 x8 [ @5 x16 x16 @7 x8 ]3 [ @5 x16 x16 @7 x8 ]4 
!5  O1 V1 YLR L @8 a+4 @0 [ x4 ]3 [ x4 ]3 @8 g+4 @8 a+4 @0 [ x4 ]3 x4 x4 [ @30 x16 @1 [ x16 ]3 ]2 @0 x4 @30 x8. @1 x16 @0 x4 @30 x4 @0 x4 @30 x4 @0 x16 @1 x8. @30 x4 @0 x4 @30 x8. @1 x16 @0 x4 @30 x4 @0 x4 @30 x4 @0 x16 @1 x8. @30 x8 @0 x8 @0 x4 @30 x8. @1 x16 @0 x4 @30 x4 @0 x4 @30 x4 @0 x16 @1 x8. @30 x4 @0 x4 @30 x8. @1 x16 @0 x4 @30 x4 @0 x4 @30 x4 @0 x16 @1 x8. @30 x8 @8 g+8 a+4 @30 x8. @1 x16 @0 x4 @30 x4 @0 x4 @30 x4 @0 x16 @1 x8. @30 x4 @0 x4 @30 x8. @1 x16 @0 x4 @30 x4 @0 x4 @30 x4 @0 x16 @1 x8. @30 x8 @0 x8 @0 x4 @30 x8. @1 x16 @0 x4 @30 x4 @0 x4 @30 x4 @0 x16 @1 x8. @30 x4 @0 x4 @30 x8. @1 x16 @0 x4 @30 x4 @0 x8. @1 x16 @30 x8 @0 x8 @1 x8 x8 @2 d8 d8 @0 x4 @30 x4 @0 x4 @30 x4 @0 x4 @30 x4 @0 x8 x8 @30 x4 @0 x4 @30 x4 @0 x4 @30 x4 @0 x4 @30 x4 @0 x8 x8 @30 x8 @0 x8 @0 x4 @30 x4 @0 x4 @30 x4 @0 x4 @30 x4 @0 x8 x8 @30 x8. @1 x16 @0 x4 @30 x4 @0 x4 @30 x4 @0 x4 @30 x8. @1 x16 @30 x16 @1 x16 @2 Y.R b16 b16 YLR g16 g16 YL. d16 d16 YLR @0 x4 @30 x8. @1 x16 @0 x4 @30 x4 @0 x4 @30 x8. @1 x16 @0 x16 @1 x8. @30 x4 @0 x4 @30 x8. @1 x16 @0 x4 @30 x4 @0 x4 @30 x8. @1 x16 @0 x16 @1 x8. @30 x8 @1 x16 x16 @0 x4 @30 x8. @1 x16 @0 x4 @30 x4 @0 x4 @30 x8. @1 x16 @0 x16 @1 x8. @30 x4 @0 x4 @30 x8. @1 x16 @0 x4 @30 x4 @0 x4 @30 x8. @1 x16 @30 x16 @1 [ x16 ]3 @30 x16 @1 x16 @2 d8 [ @0 x4 @30 x4 @0 x4 @30 x4 ]3 @0 x4 @30 x8. @1 x16 @0 x16 @1 x8. @30 x8 @1 x16 x16 
!6  L O0 V1 @43 W0,100,0 PX YLR a+16 > c+16 f16 a+16 > c+16 < a+16 f16 c+16 < YL. a+16 > c+16 f16 a+16 > c+16 < a+16 f16 c+16 < Y.R a+16 > c+16 f16 a+16 > c+16 < a+16 f16 c+16 YLR < a+16 > c+16 f16 a+16 > c+16 < a+16 f16 c+16 < YL. a+16 > c+16 f16 a+16 > c+16 < a+16 f16 c+16 < Y.R a+16 > c+16 f16 a+16 > c+16 < a+16 f16 c+16 < YLR a+16 > c+16 f16 a+16 > c+16 < a+16 f16 c+16 < O1 @42 W0,97,0 P19,14,2 YLR c+4 d+4 f1 YL. ( f4 ) YLR f4 d+4 c+4 c4 c+8 d+8~ d+2~ d+4 YL. ( d+4 ) YLR c+4 c4 c+1 YL. ( c+4 ) YLR c+4 d+4 c+4 f2. f+8 d+8~ d+4. YL. ( d+8 ) YLR c+4 d+4 f1 YL. ( f4 ) YLR f4 d+4 c+4 d+4 g+8 d+8~ d+2~ d+4 YL. ( d+4 ) YLR c+4 c4 c+2. d+8 f8 d+4. YL. ( d+8 ) YLR c+4 c4 c+16 c16 < a+8~ a+2.~ a+4 YL. ( a+4 ) @8 YLR > a+8 a+8 g+8 g+8 f+8 O0 @47 W0,100,50 Y.R ( a8 ) YLR a8 YL. ( a8 ) YLR a8 Y.R ( a8 ) YLR a8 YL. ( a8 ) [ YLR b8 Y.R ( b8 ) YLR b8 YL. ( b8 ) ]2 [ YLR g+8 Y.R ( g+8 ) YLR g+8 YL. ( g+8 ) ]2 > [ YLR c+8 Y.R ( c+8 ) YLR c+8 YL. ( c+8 ) ]2 < [ YLR a8 Y.R ( a8 ) YLR a8 YL. ( a8 ) ]2 [ YLR b8 Y.R ( b8 ) YLR b8 YL. ( b8 ) ]2 > [ YLR c+8 Y.R ( c+8 ) YLR c+8 YL. ( c+8 ) ]2 < @8 YLR > b4 r4 g+8 > c8 d+8 g+8 c+4 O1 @42 W0,97,0 P19,14,2 YLR g+8 YL. ( g+8 ) YLR g+8. f+8. e8 f+8. b8. f+8 YL. ( f+8 ) YLR f+8 e8 d+8 e8. c+8. g+4. YL. ( g+8 ) YLR f+16 e16 f+8. d+8. b4 a8 g+8 f+8 YL. ( f+8 ) YLR r8 g+8 YL. ( g+8 ) YLR g+8. f+8. e8 f+8. b8. f+8 YL. ( f+8 ) YLR f+8 e8 d+8 c+4. g+4. YL. ( g+8 ) YLR f+16 g+16 b4. f+8 YL. ( f+8 ) YLR f+8 e8 d+8 c+8. < a8. > e4. f+8 g+8 f+4. YL. ( f+8 ) YLR d+4 b4 > c+1~ c+2. YL. ( c+4 ) 
