;027 001EC07C
!1  T183 V9 O3 Y.R @2 E100,80,50,12,36 P18,9,2 B6 d+16~ e16~ e2.~ _V-3 c+8 _V3 d+32~ e16.~ e4 d+4. c+4 f16~ f+16~ f+8~ f+2~ f+12~ _V-3 f12~ e12~ _V3 d+2. _V-2 d+4 _V-2 d+4 _V-2 d+4 _V-2 d+4 r4 L O3 V7 [ e16 c+16 < g+16 > c+16 ]2 [ e16 c+16 < a16 > c+16 ]2 [ d+16 < b16 f+16 b16 > ]2 [ e16 < b16 g+16 b16 > ]2 [ c+16 < a16 e16 a16 > ]2 [ c+16 < a+16 f+16 a+16 > ]2 [ d+16 < b16 f+16 b16 > ]2 [ f+16 d+16 c16 d+16 ]2 V6 O3 YLR @@1,2,1 E100,90,60,12,30 P9,10,2 D1 r32 g+16 _V-2 g+16 _V2 g+8 f+8 c+8 e8. f+16 _V-3 f+16 _V3 r16 d+16 e16 f+8 g+8 a8 b8 a8 g+16 g+8. _V-3 g+16. _V3 V9 O3 Y.R @0 E100,0,0,15,0 PX D2 [ c+16 < a16 e16 a16 > ]2 < [ b16 g+16 e16 g+16 ]2 [ a+16 f+16 c+16 f+16 ]2 d+16 g+16 > c16 d+16 < g+16 > c16 d+16 g+16 < V6 O3 YLR @@1,2,1 E100,90,60,12,30 P9,10,2 D1 r32 g+16 _V-2 g+16 _V2 g+8 f+8 c+8 e8. f+16 _V-3 f+16 _V3 r16 d+16 e16 f+8 g+8 a8 b8 a8 g+16 g+8. _V-3 g+16. _V3 V9 O3 Y.R @0 E100,0,0,15,0 PX D2 [ c+16 < a16 e16 a16 > ]2 < [ b16 g+16 e16 g+16 ]2 [ a+16 f+16 c+16 f+16 ]2 d+16 g+16 > c16 d+16 < g+16 > c16 d+16 g+16 < V10 O2 Y.R @2 E100,80,50,12,36 P18,9,2 B6 r4 g+16~ a8. > c+4 e4 g+4. f+24 g+24 f+24 e4. _V-3 e8 _V3 r4 c16~ c+8. f+4 a+4 > c16~ c+16~ c+4 c16 < a+16 > c4. _V-3 c8 _V3 < r4 < g+16~ a8. > c+4 e4 g+4. f+8 e4 f+8 g+8 g+16~ a8. _V-3 a8 _V3 r8 a8. f+8. a8 > c16~ c+16~ c+4 c16 < b16 > c2 @3 O3 V6 Y.R a16 f+16 d+16 f+16 d+16 c+16 d+16 c+16 c16 c+16 c16 < g+16 > c16 d+16 f+16 g+16 O3 Y.R @@1,2,1 E100,90,60,12,30 P9,10,2 D1 V6 r32 c+8 c+16 c+8. d+8 e4 d+8 e8 f+8. d+8. < b8 f+4 _V-3 f+8 _V3 r8 > g+8 g+16 g+8. a8 b4 a8 g+8 f+8. d+8. < b4. _V-3 b8 _V3 r16. D0 V10 [ a8 _V-3 a16 _V3 ]2 b4. _V-3 b8 _V3 r8 > [ c8 _V-3 c16 _V3 ]2 c+4 _V-3 c+8 _V3 D1 V6 r32 c+8 d+8 e4. _V-3 e8 _V3 e8. f+8. e8 g+4. a16 g+16 f+4 _V-3 f+8 _V3 r16. V8 O3 Y.R @2 E100,80,50,12,36 P18,9,2 B6 d+16~ e16 _V-3 e16 _V3 e8. f+8 g+4 f+8 g+8 a+16~ b8 f+8. d+8 < b4 _V-3 b8 _V3 r8 > d+16~ e16 _V-3 e16 _V3 e8. f+8 g+4 f+8 e8 d16~ d+8 < b8. > f+4. _V-3 f+8 _V3 r8 [ e8 _V-3 e16 _V3 ]2 f+4. _V-3 f+8 _V3 r8 [ f+8 _V-3 f+16 _V3 ]2 g+4 _V-3 g+8 _V3 e8 f+8 a4. _V-3 a8 _V3 a8. b8. > c+8 < b8. _V-3 b16 _V3 b8. _V-3 b16 _V3 g+8. _V-3 g+16 _V3 f+8. _V-3 f+16 _V3 > g8~ g+1~ g+4 _V-3 g+8 _V-2 g+8 _V-2 g+8 r4 
!2  V9 O3 YLR @2 E100,80,50,12,36 P18,9,2 B6 g16~ g+16~ g+2.~ _V-3 f+8 _V3 g32~ g+16.~ g+4 f+4. e4 a+16~ b16~ b8~ b2~ _V-3 a+16~ a16~ g+16~ g16~ _V3 f+2. _V-2 f+4 _V-2 f+4 _V-2 f+4 _V-2 f+4 r4 L O3 V7 [ c+16 < g+16 e16 g+16 > ]2 [ c+16 < a16 e16 a16 > ]2 < [ b16 f+16 d+16 f+16 ]2 [ b16 g+16 e16 g+16 ]2 [ a16 e16 c+16 e16 ]2 [ a+16 f+16 c+16 f+16 ]2 [ b16 f+16 d+16 f+16 ]2 [ > c16 < g+16 f+16 g+16 ]2 V10 O3 YLR @@1,2,1 E100,90,60,12,30 P9,10,2 g+16 _V-2 g+16 _V2 g+8 f+8 c+8 e8. f+16 _V-3 f+16 _V3 r16 d+16 e16 f+8 g+8 a8 b8 a8 g+16 g+8. _V-3 g+8 _V3 V9 O3 YL. @0 E100,0,0,15,0 PX [ c+16 < a16 e16 a16 > ]2 < [ b16 g+16 e16 g+16 ]2 [ a+16 f+16 c+16 f+16 ]2 d+16 g+16 > c16 d+16 < g+16 > c16 d+16 g+16 < V10 O3 YLR @@1,2,1 E100,90,60,12,30 P9,10,2 g+16 _V-2 g+16 _V2 g+8 f+8 c+8 e8. f+16 _V-3 f+16 _V3 r16 d+16 e16 f+8 g+8 a8 b8 a8 g+16 g+8. _V-3 g+8 _V3 V9 O3 YL. @0 E100,0,0,15,0 PX [ c+16 < a16 e16 a16 > ]2 < [ b16 g+16 e16 g+16 ]2 [ a+16 f+16 c+16 f+16 ]2 d+16 g+16 > c16 d+16 < g+16 > c16 d+16 g+16 < V10 O3 YL. @2 E100,80,50,12,36 P18,9,2 B6 r4 c16~ c+8. e4 a4 b4. a24 b24 a24 g+4. _V-3 g+8 _V3 r4 f16~ f+8. a+4 > c+4 d+16~ e16~ e4 d+16 c+16 d+4. _V-3 d+8 _V3 < r4 c16~ c+8. e4 a4 b4. a8 g+4 a8 b8 > c16~ c+8. _V-3 c+8 _V3 r8 c+8. < a8. > c+8 d+16~ e16~ e4 d+16 c+16 d+2 @1 O2 V5 YL. a16 f+16 d+16 f+16 d+16 c+16 d+16 c+16 c16 c+16 c16 < g+16 > c16 d+16 f+16 g+16 V10 O3 YLR @@1,2,1 E100,90,60,12,30 P9,10,2 c+8 c+16 c+8. d+8 e4 d+8 e8 f+8. d+8. < b8 f+4 _V-3 f+8 _V3 r8 > g+8 g+16 g+8. a8 b4 a8 g+8 f+8. d+8. < b4. _V-3 b8 _V3 r8 > [ c+8 _V-3 c+16 _V3 ]2 d+4. _V-3 d+8 _V3 r8 [ d+8 _V-3 d+16 _V3 ]2 e4 _V-3 e8 _V3 c+8 d+8 e4. _V-3 e8 _V3 e8. f+8. e8 g+4. a16 g+16 f+4 _V-3 f+8 _V3 r8 V9 O3 YLR @2 E100,80,50,12,36 P18,9,2 B6 c16~ c+16 _V-3 c+16 _V3 c+8. d+8 e4 d+8 e8 f16~ f+8 d+8. < b8 f+4 _V-3 f+8 _V3 r8 > g16~ g+16 _V-3 g+16 _V3 g+8. a8 b4 a8 g+8 f16~ f+8 d+8. b4. _V-3 b8 _V3 r8 [ a8 _V-3 a16 _V3 ]2 b4. _V-3 b8 _V3 r8 > [ c8 _V-3 c16 _V3 ]2 c+4 _V-3 c+8 _V3 < a8 b8 > c+4. _V-3 c+8 _V3 c16~ c+8 d+8. e8 d+8. _V-3 d+16 _V3 d+8. _V-3 d+16 _V3 c+8. _V-3 c+16 _V3 < b8. _V-3 b16 _V3 > c8~ c+1~ c+4 _V-3 c+8 _V-2 c+8 _V-2 c+8 r4 
!3  V3 O1 `9F00 @A3 @B0 @~4 c+2. < b4 a1 b1~ b1~ b2 r2 L O1 c+8 c+16 c+8 c+16 c+16 c+16 < a8 a16 a8 a16 a16 a16 b8 b16 b8 b16 b16 b16 > e8 e8 d+8 < b8 a8 a16 a8 a16 a16 a16 a+8 a+16 a+8 a+16 a+16 a+16 b8 b16 b8 b16 b16 b16 > c16 > c16 < g+16 f+16 g+16 d+16 c16 < g+16 > c+8 c+16 c+8 c+16 c+16 c+16 < a8 a16 a8 a16 a16 a16 b8 b16 b8 b16 b16 b16 > e8 e16 e8 e16 e16 e16 < a8 a16 a8 a16 a16 a16 > e8 e16 e8 e16 e16 e16 f+8 f+16 f+8 f+16 f+16 f+16 g+16 f+16 d+16 f+16 d+16 c+16 c16 < g+16 > c+8 c+16 c+8 c+16 c+16 c+16 < a8 a16 a8 a16 a16 a16 b8 b16 b8 b16 b16 b16 > e8 e16 e8 e16 e16 e16 < a8 a16 a8 a16 a16 a16 g+8 g+16 g+8 g+16 g+16 g+16 f+8 f+16 f+8 f+16 f+16 f+16 g+8 g+16 g+8 g+16 g+16 g+16 [ a8 a16 a8 a16 a16 a16 ]2 > [ e8 e16 e8 e16 e16 e16 ]2 [ f+8 f+16 f+8 f+16 f+16 f+16 ]2 g+8 g+16 g+8 g+16 g+16 g+16 < g+16 g+16 > g+8 < g+16 g+16 > g+8 < [ a8 a16 a8 a16 a16 a16 ]2 > [ e8 e16 e8 e16 e16 e16 ]2 [ f+8 f+16 f+8 f+16 f+16 f+16 ]2 [ g+8 g+16 g+8 g+16 g+16 g+16 ]2 a16 f+16 d+16 f+16 d+16 c+16 d+16 c+16 c16 c+16 c16 < g+16 > c16 d+16 f+16 g+16 [ c+8 c+16 c+8 c+16 c+16 c+16 ]2 < [ g+8 g+16 g+8 g+16 g+16 g+16 ]2 > [ e8 e16 e8 e16 e16 e16 ]2 < [ b8 b16 b8 b16 b16 b16 ]2 a8. a8. b8~ b8 b16 b8 b16 b16 b16 > c8. c8. c+8~ c+8 c+16 c+8 c+16 c+16 c+16 < [ a8 a16 a8 a16 a16 a16 ]2 b8 b16 b8 b16 b16 b16 g+16 g+16 f+16 f+16 g+16 g+16 b16 b16 > [ c+8 c+16 c+8 c+16 c+16 c+16 ]2 < [ g+8 g+16 g+8 g+16 g+16 g+16 ]2 > [ e8 e16 e8 e16 e16 e16 ]2 < [ b8 b16 b8 b16 b16 b16 ]2 a8. a8. b8~ b8 b16 b8 b16 b16 b16 > c8. c8. c+8~ c+8 c+16 c+8 c+16 c+16 c+16 < [ a8 a16 a8 a16 a16 a16 ]2 b8 b16 b8 b16 b16 b16 [ b8 ]4 > c+8. e8. f+4 g8 f+8 e8 c+8. e8. f+8 ( f+8 ) r4. 
!4  @8 x2 @7 x2 r2 @7 x2 @8 x2 @7 x2 @8 x2 r2 @7 x4 x4 Y.R @11 x2 YLR L @8 x4 @7 [ x8 ]6 [ x8 ]8 [ @8 x4 @7 x8 x8 ]2 @8 x4 @7 x8 x8 @5 [ x8 ]4 @8 x4 @7 [ x8 ]6 [ x8 ]8 [ x8 ]8 [ x8 ]6 @5 x8 x8 @8 x4 @7 [ x8 ]6 [ x8 ]8 [ x8 ]8 [ x8 ]5 @5 x8 x8 x8 @8 x4 @7 [ x8 ]6 [ x8 ]8 [ x8 ]8 [ x8 ]4 [ @5 x16 x16 @7 x8 ]2 @8 x4 @7 [ x8 ]6 [ x8 ]8 @8 x4 @7 [ x8 ]6 [ x8 ]8 @5 [ x8 ]8 @8 x4 @7 [ x8 ]6 [ x8 ]8 @8 x4 @7 [ x8 ]6 [ x8 ]8 @8 Y.R x8. YLR x8. YL. x8 YLR @7 [ x8 ]4 @8 YL. x8. YLR x8. Y.R x8 YLR @7 [ x8 ]4 @8 x4 @7 [ x8 ]6 [ x8 ]4 @5 [ x8 ]4 @8 x4 @7 [ x8 ]6 [ x8 ]8 [ x8 ]8 [ x8 ]8 @8 Y.R x8. YLR x8. YL. x8 YLR @5 [ x8 ]4 @8 YL. x8. YLR x8. Y.R x8 YLR @5 [ x8 ]4 @8 x4 @7 [ x8 ]6 [ x8 ]8 @8 Y.R x8. YLR x8. YL. x8 YLR @5 [ x8 ]4 @8 YL. x8. YLR x8. Y.R x8 YLR Y.R @11 x2 YLR 
!5  V1 O1 H-3 @0 x4 r2. x4 x4 r2 @0 x4 r2. @0 x4 r2. r2 @24 [ x16 ]8 L [ [ @0 x8 @24 x8 ]2 @0 x8 @24 x16 @0 x16 r16 x16 @24 x8 ]3 [ @0 x8 @24 x8 ]2 @24 x16 x16 @0 x16 @24 x16 @0 x16 @2 Y.R b16 YLR g16 YL. d16 YLR [ [ @0 x8 @24 x8 ]2 @0 x8 @24 x16 @0 x16 r16 x16 @24 x8 ]3 [ @0 x8 @24 x8 ]2 @0 x16 @24 x16 x16 @2 Y.R b16 b16 YLR g16 g16 YL. d16 YLR [ [ @0 x8 @24 x8 ]2 @0 x8 @24 x16 @0 x16 r16 x16 @24 x8 ]3 [ @0 x8 @24 x8 ]2 @0 x16 @24 [ x16 ]7 [ [ @0 x8 @24 x8 ]2 @0 x8 @24 x16 @0 x16 r16 x16 @24 x8 ]3 [ @0 x8 @24 x8 ]2 [ @0 x16 x16 @24 x8 ]2 [ [ @0 x8 @24 x8 ]2 @0 x8 @24 x16 @0 x16 r16 x16 @24 x8 ]4 @24 x16 x16 x16 @2 Y.R b16 b16 b16 YLR g16 g16 YL. d16 YLR @24 x16 x16 x16 @0 x16 @24 x16 x16 x16 [ [ @0 x8 @24 x8 ]2 @0 x8 @24 x16 @0 x16 r16 x16 @24 x8 ]4 @0 x8 @24 x16 @0 x16 r16 x16 @24 x8 @0 x8 @24 x8 @0 x16 x16 @24 x8 @0 x8 @24 x16 @0 x16 r16 x16 @24 x8 @0 x8 @24 x16 @0 x16 r16 x16 @24 x8 [ @0 x8 @24 x8 ]2 @0 x8 @24 x16 @0 x16 r16 x16 @24 x8 [ @0 x8 @24 x8 ]2 @24 x16 x16 @2 Y.R b16 b16 YLR g16 g16 Y.R d16 d16 YLR [ [ @0 x8 @24 x8 ]2 @0 x8 @24 x16 @0 x16 r16 x16 @24 x8 ]3 [ @0 x8 @24 x8 ]2 @0 x8 @24 [ x16 ]6 @0 x8. @24 x8. @0 x8 r8 @24 x16 x16 @2 Y.R b16 b16 YL. g16 g16 YLR @0 x8. @24 x8. @0 x8 r8 @24 x16 x16 @0 x16 @24 x16 x16 x16 [ [ @0 x8 @24 x8 ]2 @0 x8 @24 x16 @0 x16 r16 x16 @24 x8 ]2 @0 x8. @24 x8. @0 x8 r8 @24 x16 x16 @2 Y.R b16 b16 YL. g16 g16 YLR @0 x8. @24 x8. x8 x16 x16 x16 @2 YLR g16 g16 g16 YL. d16 d16 YLR 
!6  V1 O2 @61 W0,100,33 B30 YL. ( c+1 < a1 b1~ b1~ b2~ < b2 > ) L O2 YL. c+8 [ c+32 ( c+32 ) ]6 < a8 [ a32 ( a32 ) ]6 b8 [ b32 ( b32 ) ]6 > e16 ( e16 ) e16 ( e16 ) d+8 < b8 a8 [ a32 ( a32 ) ]6 a+8 [ a+32 ( a+32 ) ]6 b8 [ b32 ( b32 ) ]6 @8 YLR > c16 Y.R c16 < YLR g+16 YL. g+16 YLR f+16 Y.R f+16 YLR g+16 YL. g+16 O2 @61 W0,100,33 YL. c+8 Y.R [ c+32 ( c+32 ) ]6 < YL. a8 Y.R [ a32 ( a32 ) ]6 YL. b8 Y.R [ b32 ( b32 ) ]6 > YL. e16 Y.R ( e16 ) YL. e16 Y.R ( e16 ) YL. d+8 < Y.R b8 YLR ( a2 g+2 f+2 g+2 ) > YL. c+8 Y.R [ c+32 ( c+32 ) ]6 < YL. a8 Y.R [ a32 ( a32 ) ]6 YL. b8 Y.R [ b32 ( b32 ) ]6 > YL. e16 Y.R ( e16 ) YL. e16 Y.R ( e16 ) YL. d+8 < Y.R b8 YLR ( a2 g+2 f+2 ) [ g+16 ( g+16 ) ]4 O1 @61 W0,100,33 B54 YLR ( a1 > e1 f+1 g+2 ) YL. [ [ g+32 ( g+32 ) ]2 g+8 Y.R ]2 < YLR ( a1 > e1 f+1 g+2.~ g+8.~ g+32 > g+32~ < < g+1 ) O2 YL. [ c+8 [ c+32 ( c+32 ) ]6 ]2 < [ g+8 [ g+32 ( g+32 ) ]6 ]2 > [ e8 [ e32 ( e32 ) ]6 ]2 < [ b8 [ b32 ( b32 ) ]6 ]2 [ a8 ( a16 ) ]2 b4 [ b32 ( b32 ) ]6 > [ c8 ( c16 ) ]2 c+4 [ c+32 ( c+32 ) ]6 < [ a8 [ a32 ( a32 ) ]6 ]2 b8 [ b32 ( b32 ) ]6 g+8 f+8 g+8 b8 > [ c+8 [ c+32 ( c+32 ) ]6 ]2 < [ g+8 [ g+32 ( g+32 ) ]6 ]2 > [ e8 [ e32 ( e32 ) ]6 ]2 < [ b8 [ b32 ( b32 ) ]6 ]2 [ a8 ( a16 ) ]2 b4 [ b32 ( b32 ) ]6 > [ c8 ( c16 ) ]2 c+4 [ c+32 ( c+32 ) ]6 < [ a8 [ a32 ( a32 ) ]6 ]2 [ b8 [ b32 ( b32 ) ]6 ]2 > c+8. e8. f+4 g8 f+8 e8 c+8. e8. f+8~ < < ( f+4 ) r4 
