;028 001ECF20
!1  T190 O2 V5 YLR @2 E100,90,70,17,29 P10,7,2 r2. a+8 > c8 L c+4. c4. d+4 c+4 _V-4 c+8 _V4 d+4 c+8 c8 < a+8 g+4 a+4 > c4 d+4 c4. c+8~ c+8 _V-4 c+8 _V4 < a+8 > c8 c+4. c4. d+4 c+4 _V-4 c+8 _V4 D2 r16 _V-2 f8 f+8 f8 d+8 c+8 < a+4 > c+4 c8 < a+8 g+8 a+8~ a+4. _V-2 a+8 _V2 r8. _V2 D0 a+8 > c8 c+4. c4. d+4 c+4 _V-4 c+8 _V4 d+4 c+8 c8 < a+8 g+4 a+4 > c4 d+4 c4. c+8~ c+8 _V-4 c+8 _V4 < a+8 > c8 c+4. c4. d+4 c+4 _V-4 c+8 _V4 r8 r2 O2 V5 @3 E100,0,0,29,0 PX YL. d+16 Y.R _V-2 d+16 _V2 YL. a+16 Y.R _V-2 a+16 > _V2 YL. d+16 Y.R _V-2 d+16 < _V2 YL. a+16 Y.R _V-2 a+16 _V2 > YL. a+16 Y.R _V-2 a+16 _V2 YL. f+16 Y.R _V-2 f+16 _V2 YL. d+16 Y.R _V-2 d+16 < _V2 YL. a+16 Y.R _V-2 a+16 _V2 YL. f16 Y.R _V-2 f16 > _V2 YL. c16 Y.R _V-2 c16 _V2 YL. f16 Y.R _V-2 f16 _V2 YL. c16 Y.R _V-2 c16 _V2 > YL. c16 Y.R _V-2 c16 < _V2 YL. g+16 Y.R _V-2 g+16 _V2 YL. f16 Y.R _V-2 f16 _V2 YL. c16 Y.R _V-2 c16 _V2 < YL. f+16 Y.R _V-2 f+16 > _V2 YL. c+16 Y.R _V-2 c+16 _V2 YL. f+16 Y.R _V-2 f+16 _V2 YL. c+16 Y.R _V-2 c+16 _V2 > YL. c+16 Y.R _V-2 c+16 < _V2 YL. a+16 Y.R _V-2 a+16 _V2 YL. f+16 Y.R _V-2 f+16 _V2 YL. c+16 Y.R _V-2 c+16 _V2 < YL. f16 Y.R _V-2 f16 > _V2 YL. c16 Y.R _V-2 c16 _V2 YL. f16 Y.R _V-2 f16 _V2 YL. c16 Y.R _V-2 c16 _V2 > YL. d+16 Y.R _V-2 d+16 _V2 YL. c16 Y.R _V-2 c16 < _V2 YL. g+16 Y.R _V-2 g+16 _V2 YL. f16 Y.R _V-2 f16 _V2 < YL. f+16 Y.R _V-2 f+16 > _V2 YL. c+16 Y.R _V-2 c+16 _V2 YL. f+16 Y.R _V-2 f+16 _V2 YL. c+16 Y.R _V-2 c+16 _V2 > YL. c+16 Y.R _V-2 c+16 < _V2 YL. a+16 Y.R _V-2 a+16 _V2 YL. f+16 Y.R _V-2 f+16 _V2 YL. c+16 Y.R _V-2 c+16 _V2 < YL. g+16 Y.R _V-2 g+16 > _V2 YL. d+16 Y.R _V-2 d+16 _V2 YL. g+16 Y.R _V-2 g+16 _V2 YL. d+16 Y.R _V-2 d+16 _V2 > YL. d+16 Y.R _V-2 d+16 _V2 YL. c16 Y.R _V-2 c16 < _V2 YL. g+16 Y.R _V-2 g+16 _V2 YL. d+16 Y.R _V-2 d+16 _V2 < YL. a+16 Y.R _V-2 a+16 > _V2 YL. d+16 Y.R _V-2 d+16 _V2 YL. f16 Y.R _V-2 f16 _V2 YL. a+16 Y.R _V-2 a+16 _V2 > YL. d+16 Y.R _V-2 d+16 < _V2 YL. a+16 Y.R _V-2 a+16 _V2 YL. f16 Y.R _V-2 f16 _V2 YL. d+16 Y.R _V-2 d+16 _V2 < YL. a+16 Y.R _V-2 a+16 > _V2 YL. d16 Y.R _V-2 d16 _V2 YL. f16 Y.R _V-2 f16 _V2 YL. a+16 Y.R _V-2 a+16 _V2 > YL. d16 Y.R _V-2 d16 < _V2 YL. a+16 Y.R _V-2 a+16 _V2 O2 V5 YLR @2 E100,90,70,17,29 P10,7,2 a+8 > c8 
!2  O3 V8 YLR @2 E100,90,70,17,29 P10,7,2 r2. c+8 d+8 L f4. d+4. g+4 f4 _V-4 f8 _V4 f+4 f8 d+8 c+8 c4 c+4 d+4 g+4 d+4. f8~ f8 _V-4 f8 _V4 c+8 d+8 f4. d+4. g+4 f4 _V-4 f8 _V4 f8 f+8 f8 d+8 c+8 < a+4 > c+4 c8 < a+8 g+8 a+8~ a+4. _V-4 a+8 _V4 r4 > c+8 d+8 f4. d+4. g+4 f4 _V-4 f8 _V4 f+4 f8 d+8 c+8 c4 c+4 d+4 g+4 d+4. f8~ f8 _V-4 f8 _V4 c+8 d+8 f4. d+4. g+4 f4 _V-4 f8 _V4 f8 f+8 f8 d+8 c+8 < a+4. _V-4 a+8 _V4 a+8 g+8 a+8 > c8~ c2 < g+4. _V-4 g+8 _V4 > c+4. _V-4 c+8 _V4 c+8 c8 c+8 d+8~ d+4. _V-4 d+8 _V4 < g+4 > c4 < a+4. _V-4 a+8 _V4 a+8 g+8 a+8 > c8~ c4. _V-4 c8 _V4 d+4 g+8 a+8~ a+1~ a+2 _V-5 a+4 _V5 c+8 d+8 
!3  r1 L O0 V3 B11 `9F00 @A3 @B0 @~3 [ a+16 ( a+16 ) > a+16 ( a+16 ) < ]4 [ f+16 ( f+16 ) > f+16 ( f+16 ) < ]4 [ g+16 ( g+16 ) > g+16 ( g+16 ) < ]4 > [ c+16 ( c+16 ) > c+16 ( c+16 ) < ]2 [ c16 ( c16 ) > c16 ( c16 ) < ]2 < [ a+16 ( a+16 ) > a+16 ( a+16 ) < ]4 [ f+16 ( f+16 ) > f+16 ( f+16 ) < ]4 [ d+16 ( d+16 ) > d+16 ( d+16 ) < ]2 [ f16 ( f16 ) > f16 ( f16 ) < ]2 a+16 ( a+16 ) > a+16 ( a+16 ) < a+16 ( a+16 ) f16 ( f16 ) r8 > f4~ < f8 [ a+16 ( a+16 ) > a+16 ( a+16 ) < ]4 [ f+16 ( f+16 ) > f+16 ( f+16 ) < ]4 [ g+16 ( g+16 ) > g+16 ( g+16 ) < ]4 > [ c+16 ( c+16 ) > c+16 ( c+16 ) < ]2 [ c16 ( c16 ) > c16 ( c16 ) < ]2 < [ a+16 ( a+16 ) > a+16 ( a+16 ) < ]4 [ f+16 ( f+16 ) > f+16 ( f+16 ) < ]3 f16 ( f16 ) > f16 ( f16 ) < d+4. ( d+8 ) d+4. f8~ f2 ( f8 ) f8 d+8 f8 f+4. ( f+8 ) f+4. f8~ f2 ( f8 ) f8 d+8 f8 d+4. ( d+8 ) d+8 c+8 d+8 f8~ f4. ( f8 ) f4. a+8~ [ a+16 ( a+16 ) ]8 > [ a+16 ( a+16 ) ]8 < 
!4  @24 x1 L @8 x4 [ @5 x8 @6 x16 x16 ]3 [ [ @5 x8 @6 x16 x16 ]4 ]2 @5 x8 @6 x16 x16 @5 x8 @7 x8 @6 [ x8 ]4 @8 x4 [ @5 x8 @6 x16 x16 ]3 [ @5 x8 @6 x16 x16 ]4 Y.R @8 x4 YLR @5 x8 @6 x16 x16 YL. @8 x4 YLR @5 x8 @6 x16 x16 @5 x8 @6 x16 x16 @5 x8 @7 x8 @6 [ x8 ]4 @8 x4 [ @5 x8 @6 x16 x16 ]3 [ [ @5 x8 @6 x16 x16 ]4 ]2 @5 x8 @6 x16 x16 @5 x8 @7 x8 @6 [ x8 ]4 @8 x4 [ @5 x8 @6 x16 x16 ]3 [ @5 x8 @6 x16 x16 ]2 @5 x8 @7 x8 @6 x8 x8 @8 x4 [ @7 x8 @6 x8 ]3 [ [ @7 x8 @6 x8 ]4 ]3 @8 x4 [ @7 x8 @6 x8 ]3 [ @7 x8 @6 x8 ]3 @7 x8 @8 x8~ x4 [ @7 x8 @6 x8 ]3 @7 x4 @6 [ x4 ]3 
!5  V1 O1 @24 x16 x16 @2 Y.R b16 b16 YLR g16 g16 @24 x16 x16 @2 g16 g16 YL. d16 d16 @24 YLR x8 @24 x16 x16 L @0 x4 @24 x4 @0 x8 x8 @24 x4 @0 x4 @24 x4 @0 x8 x8 @24 x8 @0 x8 @0 x4 @24 x4 @0 x8 x8 @24 x4 @0 x4 @24 x4 @0 x8 @24 x16 x16 @2 Y.R g16 g16 YL. d16 d16 YLR @0 x4 @24 x4 @0 x8 x8 @24 x4 @0 x4 @24 x4 @0 x8 x8 @24 x8 @0 x8 @0 x8 x8 @24 x4 @0 x8 x8 @24 x4 @0 x8 x8 @24 x8 x8 @0 x8 @24 x8 x16 x16 @2 g16 YL. d16 YLR @0 x4 @24 x4 @0 x8 x8 @24 x4 @0 x4 @24 x4 @0 x8 x8 @24 x8 @0 x8 @0 x4 @24 x4 @0 x8 x8 @24 x4 @0 x4 @24 x4 @0 x8 @24 x16 x16 @2 Y.R g16 g16 YL. d16 d16 YLR @0 x4 @24 x4 @0 x8 x8 @24 x4 @0 x4 @24 x4 @0 x8 @2 Y.R b8 YLR g8 YL. d8 YLR @0 x2 @24 x4. @0 x8 @0 x4 x4 @24 x2 @0 x2 @24 x4. @0 x8 @0 x4 x4 @24 x8 @2 g8 YL. d8 YLR @0 x8 @0 x2 @24 x4. @0 x8 @0 x4 x4 @24 x4. @0 x8 r4 @0 x4 @24 x8 @0 x4 @24 x8 r8 [ x8 ]3 [ x16 ]8 
!6  V1 r1 L @8 O1 V1 YLR a+4 @43 W0,97,0 > YL. c+32 Y.R c+32 < YL. a+32 Y.R a+32 Y.R f32 Y.R f32 YL. c+32 Y.R c+32 < YL. a+32 Y.R a+32 > YL. c+32 Y.R c+32 YL. f32 Y.R f32 YL. a+32 Y.R a+32 > YL. c+32 Y.R c+32 < YL. a+32 Y.R a+32 Y.R f32 Y.R f32 YL. c+32 Y.R c+32 < [ YL. a+32 Y.R a+32 > YL. c+32 Y.R c+32 YL. f32 Y.R f32 YL. a+32 Y.R a+32 > YL. c+32 Y.R c+32 < YL. a+32 Y.R a+32 Y.R f32 Y.R f32 YL. c+32 Y.R c+32 < ]2 @8 O1 YLR g+4 @43 W0,97,0 > YL. c32 Y.R c32 < YL. g+32 Y.R g+32 YL. d+32 Y.R d+32 YL. c32 Y.R c32 < YL. g+32 Y.R g+32 > YL. c32 Y.R c32 YL. d+32 Y.R d+32 YL. g+32 Y.R g+32 > YL. c32 Y.R c32 < YL. g+32 Y.R g+32 YL. d+32 Y.R d+32 YL. c32 Y.R c32 < @8 O1 Y.R > c+8. < @43 W0,97,0 > YL. c+32 Y.R c+32 YL. f32 Y.R f32 YL. c+32 Y.R c+32 < YL. g+32 Y.R g+32 YL. f32 Y.R f32 @8 O1 YL. > c8. < @43 W0,97,0 > YL. c32 Y.R c32 YL. d+32 Y.R d+32 YL. c32 Y.R c32 < YL. g+32 Y.R g+32 YL. d+32 Y.R d+32 < @8 O1 YLR a+4 @43 W0,97,0 > YL. c+32 Y.R c+32 < YL. a+32 Y.R a+32 Y.R f32 Y.R f32 YL. c+32 Y.R c+32 < YL. a+32 Y.R a+32 > YL. c+32 Y.R c+32 YL. f32 Y.R f32 YL. a+32 Y.R a+32 > YL. c+32 Y.R c+32 < YL. a+32 Y.R a+32 Y.R f32 Y.R f32 YL. c+32 Y.R c+32 < [ YL. a+32 Y.R a+32 > YL. c+32 Y.R c+32 YL. f32 Y.R f32 YL. a+32 Y.R a+32 > YL. c+32 Y.R c+32 < YL. a+32 Y.R a+32 Y.R f32 Y.R f32 YL. c+32 Y.R c+32 < ]2 @8 O1 Y.R f+8. @43 W0,97,0 YL. f+32 Y.R f+32 YL. a+32 Y.R a+32 YL. f+32 Y.R f+32 YL. c+32 Y.R c+32 < YL. a+32 Y.R a+32 @8 O1 YL. g+8. @43 W0,97,0 YL. g+32 Y.R g+32 > YL. c32 Y.R c32 < YL. g+32 Y.R g+32 YL. d+32 Y.R d+32 YL. c32 Y.R c32 < @8 O1 YLR a+8. @43 W0,97,0 YL. a+32 Y.R a+32 > YL. c+32 Y.R c+32 < r16 @8 YLR g+4 f4 r8 @8 O1 YLR a+4 @43 W0,97,0 > YL. c+32 Y.R c+32 < YL. a+32 Y.R a+32 Y.R f32 Y.R f32 YL. c+32 Y.R c+32 < YL. a+32 Y.R a+32 > YL. c+32 Y.R c+32 YL. f32 Y.R f32 YL. a+32 Y.R a+32 > YL. c+32 Y.R c+32 < YL. a+32 Y.R a+32 Y.R f32 Y.R f32 YL. c+32 Y.R c+32 < [ YL. a+32 Y.R a+32 > YL. c+32 Y.R c+32 YL. f32 Y.R f32 YL. a+32 Y.R a+32 > YL. c+32 Y.R c+32 < YL. a+32 Y.R a+32 Y.R f32 Y.R f32 YL. c+32 Y.R c+32 < ]2 @8 O1 YLR g+4 @43 W0,97,0 > YL. c32 Y.R c32 < YL. g+32 Y.R g+32 YL. d+32 Y.R d+32 YL. c32 Y.R c32 < YL. g+32 Y.R g+32 > YL. c32 Y.R c32 YL. d+32 Y.R d+32 YL. g+32 Y.R g+32 > YL. c32 Y.R c32 < YL. g+32 Y.R g+32 YL. d+32 Y.R d+32 YL. c32 Y.R c32 < @8 O1 YLR > c+8. < @43 W0,97,0 > YL. c+32 Y.R c+32 YL. f32 Y.R f32 YL. c+32 Y.R c+32 < YL. g+32 Y.R g+32 YL. f32 Y.R f32 @8 O1 YLR > c8. < @43 W0,97,0 > YL. c32 Y.R c32 YL. d+32 Y.R d+32 YL. c32 Y.R c32 < YL. g+32 Y.R g+32 YL. d+32 Y.R d+32 < @8 O1 YLR a+4 @43 W0,97,0 > YL. c+32 Y.R c+32 < YL. a+32 Y.R a+32 Y.R f32 Y.R f32 YL. c+32 Y.R c+32 < YL. a+32 Y.R a+32 > YL. c+32 Y.R c+32 YL. f32 Y.R f32 YL. a+32 Y.R a+32 > YL. c+32 Y.R c+32 < YL. a+32 Y.R a+32 Y.R f32 Y.R f32 YL. c+32 Y.R c+32 < [ YL. a+32 Y.R a+32 > YL. c+32 Y.R c+32 YL. f32 Y.R f32 YL. a+32 Y.R a+32 > YL. c+32 Y.R c+32 < YL. a+32 Y.R a+32 Y.R f32 Y.R f32 YL. c+32 Y.R c+32 < ]2 O1 Y.R @43 W0,97,0 f+2. ( f+8 ) g+8~ g+1 a+2. ( a+8 ) g+8~ g+1 f+2. ( f+8 ) g+8~ g+2 > c4. d+8~ d+2. ( d+8 ) d8~ d2. O1 @8 g+4 
