;030 001EF384
!1  T160 r1 L V5 O1 @@1,2,1 E90,100,60,7,35 [ [ [ Y.R b24 YL. _V-2 b24 _V2 ]3 ]4 [ Y.R a+24 YL. _V-2 a+24 _V2 ]6 > [ Y.R c+24 YL. _V-2 c+24 _V2 ]6 [ Y.R g+24 YL. _V-2 g+24 _V2 Y.R d+24 YL. _V-2 d+24 _V2 ]3 [ Y.R f+24 YL. _V-2 f+24 _V2 Y.R c+24 YL. _V-2 c+24 _V2 ]3 [ Y.R e24 YL. _V-2 e24 _V2 < Y.R b24 YL. _V-2 b24 _V2 > ]3 [ Y.R f+24 YL. _V-2 f+24 _V2 Y.R c+24 YL. _V-2 c+24 _V2 ]3 < ]2 V6 O4 @2 E100,30,0,10,28 P3,10,2 [ Y.R d+24 YL. _V-3 d+24 _V3 < Y.R b24 YL. _V-3 b24 _V3 Y.R g+24 YL. _V-3 g+24 _V3 Y.R b24 YL. _V-3 b24 _V3 Y.R g+24 YL. _V-3 g+24 _V3 Y.R d+24 YL. _V-3 d+24 _V3 > ]4 [ Y.R c+24 YL. _V-3 c+24 _V3 < Y.R a+24 YL. _V-3 a+24 _V3 Y.R g24 YL. _V-3 g24 _V3 Y.R a+24 YL. _V-3 a+24 _V3 Y.R g24 YL. _V-3 g24 _V3 Y.R d+24 YL. _V-3 d+24 _V3 > ]4 [ Y.R d+24 YL. _V-3 d+24 _V3 < Y.R b24 YL. _V-3 b24 _V3 Y.R g+24 YL. _V-3 g+24 _V3 Y.R b24 YL. _V-3 b24 _V3 Y.R g+24 YL. _V-3 g+24 _V3 Y.R d+24 YL. _V-3 d+24 _V3 > ]4 [ Y.R c+24 YL. _V-3 c+24 _V3 < Y.R a+24 YL. _V-3 a+24 _V3 Y.R f+24 YL. _V-3 f+24 _V3 Y.R a+24 YL. _V-3 a+24 _V3 Y.R f+24 YL. _V-3 f+24 _V3 Y.R c+24 YL. _V-3 c+24 _V3 > ]2 Y.R d+24 YL. _V-3 d+24 _V3 < Y.R a+24 YL. _V-3 a+24 _V3 Y.R g24 YL. _V-3 g24 _V3 Y.R a+24 YL. _V-3 a+24 _V3 Y.R g24 YL. _V-3 g24 _V3 Y.R d+24 YL. _V-3 d+24 _V3 < Y.R g24 YL. _V-3 g24 _V3 Y.R a+24 YL. _V-3 a+24 _V3 Y.R > d+24 YL. _V-3 d+24 _V3 Y.R g24 YL. _V-3 g24 _V3 Y.R a+24 YL. _V-3 a+24 _V3 Y.R > d+24 YL. _V-3 d+24 _V3 V9 O2 YLR @@0,2,0 E100,70,60,7,35 P14,11,2 g+12 _V-3 g+12 _V3 g+12 _V-3 g+12 _V3 f+12 _V-3 f+12 _V3 a+12 _V-3 a+12 _V3 a+12 _V-3 a+12 _V3 g+12 _V-3 g+12 _V3 f+12 _V-3 f+12 _V3 f+12 _V-3 f+12 _V3 e12 _V-3 e12 _V3 g+12 _V-3 g+12 _V3 g+12 _V-3 g+12 _V3 f+12 _V-3 f+12 _V3 d+8 _V-3 d+8 _V3 r2 d+8 _V-3 d+8 _V3 d+8 _V-3 d+8 _V3 r4 c+8 _V-3 c+8 _V3 c+8 _V-3 c+8 _V3 g+12 _V-3 g+12 _V3 g+12 _V-3 g+12 _V3 f+12 _V-3 f+12 _V3 a+12 _V-3 a+12 _V3 a+12 _V-3 a+12 _V3 g+12 _V-3 g+12 _V3 f+12 _V-3 f+12 _V3 f+12 _V-3 f+12 _V3 e12 _V-3 e12 _V3 g+12 _V-3 g+12 _V3 f+12 _V-3 f+12 _V3 e12 _V-3 e12 _V3 c+4~ c+12 _V-3 c+12 _V3 f+12 f+4. _V-3 f+8 _V3 d+4~ d+12 _V-3 d+12 _V3 g12 g4. _V-3 g8 _V3 V6 O2 Y.R @3 E80,100,50,21,41 P7,10,2 g+1~ g+1 g4~ g12 _V-3 g12 _V3 g12 g2 g12 d+12 g12 a+12 g12 a+12 > d+12 < a+12 > d+12 g12 a+12 > d+12 < < g+1~ g+1 g+1 g2 a+2 V6 O2 YLR @0 E100,0,0,28,7 PX D1 [ > d+12 < b12 g+12 ]2 [ > e12 < b12 g+12 ]2 [ > d12 < a+12 f12 ]2 [ > d+12 < b12 g+12 ]2 [ b12 g+12 e12 ]2 [ > c+12 < g+12 e12 ]2 [ > d+12 < a+12 g+12 ]2 [ > d+12 < a+12 g12 ]2 D0 
!2  r1 L V5 O2 @@1,2,1 E90,100,60,7,35 [ [ YL. d+24 Y.R _V-2 d+24 _V2 ]3 ]4 [ YL. c+24 Y.R _V-2 c+24 _V2 ]6 [ YL. f+24 Y.R _V-2 f+24 _V2 ]6 [ YL. b24 Y.R _V-2 b24 _V2 ]6 [ YL. a+24 Y.R _V-2 a+24 _V2 ]6 [ YL. g+24 Y.R _V-2 g+24 _V2 ]6 [ YL. a+24 Y.R _V-2 a+24 _V2 ]6 [ [ YL. d+24 Y.R _V-2 d+24 _V2 ]3 ]4 [ YL. c+24 Y.R _V-2 c+24 _V2 ]6 [ YL. f+24 Y.R _V-2 f+24 _V2 ]6 [ YL. b24 Y.R _V-2 b24 _V2 ]6 [ YL. a+24 Y.R _V-2 a+24 _V2 ]6 [ YL. g+24 Y.R _V-2 g+24 _V2 ]6 [ YL. a+24 Y.R _V-2 a+24 _V2 ]3 V9 O2 YLR @@1,2,1 E60,100,60,21,35 P7,10,2 g+4 > d+4~ d+12 c+12 d+12 < g+2 _V-4 g+8 _V4 r8 b4 a+6 g+6 g6 d+4 _V-4 d+12 _V4 d+12 c+12 d+2~ d+8 _V-4 d+8 _V4 g12 d+12 g12 a+12 g12 a+12 > c+12 < a+12 > c+12 d+4~ d+12 c+12 d+12 < g+2 ( g+8 ) r8 b4 a+6 b6 > c+6 d+2 c+2 e2 d+2 V10 O2 @@0,2,0 E100,70,60,7,35 P14,11,2 [ YL. b12 Y.R _V-3 b12 _V3 ]2 YL. a+12 Y.R _V-3 a+12 _V3 > [ YL. c+12 Y.R _V-3 c+12 _V3 ]2 < YL. b12 Y.R _V-3 b12 _V3 [ YL. a+12 Y.R _V-3 a+12 _V3 ]2 YL. g+12 Y.R _V-3 g+12 _V3 [ YL. b12 Y.R _V-3 b12 _V3 ]2 YL. a+12 Y.R _V-3 a+12 _V3 YL. g+8 Y.R _V-3 g+8 _V3 r2 YL. g+8 Y.R _V-3 g+8 _V3 YL. g+8 Y.R _V-3 g+8 _V3 r4 YL. f+8 Y.R _V-3 f+8 _V3 YL. f+8 Y.R _V-3 f+8 _V3 [ YL. b12 Y.R _V-3 b12 _V3 ]2 YL. a+12 Y.R _V-3 a+12 _V3 > [ YL. c+12 Y.R _V-3 c+12 _V3 ]2 < YL. b12 Y.R _V-3 b12 _V3 [ YL. a+12 Y.R _V-3 a+12 _V3 ]2 YL. g+12 Y.R _V-3 g+12 _V3 YL. b12 Y.R _V-3 b12 _V3 YL. a+12 Y.R _V-3 a+12 _V3 YL. g+12 Y.R _V-3 g+12 _V3 YL. f+4~ f+12 _V-3 f+12 _V3 > c+12 c+4. _V-3 c+8 _V3 < Y.R g4~ g12 _V-3 g12 _V3 > d+12 d+4. ( d+8 ) V6 O1 YL. @3 E80,100,50,21,41 P7,10,2 b1~ b1 a+4~ a+12 _V-3 a+12 _V3 a+12 a+2 > d+12 < a+12 > d+12 g12 d+12 g12 a+12 g12 a+12 > d+12 < a+12 > d+12 < < b1~ b1 a+1 a+1 V6 O2 YLR @0 E100,0,0,28,7 PX [ > d+12 < b12 g+12 ]2 [ > e12 < b12 g+12 ]2 [ > d12 < a+12 f12 ]2 [ > d+12 < b12 g+12 ]2 [ b12 g+12 e12 ]2 [ > c+12 < g+12 e12 ]2 [ > d+12 < a+12 g+12 ]2 [ > d+12 < a+12 g12 ]2 
!3  V3 O1 `9F00 @A3 @B0 @~3 c+4 d+4 e4 f+4 L O0 [ g+12 > g+12 < g+12 > g+12 ( g+12 ) g+12 < g+12 ( g+12 ) g+12 > g+12 < g+12 > g+12 < g+12 > g+12 < g+12 > g+12 ( g+12 ) g+12 < g+12 > g+12 < g+12 > g+12 < g+12 > g+12 < ]3 g+12 > g+12 < g+12 > g+12 ( g+12 ) g+12 < g+12 ( g+12 ) g+12 > g+12 < g+12 > g+12 < g+12 > g+12 < g+12 > g+12 ( g+12 ) g+12 < g+12 > g+12 < g+12 f+12 > f+12 < f+12 e12 ( e12 ) e12 > e12 < e12 > e12 < e12 ( e12 ) e12 > e12 < e12 > e12 < e12 ( e12 ) e12 > e12 < e12 > e12 < e12 > e12 < e12 > > e12 < e12 < e12 d+12 ( d+12 ) d+12 > d+12 < d+12 > d+12 < d+12 ( d+12 ) d+12 > d+12 < d+12 > d+12 < d+12 ( d+12 ) d+12 > d+12 < d+12 > d+12 < d+12 > d+12 < d+12 > > d+12 < d+12 < d+12 e12 ( e12 ) e12 > e12 < e12 > e12 < e12 ( e12 ) e12 > e12 < e12 > e12 < e12 ( e12 ) e12 > e12 < e12 > e12 < e12 > e12 < e12 > > e12 < e12 < e12 f+12 ( f+12 ) f+12 > f+12 < f+12 > f+12 < f+12 ( f+12 ) f+12 > f+12 < f+12 > f+12 < g12 ( g12 ) g12 > g12 < g12 > g12 < g12 > g12 < g12 > g12 < g12 > g12 < g+12 ( g+6 ) [ g+12 ]3 g+12 ( g+6 ) [ g+12 ]3 g+12 ( g+6 ) [ g+12 ]3 [ g+12 ]3 [ f+12 ]3 g+12 ( g+6 ) [ g+12 ]3 g+12 ( g+6 ) g+12 ( g+6 ) g+12 ( g+6 ) [ g+12 ]3 f+12 ( f+6 ) f+12 ( f+6 ) e12 ( e6 ) [ e12 ]3 e12 ( e6 ) [ e12 ]3 e12 ( e6 ) [ e12 ]3 [ e12 ]3 [ e12 ]3 f+12 ( f+6 ) [ f+12 ]3 f+12 ( f+6 ) [ f+12 ]3 g12 ( g6 ) [ g12 ]3 d+12 ( d+6 ) d+12 ( d+6 ) [ e12 > e12 < e12 > e12 < e12 > e12 < e12 > e12 < e12 > e12 < e12 > e12 < ]2 [ d+12 > d+12 < d+12 > d+12 < d+12 > d+12 < d+12 > d+12 < d+12 > d+12 < d+12 > d+12 < ]2 [ e12 > e12 < e12 > e12 < e12 > e12 < e12 > e12 < e12 > e12 < e12 > e12 < ]2 d+12 > d+12 < d+12 > d+12 < d+12 > d+12 < d+12 > d+12 < d+12 > d+12 < d+12 > d+12 < d+12 > d+12 < d+12 > d+12 < d+12 > d+12 < < g6 ( g12 ) g6 ( g12 ) g+1 g+1 > e2 c+2 d+2 < g2 
!4  @8 x4 @5 x4 x4 x12 @8 Y.R x6 L @8 YL. x4 YLR @5 x12 @6 x12 @5 x12 @6 x12 @5 x12 @6 x12 @5 x12 @6 x12 @5 x12 [ @6 x12 @5 x12 @6 x12 @5 x12 @6 x12 @5 x12 ]2 @6 x12 @5 x12 @6 x12 @5 x12 @6 x12 @5 x12 @6 x12 @5 x12 @7 x12 @6 x12 @5 x12 @7 x12 [ @6 x12 @5 x12 @6 x12 @5 x12 @6 x12 @5 x12 ]2 @8 x4 @5 x12 @6 x12 @5 x12 @6 x12 @5 x12 @6 x12 @5 x12 @6 x12 @5 x12 [ @6 x12 @5 x12 @6 x12 @5 x12 @6 x12 @5 x12 ]2 @6 x12 @5 x12 @6 x12 @5 x12 @6 x12 @5 x12 @6 x12 @5 x12 @7 x12 @6 x12 @5 x12 @7 x12 [ @6 x12 @5 x12 @6 x12 @5 x12 @6 x12 @5 x12 ]2 @8 x4 @5 x12 @6 x12 @5 x12 @6 x12 @5 x12 @7 x12 @5 x12 @6 x12 @5 x12 @6 x12 @5 x12 @6 x12 @5 x12 @6 x12 @5 x12 @6 x12 @5 x12 @7 x12 @5 x12 @6 x12 @5 x12 @6 x12 @5 x12 @6 x12 @5 x12 @6 x12 @5 x12 @6 x12 @5 x12 @7 x12 @5 x12 @6 x12 @5 x12 @6 x12 @5 x12 @6 x12 @5 x12 @6 x12 @5 x12 @6 x12 @5 x12 @7 x12 @6 x12 @5 x12 @7 x12 @8 x4 @5 x12 @6 x12 @5 x12 @6 x12 @5 x12 @7 x12 @5 x12 @6 x12 @5 x12 @6 x12 @5 x12 @6 x12 @5 x12 @6 x12 @5 x12 @6 x12 @5 x12 @7 x12 @5 x12 @6 x12 @5 x12 @8 x4 @5 x12 @6 x12 @5 x12 @6 x12 @5 x12 @7 x12 @5 x12 @6 x12 @5 x12 @8 x4 @5 x12 @6 x12 @7 x12 @5 x4 x4 @8 x4 @3 x12 @4 x12 x12 @3 x4 @3 x12 @4 x12 x12 @3 x4 @3 x12 @4 x12 x12 @3 x12 @4 x12 x12 @3 x12 @4 x12 @3 x12 @8 x4 @3 x12 @4 x12 x12 @3 x4 @8 x4 @8 x4 @3 x12 @4 x12 x12 @3 x12 @4 x12 x12 @3 x12 @4 x12 @3 x12 @8 x4 @3 x12 @4 x12 x12 @3 x4 @3 x12 @4 x12 x12 @3 x4 @3 x12 @4 x12 x12 @3 x12 @4 x12 x12 @3 x12 @4 x12 @3 x12 @8 x4 @3 x12 @4 x12 x12 @3 x4 @8 x4 @8 x4 @3 x12 @4 x12 x12 @5 x4 x4 @8 x4 @5 x12 @6 x12 @5 x12 @6 x12 @5 x12 @7 x12 @5 x12 @6 x12 @5 x12 @6 x12 @5 x12 @6 x12 @5 x12 @6 x12 @5 x12 @6 x12 @5 x12 @7 x12 @6 x12 @5 x12 @7 x12 @6 x12 @5 x12 @6 x12 @5 x12 @6 x12 @5 x12 @6 x12 @5 x12 @7 x12 @5 x12 @6 x12 @5 x12 @6 x12 @5 x12 @6 x12 @5 x12 @6 x12 @5 x12 @6 x12 @5 x12 @7 x12 @6 x12 @5 x12 @7 x12 @8 x4 @5 x12 @6 x12 @5 x12 @6 x12 @5 x12 @7 x12 @5 x12 @6 x12 @5 x12 @6 x12 @5 x12 @6 x12 @5 x12 @6 x12 @5 x12 @6 x12 @5 x12 @7 x12 @6 x12 @5 x12 @7 x12 @6 x12 @5 x12 @6 x12 @5 x12 @6 x12 @5 x12 @6 x12 @5 x12 @7 x12 @5 x12 @6 x12 @5 x12 @8 x4 @6 x12 @5 x12 @7 x12 @6 x12 @5 x12 @7 x12 @6 x12 @5 x12 @7 x12 @8 x4 [ @5 x12 @6 x12 x12 ]3 [ @5 x12 @6 x12 x12 ]4 [ @8 x4 @5 x12 @6 x12 x12 ]2 @8 x4 [ @5 x12 @6 x12 x12 ]3 
!5  V1 O1 @0 x12 @1 x12 @0 x12 @1 x12 @2 Y.R g12 YL. d12 @1 YLR x12 x12 @2 Y.R g12 YL. d12 YLR @8 f+6 L O1 YLR @8 g+6 @0 x12 @30 x4 @0 x4 @30 x4 [ @0 x4 @30 x4 @0 x4 @30 x4 ]2 @0 x4 @30 x4 @0 x6 x12 @30 x12 @1 x12 @2 d12 [ @0 x4 @30 x4 @0 x4 @30 x4 ]3 @0 x6 x12 @30 x4 @0 x12 @1 x12 @0 x12 @2 Y.R b12 YLR g12 YL. d12 YLR @0 x6 x12 @1 x12 @0 x6 @0 x6 x12 @1 x12 @0 x6 @0 x6 x12 @1 x12 @0 x6 @0 x6 x12 @1 x12 @0 x12 x12 @0 x6 x12 @1 x12 @0 x6 @0 x6 x12 @1 x12 @0 x6 @0 x6 x12 @1 x12 @0 x6 @0 x12 @1 x12 @0 x12 @1 x12 x12 @2 d12 @0 x6 x12 @1 x12 @0 x6 @0 x6 x12 @1 x12 @0 x6 @0 x6 x12 @1 x12 @0 x6 @0 x6 x12 @1 x12 @0 x12 x12 @0 x6 x12 @1 x12 @0 x6 @0 x6 x12 @1 x12 @0 x6 @0 x6 x12 @1 x12 @0 x6 @30 x12 @1 x12 x12 @30 x12 @1 x12 x12 @4 g+4 r2 g+12 ( g+12 g+12 ) g+4 r4 g+4 f+4 @4 g+4 @43 W0,100,0 < g+12 > c+12 d+12 g+6 ( g+12 ) @4 g+4 g+4 r4 f+4 f+4 @4 e4 r2 e12 ( e12 e12 ) e4 r4 e4 e4 f+4 r2 f+12 ( f+12 f+12 ) g4 r4 @30 x12 @2 Y.R b12 b12 YLR g12 g12 YL. d12 YLR [ @0 x6 x12 @1 x4 @0 x6 x12 @1 x4 ]3 @0 x6 x12 @1 x4 @0 x6 x12 @1 x12 x12 x12 [ @0 x6 x12 @1 x4 @0 x6 x12 @1 x4 ]3 @0 x6 x12 @1 x4 @30 x12 @1 x12 x12 @30 x12 @1 x12 x12 O1 Y.R @49 W0,100,17 ( d+2 e2 d2 d+2 < b2 g+2 a+1 ) 
!6  V1 O0 @49 W0,100,17 g+12 b12 > e12 < a+12 > c+12 f+12 < b12 > e12 g+12 c+12 f+12 a+12 L O1 YLR d+12 g+12 b12 > d+4. ( d+8 ) d+12 c+12 d+12 f+2 f6 d+12~ d+12 c+12 f12 d+1~ d+2. ( d+8 ) r8 < d+12 g+12 b12 > d+4. ( d+8 ) d+12 c+12 d+12 f+2 f6 f+6 g+12 c+12 d+1~ d+2 ( d+8 ) r8 V1 O1 YL. @43 W0,100,0 P8,9,3 g+4 > d+4~ d+12 c+12 d+12 < g+2 ( g+8 ) r8 b4 a+6 g+6 g6 d+4 ( d+12 ) d+12 c+12 d+2~ d+8 ( d+8 ) g12 d+12 g12 a+12 g12 a+12 > c+12 < a+12 > c+12 d+4~ d+12 c+12 d+12 < g+2 ( g+8 ) r8 b4 a+6 b6 > c+6 d+2 c+2 e2 d+2 O2 YLR @57 W0,98,47 PX b12 ( b12 ) b12 ( b12 ) a+12 ( a+12 ) > c+12 ( c+12 ) c+12 ( c+12 ) < b12 ( b12 ) a+12 ( a+12 ) a+12 ( a+12 ) g+12 ( g+12 ) b12 ( b12 ) b12 ( b12 ) a+12 ( a+12 ) g+8 ( g+8 ) r2 g+8 ( g+8 ) g+8 ( g+8 ) r4 f+8 ( f+8 ) f+8 ( f+8 ) b12 ( b12 ) b12 ( b12 ) a+12 ( a+12 ) > c+12 ( c+12 ) c+12 ( c+12 ) < b12 ( b12 ) a+12 ( a+12 ) a+12 ( a+12 ) g+12 ( g+12 ) b12 ( b12 ) a+12 ( a+12 ) g+12 ( g+12 ) f+4~ f+12 ( f+12 ) > c+12 c+4. ( c+8 ) < g4~ g12 ( g12 ) > d+12 d+4. ( d+8 ) O1 YLR @49 W0,100,17 g+12 a+12 b12 > c+12 < b12 a+12 > d+12 c+12 < b12 > e12 d+12 c+12 f+2 e6 f+12~ f+12 e12 c+12 d+4~ d+6 < a+12 a+2~ a+2 ( a+4 ) r4 g+12 a+12 b12 > c+12 < b12 a+12 > d+12 c+12 < b12 > e12 d+12 c+12 f+2 e6 f+12~ f+12 e12 c+12 d+4~ d+6 a+12 a+4. ( a+8 ) g+4~ g+12 a+12 g+12 g2 O1 YL. ( b2 > c+2 < a+2 b2 g+2 e2 g+2 g2 ) 
