;031 001F0458
!1  T183 V7 O3 @2 E100,80,50,6,18 P6,9,2 Y.R d16 < b16 f+16 b16 > d16 _V-3 d16 _V3 c+16 < a16 e16 a16 > c+16 _V-3 c+16 _V3 < b4~ b2.~ b8 > c+8~ c+1 < < [ e16 a16 > c+16 e16 c+16 e16 a16 > c+16 ]2 L V5 O3 D1 Y.R @@2,2,1 E100,90,60,12,30 P8,11,2 r8 d4. _V-3 d8 _V3 d8 c+8 d8 e8~ e4 c+4 < a4 > g8 _V-3 g8 _V3 g4. f+8 f+2~ YL. f+2 _V-3 f+8 _V3 r8 g8 a8 b4. a4. g4 f+8 _V-3 f+8 _V3 e8 _V-3 e8 _V3 d8 e8 _V-3 e8 _V3 f+8~ f+1~ f+4 _V-3 f+8 _V3 D0 YLR < b8 a8 _V-3 a8 _V3 g8~ g4. _V-3 g8 _V3 g8 a8 b8 > c+8~ c+4. _V-3 c+8 _V3 < b8 _V-3 b8 _V3 > c+8 _V-3 c+8 _V3 e4 c+4 c+8 c+8 _V-3 c+8 _V3 < b8~ b4 _V-3 b8 _V3 r8 > d8 f+8 _V-3 f+8 _V3 g8~ g2. _V-3 g4 _V3 r4 < g4 b8 > g8 _V-3 g8 _V3 a8~ a2. _V-3 a4 _V3 V6 O2 @3 E100,0,0,12,0 PX Y.R a16 > c+16 e16 a16 YLR e16 a16 > c+16 e16 < YL. a16 > c+16 e16 a16 V7 O3 @@1,3,2 E100,80,60,18,30 P7,12,2 Y.R f+8 g8 a4. _V-3 a8 _V3 a8 b8 a8 a8~ a4 > c+4 d4 e4 e4. f+8 f+2~ f+4. _V-3 f+8 _V4 @@2,2,1 E100,90,60,12,30 P8,11,2 YL. _V-2 < a8 b8 a8 g8~ g4. _V-3 g8 _V3 g8 f+8 g8 f+8~ f+2 < a4 _V-3 a8 _V3 > e8~ e16 _V-3 e16 _V3 e8 d4 < b8 > c+8 _V-3 c+8 _V4 c+8~ c+2 _V2 @@1,3,2 E100,80,60,18,30 P7,12,2 Y.R f+4 g4 a4. _V-3 a8 _V3 a8 b8 a8 a8~ a4 > c+4 d4 e4 g4. f+8 f+2~ f+4. _V-3 f+8 _V4 @@2,2,1 E100,90,60,12,30 P8,11,2 YL. _V-2 < a8 b8 a8 g8~ g4. _V-3 g8 _V3 g8 f+8 g8 f+8~ f+4 a8 b8~ b4 _V-3 b8 _V3 YLR a+8~ a+16 _V-3 a+16 _V3 a+8 a8 _V-3 a8 _V3 a+8 _V-3 a+8 _V3 r4 _V2 @2 E100,0,0,0,0 PX < _V-4 r8 d16 _V-2 d16 _V2 f16 _V-2 f16 _V2 a+16 _V-2 a+16 _V2 > d16 _V-2 d16 _V2 f16 _V-2 f16 _V2 r8 _V4 @@1,3,2 E100,80,60,18,30 P7,12,2 > c8~ c16 _V-3 c16 _V3 c8 < a+8 _V-3 a+8 _V3 > c8 _V-3 c8 _V3 r4 < @2 E100,0,0,0,0 PX < _V-4 r8 e16 _V-2 e16 _V2 g16 _V-2 g16 _V2 > c16 _V-2 c16 _V2 _V4 @@1,3,2 E100,80,60,18,30 P7,12,2 > c8 _V-3 c16 _V3 c16 _V-3 c8 _V3 d8~ d1~ d2. _V-3 d8 _V3 r8 
!2  V7 O3 @2 E100,80,50,6,18 P6,9,2 YL. f+16 d16 < b16 > d16 f+16 _V-3 f+16 _V3 e16 c+16 < a16 > c+16 e16 _V-3 e16 _V3 d4~ d2.~ d8 e8~ e1 < < [ a16 > c+16 e16 a16 e16 a16 > c+16 e16 ]2 L V10 O3 YLR @@2,2,1 E100,90,60,12,30 P8,11,2 d4. _V-3 d8 _V3 d8 c+8 d8 e8~ e4 c+4 < a4 > g8 _V-3 g8 _V3 g4. f+8 f+2~ f+2 _V-3 f+8 _V3 r8 g8 a8 b4. a4. g4 f+8 _V-3 f+8 _V3 e8 _V-3 e8 _V3 d8 e8 _V-3 e8 _V3 f+8~ f+1~ f+4 _V-3 f+8 _V3 r8 d8 c+8 _V-3 c+8 _V3 < b8~ b4. _V-3 b8 _V3 b8 > c+8 d8 e8~ e4. _V-3 e8 _V3 d8 _V-3 d8 _V3 e8 _V-3 e8 _V3 g4 f+4 e8 f+8 _V-3 f+8 _V3 d8~ d4 _V-3 d8 _V3 r8 f+8 a8 _V-3 a8 _V3 b8~ b2. _V-3 b4 _V3 r4 < b4 > d8 b8 _V-3 b8 _V3 > c+8~ c+2. _V-3 c+8 _V3 c+16 d16 e2. < d8 e8 f+4. _V-3 f+8 _V3 f+8 g8 f+8 e8~ e4 a4 b4 > c+4 c+4. d8 d2~ d4. _V-3 d8 _V4 @@1,3,2 E100,80,60,18,30 P7,12,2 c+8 d8 c+8 < b8~ b4. _V-3 b8 _V3 b8 a8 b8 a8~ a2 d4 _V-3 d8 _V3 g8~ g16 _V-3 g16 _V3 g8 f+4 d8 e8 _V-3 e8 _V4 e8~ e2 @@2,2,1 E100,90,60,12,30 P8,11,2 d4 e4 f+4. _V-3 f+8 _V3 f+8 g8 f+8 e8~ e4 a4 b4 > c+4 e4. d8 d2~ d4. _V-3 d8 _V4 @@1,3,2 E100,80,60,18,30 P7,12,2 c+8 d8 c+8 < b8~ b4. _V-3 b8 _V3 b8 a8 b8 a8~ a4 > c+8 d8~ d4 _V-3 d8 _V3 @@2,2,1 E100,90,60,12,30 P8,11,2 d8~ d16 _V-3 d16 _V3 d8 c8 _V-3 c8 _V3 d8 _V-3 d8 _V3 r4 @2 E100,0,0,0,0 PX < _V-3 r8 Y.R d16 YL. d16 Y.R f16 YL. f16 Y.R a+16 YL. a+16 > Y.R d16 YL. d16 Y.R f16 YL. f16 r8 _V3 @@1,3,2 E100,80,60,18,30 P7,12,2 YLR e8~ e16 _V-3 e16 _V3 e8 d8 _V-3 d8 _V3 e8 _V-3 e8 _V3 r4 @2 E100,0,0,0,0 PX < _V-3 r8 Y.R e16 YL. e16 Y.R g16 YL. g16 Y.R > c16 YL. c16 _V3 @@2,2,1 E100,90,60,12,30 P8,11,2 YLR e8 _V-3 e16 _V3 e16 _V-3 e8 _V3 f+8~ f+1~ f+2. _V-3 f+8 _V3 r8 
!3  V3 O0 `9F00 @A3 @B0 @~3 b8 > b8 < b8 a8 > a8 < a8 g4~ g8 g8 g4 g8 g8 ( g8 ) a8~ a8 [ a8 ]7 a16 > a16 < a8 a8 a16 > a16 < a8 a8 a16 > a16 < a16 a16 L b8 b8 b8 b8 > d8 e8 f+8 < a8~ a8 a8 b8 a8 > c+8 < a8 > d8 e8 d8 d8 > d8 < d8 f+8 g8 a8 d8~ d8 d8 d8 d8 d8 < d8 e8 f+8 g8 g8 b8 g8 > c+8 d8 < g8 g+8 a8 a8 > a8 < a8 a8 a8 a+8 b8~ b8 b8 > d8 < b8 > f+8 < b8 > d8 < b8 > b8 < b8 > d8 < b8 b8 a8 ( a8 ) g8~ g8 g8 > g8 < g8 g8 b8 > d8 < a8~ a8 a8 > c+8 < a8 > e8 < a8 > c+8 < a8 a+8 a+8 > a+8 < a+8 a+8 > c+8 e8 < b8~ b8 b8 b8 b8 b8 a8 ( a8 ) g8~ g8 g8 b8 g8 > d8 < b8 g8 e8~ e8 e8 > e8 < e8 e8 e8 g8 b8 [ a8 ]8 a8 a8 b8 a8 > c+8 < a8 > e8 < a8 > [ d8 > d8 < ]4 [ c+8 > c+8 < ]4 < [ b8 > b8 < ]4 [ a8 > a8 < ]4 [ g8 > g8 < ]4 [ f+8 > f+8 < ]3 f+8 e8~ e8 > e8 < f+8 > f+8 < g8 > g8 < g+8 a8~ a8 a8 > a8 < a8 a8 a8 b8 > c+8 < > [ d8 > d8 < ]4 [ c+8 > c+8 < ]4 < [ b8 > b8 < ]4 [ a8 > a8 < ]4 [ g8 > g8 < ]3 g8 f+8~ f+8 a8 > c+8 < b8~ b8 > f+8 < b8 a+8~ a+8 > a+8 < [ a+8 > a+8 < ]4 > > a+8 < a+8 < a+8 > a+8 < a+8 > c8~ c8 > c8 < [ c8 > c8 < ]4 > > c8 < c8 < c8. c8 ( c16 ) d8~ d4. c+4. c4. < b4. a4 a+4 
!4  @6 x4 x4 x4 @8 x4~ x2 r4. x8~ x4 @7 x4 x4 x4 x4 @6 x4 x4 x4 L @8 x4 [ @5 x8 @6 x8 ]3 [ [ @5 x8 @6 x8 ]4 ]2 [ @5 x8 @6 x8 ]3 @7 x4 @8 x4 [ @5 x8 @6 x8 ]2 @6 x8 @7 x8 [ @5 x8 @6 x8 ]2 @5 x8 @7 x8 @5 x8 @8 x8~ x8 @6 x8 [ @5 x8 @6 x8 ]3 @5 x8 @7 x4 @5 x8 x4 x8 @8 x8~ x4 [ @5 x8 @6 x8 ]3 [ [ @5 x8 @6 x8 ]4 ]2 [ @5 x8 @6 x8 ]2 @5 x4 x8 @8 x8~ x4 [ @5 x8 @6 x8 ]2 @6 x8 @7 x8 [ @5 x8 @6 x8 ]4 @8 x4 [ @5 x8 @6 x8 ]2 @6 x8 @7 x8 [ @5 x8 @6 x8 ]2 @5 x4 x4 @8 x4 [ @5 x8 @6 x8 ]2 @5 x8 @7 x8 [ @5 x8 @6 x8 ]2 @5 x8 @7 x8 @5 x8 @6 x8 [ @5 x8 @6 x8 ]3 @5 x8 @7 x8 [ @5 x8 @6 x8 ]2 [ @5 x8 @7 x8 ]2 [ @5 x8 @6 x8 ]3 @5 x8 @7 x8 [ @5 x8 @6 x8 ]2 @5 x8 @7 x8 @5 x8 @6 x8 [ @5 x8 @6 x8 ]3 @5 x8 @7 x8 [ @5 x8 @6 x8 ]2 @5 x4 x4 @8 x4 [ @5 x8 @6 x8 ]2 @5 x8 @7 x8 [ @5 x8 @6 x8 ]2 @5 x8 @7 x8 @5 x8 @6 x8 [ @5 x8 @6 x8 ]3 @5 x8 @7 x8 [ @5 x8 @6 x8 ]2 [ @5 x8 @7 x8 ]2 [ @5 x8 @6 x8 ]3 @5 x8 @8 Y.R x8~ x8 @6 YLR x8 @5 x8 @8 YL. x4 @6 YLR x8 @5 x8 @8 x8~ x8 @6 x8 [ @5 x8 @6 x8 ]3 [ @5 x8 @6 x8 ]3 @5 x8 @8 x8~ x8 @6 x8 [ @5 x8 @6 x8 ]3 [ @5 x8 @6 x8 ]3 @5 x8 @8 x8~ x4 @5 x4 x4 @8 x4 @5 x4 x4 x4 x4 
!5  V1 O1 @24 x16 x16 @2 Y.R b16 YL. g16 YLR @24 x8 x16 x16 @2 Y.R g16 YL. d16 YLR @0 x8 x4 r8 @24 x8 x8 @0 x8 @24 x8 x4 @0 x8 r4 @0 x4 x4 x4 @0 x16 @24 x16 x16 x16 @2 Y.R g8 YLR @24 x16 x16 x16 x16 @2 YL. d8 YLR @24 [ x16 ]4 L @0 x4 @24 x4 @0 x8 x8 @24 x8 @0 x8 r8 @0 x8 @24 x4 @0 x8 x8 @24 x4 @0 x4 @24 x4 @0 x8 x8 @24 x8 @0 x8 r8 @0 x8 @24 x4 @0 x8 x8 @24 x8 x16 x16 @0 x4 @24 x4 @0 x8 x8 @24 x4 @0 x4 @24 x4 @0 x8 x8 @24 x8 @0 x8 r8 @0 x8 @24 x4 @0 x8 x8 @24 x4 @0 x8 x8 @24 x4 x8 @2 Y.R g8 YL. d8 YLR @0 x8 r4 @24 x4 @0 x8 x8 @24 x8 @0 x8 r8 @0 x8 @24 x4 @0 x8 x8 @24 x4 @0 x4 @24 x4 @0 x8 x8 @24 x8 @0 x8 r8 @0 x8 @24 x4 @0 x8 x8 @24 x4 r4 @24 x4 @0 x8 x8 @24 x4 r8 @0 x8 @24 x4 @0 x8 x8 @24 x4 @0 x4 @24 x4 @0 x8 x8 @24 x4 @24 x16 x16 @2 Y.R g8 YLR @24 x16 x16 @2 YL. d8 YLR @24 [ x16 ]8 [ @0 x4 @24 x4 @0 x8 x8 @24 x4 ]5 @0 x4 @24 x4 @0 x8 x8 @24 x8 @0 x8 r8 x8 @24 x4 r8 @0 x8 @24 x8 @0 x8 r8 @0 x8 @24 x4 x8 @2 Y.R g16 YL. d16 YLR @24 x16 x16 @0 x8 [ @0 x4 @24 x4 @0 x8 x8 @24 x4 ]4 @0 x4 @24 x4 @0 x8 x8 @24 x8 @0 x8 r4 @24 x8 @0 x8 r8 x8 @24 x8 @0 x8 r8 @0 x8 @24 x4 @0 x4 @24 x4 @0 x4 @24 x4 @0 x8 x8 @24 x8 @0 x8 r8 @0 x8 @24 x4 @0 x4 @24 x4 @0 x4 @24 x8 @0 x8 @24 x8 @0 x16 @24 x16 x8 @0 x8 r8 @2 Y.R g8 YL. d8 YLR @24 x8 @2 Y.R g8 YL. d8 YLR @24 x8 @2 Y.R b16 YLR g16 @2 YL. d8 YLR @24 x8 @2 d8 @0 x8 @24 x8 @0 x8 @24 x8 x16 x16 
!6  V1 O1 @57 W0,98,47 YL. b4 ( b8 ) a4 ( a8 ) g4. ( g8 ) O2 @48 W0,100,45 Y.R < b8 ( b8 ) > d8 g4 a8~ a1 ) O1 @8 YLR a8 ( a8 ) r8 a8 ( a8 ) r8 a8 ( a8 ) L O1 @8 b4 O0 V1 @43 W0,100,0 > YLR d8 < Y.R b8 > YL. f+8 < YLR b8 > Y.R d8 < YLR a8~ a8 > YL. c+8 YLR e8 Y.R c+8 YLR a8 YL. c+8 YLR e8 Y.R c+8 < YLR a8 > d8 < O3 @9 W0,90,20 YL. d8 ( d8 ) @27 W0,90,20 d4. ( d8 ) @9 W0,90,20 Y.R d16 ( d16 ) d8 ( d8 ) @27 W0,90,20 d4. ( d4 ) O0 YLR @43 W0,100,0 YLR g8 YL. b8 > YLR d8 < Y.R b8 > YL. g8 < YLR b8 > Y.R d8 < YLR a8~ YLR a8 > YL. c+8 < YLR e8 > YL. c+8 < YLR b8 > c+8 ( c+8 ) d8~ d8 < YL. f+8 YLR b8 Y.R f+8 > YLR d8 < YL. f+8 YLR b8 Y.R f+8 > YLR d8 < YL. f+8 YLR b8 Y.R f+8 @14 O2 YLR f+8 e8 r8 d4. O0 YL. @43 W0,100,0 r4 d4. e8~ e1 r2 e4. f+8~ f+2 e8 f+8 r8 d8~ d1 ( d4 ) O1 @57 W0,98,47 YL. ( d4 g8 b4 a8~ a2.~ a8 a16 b16 > c+2 e4 ) O2 @61 W0,100,33 YL. B9 a16~ ( e8. ) YL. d1 c+1 < b1 a1 Y.R g1 f+2.~ f8 e8~ e8 e8 f+8 f+8 g8 g8 g+8 a8~ a4 a8 a8 a8 a8 b8 > c+8 YL. d1 c+1 < b1 a1 Y.R g2.~ g8 f+8~ f+4. b8~ b4. a+8~ [ Y.R a+8 YL. a+8 ]6 YLR a+8 a+8 r8 > Y.R c8~ [ Y.R c8 YL. c8 ]6 YLR c8 r16 c16 r8 Y.R d8~ d4. YL. c+4. Y.R c4. < YL. b4. O1 @8 Y.R a8 YL. a8 Y.R a+8 YL. a+8 
