;032 001F1244
!1  T150 r1 L V10 O2 YLR @@0,2,1 E100,70,60,7,37 P15,12,2 d+2 g2~ g4 _V-6 Y.R g8 _V-2 g8 _V2 _V6 YLR d+4 g4 f4. c8 a2~ a4 _V-6 Y.R a8 _V-2 a8 _V2 _V6 YLR a4 a+4 > c2. < a+8 g+8 a+4. Y.R _V-4 a+8 _V4 YLR g4. Y.R _V-4 g8 _V4 YLR c1~ c4 Y.R _V-5 c8 _V-3 c8 _V8 V5 O3 Y.R @2 E80,100,70,7,44 PX d16 f16 a+16 > d16 < a+16 d16 f16 a+16 V10 O2 YLR @@0,2,1 E100,70,60,7,37 P15,12,2 d+2 g2~ g4 _V-6 Y.R g8 _V-2 g8 _V2 _V6 YLR d+4 g4 f4. c8 a2~ a4 _V-6 Y.R a8 _V-2 a8 _V2 _V6 YLR a4 a+4 > c2. < a+8 > c8 d4. Y.R _V-4 d8 _V4 YLR < f4 a+4 YLR g1~ g4 Y.R _V-5 g8 _V-3 g8 _V8 V5 O3 Y.R @2 E80,100,70,7,44 PX d16 f16 a+16 > d16 < a+16 d16 f16 a+16 
!2  r1 L V10 O2 YLR @@0,2,1 E100,70,60,7,37 P15,12,2 g2 a+2~ a+4 _V-6 YL. a+8 _V-2 a+8 _V2 _V6 YLR g4 a+4 a4. f8 > c2 c4 _V-6 YL. c8 _V-2 c8 _V2 _V6 YLR c4 d4 d+2. d8 c8 d4. YL. _V-4 d8 _V4 YLR < a+4. YL. _V-4 a+8 _V4 YLR g1~ g4 YL. _V-5 g8 _V-3 g8 _V3 _V5 V5 O2 YL. @2 E80,100,70,7,44 PX a+16 > d16 f16 a+16 f16 a+16 > d16 f16 V10 O2 YLR @@0,2,1 E100,70,60,7,37 P15,12,2 g2 a+2~ a+4 _V-6 YL. a+8 _V-2 a+8 _V2 _V6 YLR g4 a+4 a4. f8 > c2 c4 _V-6 YL. c8 _V-2 c8 _V2 _V6 YLR c4 d4 d+2. d8 d+8 f4. YL. _V-4 f8 _V4 YLR < a+4 d4 YLR > c1~ c4 YL. _V-5 c8 _V-3 c8 _V3 _V5 V5 O2 YL. @2 E80,100,70,7,44 PX a+16 > d16 f16 a+16 f16 a+16 > d16 f16 
!3  O0 V3 @A0 @~X a+1 L O0 `9F00 @A3 @B0 @~5 d+16 ( d+16 ) d+16 ( d+16 ) r2 [ a+16 ]4 d+16 ( d+16 ) d+16 ( d+16 ) r2 d+16 g16 a+16 > d+16 < f16 ( f16 ) f16 ( f16 ) r2 > [ c16 ]4 < f16 ( f16 ) f16 ( f16 ) r2 f16 a16 > c16 f16 < g+16 ( g+16 ) g+16 ( g+16 ) r2 r8 g16 g+16 a+16 ( a+16 ) a+16 ( a+16 ) r2 [ g16 ]4 > c16 ( c16 ) c16 ( c16 ) < r2 [ g16 ]4 > c16 ( c16 ) c16 ( c16 ) r4 < [ a+16 ( a+16 ) ]4 d+16 ( d+16 ) < d+16 ( d+16 ) r2 [ a+16 ]4 d+16 ( d+16 ) d+16 ( d+16 ) r2 d+16 g16 a+16 > d+16 < f16 ( f16 ) f16 ( f16 ) r2 > [ c16 ]4 < f16 ( f16 ) f16 ( f16 ) r2 f16 a16 > c16 f16 < g+16 ( g+16 ) g+16 ( g+16 ) r2 r8 g16 g+16 a+16 ( a+16 ) a+16 ( a+16 ) r2 [ g16 ]4 > c16 ( c16 ) c16 ( c16 ) r2 < [ g16 ]4 > c16 ( c16 ) c16 ( c16 ) r4 c16 ( c16 ) c16 ( c16 ) c16 ( c16 ) c16 ( c16 ) 
!4  @3 x24 @4 [ x24 ]11 [ @3 x8 @4 x8 ]2 L @8 x4 r8 @3 x16 @4 x16 @3 x8 @4 x8 [ @3 x16 @4 x16 ]2 @3 x8 @4 x8 r4. @3 x8 @3 x24 @4 [ x24 ]5 @3 x8 @4 x8 r2 [ @3 x16 @4 x16 ]2 @3 x8 @4 x8 r4. @3 x8 @3 x24 @4 [ x24 ]5 @8 x4 r8 @3 x24 @4 x24 x24 @3 x8 @4 x8 r4 @8 x4 r8 @3 x24 @4 x24 x24 @3 x8 @4 x8 r4 @8 x4 r8 @3 x16 @4 x16 @3 x8 @4 x8 [ @3 x16 @4 x16 ]2 @3 x8 @4 x8 r8 @3 x16 @4 x16 @3 x8 @4 x8 [ @3 x16 @4 x16 ]2 @8 x4 r8 @3 x16 @4 x16 @3 x8 @4 x8 [ @3 x16 @4 x16 ]2 @3 x8 @4 x8 r4. @3 x8 @3 x24 @4 [ x24 ]5 @3 x8 @4 x8 r2 [ @3 x16 @4 x16 ]2 @3 x8 @4 x8 r4. @3 x8 @3 x24 @4 [ x24 ]5 @8 x4 r8 @3 x24 @4 x24 x24 @3 x8 @4 x8 r4 @8 x4 r8 @3 x24 @4 x24 x24 @3 x8 @4 x8 r4 @8 x4 r8 @3 x16 @4 x16 @3 x8 @4 x8 [ @3 x16 @4 x16 ]2 @3 x8 @4 x8 r8 @3 x16 @4 x16 @3 x8 @4 x8 [ @3 x16 @4 x16 ]2 
!5  V1 O1 r2. @4 YLR a+16 Y.R ( a+16 ) YLR a+16 YL. ( a+16 ) L O1 @4 YLR d+4 O3 @45 W0,100,50 Y.R a+16 g16 d+16 < a+16 [ g32 ( g+32 ) ]4 O2 YL. @48 W0,100,45 d+12 ( d+12 ) g12 a+2. O1 @4 YLR d+16 Y.R ( d+16 ) YLR d+16 YL. ( d+16 ) YLR f4 O3 @45 W0,100,50 Y.R > c16 < a16 f16 c16 < [ a32 ( a+32 ) ]4 O2 YL. @48 W0,100,45 f12 ( f12 ) a12 > c2. < O1 @4 YLR f16 Y.R ( f16 ) YLR f16 YL. ( f16 ) YLR g+4 O1 YL. @48 W0,100,45 g+8 a+16 > c16 d+4 O1 @4 YLR g+16 Y.R ( g+16 ) YLR g+16 YL. ( g+16 ) YLR a+4 O1 YL. @48 W0,100,45 f8 a+16 > c16 d4 O1 @4 YLR g16 Y.R ( g16 ) YLR g16 YL. ( g16 ) YLR > c4 < O1 YL. @48 W0,100,45 g4 > c4 d4 g2 O1 @4 YLR a+16 Y.R ( a+16 ) YLR g+16 YL. ( g+16 ) YLR g16 Y.R ( g16 ) YLR f16 YL. ( f16 ) O1 @4 YLR d+4 O3 @45 W0,100,50 Y.R a+16 g16 d+16 < a+16 [ g32 ( g+32 ) ]4 O2 YL. @48 W0,100,45 d+12 ( d+12 ) g12 a+2. O1 @4 YLR d+16 Y.R ( d+16 ) YLR d+16 YL. ( d+16 ) YLR f4 O3 @45 W0,100,50 Y.R > c16 < a16 f16 c16 < [ a32 ( a+32 ) ]4 O2 YL. @48 W0,100,45 f12 ( f12 ) a12 > c2. < O1 @4 YLR f16 Y.R ( f16 ) YLR f16 YL. ( f16 ) YLR g+4 O1 YL. @48 W0,100,45 g+8 a+16 > c16 d+4 O1 @4 YLR g+16 Y.R ( g+16 ) YLR g+16 YL. ( g+16 ) YLR a+4 O1 YL. @48 W0,100,45 f8 a+16 > c16 d4 O1 @4 YLR g16 Y.R ( g16 ) YLR g16 YL. ( g16 ) O2 YL. @48 W0,100,45 f2. e8 d8 e2 O1 @4 [ YLR a+16 Y.R ( a+16 ) ]4 
!6  V1 O0 @48 W0,100,45 YLR ( a+4 > f4 a+4 > d4 ) L O2 YLR @43 W0,97,0 [ d+16 < a+16 g16 d+16 > ]8 [ f16 c16 < a16 f16 > ]8 [ g+16 d+16 c16 < g+16 > ]4 [ a+16 f16 d16 < a+16 > ]4 [ g16 d16 c16 < g16 > ]6 [ f16 d16 < a+16 f16 > ]2 [ d+16 < a+16 g16 d+16 > ]8 [ f16 c16 < a16 f16 > ]8 [ g+16 d+16 c16 < g+16 > ]4 [ a+16 f16 d16 < a+16 > ]4 [ g16 f16 c16 < g16 > ]4 [ g16 e16 c16 < g16 > ]2 [ f16 d16 < a+16 f16 > ]2 
