;033 001F19D4
!1  T130 r4 L O2 V5 Y.R @@2,2,1 E95,100,70,4,34 P11,14,1 D1 r16 r4 g12. _V-3 g24 _V3 g12 > c4 < g8 > c8 < a+2 _V-4 a+8 _V4 r8 > c8 d8 d+4~ d+16. d16. c16 < a+8 _V-4 a+8 _V4 f8 g+8 g2. _V-4 g4 _V4 D0 V7 r8. c12. _V-3 c24 _V3 c12 e4 c8 e8 f2 _V-4 f8 _V4 r8 f12 f12 f12 g+2 a+8 _V-4 a+8 _V4 f8 a+8 g2. _V-4 g4 _V4 O2 V8 @2 E80,100,60,8,34 PX YL. g+16 Y.R _V-2 g+16 _V2 > YL. c16 Y.R _V-2 c16 _V2 YL. d+16 Y.R _V-2 d+16 _V2 YL. g+16 Y.R _V-2 g+16 _V2 < YL. a+16 Y.R _V-2 a+16 _V2 > YL. d16 Y.R _V-2 d16 _V2 YL. f16 Y.R _V-2 f16 _V2 YL. a+16 Y.R _V-2 a+16 _V2 < YL. g16 Y.R _V-2 g16 _V2 YL. a+16 Y.R _V-2 a+16 _V2 > YL. d+16 Y.R _V-2 d+16 _V2 YL. g16 Y.R _V-2 g16 _V2 < YL. a16 Y.R _V-2 a16 _V2 > YL. c16 Y.R _V-2 c16 _V2 YL. f16 Y.R _V-2 f16 _V2 YL. a16 Y.R _V-2 a16 _V2 < YL. g+16 Y.R _V-2 g+16 _V2 > YL. c16 Y.R _V-2 c16 _V2 YL. d+16 Y.R _V-2 d+16 _V2 YL. g+16 Y.R _V-2 g+16 _V2 < YL. a+16 Y.R _V-2 a+16 _V2 > YL. d16 Y.R _V-2 d16 _V2 YL. f16 Y.R _V-2 f16 _V2 YL. a+16 Y.R _V-2 a+16 _V2 YL. c16 Y.R _V-2 c16 _V2 YL. f16 Y.R _V-2 f16 _V2 YL. g16 Y.R _V-2 g16 _V2 YL. > c16 Y.R _V-2 c16 _V2 < YL. c16 Y.R _V-2 c16 _V2 YL. e16 Y.R _V-2 e16 _V2 YL. g16 Y.R _V-2 g16 _V2 YL. > c16 Y.R _V-2 c16 _V2 < < YL. g+16 Y.R _V-2 g+16 _V2 > YL. c16 Y.R _V-2 c16 _V2 YL. d+16 Y.R _V-2 d+16 _V2 YL. g+16 Y.R _V-2 g+16 _V2 < YL. a+16 Y.R _V-2 a+16 _V2 > YL. d16 Y.R _V-2 d16 _V2 YL. f16 Y.R _V-2 f16 _V2 YL. a+16 Y.R _V-2 a+16 _V2 < YL. g16 Y.R _V-2 g16 _V2 YL. a+16 Y.R _V-2 a+16 _V2 > YL. d+16 Y.R _V-2 d+16 _V2 YL. g16 Y.R _V-2 g16 _V2 < YL. g+16 Y.R _V-2 g+16 _V2 > YL. c16 Y.R _V-2 c16 _V2 YL. d+16 Y.R _V-2 d+16 _V2 YL. g+16 Y.R _V-2 g+16 _V2 < O1 V7 YL. @@2,2,1 E95,100,70,4,34 P11,14,1 r8 f8 g+8 > c+8 f4. _V-3 f8 _V4 < r8 a+8 > c+8 f+8 a+4. _V-3 a+8 _V3 < r8 g8 > c8 d8 g4. _V-3 g8 _V3 < r8 g8 b8 > d8 g4 b4 < O4 V6 @1 E90,100,60,13,34 [ Y.R a+16 f16 d16 < a+16 > YL. a+16 f16 d16 < a+16 > ]4 [ Y.R > c16 < g16 e16 c16 YL. > c16 < g16 e16 c16 ]4 [ Y.R a+16 f16 d16 < a+16 > YL. a+16 f16 d16 < a+16 > ]4 [ Y.R > c16 < g16 e16 c16 YL. > c16 < g16 e16 c16 ]3 Y.R > d16 < b16 g16 d16 YL. < b16 > d16 g16 b16 
!2  r4 L O2 V9 @@2,2,1 E95,100,70,4,34 P11,14,1 r4 g12. _V-3 g24 _V3 g12 > c4 < g8 > c8 < a+2 _V-4 a+8 _V4 r8 > c8 d8 d+4~ d+16. d16. c16 < a+8 _V-4 a+8 _V4 f8 g+8 g2. _V-4 g4 _V4 r4 g12. _V-3 g24 _V3 g12 > c4 < g8 > c8 d2 _V-4 d8 _V4 r8 d12 c12 d12 d+4~ d+16. d16. d+16 f8 _V-4 f8 _V4 < a+8 > d8 c2. _V-4 c4 _V4 < Y.R g+4. _V-3 g+8 _V3 a+4 f4 g4. _V-3 g8 _V3 a4 f4 d+4. _V-3 d+8 _V3 f4 d4 e4 f4 g4 _V-4 g4 _V4 g+4 _V-3 g+8 _V3 a+16 > c16 d4 < a+4 g4 _V-3 g8 _V3 g+16 a+16 > c4 < d+4 > c+2~ c+8 _V-3 c+8 _V3 c+12 d+12 f12 f+2~ f+8 _V-4 f+8 _V4 f+12 f12 f+12 g2~ g8 _V-4 g8 _V4 g12 d12 g12 g2 b2 [ O2 V8 YLR @@2,2,1 E95,100,70,4,34 P11,14,1 f8 _V-3 f16 _V3 d16 f4. _V-3 f8 _V4 r4 O2 V8 YLR @@2,2,1 E95,100,70,4,34 P11,14,1 r2 d8. f8. a+8 g8 _V-3 g16 _V3 e16 g4. _V-3 g8 _V3 r4 r1 ]2 
!3  V3 O0 @A3 [ g16 ]4 L O1 [ c16 ( c16 ) ]8 [ c16 ( c16 ) ]8 < [ g+16 ( g+16 ) ]4 [ a+16 ( a+16 ) ]4 > [ c16 ( c16 ) ]4 < [ g16 ( g16 ) ]4 > [ c16 ( c16 ) ]8 [ c16 ( c16 ) ]8 < [ g+16 ( g+16 ) ]4 [ a+16 ( a+16 ) ]4 > [ c16 ( c16 ) ]6 < [ a+16 ( a+16 ) ]2 g+4. ( g+8 ) a+4. ( a+8 ) > d+4. ( d+8 ) f4. ( f8 ) < g+4. ( g+8 ) a+4. ( a+8 ) > c4. ( c8 ) c8 < a+8 g+8 g8 f2 a+2 d+2 g+2 > [ c+16 ( c+16 ) ]8 < [ f+16 ( f+16 ) ]8 [ g16 ( g16 ) ]7 > d8 [ g16 ( g16 ) ]4 < [ g16 ( g16 ) ]2 a8 b8 > [ [ c16 ( c16 ) ]8 ]7 [ c16 ( c16 ) ]4 < [ f+16 ( f+16 ) ]4 
!4  r4 L @8 x4 [ @5 x8 x8 ]3 [ [ @5 x8 x8 ]4 ]2 [ @5 x8 x8 ]2 [ @5 x8 @7 x8 ]2 @8 x4 [ @5 x8 x8 ]3 [ [ @5 x8 x8 ]4 ]2 [ @5 x8 x8 ]2 @5 x16 x16 @7 x8 @5 x8 x8 [ @8 x4. @5 x16 x16 x8 x8 r4 ]3 @8 x4. @5 x16 x16 x8 x8 x8 @7 x8 [ @8 x4 @5 x8 x16 x16 x8 x8 r4 ]2 @8 x4 [ @5 x8 x8 ]3 [ @5 x8 x8 ]4 @8 x4 [ @5 x8 x8 ]3 [ @5 x8 x8 ]2 [ @5 x16 x16 @7 x8 ]2 @8 x4 @5 [ x16 ]12 [ x16 ]16 [ x16 ]16 [ x16 ]10 @7 x8 @5 x16 x16 @7 x8 @8 x4 @5 [ x16 ]12 [ x16 ]16 [ x16 ]16 [ x16 ]10 @7 x8 @5 x16 x16 @7 x8 
!5  V1 O1 @1 [ x16 ]4 L @0 x4 @30 x4 @0 x8 x8 @30 x4 [ @0 x4 @30 x4 @0 x8 x8 @30 x4 ]2 @0 x4 @30 x4 @0 x8 x8 @30 x8 @4 Y.R g16 YL. g16 YLR > c4 < @30 x4 @0 x8 x8 @30 x4 [ @0 x4 @30 x4 @0 x8 x8 @30 x4 ]2 @0 x4 @30 x4 @0 x8 @1 x8 @2 Y.R g8 YL. d8 YLR [ @0 x4. @1 x16 x16 @30 x8 @1 x8 r4 ]3 @0 x4. @1 x16 x16 @30 x8 @1 x8 x8 @2 d8 @0 x4. @1 x16 x16 @30 x8 @1 x8 r4 @0 x4. @1 x16 x16 @30 x8 @1 x8 x8 x8 [ @0 x4 @30 x4 @0 x8 x8 @30 x4 ]3 @0 x4 @30 x4 x16 @1 x16 x16 x16 @30 x16 @1 x16 @2 d8 @0 x4 @30 x4 @0 x4 @30 x4 @0 x4 @30 x4 @0 x4 @30 x8 @0 x8 @0 x4 @30 x4 @0 x4 @30 x4 @0 x4 @30 x4 @0 x8 x8 @30 x8 @1 x16 x16 @0 x4 @30 x4 @0 x4 @30 x4 @0 x4 @30 x4 @0 x4 @30 x8 @0 x8 @0 x4 @30 x4 @0 x4 @30 x4 @0 x4 @30 x4 @0 x8 @1 x8 @30 x16 @1 x16 x16 x16 
!6  V1 O1 r4 L O1 YLR @8 c1 r1 YL. @48 W0,100,45 ( g+2 f2 > c2 < g4 ) Y.R @45 W0,100,50 g16 a16 a+16 b16 > c16 ( c16 ) < r8 r2. r1 YL. @48 W0,100,45 > ( c2 d2 e1 ) < YLR @43 W0,97,0 g+4. ( g+8 ) a+4 f4 g4. ( g8 ) a4 f4 d+4. ( d+8 ) f4 d4 e4 f4 g4 ( g4 ) g+4 ( g+8 ) a+16 > c16 d4 < a+4 g4 ( g8 ) g+16 a+16 > c4 < d+4 f2~ f8 ( f8 ) f12 f+12 g+12 a+2~ a+8 ( a+8 ) a+12 g+12 a+12 > c2~ c8 ( c8 ) c12 < g12 > c12 d2 g2 O1 YLR @57 W0,98,47 a+8 ( a+16 ) f16 a+4. ( a+8 ) @4 YL. g8 g16 g16 Y.R > c2 < YLR @57 W0,98,47 f8. a+8. > d8 c8 ( c16 ) < g16 > c4. ( c8 ) @4 Y.R < g8 g16 g16 > YL. c2 < @42 W0,97,0 Y.R < c16 e16 g16 > c16 YL. e16 c16 < g16 e16 YLR > @57 W0,98,47 a+8 ( a+16 ) f16 a+4. ( a+8 ) @4 YL. g8 g16 g16 Y.R > c2 < YLR @57 W0,98,47 f8. a+8. > d8 c8 ( c16 ) < g16 > c4. ( c8 ) @4 Y.R < g8 g16 g16 > YL. c2 < Y.R g8 YL. g8 Y.R g8 YL. g16 Y.R g16 YLR 
