;034 001F231A
!1  T90 _2 r4 L @1 V6 O1 E100,100,90,62,25 P25,17,3 [ YLR r4 g4 ) > c4 < a+2 _V-3 Y.R a+8 YL. a+8 _V2 YLR r4 g4 > ) c4 d2 _V-3 Y.R d8 YL. d8 _V2 < ]2 @@2,2,1 P49,19,3 O3 V6 O2 Y.R g+2~ g+8 _V-3 g+8 _V3 g+4 a+4 > c4 < g2~ g8 _V-3 g8 _V3 g2 > c4 d4. _V-3 d8 _V3 c4 < f+2 a8 _V-3 a8 _V3 d2. d2 _V-2 d4 @2 V4 O2 E100,100,90,62,25 P25,17,3 YLR r4 D1 g4 D0 ) > c4 < a+2 _V-3 Y.R a+8 YL. a+8 _V2 YLR r4 D1 g4 D0 > ) c4 d2 _V-3 Y.R d8 YL. d8 _V2 < YLR r4 D1 g4 D0 ) > c4 < a+2 _V-3 Y.R a+8 YL. a+8 _V2 YLR r4 D1 g4 D0 > ) c4 d2.~ d4 _V-3 Y.R d4 YLR d4 _V2 < 
!2  _2 r4 L @1 V6 YLR O2 E100,100,90,62,25 P25,17,3 YLR r2 d+4 d2 _V-3 Y.R d8 YL. d8 _V3 YLR r2 d+4 f2 _V-3 Y.R f8 YL. f8 _V3 YLR r2 d+4 d2 _V-3 Y.R d8 YL. d8 _V3 YLR r2 d+4 @@2,2,1 P49,17,3 _V2 f4 g4 a+4 > [ c2~ c8 _V-3 c8 _V3 c4 d4 d+4 ]2 f+4. _V-3 f+8 _V3 d+4 d2 c8 _V-3 c8 _V3 c2. < b2 _V-3 b4 @1 V6 YL. O1 E100,100,90,62,25 P25,17,3 r4 g2 f2 _V-2 f8 f8 _V2 r4 g2 a+2 _V-2 a+8 a+8 _V2 r4 g2 f2 _V-2 f8 f8 _V2 r4 g2 a+2.~ a+4 _V-2 a+4 a+4 _V2 
!3  _2 L `9F00 `AE00 @A3 V3 YLR O0 E100,100,75,25,25 g4 > [ c2.~ c2 < g4 > ]3 c2.~ c2 c4 [ f2.~ f2 f4 H-2 ]2 H0 d2. > d2 < d4 g2. g2. @A1 O2 [ c2.~ c2 < g4 > ]3 c2.~ c2.~ c2 
!4  L @5 x16 x16 @7 x8 [ @1 x4 @5 [ x4 ]4 x16 @6 x16 @7 x8 ]4 [ @1 x4 @5 [ x4 ]4 x16 @6 x16 @7 x8 ]3 @1 x4 @5 [ x4 ]4 @7 [ x16 ]4 @8 x4 @5 [ x4 ]10 @7 x4 @8 x4 @5 [ x4 ]13 
!5  _2 L @4 O1 V1 YLR g8 V0 [ g16 ]2 > [ V1 YLR c4 r1 < g8 V0 [ g16 ]2 > ]3 V1 YLR c4 r1 c8 V0 [ c16 ]2 < [ V1 YLR f4 r1 f8 V0 [ f16 ]2 H-2 ]2 H0 V1 YLR d4 r1 d8 V0 [ d16 ]2 V1 YLR g4 r1 g8 V0 [ g16 ]2 @40 W0,95,1 O2 V1 D1 YL. r2 d+4 d2 ( Y.R d8 YL. d8 ) YL. r2 d+4 f2 ( Y.R f8 YL. f8 ) YL. r2 d+4 d2 ( Y.R d8 YL. d8 ) YL. r2 d+4 f2.~ f4 ( YLR f4 D0 
!6  _2 r4 L @40 W0,95,1 O0 YLR [ V1 c4 g2 f2 V0 f8 f8 V1 c4 g2 a+2 V0 a+8 a+8 ]2 @28 W0,100,39 O1 V1 YL. r4 c4 d4 d+4 f4 g4 d+2 d4 c2. r4 < a8 > c16 r16 d+16 r16 f+16 r16 a4 f+4 d4 < g4. g+8 a+8 g+8 g2 V0 g4 V1 @40 W0,95,1 O2 Y.R Y.R r2 d+4 d2 ( Y.R d8 YL. d8 ) Y.R r2 d+4 f2 ( Y.R f8 YL. f8 ) Y.R r2 d+4 d2 ( Y.R d8 YL. d8 ) Y.R r2 d+4 f2.~ f4 YLR f4 ( f4 
