;036 001F3018
!1  T130 r16 @2 PX EPX O2 EX r32 D-1 Y.R V1 g16 g32 D0 YLR V3 b16. D-1 YL. V1 g16 g32 D0 YLR V3 b16. D-1 Y.R V1 g16 g16 f16 f32 > D0 YLR V3 d16. < D-1 YL. V1 f16 f32 > D0 YLR V3 d16. < D-1 Y.R V1 f16 f16 e16 e32 > D0 YLR V3 e16. < D-1 YL. V1 e16 e32 > D0 YLR V3 e16. < D-1 Y.R V1 e16 e16 f+16 f+32 > D0 YLR V3 f+16. < D-1 YL. V1 f+16 f+32 > D0 YLR V3 f+16. < D-1 Y.R V1 f+16 f+32 L [ r32 D-1 Y.R V1 g16 g32 D0 YLR V3 b16. D-1 YL. V1 g16 g32 D0 YLR V3 b16. D-1 Y.R V1 g16 g16 f16 f32 > D0 YLR V3 d16. < D-1 YL. V1 f16 f32 > D0 YLR V3 d16. < D-1 Y.R V1 f16 f16 e16 e32 > D0 YLR V3 e16. < D-1 YL. V1 e16 e32 > D0 YLR V3 e16. < D-1 Y.R V1 e16 e16 f+16 f+32 > D0 YLR V3 f+16. < D-1 YL. V1 f+16 f+32 > D0 YLR V3 f+16. < D-1 Y.R V1 f+16 f+32 ]16 
!2  @2 PX EPX r16 O2 V4 E100,50,20,3,10 g16 g16 > g16 < g16 g16 > g16 < g16 g16 f16 f16 > a+16 < f16 f16 > a+16 < f16 f16 e16 e16 > > c16 < < e16 e16 > > c16 < < e16 e16 f+16 f+16 > > d16 < < f+16 f+16 > > d16 < < f+16 f+16 L [ g16 g16 > g16 < g16 g16 > g16 < g16 g16 f16 f16 > a+16 < f16 f16 > a+16 < f16 f16 e16 e16 > > c16 < < e16 e16 > > c16 < < e16 e16 f+16 f+16 > > d16 < < f+16 f+16 > > d16 < < f+16 f+16 ]16 
!3  r16 `9F00 @A3 @B0 @~3 P20,12,12 V3 O0 g8 g8 r16 g8 r16 a+4. r8 > c8 c8 r16 c8 c+16 d4. r8 < L [ g8 g8 r16 g8 r16 a+4. r8 > c8 c8 r16 c8 c+16 d4. r8 < ]8 r1 r1 r1 r1 [ g8 g8 r16 g8 r16 a+4. r8 > c8 c8 r16 c8 c+16 d4. r8 < ]2 
!4  r16 L r1 r8 @9 x4 @10 x4 @11 x4. [ @8 x4. @6 x16 x16 [ @5 x16 @6 x16 x16 x16 ]2 [ @5 x16 @6 x16 x16 x16 ]3 @5 x16 @6 x16 @7 x8 [ @5 x16 @6 x16 x16 x16 ]7 @5 x16 @6 x16 @7 x8 ]2 @8 x4. @6 x16 x16 [ @5 x16 x16 @7 x8 ]2 [ @5 x16 @6 x16 @7 x8 ]3 @5 x16 @6 x16 x16 @7 x16 [ @5 x16 @6 x16 @7 x8 ]7 @5 x16 @6 x16 x16 @7 x16 @8 x4. @6 x16 x16 [ @5 x16 x16 @7 x8 ]2 [ @5 x16 @6 x16 @7 x8 ]3 @5 x16 @6 x16 x16 @7 x16 [ @5 x16 @6 x16 @7 x8 ]4 [ @1 x8 @7 x8 @1 x8 @5 x16 @7 x16 ]2 r1 r1 r1 r1 r1 r1 
!5  @1 V0 c32 c32 L O2 @41 V1 e4 e4 e4 e4 e4 e4 e4 e8 @31 c16 c16 [ V1 @41 e8 @32 < a+8 > @31 c8 @32 < V0 a+16 V1 a+16 > ]15 V1 @41 e8 @32 < a+8 > @31 c8 c16 c16 [ V1 @41 e8 @32 < a+8 > @31 c8 @32 < V0 a+16 V1 a+16 > ]14 @31 c8 c8 c8 V0 c16 c16 V1 c16 c16 c16 V0 c16 V1 c24 c24 c24 c24 c24 V0 c24 @40 W0,97,0 O1 V0 d1~ d1~ d1~ d1~ d1~ d1 
!6  r16 @41 O2 V0 e4 e4 e4 e4 e4 e8. L V0 O2 @31 c32 c32 V1 c16 c16 c16 V0 c16 V1 c8 @3 V1 d24 e24 f+24 @14 V1 g1 @3 r4. d16 e16 f8 r16 e8. d8 @14 < g1 r4. > @3 d16 e16 f8. g8. a8 @14 V1 g1 @3 r4. d16 e16 f8 r16 e8. d8 @14 < g1 > d2. @43 W0,97,0 O0 V0 g24 a24 a+24 b24 > c24 c+24 V1 d1 V0 d4 V1 a+4 a4 f4 d1 V0 d4 V1 g4 f4 g4 d1 V0 d4 > @43 W0,97,0 V1 d4 c8 V0 c+32 d32 d+32 e32 V1 f8. V0 e32 d+32 V1 d1 c1 @40 W0,97,0 O1 V0 g1~ g1~ g1~ g1~ g1~ g1~ g1~ g4~ g8 r16 
