;037 001F348C
!1  T85 L @@2,2,1 YLR O1 V5 E100,100,85,33,13 P26,18,2 [ [ b2. H> ]3 b2~ b8 _V-3 b8 _V3 H0 > ]2 H0 H-5 [ O1 Y.R V6 E50,100,100,33,0 g4 f+4 a4 g4 d+4 c+4 d4 f+4 a+4 a4 > c+4 c4 e4 d+4 < a4 g+4 > d4 c+4 < f4 f+4 d4 c+4 c4 < b4 ]2 H0 @@3,2,0 O1 EX P26,18,3 [ YLR [ [ b16 > d+16 < ]5 b8 H> ]2 H0 [ b16 > d+16 < ]5 b8 H> [ b16 > d+16 < ]4 H0 _V-2 Y.R c8 YL. c8 _V2 _3 ]2 H0 _0 
!2  L @@2,2,1 YLR O2 V8 E100,100,85,33,13 P26,18,3 [ [ g2. H> ]3 g2~ g8 _V-4 g8 _V4 H0 > P26,18,2 ]2 H0 [ O1 YL. V6 E50,100,100,33,0 g4 f+4 a4 g4 d+4 c+4 d4 f+4 a+4 a4 > c+4 c4 e4 d+4 < a4 g+4 > d4 c+4 < f4 f+4 d4 c+4 c4 < b4 ]2 V8 O2 E50,100,100,13,0 P26,18,3 [ YLR g2 _V-3 g8 _V3 g8 g+2 _V-3 g+8 _V3 g+8 g2 _V-3 g8 _V3 g8 g+2 _V-3 Y.R g+8 YL. g+8 _V3 H> H> H> ]2 H0 
!3  L `9F00 `AE00 @A3 V3 YLR O1 E100,100,80,26,13 [ g2.~ g2. ]4 [ @A3 V2 EX O1 g4 f+4 a4 g4 d+4 c+4 d4 f+4 a+4 a4 > c+4 c4 e4 d+4 < a4 g+4 > d4 c+4 < f4 f+4 d4 c+4 c4 < b4 ]2 O1 [ [ c+4 > c+4 < c+4 > c+4 < c+4 > c+4 < ]2 H> H> H> ]2 H0 
!4  L [ @5 x8 @6 x8 ]23 @7 [ x24 ]6 @8 x4 @6 [ x4 ]22 @7 [ x24 ]6 @8 x4 @6 [ x8 ]9 @1 x8 [ @1 x8 @6 [ x8 ]10 @1 x8 ]2 @1 x8 @6 [ x8 ]9 @7 [ x24 ]6 [ @8 x4 @6 [ x8 ]9 @1 x8 @1 x8 @6 [ x8 ]9 @7 [ x24 ]6 ]2 
!5  L @44 O1 V1 D1 r32 [ YLR g16 Y.R g16 > YLR d16 YL. d16 YLR g16 Y.R g16 YLR d16 YL. d16 YLR g16 Y.R g16 YLR d16 YL. d16 < ]7 YLR g16 Y.R g16 > YLR d16 YL. d16 YLR g16 Y.R g16 YLR d16 YL. d32 @4 O1 V1 YLR [ d24 ]6 [ YLR V1 g4 [ V0 Y.R g4 YL. g4 ]2 Y.R g4 YLR V1 g4 [ V0 Y.R g4 YL. g4 ]2 YLR V1 g8 g16 g16 YLR V1 g4 [ V0 Y.R g4 YL. g4 ]2 Y.R g4 YLR V1 g4 [ V0 Y.R g4 YL. g4 ]2 V1 YLR [ d24 ]6 ]2 O1 [ YLR V1 c+4 [ V0 Y.R c+4 YL. c+4 ]2 Y.R c+4 YLR V1 c+4 [ V0 Y.R c+4 YL. c+4 ]2 YLR V1 [ c+24 ]6 H> H> H> ]2 H0 
!6  L @44 O1 V1 [ YLR g16 Y.R g16 > YLR d16 YL. d16 YLR g16 Y.R g16 YLR d16 YL. d16 YLR g16 Y.R g16 YLR d16 YL. d16 < ]8 [ r2. ]8 @44 O1 V1 [ YLR g16 Y.R g16 > YLR c+16 YL. c+16 YLR f+16 Y.R f+16 YLR b16 YL. b16 YLR f+16 Y.R f+16 YLR c+16 YL. c+16 < ]8 @25 O1 [ V1 YLR b16 > d+16 < b16 > g16 < YL. V0 b16 > d+16 < b16 > g16 < Y.R b16 > d+16 < b16 > g16 < H> V1 YLR b16 > d+16 < b16 > g16 < YL. V0 b16 > d+16 < b16 > g16 < Y.R b16 > d+16 < b16 > g16 < H< ]2 H0 H3 @25 O1 [ V1 YLR b16 > d+16 < b16 > g16 < YL. V0 b16 > d+16 < b16 > g16 < Y.R b16 > d+16 < b16 > g16 < H> V1 YLR b16 > d+16 < b16 > g16 < YL. V0 b16 > d+16 < b16 > g16 < Y.R b16 > d+16 < b16 > g16 < H< ]2 H0 
