;038 001F38D8
!1  T135 _3 r4 L YLR @@1,2,0 EP-4,0,0,2,0 E80,100,70,3,20 P11,11,3 O2 V4 a+4. r8 a2 g2 a+2 f2 a+2 > c2 < b2 V4 a+4. r8 a2 g2 f2 g1~ g4 f+1~ f+8 V2 f+8 @2 E100,60,80,3,10 PX EPX [ O3 V6 YLR g24 Y.R V3 d24 > V6 YLR d24 < YL. V3 g24 > V6 YLR g24 Y.R V3 d24 < V6 YLR g24 YL. V3 > d24 V6 YLR d24 < Y.R V3 g24 > V6 YLR g24 YL. V3 d24 < V6 YLR g24 Y.R V3 > d24 V6 YLR d24 < YL. V3 g24 > V6 YLR g24 Y.R V3 d24 < V6 YLR g24 YL. V3 > d24 V6 YLR d24 < Y.R V3 g24 > V6 YLR g24 YL. V3 d24 < V6 YLR g24 Y.R V3 > d24 V6 YLR d24 < YL. V3 g24 > V6 YLR g24 Y.R V3 d24 < ]8 [ O3 V6 YLR g24 Y.R V3 > d24 V6 YLR d24 < YL. V3 g24 > V6 YLR g24 Y.R V3 d24 < V6 YLR g24 YL. V3 > d24 V6 YLR d24 < Y.R V3 g24 > V6 YLR g24 YL. V3 d24 < V6 YLR g24 Y.R V3 > d24 V6 YLR d24 < YL. V3 g24 > V6 YLR g24 Y.R V3 d24 < V6 YLR g24 YL. V3 > d24 V6 YLR d24 < Y.R V3 g24 > V6 YLR g24 YL. V3 d24 < V6 YLR g24 Y.R V3 > d24 V6 YLR d24 < YL. V3 g24 > V6 YLR g24 Y.R V3 d24 < ]8 [ O4 V6 YLR c24 Y.R V3 < g24 > V6 YLR g24 YL. V3 c24 V6 YLR > c24 Y.R V3 < g24 O4 V6 YLR c24 YL. V3 < g24 > V6 YLR g24 Y.R V3 c24 V6 YLR > c24 YL. V3 < g24 O4 V6 YLR c24 Y.R V3 < g24 > V6 YLR g24 YL. V3 c24 V6 YLR > c24 Y.R V3 < g24 O4 V6 YLR c24 YL. V3 < g24 > V6 YLR g24 Y.R V3 c24 V6 YLR > c24 YL. V3 < g24 O4 V6 YLR c24 Y.R V3 < g24 > V6 YLR g24 YL. V3 c24 V6 YLR > c24 Y.R V3 < g24 ]2 
!2  _3 r4 L @@1,2,0 EP-4,0,0,2,0 E80,100,70,3,20 P11,11,3 O3 V6 d+4. r8 c2 < a+2 > d2 < g+2 > d+2 d1 V6 d+4. r8 c2 < a+2 a+2 a1~ a4~ a1~ a8 V3 a8 B3 @@2,3,1 E70,100,70,5,20 P11,11,3 V6 O2 d1~ d8 V2 d8~ V6 g1~ g8 V2 g8~ V6 f1~ f8 V2 f8 >~ V6 c1~ c8 V2 c8~ V6 d1~ d8 V2 d8 <~ V6 a+1~ a+8 V2 a+8~ V6 f1~ f8 V2 f8~ V6 c2~ c8 V2 c8 d+2~ V6 O2 d1~ d8 V2 d8~ V6 g1~ g8 V2 g8~ V6 f1~ f8 V2 f8 >~ V6 c1~ c8 V2 c8~ V6 d1~ d8 V2 d8~ V6 d+1~ d+8 V2 d+8~ V6 f1~ f8 V2 f8~ V6 f+1~ f+8 V2 f+8~ V6 g1~ g4 g1~ g8 V2 g8 
!3  _3 `9F00 `AE00 @A1 @B3 @~3 V3 O0 c+16 e16 f16 f+16 L a+8 r8 a+24. r48 [ a+24 r24 ]2 a8 r8 a24. r48 [ a24 r24 ]2 g8 r8 g24. r48 [ g24 r24 ]2 [ f24. r48 [ f24 r24 ]2 ]2 g+8 r8 g+24. r48 [ g+24 r24 ]2 a+8. r16 a+24. r48 [ a+24 r24 ]2 > c8 r8 c24. r48 [ c24 r24 ]2 < [ b24. r48 [ b24 r24 ]2 ]2 a+8 r8 a+24. r48 [ a+24 r24 ]2 a8. r16 a24. r48 [ a24 r24 ]2 g8 r8 g24. r48 [ g24 r24 ]2 [ f24. r48 [ f24 r24 ]2 ]2 g8 r8 g24. r48 [ g24 r24 ]2 g8 r8 g16. r32 g16 r16 g8 r8 f+8 r8 f+24. r48 [ f+24 r24 ]2 f+8 r8 f+16. r32 f+16 r16 f+8 r8 [ g8 r8 g24. r48 [ g24 r24 ]2 g8 r8 g16. r32 g16 r16 g8 r8 ]7 g8 r8 g24. r48 [ g24 r24 ]2 g8 r8 g+8 @~X @A3 d+8 f8 f+8 @A1 @B3 @~3 [ g8 r8 g24. r48 [ g24 r24 ]2 g8 r8 g16. r32 g16 r16 g8 r8 ]5 g+8 r8 g+24. r48 [ g+24 r24 ]2 g+8 r8 g+16. r32 g+16 r16 g+8 r8 f8 r8 f24. r48 [ f24 r24 ]2 f8 r8 f16. r32 f16 r16 f8. r16 f+8 r8 f+24. r48 [ f+24 r24 ]2 f+8 r8 f+8~ g8~ b4 > [ c8 r8 c24. r48 [ c24 r24 ]2 c8 r8 c16. r32 c16 r16 c8. r16 ]2 O0 
!4  @7 r8 x8 L @8 x4 [ @1 x8 @5 x8 ]3 [ [ @1 x8 @5 x8 ]4 ]3 @8 x4 [ @1 x8 @5 x8 ]3 [ @1 x8 @5 x8 ]4 Y.R [ @8 x4 YLR @3 x12 x12 @4 x12 @3 x8 @2 x8 @3 x8 x8 x8 @2 x8 YL. ]2 YLR Y.R @8 x4 YLR @1 x12 @5 x12 x12 @1 x8 @5 x8 @1 x8 @5 x8 @1 x8 @5 x8 @1 x8 @5 x8 @1 x12 @5 x12 x12 @1 x8 @5 x8 @1 x8 @5 x8 @1 x8 @5 x8 [ [ @1 x8 @5 x8 @1 x12 @5 x12 x12 @1 x8 @5 x8 @1 x8 @5 x8 @1 x8 @5 x8 ]2 ]3 YL. @8 x4 YLR @1 x12 @5 x12 x12 @1 x8 @5 x8 @1 x8 @5 x8 @1 x8 @5 x8 @1 x8 @5 x8 @1 x12 @5 x12 x12 @1 x8 @5 x8 @1 x8 @5 x8 @1 x8 @5 x8 [ [ @1 x8 @5 x8 ]10 ]3 Y.R [ @8 x4 YLR @3 x12 x12 @4 x12 @3 x8 @2 x8 @3 x8 x8 x8 @2 x8 YL. ]2 YLR 
!5  @1 V1 c16 V0 c16 c16 V1 @1 c32 c32 L YLR H0 _3 @8 O1 V1 YLR g6 V0 Y.R g12 _0 O2 YLR @24 c12 c12 V0 c12 [ V1 c4 c12 c12 V0 c12 ]2 V1 c12 c12 c12 c12 V0 c12 V1 c12 [ @0 c4 @24 c12 c12 V0 c12 [ V1 c4 c12 c12 V0 c12 ]2 V1 c12 c12 c12 c12 V0 c12 V1 c12 ]2 H3 @8 O1 V1 YLR a6 V0 Y.R a12 V1 YLR a12 a12 a12 YLR a6 V0 YL. a12 V1 YLR a8 a8 YLR a6 V0 Y.R a12 @8 O1 V1 YLR a6 V0 YL. a12 V1 YLR a12 a12 a12 YLR a6 V0 Y.R a12 V1 YLR a8 a8 YLR a6 V0 YL. a12 H0 H3 @8 O1 V1 YLR g6 V0 Y.R g12 H0 @0 c4 @24 YLR O2 V1 c4 @0 c8 c8 @24 c4 [ @0 c4 c4 @24 YLR O2 V1 c4 @0 c8 c8 @24 c4 ]6 @0 c4 c4 @24 YLR O2 V1 c4 @0 c8 c8 @24 c8 V0 c16 V1 c16 H3 @8 O1 V1 YLR g6 V0 YL. g12 H0 @0 c4 @24 YLR O2 V1 c4 @0 c8 c8 @24 c4 [ @0 c4 c4 @24 YLR O2 V1 c4 @0 c8 c8 @24 c4 ]6 @24 V1 c4 c12 c12 c12 @24 c8 V0 @0 c8 @24 V1 c8 V0 c8 V1 c16 V0 c16 c16 V1 c16 H3 @8 O2 V1 YLR c6 V0 Y.R c12 V1 YLR c12 c12 c12 YLR c6 V0 YL. c12 V1 YLR c8 c8 YLR c6 V0 Y.R c12 @8 O2 V1 YLR c6 V0 YL. c12 V1 YLR c12 c12 c12 YLR c6 V0 Y.R c12 V1 YLR c8 c8 YLR c6 V0 YL. c12 
!6  B3 _3 @8 O1 V1 c+16~ V0 e16~ f16~ f+16 @57 W0,98,47 O2 V1 L g4 f8 d+8 f4 c8 d8 d+4 f8 g8 f4 < a+8 > c8 d4 d+8 f8 g4 d+8 f8 g2. V0 g4 V1 g4 f8 d+8 f4 c8 d8 d+4 d8 c8 d4 < a+8 > c8 d1~ d4~ d2.~ d8 V0 d8 @8 O1 V1 c+16~ V0 e16~ f16~ f+16 @59 W0,59,0 O1 YLR V1 P10,11,3 g1~ g4 >~ V1 d1~ d4 <~ a+1~ a+4 >~ f1~ f4~ g1~ g4~ d+1~ d+4 <~ a+1~ a+4~ f2.~ g+2 g1~ g4 >~ V1 d1~ d4 <~ a+1~ a+4 >~ f1~ f4~ g1~ g4~ g+1~ g+4~ a+1~ a+4~ b1~ b4~ > c2.~ c2~ c2.~ c4 @57 W0,98,47 O2 V1 c16 V0 d16 d+16 f16 V1 
