;040 001F438E
!1  T170 r8 H-3 E90,100,70,1,6 @@1,2,0 EP-8,0,0,1,3 P13,12,5 V6 O3 < _V-4 a+24 @0 EPX b24~ > ) c24~ c+24~ d24~ d+24 _V3 @@1,2,0 EP-8,0,0,1,3 e16 e8 e16~ > g8 < e8 _V-4 > g8 E100,50,20,2,15 @@0,0,3 O3 V6 EPX PX a8 _V-4 a8 r8 B1 EX @2 V6 O2 r24 D-1 Y.R [ a16 >~ YL. a8 < Y.R ]2 YL.~ a16 >~ Y.R a8 
!2  r8 H-3 E90,100,70,1,6 @@1,2,0 EP-8,0,0,1,3 P13,12,5 V8 O3 _V-4 d+24 @0 EPX e24~ ) f24~ f+24~ g24~ g+24 _V3 @@1,2,0 EP-8,0,0,1,3 a16 a8 a16~ > c8 < a8 _V-6 > c8 E100,50,20,2,15 @@0,0,3 EPX O3 V8 PX d16 d+16 d16 c16 < a16 g16 B1 EX @2 V8 O2 EPX Y.R [ a16 >~ YL. a8 < Y.R ]2 YL.~ a16 >~ Y.R a8 r24 
!3  V3 O1 H-3 `9F00 `AE00 E100,70,70,4,0 B1 @A3 O1 V3 r4. V2 a16 V3 a16 V1 a16 V2 a16 [ V3 a16 V1 a16 ]2 r8 V2 > E100,100,20,18,15 EP0,0,-30,8,22 g4. EPX E100,70,70,4,0 < V3 a16 V2 a16 V1 a16 V3 g16 V2 g16 V1 g16 V2 a16 V3 a8 
!4  r8 @8 x4 r8 @6 x4 x8 @7 x4 @6 x8 x8 x8 x8 x8 x16 @8 x4. 
!5  V1 @2 Y.R d+24 YLR c24 YL. < g+24 > YLR @0 c4 @1 c16 c16 V0 c16 V1 c16 c16 V0 c16 V1 c16 < @2 YL. V0 g+16 V1 f8 > YLR @1 V0 c24 c24 c24 V1 c16 YL. @2 d+16 YLR c16 YL. < g+16 YLR > @1 V1 c16 V0 c16 c16 V1 c16 V0 c16 c16 V1 c16 @0 c8 
!6  r4. H-3 @14 O1 V0 a16 V1 a8 V0 a16 > V1 c8 < a8 V0 a8 O2 @7 Y.R d16 d+16 d16 YL. c16 < a16 g16 YLR @8 V0 a16 V1 a16 Y.R V0 a16 V0 YLR a16 V1 a16 V0 YL. a16 YLR V0 a16 V1 a8 
