;042 001F483E
!1  T168 L V5 O3 @2 E100,0,0,13,13 D1 [ YL. b16 Y.R b16 YL. g16 Y.R g16 YL. e16 Y.R e16 ]2 YL. b16 Y.R b16 YL. g16 Y.R g16 [ YL. a16 Y.R a16 YL. f+16 Y.R f+16 YL. d16 Y.R d16 ]2 YL. a16 Y.R a16 YL. f+16 Y.R f+16 [ YL. g16 Y.R g16 YL. e16 Y.R e16 YL. c16 Y.R c16 ]2 YL. g16 Y.R g16 YL. e16 Y.R e16 YL. g16 Y.R g16 YL. f+16 Y.R f+16 YL. e16 Y.R e16 YL. f+16 Y.R f+16 YL. e16 Y.R e16 YL. d+16 Y.R d+16 YL. c+16 Y.R c+16 YL. d+16 Y.R d+16 V7 D0 [ YL. b16 Y.R b16 YL. g16 Y.R g16 YL. e16 Y.R e16 ]2 YL. b16 Y.R b16 YL. g16 Y.R g16 [ YL. a16 Y.R a16 YL. f+16 Y.R f+16 YL. d16 Y.R d16 ]2 YL. a16 Y.R a16 YL. f+16 Y.R f+16 [ YL. g16 Y.R g16 YL. e16 Y.R e16 YL. c16 Y.R c16 ]2 YL. g16 Y.R g16 YL. V9 O3 Y.R @@1,0,3 E95,100,80,3,39 P20,10,1 a8~ a1~ a4. _V-4 a8 _V4 O3 @0 V7 EX D2 r32 [ YLR g32 Y.R _V-3 g32 _V3 YLR f+32 Y.R _V-3 YLR f+32 Y.R _V3 YLR d32 Y.R _V-3 d32 _V3 < YLR a32 _V-3 a32 _V3 ]2 O2 V4 YL. @@2,2,1 E100,90,60,13,33 P10,12,2 D1 r32 r4 < b4 > d8 g8 _V-2 g8 _V2 a8~ a4 e8 _V-2 e8 _V2 e4 f+4 g4. _V-2 g8 _V2 g8 a8 g8 b8~ b2 _V-2 b4 _V2 r4 r4 g8 _V-2 g8 _V2 g4 b4 a4 e8 _V-2 e8 _V2 e4 f+4 g4. f+4 g8 a4~ a4 _V-2 a16 _V2 O3 V8 Y.R @@1,3,2 E100,80,60,20,33 P10,13,2 D0 d4 c8 < b8 a8 b8 _V-4 b8 _V4 g8 _V-4 g8 _V4 b8 > e8 _V-4 e8 _V4 d8~ d4 _V-4 d8 _V4 d4 c8 < b8 a8 f+8 _V-4 f+8 _V4 d8 _V-4 d8 _V4 f+8 > d8 _V-4 d8 _V4 < b8~ b4. _V-4 b8 _V4 g4 a4 b4. _V-4 b8 _V4 g8 g8 b8 > d8~ d4. _V-4 d8 _V4 < b4 > d4 d+4. _V-4 d+8 _V4 < g8 a+8 > d+8 d8~ d8 d8 c8 _V-4 c8 _V4 < a+8 _V-4 a+8 _V4 > c8 _V-4 c8 _V4 O2 V8 YL. @@2,2,1 E100,90,60,13,33 P13,12,2 a+2. _V-4 a+8 _V4 @2 E100,0,0,10,0 ( > a+16 > d16 g16 _V-3 [ g16 ( ]3 _V6 < < ) @@2,2,1 E100,90,60,13,33 > d4 < a+4 g4 a+4. a8 a2~ a4 _V-4 a4 _V4 f4 g4 a2. _V-4 a8 _V4 @2 E100,0,0,10,0 ( > a16 > c16 f16 _V-3 [ f16 ( ]3 _V6 < < ) @@2,2,1 E100,90,60,13,33 > c4 < a4 f4 g4. g4 a8 b4 @3 E80,100,60,6,33 _V-2 > d8 < b8 g8 d8 < b8 g8 d8 _V2 D1 O2 V5 YL. @@2,2,1 E100,90,60,13,33 P13,12,2 a8 g8~ g4 _V-2 g8 _V2 r8 d+8 g8 > d8 c8~ c4. _V-2 c8 _V2 O2 V5 Y.R @@1,3,2 E100,80,60,20,33 P13,13,2 r8 a8 g8 f8~ f4 _V-2 f8 _V2 r8 f8 a8 > c8 d+8~ d+8 d4 c4 d4 < a+8~ a+1 _V-2 a+8 _V2 O2 V8 YL. @@2,2,1 E100,90,60,13,33 P13,12,2 D0 e4 a+8. a8. g8 g4. a8 a4. _V-4 a8 _V4 Y.R > c4. d8 d4. _V-4 d8 _V4 O3 V7 Y.R @@1,3,2 E100,80,60,20,33 P13,13,2 r4 [ b8 _V-4 b8 _V4 ]2 b4 a4 b8 a4 f+4. g4. _V-4 g8 _V4 g8 a8 b8 b8~ b8 f+8 f+2 _V-4 f+4 _V4 O3 V7 YL. @@2,2,1 E100,90,60,13,33 P10,12,2 r4 [ e8 _V-4 e8 _V4 ]2 e4 d4 e8 f+8 _V-4 f+8 _V4 a8 _V-4 a8 _V4 g8~ g4. _V-4 g8 _V4 g8 e8 g8 g8~ g8 f+8 f+2 _V-4 f+4 _V4 O3 V7 Y.R @@1,3,2 E100,80,60,20,33 P10,13,2 r4 [ b8 _V-4 b8 _V4 ]2 b4 a4 b8 a4 f+4. g4. _V-4 g8 _V4 g8 a8 b8 b8~ b8 f+8 f+4. _V-4 f+8 _V4 O3 V5 YL. @@2,2,1 E100,90,60,13,33 P10,12,2 D1 r16 c8 < b8 a8 _V-2 a8 _V2 > c8 _V-2 c8 _V2 e8 g8 _V-2 g8 _V2 f+8~ f+4 _V-2 f+8 _V2 O3 V5 Y.R @@1,3,2 E100,80,60,20,33 P10,13,2 f+4 e8 d8 c8 < b8 _V-2 b8 _V2 > d8 _V-2 d8 _V2 f+8 a8 _V-2 a8 _V2 a8~ a8 g8 f+8 g4 _V-2 g16 _V2 O3 V8 Y.R @@2,2,1 E100,90,60,13,33 P10,12,2 D0 c8 d8 e8 c8 e8 f+4 d8 f+8 YL. g8~ g8 e8 g8 a4 f+8 a8 YLR _V-3 > c8~ c1~ c2. _V-4 c4 _V7 
!2  L V6 O3 @1 E80,100,60,6,26 P10,10,1 [ g16 _V-3 g16 _V3 e16 _V-3 e16 _V3 < b16 _V-3 b16 _V3 > ]2 g16 _V-3 g16 _V3 e16 _V-3 e16 _V3 [ f+16 _V-3 f+16 _V3 d16 _V-3 d16 _V3 < a16 _V-3 a16 _V3 > ]2 f+16 _V-3 f+16 _V3 d16 _V-3 d16 _V3 [ e16 _V-3 e16 _V3 c16 _V-3 c16 _V3 < g16 _V-3 g16 _V3 > ]2 e16 _V-3 e16 _V3 c16 _V-3 c16 _V3 e16 _V-3 e16 _V3 d+16 _V-3 d+16 _V3 c+16 _V-3 c+16 _V3 d+16 _V-3 d+16 _V3 < b16 _V-3 b16 _V3 > d+16 _V-3 d+16 _V3 f+16 _V-3 f+16 _V3 b16 _V-3 b16 _V3 V9 O2 YLR @@1,0,3 E95,100,80,3,39 P20,10,1 r4 b8 _V-3 b8 _V3 > e8 _V-3 e8 _V3 b8 _V-3 b8 _V3 a4 f+8 d8~ d4 e8 f+8 g4 _V-4 g4 _V4 g8 a8 g8 > d8~ d1~ d4. _V-4 d8 _V4 O3 V7 @0 EX [ YLR g32 YL. _V-3 g32 _V3 YLR f+32 YL. _V-3 YLR f+32 YL. _V3 YLR d32 YL. _V-3 d32 _V3 < YLR a32 YL. _V-3 a32 _V3 ]2 O2 V9 YLR @@2,2,1 E100,90,60,13,33 P10,12,2 r4 < b4 > d8 g8 _V-4 g8 _V4 a8~ a4 e8 _V-4 e8 _V4 e4 f+4 g4. _V-4 g8 _V4 g8 a8 g8 b8~ b2 _V-4 b4 _V4 r4 r4 g8 _V-4 g8 _V4 g4 b4 a4 e8 _V-4 e8 _V4 e4 f+4 g4. f+4 g8 a4~ a4 _V-4 a8 _V4 b4 a8 g8 f+8 g8 _V-4 g8 _V4 e8 _V-4 e8 _V4 g8 b8 _V-4 b8 _V4 a8~ a4 _V-4 a8 _V4 a4 g8 f+8 e8 d8 _V-4 d8 _V4 < b8 _V-4 b8 _V4 > d8 a8 _V-4 a8 _V4 g8~ g4. _V-4 g8 _V4 e4 f+4 g4. _V-4 g8 _V4 e8 e8 g8 a8~ a4. _V-4 a8 _V4 f+4 a4 a+4. _V-4 a+8 _V4 d+8 g8 a+8 a8~ a8 a8 f8 _V-4 f8 _V4 g8 _V-4 g8 _V4 a8 _V-4 a8 _V4 O3 V9 YLR @@1,3,2 E100,80,60,20,33 P10,13,2 d1 _V-4 d4 _V4 g4 d4 < a+4 > d4. c8 c2~ c4 _V-4 c4 _V4 < a4 a+4 > c1 _V-4 c4 _V4 f4 c4 < a4 > c4. < b4 > c8 d4~ d4. _V-4 d8 _V4 O2 V9 YLR @@2,2,1 E100,90,60,13,33 P10,12,2 r8 a+8 a8 g8~ g4 _V-4 g8 _V4 r8 d+8 g8 > d8 c8~ c4. _V-4 c8 _V4 O2 V9 YLR @@1,3,2 E100,80,60,20,33 P10,13,2 r8 a8 g8 f8~ f4 _V-4 f8 _V4 r8 f8 a8 > c8 d+8~ d+8 d4 c4 d4 < a+8~ a+1 _V-4 a+4 _V4 g4 > d8. c8. < a+8 a+4. > c8 c4. _V-4 c8 _V4 g4. a8 a4. _V-4 a8 _V4 O3 V8 YLR @@2,2,1 E100,90,60,13,33 P10,12,2 r4 [ g8 _V-4 g8 _V4 ]2 g4 f+4 g8 f+4 d4. e4. _V-4 e8 _V4 e8 f+8 g8 g8~ g8 d8 d2 _V-4 d4 _V4 O3 V8 YLR @@1,3,2 E100,80,60,20,33 P10,13,2 r4 [ g8 _V-4 g8 _V4 ]2 g4 f+4 g8 a8 _V-4 a8 _V4 > d8 _V-4 d8 _V4 < b8~ b4. _V-4 b8 _V4 b8 g8 b8 b8~ b8 a8 a2 _V-4 a4 _V4 O3 V8 YLR @@2,2,1 E100,90,60,13,33 P10,12,2 r4 [ g8 _V-4 g8 _V4 ]2 g4 f+4 g8 f+4 d4. e4. _V-4 e8 _V4 e8 f+8 g8 g8~ g8 d8 d4. _V-4 d8 _V4 c8 < b8 a8 _V-4 a8 _V4 > c8 _V-4 c8 _V4 e8 g8 _V-4 g8 _V4 f+8~ f+4 _V-4 f+8 _V4 O3 V8 YLR @@1,3,2 E100,80,60,20,33 P10,13,2 f+4 e8 d8 c8 < b8 _V-4 b8 _V4 > d8 _V-4 d8 _V4 f+8 a8 _V-4 a8 _V4 a8~ a8 g8 f+8 g4 _V-4 g8 _V4 O3 V9 YLR @@2,2,1 E100,90,60,13,33 P10,12,2 e8 f+8 g8 e8 g8 a4 f+8 a8 b8~ b8 g8 b8 > d4 < b8 > d8 e8~ e1~ e2. _V-4 e4 _V4 
!3  V3 L O2 @A2 @~X e4 ( e8 ) c2 ( c8 ) d4 ( d8 ) < b2 ( b8 ) > c4 ( c8 ) < a2 ( a8 ) b4 ( b8 ) > d+2 ( d+8 ) O0 `9F00 @A3 @B0 @~3 e8 g8 b8 > c4 < b8 > c8 c+8 d8 < a8 > d8 < b4 b8 a8 b8 > c8 < b8 > c8 < a4 a8 > c8 d8~ d1~ d1 < [ g8 ]7 g4 [ g8 ]7 [ g8 ]7 g4 g8 > g8 < g8 > g8 f+8 ( f+8 ) e8~ e8 [ e8 ]4 < e8 g8 b8 [ a8 ]5 b8 > c8 c+8 [ d8 ]5 f+8 a8 > d4 d8 < [ d8 ]5 c+8 [ c8 ]6 c+8 d4 [ d8 ]6 c8 < [ b8 ]5 > d8 d+8 e4 [ e8 ]4 d8 c8 < b8 [ a8 ]7 b4 [ b8 ]7 > [ c8 ]7 f4 [ f8 ]4 ( f8 ) e8 ( e8 ) d+4 ( d+8 ) d+2 < a+8 > d+8 d+8 ( d+8 ) d+4. d+8 < a+8 > d+4 ( d+8 ) d+2 < a+8 > d+8 d+8 ( d+8 ) d+4. d+8 c8 d4 ( d8 ) d2 < a8 > d8 d8 ( d8 ) d4 d8 e8 f+8 g4 ( g8 ) g2 d8 < g8 g8 b8 g8 > d8 < g8 g8 > c8~ c8 c8 d+8 c8 g8 c8 d+8 f4 f8 d+8 d+8 d8 d8 c8 d8~ d8 d8 f8 d8 d8 f8 a8 g4 g8 g8 f4 f8 f8 d+8~ d+8 [ d+8 ]4 < g8 a+8 > d+8 [ e8 ]5 c8 d8 e8 [ f8 ]6 d+8 d+8 d8 < a8 > d8 < a8 > d8 d8 e8 f+8 [ g8 ]8 [ f+8 ]8 [ e8 ]7 d4 [ d8 ]4 < b8 > d8 c4 [ c8 ]7 < [ b8 ]7 a4 a8 b8 a8 a8 b8 > c8 d4 d8 < a8 > d8 < b8 > d8 ( d8 ) e8~ e8 [ e8 ]7 [ d8 ]8 [ c8 ]7 < b4 [ b8 ]7 a4 ( a8 ) a8 a8 b8 > c8 d4 d8 < a8 > d4 d8 c8 c8 < b4 ( b8 ) b8 b8 > d8 d+8 e4 e8 < b8 > e4 d8 c8 < b8 a8 a8 a8 b4 b8 b8 > c4 c8 c8 d4 d8 d8 f8~ f1~ f1 
!4  L @5 [ r4 x4 ]6 r4 @5 x8 @7 x8 @11 x2 @8 x4 @5 [ x8 ]6 @5 [ x8 ]8 [ x8 ]7 @7 x4 @5 [ x8 ]7 x8 @7 x8 @5 x8 x8 x4 x4 @8 x8 @5 [ x8 ]6 @7 x8 @5 [ x8 ]8 [ x8 ]8 [ x8 ]4 x4 x8 @8 x8~ x8 @5 [ x8 ]6 @7 x8 @5 [ x8 ]8 [ x8 ]7 @8 x8~ x8 @5 x8 x8 @7 x8 @5 x4 x4 @8 x8 @5 [ x8 ]6 @7 x8 @5 [ x8 ]8 [ x8 ]7 @7 x8 @5 [ x8 ]8 @8 x8 @5 [ x8 ]6 @7 x8 @5 [ x8 ]8 @8 x8 @5 [ x8 ]6 @7 x8 @5 [ x8 ]5 @7 x8 @5 x4 @8 x4 [ @7 x8 @6 x8 ]3 [ [ @7 x8 @6 x8 ]4 ]6 [ @7 x8 @6 x8 ]2 @5 x4 x8 @8 x8~ x8 @5 [ x8 ]7 [ x8 ]7 @7 x8 @5 [ x8 ]8 [ x8 ]7 @8 x8~ x8 @5 [ x8 ]7 [ x8 ]8 @8 x4 @5 [ x8 ]6 @8 x2 @5 x4 x4 @8 x4 @5 [ x8 ]6 @5 [ x8 ]8 @5 [ x8 ]7 @7 x8 @5 [ x8 ]7 @8 x8~ x8 @5 [ x8 ]7 @5 [ x8 ]7 @7 x8 @5 [ x8 ]7 @8 x8~ x8 @5 x8 @7 x8 @5 x8 x8 @7 x8 @5 x8 @8 x8~ x8 @5 [ x8 ]7 @5 [ x8 ]8 @5 [ x8 ]7 @7 x8 @5 [ x8 ]6 x4 @8 x4 [ @7 x8 @6 x8 ]3 [ [ @7 x8 @6 x8 ]4 ]2 [ @7 x8 @6 x8 ]2 @7 x8 x8 @5 x4 @8 x4 @5 x8 [ @8 x4 @5 x8 x8 ]3 @8 x8~ x8 @5 [ x8 ]7 [ x8 ]4 x4 x4 
!5  V1 O1 L [ @0 x4. x8 r2 ]3 @0 x4. x8 r8 @24 x16 x16 @2 Y.R g16 g16 YL. d8 YLR @0 x4 @24 x8 @0 x4 x8 @24 x4 @0 x4 @24 x8 @0 x4 x8 @24 x8 @0 x8 @0 x4 @24 x8 @0 x4 @24 x8 x8 @0 x8 r4 @0 [ x4 ]3 @0 x8. @24 x16 x8 @2 Y.R g8 YLR @24 x8 @2 YL. d8 YLR @24 x16 x16 @2 d8 @0 x4 @24 x4 @0 x8 x8 @24 x8 @0 x8 r8 x8 @24 x4 @0 x8 x8 @24 x4 @0 x4 @24 x4 @0 x8 x8 @24 x8 @0 x8 r8 x8 @24 x8 @0 x8 @24 x8 x8 @0 x8 x8 r4 @24 x4 @0 x8 x8 @24 x8 @0 x8 r8 x8 @24 x4 @0 x8 x8 @24 x4 @0 x4 @24 x4 @0 x8 x8 @24 x8 @0 x8 r8 @0 x16 @24 x16 x8 @0 x8 x8 @24 x8 x8 x16 x16 [ @0 x4 @24 x4 @0 x8 x8 @24 x8 @0 x8 r8 x8 @24 x4 @0 x8 x8 @24 x4 ]3 @0 x4 @24 x4 @0 x8 x8 @24 x8 @0 x8 r8 x8 @24 x8 @0 x8 @24 x8 @2 Y.R b8 YLR g8 YL. d8 YLR @0 x4. x4. @24 x8 @0 x8 x8 x4 x4. @24 x8 @0 x8 @0 x4. x4. @24 x8 @0 x8 x8 x4 x4. @24 x4 @0 x4. x4. @24 x8 @0 x8 x8 x4 x4. @24 x8 @0 x8 @0 x4. x4. @24 x8 @0 x8 [ @24 x8 @0 x8 ]2 @24 x8 @2 Y.R b16 YLR g16 YL. d8 YLR @0 x8 r4 @24 x4 @0 x8 x8 @24 x8 @0 x8 r8 x8 @24 x4 @0 x8 x8 @24 x8 @0 x8 r4 @24 x4 @0 x8 x8 @24 x8 @0 x8 r8 x8 @24 x8 @0 x4 x8 @24 x8 @0 x8 r4 @24 x4 @0 x8 x8 @24 x4 @0 x4 @24 x4 @0 x8 x8 @24 x4 @0 x4 @24 x4 @0 x8 x8 @24 x8 @0 x8 @24 x8 @0 x8 @24 x16 @0 x8 x16 @24 x8 x8 [ x16 ]4 [ @0 x4 @24 x4 @0 x8 x8 @24 x4 ]2 @0 x4 @24 x4 @0 x8 x8 @24 x8 @0 x8 r8 x8 @24 x4 @0 x8 x8 @24 x8 @0 x8 r4 @24 x4 @0 x8 x8 @24 x8 @0 x8 r8 x8 @24 x4 @0 x8 x8 @24 x8 @0 x8 r4 @24 x4 @0 x8 x8 @24 x8 @0 x8 r8 x8 @24 x4 x8 x8 @0 x8 x8 r4 @24 x4 @0 x8 x8 @24 x4 @0 x4 @24 x4 @0 x8 x8 @24 x4 @0 x4 @24 x4 @0 x8 x8 @24 x8 @0 x8 r8 x8 @24 x4 @0 x8 @24 x8 @2 Y.R g8 YL. d8 YLR @0 x4. x8 @24 x4. @0 x8 r8 x4 x8 @24 x4 @0 x4 @0 x4. x8 @24 x4. @0 x8 r8 x8 [ @24 x8 @0 x8 ]2 @24 x16 x16 @2 d8 @0 x4 @24 x8 @0 x4 x8 @24 x8 @0 x8 r8 x8 @24 x8 @0 x4 x8 @24 x8 @0 x8 r4 @0 x4 x4 @24 x4 @0 x4 @24 x8 @0 x8 @24 x8. @2 Y.R g8. YL. d8 YLR 
!6  L O0 V1 @47 W0,100,50 YLR b8 Y.R b8 YL. b8 YLR b4 Y.R b8 YL. b8 Y.R ( b8 ) YLR a8 Y.R a8 YL. a8 YLR a4 Y.R a8 YL. a8 Y.R ( a8 ) YLR g8 Y.R g8 YL. g8 YLR g4 Y.R g8 YL. g8 Y.R ( g8 ) YLR b8 Y.R b8 YL. b8 YLR f+4 Y.R f+8 YL. f+8 Y.R ( f+8 ) O2 @61 W0,100,33 YL. e8 Y.R [ e16 ( e16 ) ]2 YL. c4 Y.R [ c16 ( c16 ) ]3 YL. d8 Y.R [ d16 ( d16 ) ]2 < YL. b4 Y.R [ b16 ( b16 ) ]3 > YL. c8 Y.R [ c16 ( c16 ) ]2 < YL. a4 Y.R [ a16 ( a16 ) ]2 > YL. d8~ d1~ d2. ( d4 ) O1 ( @19 W0,100,0 [ YL. b8 Y.R b8 ]3 YL. b8 @20 W0,100,0 Y.R a8 [ YL. a8 Y.R a8 ]4 > [ YL. c8 Y.R c8 ]3 YL. c8 < @19 W0,100,0 Y.R b8 [ YL. b8 Y.R b8 ]2 ) O2 YLR @14 g8 f+8 r8 e4 O1 ( @19 W0,100,0 Y.R b8 [ YL. b8 Y.R b8 ]3 > [ YL. c+8 Y.R c+8 ]4 @20 W0,100,0 [ YL. c8 Y.R c8 ]3 YL. c8 Y.R d8 [ YL. d8 Y.R d8 ]4 ) O0 @40 W0,100,0 YL. r4 g4 > c4 e8 f+8~ f+2 d4 c4 < b2 > f+4. e8~ e2 d4 < b4 > c2 c8 d8 e8 f+8~ f+2 d2 c2 c8 d8 d+8 f8~ f8 ( f8 ) < a4 a+4 > c4 O3 @44 [ Y.R d16 YL. d16 < Y.R a+16 YL. a+16 Y.R g16 YL. g16 Y.R d+16 YL. d+16 > ]4 [ Y.R c16 YL. c16 < Y.R a16 YL. a16 Y.R f16 YL. f16 Y.R c16 YL. c16 > ]4 [ Y.R c16 YL. c16 < Y.R a16 YL. a16 Y.R f16 YL. f16 Y.R d16 YL. d16 > ]4 Y.R c16 YL. c16 < Y.R g16 YL. g16 Y.R f16 YL. f16 Y.R d16 YL. d16 Y.R b16 YL. b16 Y.R g16 YL. g16 Y.R f16 YL. f16 Y.R d16 YL. d16 O2 @43 W0,100,0 Y.R g8 d8 < b8 g8 d8 < b8 g8 r8 r4 c4 d+4 g8 a+8~ a+2 > c4 ( c4 ) < YL. r4 d4 f4 a8 g8~ g4. f8~ f2 O1 @57 W0,98,47 ( YL. r8 g16 a+16 > d+16 r16 < a+16 > d+16 g2 < Y.R r8 g16 > c16 e16 r16 c16 e16 g2 ) O0 @43 W0,100,0 Y.R f16 a16 > c16 f16 a16 > c16 f16 a16 > c16 < a16 f16 c16 < a16 f16 c16 < a16 YL. f+16 a16 > d16 f+16 a16 > d16 f+16 a16 > d16 < a16 f+16 d16 < a16 f+16 < d16 a16 O1 @43 W0,100,0 [ YLR d8 < YL. g8 YLR b8 YL. g8 > ]2 [ YLR d8 < YL. f+8 YLR a8 YL. f+8 > ]2 < YLR b8 YL. e8 YLR g8 YL. e8 YLR b8 > YL. d8 YLR e8 d8~ d8 < YL. f+8 YLR a8 YL. f+8 YLR > d8 < YL. b8 > YLR d8 c8~ c8 < Y.R g8 > YLR e8 < Y.R g8 > YLR c8 < Y.R g8 > YLR e8 < Y.R g8 YLR b8 Y.R f+8 > YLR d8 < Y.R f+8 YLR b8 Y.R f+8 > YLR d8 e8~ e8 Y.R c8 YLR g8 Y.R c8 YLR e8 Y.R c8 YLR e8 g8~ g8 Y.R f+8 YLR d8 < Y.R a8 O1 YLR @14 b8 > d4 e4 < O1 @43 W0,100,0 < YL. g8 YLR b8 YL. g8 > YLR e8 < YL. g8 YLR b8 YL. g8 > [ YLR d8 < YL. f+8 YLR a8 YL. f+8 > ]2 < YLR b8 YL. e8 YLR g8 YL. e8 YLR b8 > YL. d8 YLR e8 d8~ d8 < YL. f+8 YLR a8 YL. f+8 > d8 < YL. f+8 YLR > c8 < YL. b8 O0 V1 @47 W0,100,50 [ YLR a8 YL. a8 ]3 YLR a8 > d8~ d8 YL. d8 YLR d8 YL. d8 [ YLR c8 YL. c8 ]2 < [ YLR b8 Y.R b8 ]3 YLR b8 > e8~ e8 Y.R e8 YLR e8 Y.R e8 [ YLR d8 Y.R d8 ]2 < O2 @48 W0,100,45 YLR ( c4. d2 e8~ e4. f+2 g8~ g1~ g4. r8 < YL. g8. > YLR c8. Y.R g8 ) 
