;043 001F5D9A
!1  T149 V7 O3 P15,12,2 @3 E80,100,60,18,45 YLR g16 a16 a+16 > c16 L O4 V7 @3 E80,100,60,18,45 [ YL. d16 YL. d16 < YL. d16 Y.R d16 YL. g16 Y.R g16 YL. d16 Y.R d16 > ]4 O2 V7 @2 E100,0,0,15,0 YL. d32 Y.R _V-2 d32 _V2 YL. a32 Y.R _V-2 a32 _V2 YL. g32 Y.R _V-2 g32 _V2 > YL. d32 Y.R _V-2 d32 _V2 YL. c32 Y.R _V-2 c32 ) YL. g32 Y.R _V-2 g32 _V2 YL. d32 Y.R _V-2 d32 _V2 YL. a32 Y.R _V-2 a32 _V2 YL. g32 Y.R _V-2 g32 _V2 > YL. d32 Y.R _V-2 d32 _V2 YL. c32 Y.R _V-2 c32 ) YL. g32 Y.R _V-2 g32 _V2 YL. d32 Y.R _V-2 d32 _V2 YL. a32 Y.R _V-2 a32 _V2 YL. g32 Y.R _V-2 g32 _V2 > YL. c32 Y.R _V-2 c32 _V2 [ Y.R g32 YL. _V-2 g32 _V2 YL. c32 Y.R _V-2 c32 _V2 Y.R d32 YL. _V-2 d32 _V2 < Y.R g32 YL. _V-2 g32 _V2 > Y.R c32 YL. _V-2 c32 _V2 < Y.R c32 YL. _V-2 c32 _V2 Y.R d32 YL. _V-2 d32 _V2 < Y.R g32 YL. _V-2 g32 _V2 > ]2 O4 V7 @3 E80,100,60,18,45 [ YL. d16 YL. d16 < YL. d16 Y.R d16 YL. g16 Y.R g16 YL. d16 Y.R d16 > ]4 O2 V7 @2 E100,0,0,15,0 YL. d32 Y.R _V-2 d32 _V2 YL. a32 Y.R _V-2 a32 _V2 YL. g32 Y.R _V-2 g32 _V2 > YL. d32 Y.R _V-2 d32 _V2 YL. c32 Y.R _V-2 c32 ) YL. g32 Y.R _V-2 g32 _V2 YL. d32 Y.R _V-2 d32 _V2 YL. a32 Y.R _V-2 a32 _V2 YL. g32 Y.R _V-2 g32 _V2 > YL. d32 Y.R _V-2 d32 _V2 YL. c32 Y.R _V-2 c32 ) YL. g32 Y.R _V-2 g32 _V2 YL. d32 Y.R _V-2 d32 _V2 YL. a32 Y.R _V-2 a32 _V2 YL. g32 Y.R _V-2 g32 _V2 > YL. c32 Y.R _V-2 c32 _V2 [ Y.R g32 YL. _V-2 g32 _V2 YL. c32 Y.R _V-2 c32 _V2 Y.R d32 YL. _V-2 d32 _V2 < Y.R g32 YL. _V-2 g32 _V2 > Y.R c32 YL. _V-2 c32 _V2 < Y.R c32 YL. _V-2 c32 _V2 Y.R d32 YL. _V-2 d32 _V2 < Y.R g32 YL. _V-2 g32 _V2 > ]2 O4 V7 @3 E80,100,60,18,45 [ YL. f16 YL. f16 < YL. f16 Y.R f16 YL. a+16 Y.R a+16 YL. f16 Y.R f16 > ]4 O2 V7 @2 E100,0,0,15,0 YL. f32 Y.R _V-2 f32 _V2 > YL. c32 Y.R _V-2 c32 _V2 < YL. a+32 Y.R _V-2 a+32 _V2 > YL. f32 Y.R _V-2 f32 _V2 YL. d+32 Y.R _V-2 d+32 ) YL. a+32 Y.R _V-2 a+32 _V2 YL. f32 Y.R _V-2 f32 _V2 > YL. c32 Y.R _V-2 c32 _V2 < YL. a+32 Y.R _V-2 a+32 _V2 > YL. f32 Y.R _V-2 f32 _V2 YL. d+32 Y.R _V-2 d+32 ) YL. a+32 Y.R _V-2 a+32 _V2 YL. f32 Y.R _V-2 f32 _V2 > YL. c32 Y.R _V-2 c32 _V2 < YL. a+32 Y.R _V-2 a+32 _V2 > YL. d+32 Y.R _V-2 d+32 _V2 [ Y.R a+32 YL. _V-2 a+32 _V2 YL. d+32 Y.R _V-2 d+32 _V2 Y.R f32 YL. _V-2 f32 _V2 < Y.R a+32 YL. _V-2 a+32 _V2 > Y.R d+32 YL. _V-2 d+32 _V2 < Y.R d+32 YL. _V-2 d+32 _V2 Y.R f32 YL. _V-2 f32 _V2 < Y.R a+32 YL. _V-2 a+32 _V2 > ]2 O4 V7 @3 E80,100,60,18,45 [ YL. f16 YL. f16 < YL. f16 Y.R f16 YL. a+16 Y.R a+16 YL. f16 Y.R f16 > ]4 O2 V7 @2 E100,0,0,15,0 YL. f32 Y.R _V-2 f32 _V2 > YL. c32 Y.R _V-2 c32 _V2 < YL. a+32 Y.R _V-2 a+32 _V2 > YL. f32 Y.R _V-2 f32 _V2 YL. d+32 Y.R _V-2 d+32 ) YL. a+32 Y.R _V-2 a+32 _V2 YL. f32 Y.R _V-2 f32 _V2 > YL. c32 Y.R _V-2 c32 _V2 < YL. a+32 Y.R _V-2 a+32 _V2 > YL. f32 Y.R _V-2 f32 _V2 YL. d+32 Y.R _V-2 d+32 ) YL. a+32 Y.R _V-2 a+32 _V2 YL. f32 Y.R _V-2 f32 _V2 > YL. c32 Y.R _V-2 c32 _V2 < YL. a+32 Y.R _V-2 a+32 _V2 > YL. d+32 Y.R _V-2 d+32 _V2 [ Y.R a+32 YL. _V-2 a+32 _V2 YL. d+32 Y.R _V-2 d+32 _V2 Y.R f32 YL. _V-2 f32 _V2 < Y.R a+32 YL. _V-2 a+32 _V2 > Y.R d+32 YL. _V-2 d+32 _V2 < Y.R d+32 YL. _V-2 d+32 _V2 Y.R f32 YL. _V-2 f32 _V2 < Y.R a+32 YL. _V-2 a+32 _V2 > ]2 O1 V6 @3 E80,100,60,15,45 Y.R D1 r16 b4 a+8 > d+4 c+16 O4 V8 @2 E90,100,60,11,30 Y.R D0 e16 f+16 g+16 a+16 [ b24 > ( c+24 ) < ( ]6 O2 V6 @3 E80,100,60,15,45 Y.R D1 r16 e8 f+8 g+8 a+8 b4 a+8 > d+4 c+16 O4 V8 @2 E90,100,60,11,30 YL. D0 g+16 a+16 b16 > c+16 [ d+24 ( e24 ) ( ]6 r2 O2 V6 @3 E80,100,60,15,45 Y.R D1 r16 a+4 g+8 > d+4 c+16 O3 V8 @2 E90,100,60,11,30 Y.R D0 g+16 a+16 b16 > c+16 [ d+24 ( e24 ) ( ]6 O2 V6 @3 E80,100,60,15,45 Y.R D1 r16 e8 f+8 e8 c+8 d+4. g+8~ g+8. O3 V8 @2 E90,100,60,11,30 YL. D0 d+16 f16 f+16 g16 [ g+24 ( a+24 ) ( ]6 r2 O4 V8 @2 E90,100,60,11,30 Y.R c+16 < a16 e16 c+16 > YL. c+16 < a16 e16 c+16 YLR [ b16 _V-5 b16 _V5 ]2 r4 Y.R > d+16 < b16 f+16 d+16 > YL. d+16 < b16 f+16 d+16 YLR > [ c+16 _V-5 c+16 _V5 ]2 r4 Y.R d16 < a16 f+16 d16 > YL. d16 < a16 f+16 d16 YLR > [ c+16 _V-5 c+16 _V5 ]2 r4 O3 V7 @@0,2,0 E100,70,60,7,37 YLR c+4 _V-4 c+8 _V4 [ c+32 _V-2 c+32 _V2 ]2 c+4. _V-4 c+8 _V4 O4 V8 @2 E90,100,60,11,30 Y.R c+16 < a16 e16 c+16 > YL. c+16 < a16 e16 c+16 YLR [ b16 _V-5 b16 _V5 ]2 r4 Y.R > d+16 < b16 f+16 d+16 > YL. d+16 < b16 f+16 d+16 YLR > [ c+16 _V-5 c+16 _V5 ]2 r4 Y.R d16 < a16 f+16 d16 > YL. d16 < a16 f+16 d16 YLR > [ c+16 _V-5 c+16 _V5 ]2 r4 O0 V10 @0 E95,100,50,7,22 YLR r4 b4 > b4. a16 b16 > c+2 [ d16 _V-4 d16 _V4 ]4 O1 V7 Y.R < < g1~ g2. > c8 d8 g1~ g2 _V-3 g8 _V3 d8 c8 d8 
!2  V9 O2 P15,12,2 @@0,2,0 E100,70,60,7,37 Y.R g16 YL. a16 Y.R a+16 YL. > c16 L YLR d16 Y.R _V-4 d8 _V4 < r16 YLR f8. Y.R _V-4 f16 _V4 YLR e4. Y.R _V-4 e8 _V4 YLR d+4 Y.R _V-4 d+8 _V4 YLR d8. Y.R _V-4 d16 _V4 YLR d8 c8 d8 Y.R _V-4 d8 _V4 O1 V6 @2 E95,100,50,7,22 YLR r8 f8. _V-3 f16 _V3 e4. _V-3 e8 _V3 f16 _V-3 f16 _V3 f4 g2 _V-3 g8 _V3 O2 V9 @@0,2,0 E100,70,60,7,37 r4 YLR f8. Y.R _V-4 f16 _V4 YLR e4. Y.R _V-4 e8 _V4 YLR d+4 Y.R _V-4 d+8 _V4 YLR d8. Y.R _V-4 d16 _V4 YLR d8 g8 a8 Y.R _V-4 a8 _V4 YLR a+8 _V-4 a+8 _V4 r8 O1 V7 @3 E80,100,60,15,45 [ Y.R a16 YL. a16 ]4 [ Y.R a+16 YL. a+16 ]4 > [ Y.R c16 YL. c16 ]4 O2 V9 @@0,2,0 E100,70,60,7,37 r4 YLR g+8. Y.R _V-4 g+16 _V4 YLR g4. Y.R _V-4 g8 _V4 YLR g+16 Y.R _V-4 g+16 _V4 YLR g+8. Y.R _V-4 g+16 _V4 YLR a+8. Y.R _V-4 a+16 _V4 YLR g+8 a+8 > c8 Y.R _V-4 c8 _V4 < O2 V5 @2 E95,100,50,7,22 YLR r8 c4 < a+4. _V-3 a+8 _V3 g+16 _V-3 g+16 _V3 g+8. _V-3 g+16 _V3 a+4 g+8 a+8 > c8 _V-3 c8 _V3 < O2 V9 @@0,2,0 E100,70,60,7,37 r8 YLR g+8. YL. _V-4 g+16 _V4 YLR g4. YL. _V-4 g8 _V4 YLR g+16 YL. _V-4 g+16 _V4 YLR g+8. YL. _V-4 g+16 _V4 YLR a+8. YL. _V-4 a+16 _V4 > YLR c8 d+8 f8 < O1 V7 @3 E80,100,60,15,45 f2 g2 g+2 a+2 O1 V7 @3 E80,100,60,15,45 YL. b4 a+8 > d+4 c+8 f+4~ f+4. _V-4 f+8 _V4 e8 f+8 g+8 a+8 b4 a+8 > d+4 c+8 f+4~ f+2 _V-2 f+4 _V-3 f+4 _V5 < < a+4 g+8 > d+4 c+8 f+4~ f+4. _V-4 f+8 _V4 e8 f+8 e8 c+8 d+4. g+8~ g+2~ g+2 _V-4 g+4 _V4 < O3 V8 @@0,2,0 E100,70,60,7,37 YLR < b16 > c+16 d+16 e16 c+4 [ c+16 ]4 < [ YLR g+16 YL. _V-4 g+16 _V4 ]2 r4 > YLR d+4 [ d+16 ]4 < [ YLR a+16 YL. _V-3 a+16 _V4 ]2 r4 > YLR f+4 [ f+16 ]4 [ YLR c+16 YL. _V-4 c+16 _V4 ]2 r8 < YLR b8 a+4~ a+16 YL. _V-4 a+16 _V4 YLR a+16 a+16 a+4 YL. _V-4 a+8 _V4 r8 > c+4 [ c+16 ]4 < [ YLR g+16 YL. _V-4 g+16 _V4 ]2 r4 > YLR d+4 [ d+16 ]4 < [ YLR a+16 YL. _V-3 a+16 _V4 ]2 r4 > YLR f+4 [ f+16 ]4 [ YLR c+16 YL. _V-4 c+16 _V4 ]2 r8 YLR d8 [ d+4~ d+16 YL. _V-4 d+16 _V4 YLR [ d+24 ]3 ]2 f4 [ f16 ]4 [ YLR f+16 YL. _V-4 f+16 _V4 ]4 O1 V7 @0 E95,100,50,7,22 YL. D2 < g1~ g2. > c8 d8 g1~ g2 _V-3 g8 _V3 r8 V9 O2 @@0,2,0 E100,70,60,7,37 D0 Y.R g16 YL. a16 Y.R a+16 YL. > c16 
!3  V3 O1 @A3 [ d16 ]4 < L [ [ YLR g16 Y.R _V-2 g16 _V2 YLR g16 YL. _V-2 g16 _V2 ]4 ]8 [ [ YLR a+16 Y.R _V-2 a+16 _V2 YLR a+16 YL. _V-2 a+16 _V2 ]4 ]8 > [ YLR c+16 Y.R _V-2 c+16 _V2 YLR c+16 YL. _V-2 c+16 _V2 ]7 YLR c+16 Y.R _V-2 c+16 _V2 YLR d+16 YL. _V-2 d+16 _V2 [ YLR e16 Y.R _V-2 e16 _V2 YLR e16 YL. _V-2 e16 _V2 ]7 YLR e16 Y.R _V-2 e16 _V2 YLR d+16 YL. _V-2 d+16 _V2 < [ [ YLR g+16 Y.R _V-2 g+16 _V2 YLR g+16 YL. _V-2 g+16 _V2 ]4 ]4 YLR a2 e16 _V-2 e16 _V2 e16 _V-2 e4 _V2 r16 b2 f+16 _V-2 f+16 _V2 f+16 _V-2 f+4 _V2 r16 > d2 < a16 _V-2 a16 _V2 a16 _V-2 a8. _V2 g8 [ YLR f+16 Y.R _V-2 f+16 _V2 YLR f+16 YL. _V-2 f+16 _V2 ]3 YLR f+16 Y.R _V-2 f+16 _V2 YLR f+8 a2 e16 _V-2 e16 _V2 e16 _V-2 e4 _V2 r16 b2 f+16 _V-2 f+16 _V2 f+16 _V-2 f+4 _V2 r16 > d2 < a16 _V-2 a16 _V2 a16 _V-2 a8. _V2 a+8 [ b4 _V-2 b8 _V2 b16 b16 ]2 > c+8. ( c+16 ) [ c+16 ( c+16 ) ]2 [ YLR d16 Y.R _V-2 d16 _V2 YLR d16 YL. _V-2 d16 _V2 ]2 < [ [ YLR g16 Y.R _V-2 g16 _V2 YLR g16 YL. _V-2 g16 _V2 ]4 ]4 
!4  @3 x16 @4 x16 x16 @3 x16 L [ @8 x4 @4 x8 @3 x8 @4 x16 x16 x8 @3 x8 @4 x16 x16 @3 x8 @4 x16 x16 x8 @3 x8 @4 x16 x16 x8 @3 x16 @4 x16 x16 x16 @3 x8 @4 x16 x16 x8 @3 x8 @4 x16 x16 x8 @3 x8 @4 x16 x16 @3 x8 @4 x16 x16 x8 @3 x8 @4 x16 x16 x8 @3 x16 @4 x16 x16 x16 ]2 [ @8 x4 @4 x8 @3 x8 @4 x16 x16 x8 @3 x8 @4 x16 x16 @3 x8 @4 x16 x16 x8 @3 x8 @4 x16 x16 x8 @3 x16 @4 x16 x16 x16 @3 x8 @4 x16 x16 x8 @3 x8 @4 x16 x16 x8 @3 x8 @4 x16 x16 @3 x8 @4 x16 x16 x8 @3 x8 @4 x16 x16 x8 @3 x16 @4 x16 x16 x16 ]2 @8 x4 @4 x8 @3 x8 @4 x16 x16 x8 @3 x16 @4 x16 x16 x16 @3 x8 @4 x16 x16 x8 @3 x8 @4 x16 x16 x8 @3 x8 @4 x16 x16 [ @3 x8 @4 x16 x16 x8 @3 x8 @4 x16 x16 x8 @3 x16 @4 x16 x16 x16 ]2 @8 x4 @4 x8 @3 x8 @4 x16 x16 x8 @3 x16 @4 x16 x16 x16 @3 x8 @4 x16 x16 x8 @3 x8 @4 x16 x16 x8 @3 x8 @4 x16 x16 @3 x8 @4 x16 x16 x8 @3 x8 @4 x16 x16 x8 @3 x16 @4 x16 x16 x16 @3 x8 @4 x16 x16 x8 @3 x8 @4 x16 x16 x8 @3 x24 @4 [ x24 ]5 [ @8 x4 @4 [ x16 ]4 @3 x8 x8 r4 ]2 @8 x4 @4 [ x16 ]4 @3 x8 x8 r8 x8 @8 x8 @3 x8 x16 @3 x16 @4 x16 x16 @3 x8 x8 @3 x24 @4 [ x24 ]5 [ @8 x4 @4 [ x16 ]4 @3 x8 x8 r4 ]2 @8 x4 @4 [ x16 ]4 @3 x8 x8 r8 x8 [ @8 x4 @3 [ x16 ]4 ]3 @8 x8 @3 [ x8 ]3 @8 x4 @4 x8 @3 x8 @4 x16 x16 x8 @3 x8 @4 x16 x16 @3 x8 @4 x16 x16 x8 @3 x8 @4 x16 x16 x8 @3 x16 @4 x16 x16 x16 @3 x8 @4 x16 x16 x8 @3 x8 @4 x16 x16 x8 @3 x8 @4 x16 x16 @3 x8 @4 x16 x16 x8 @3 x8 @4 x16 x16 x8 @3 x16 @4 x16 x16 x16 
!5  @4 V1 O2 [ d16 ]4 < L g4. g2 d8 g8 g4 g4. d8 d8 g4. g2 d8 g8 g4 g4 g8 d8 d8 g4. g2 d8 g8 g4 g4. d8 d8 g4. g2 d8 g8 g4 g4. [ g16 ]4 a+4. a+2 f8 a+8 a+4 a+4. f8 f8 a+4. a+2 f8 a+8 a+4 a+4 a+8 f8 f8 a+4. a+2 f8 a+8 a+4 a+4. f8 f8 a+4. a+2 f8 a+8 a+4 a+4 a+8 a+8 a+8 > c+4. c+2 < g+8 > c+8 < [ g+16 ]2 g+8 > c+8 < [ g+16 ]2 g+8 > c+8 d+8 e4. e2 < b8 > e8 < [ b16 ]2 b8 > e8 < [ b16 ]2 b8 > e8 < d+16 d+16 g+4. g+2 d+8 g+8 g+4 g+4 g+8 d+8 d+8 g+4. g+2 d+8 g+8 g+4 g+4 g+8 [ g+16 ]4 a4 [ a16 ]4 e8 e4. b4 [ b16 ]4 f+8 f+4. > d4 [ d16 ]4 < a8 a4. > f+8 c+16 c+16 c+8 f+8 c+16 c+16 c+8 f+8 c+16 c+16 < a4 [ a16 ]4 e8 e4. b4 [ b16 ]4 f+8 f+4. > d4 [ d16 ]4 < a8 a4 a+8 [ b4. b16 b16 ]2 > c+8 < g+8 > c+8 < g+16 g+16 > d8 d8 d8 < d16 d16 g4. g2 d8 g8 g4 g4. d8 d8 g4. g2 d8 g8 g4 g4 g8 d8 d8 
!6  O2 V1 P13,12,1 @57 W0,98,47 c16 d16 d+16 f16 L g16 YL. ( g8 ) < r16 YLR a+8. YL. ( a+16 ) YLR a4. YL. ( a8 ) YLR g+4 YL. ( g+8 ) YLR g8. YL. ( g16 ) YLR g8 f8 g8 YL. ( g8 ) O1 @48 W0,100,45 YLR r8 a+8. ( a+16 ) a4. ( a8 ) a+16 ( a+16 ) a+4 > c2 ( c8 ) < O1 @57 W0,98,47 r4 YLR a+8. YL. ( a+16 ) YLR a4. YL. ( a8 ) YLR g+4 YL. ( g+8 ) YLR g8. YL. ( g16 ) YLR g8 > c8 d8 YL. ( d8 ) @14 YLR g4. O0 @43 W0,97,0 a2 a+2 > c2 < O2 @57 W0,98,47 r4 YLR c+8. YL. ( c+16 ) YLR c4. YL. ( c8 ) YLR c+16 YL. ( c+16 ) YLR c+8. YL. ( c+16 ) YLR d+8. YL. ( d+16 ) YLR c+8 d+8 f8 YL. ( f8 ) O2 @48 W0,100,45 YLR r8 f4 d+4. ( d+8 ) c+16 ( c+16 ) c+8. ( c+16 ) d+4 c+8 d+8 f8 ( f8 ) O2 @57 W0,98,47 r8 YLR c+8. YL. ( c+16 ) YLR c4. YL. ( c8 ) YLR c+16 YL. ( c+16 ) YLR c+8. YL. ( c+16 ) YLR d+8. YL. ( d+16 ) YLR f8 g+8 a+8 O0 @43 W0,97,0 f2 g2 g+2 a+2 O0 @42 W0,97,0 YLR b4 a+8 > d+4 c+8 f+4~ f+4. ( f+8 ) e8 f+8 g+8 a+8 b4 a+8 > d+4 c+8 f+4~ f+2 ( f+4 ) r4 < < a+4 g+8 > d+4 c+8 f+4~ f+4. ( f+8 ) e8 f+8 e8 c+8 d+4. g+8~ g+2~ g+2 ( g+4 ) < O2 @57 W0,98,47 e16 f+16 g16 g+16 a4 [ a16 ]4 [ YLR e16 Y.R ( e16 ) ]2 r4 YLR b4 [ b16 ]4 [ YLR f+16 Y.R ( f+16 ) ]2 r4 > YLR d4 [ d16 ]4 < [ YLR a16 Y.R ( a16 ) ]2 r8 g8 YLR f+4~ f+16 Y.R ( f+16 ) YLR f+16 f+16 f+4 Y.R ( f+8 ) r8 YLR a4 [ a16 ]4 [ YLR e16 Y.R ( e16 ) ]2 r4 YLR b4 [ b16 ]4 [ YLR f+16 Y.R ( f+16 ) ]2 r4 > YLR d4 [ d16 ]4 < [ YLR a16 Y.R ( a16 ) ]2 r8 YLR a+8 [ b4~ b16 Y.R ( b16 ) YLR [ b24 ]3 ]2 > YLR c+4 [ c+16 ]4 [ YLR d16 Y.R ( d16 ) ]4 O2 @44 [ YLR g16 Y.R ( g16 ) > YLR d16 YL. ( d16 ) YLR c16 Y.R ( c16 ) YLR d16 YL. ( d16 ) YLR g16 Y.R ( g16 ) YLR d16 Y.R ( d16 ) YLR c16 Y.R ( c16 ) YLR d16 Y.R ( d16 ) < ]3 YLR g16 Y.R ( g16 ) > YLR d16 YL. ( d16 ) YLR c16 Y.R ( c16 ) YLR d16 YL. ( d16 ) YLR g16 Y.R ( g16 ) YLR d16 Y.R ( d16 ) O2 @57 W0,98,47 YLR c16 d16 d+16 f16 
