;044 001F7168
!1  T140 L V9 O2 P14,13,1 @@2,2,1 E95,100,70,4,32 < g+12 b12 > c+12 c+12 Y.R _V-4 c+12 _V4 YLR < b12 > c+4~ c+12 Y.R _V-4 c+12 _V4 YLR r12 c+12 < b12 > c+12 d4~ d6 Y.R _V-4 d12 _V4 YLR e4 f+4 f12 Y.R _V-4 f12 _V4 YLR c+12 c+2 Y.R _V-4 c+4 _V4 @0 Y.R _V-4 > [ f+12 c+12 < b12 > ]3 < _V4 @@2,2,1 YLR < g+12 b12 > c+12 c+12 Y.R _V-4 c+12 _V4 YLR < b12 > c+4~ c+12 Y.R _V-4 c+12 _V4 YLR r12 c+12 < b12 > c+12 d4~ d6 Y.R _V-4 d12 _V4 YLR e4 f+4 g+12 Y.R _V-4 g+12 _V4 YLR c+12 c+2 Y.R _V-4 c+4 _V4 @0 Y.R _V-4 > [ f+12 c+12 < b12 > ]4 < _V4 V9 O1 Y.R @2 E95,100,50,8,24 r4 d4 g4 > d4 c+12 YL. _V-4 c+12 _V4 Y.R < g+12 > c+2 YL. _V-4 c+4 _V4 < Y.R r4 e4 a4 > e4 d+12 YL. _V-4 d+12 _V4 Y.R < a+12 > d+2 YL. _V-4 d+4 _V4 < Y.R O3 V8 @2 E100,0,0,16,0 D2 YL. e24 Y.R e24 YL. d24 Y.R d24 YL. c24 Y.R c24 YL. YL. d24 Y.R d24 YL. c24 Y.R c24 < YL. a+24 Y.R a+24 > c+24 Y.R c+24 < YL. b24 Y.R b24 YL. a24 Y.R a24 YL. b24 Y.R b24 YL. a24 Y.R a24 YL. g24 Y.R g24 > YL. d+24 Y.R d+24 YL. c+24 Y.R c+24 < YL. b24 Y.R b24 > c+24 Y.R c+24 < YL. b24 Y.R b24 YL. a24 Y.R a24 > YL. c24 Y.R c24 < YL. a+24 Y.R a+24 YL. g+24 Y.R g+24 YL. a+24 Y.R a+24 YL. g+24 Y.R g+24 YL. f+24 Y.R f+24 D0 V12 O2 Y.R @0 E80,100,60,20,47 e12 c+12 e12 [ g12 e12 a+12 ]3 [ b12 b12 > c12 < ]2 b12 YL. _V-4 b12 _V4 Y.R a+12 YL. _V-4 a+12 _V4 Y.R a12 YL. _V-4 a12 _V4 Y.R g12 e12 g12 [ a+12 g12 > c+12 < ]3 > [ d12 d12 d+12 ]2 d12 YL. _V-4 d12 _V4 Y.R c+12 YL. _V-4 c+12 _V4 Y.R c12 YL. _V-4 c12 _V4 V10 O2 @@2,2,1 E95,100,70,4,32 [ YLR g+24 YL. _V-3 g+24 _V3 YLR g+24 Y.R _V-3 g+24 _V3 ]3 YLR a12 YL. _V-4 a12 _V4 YLR a12 Y.R _V-4 a12 _V4 YLR a12 YL. _V-4 a12 _V4 [ YLR g+24 YL. _V-3 g+24 _V3 YLR g+24 Y.R _V-3 g+24 _V3 ]3 YLR g12 YL. _V-4 g12 _V4 YLR g12 Y.R _V-4 g12 _V4 YLR g12 YL. _V-4 g12 _V4 [ YLR g+24 YL. _V-3 g+24 _V3 YLR g+24 Y.R _V-3 g+24 _V3 ]3 YLR a12 YL. _V-4 a12 _V4 YLR a12 Y.R _V-4 a12 _V4 YLR a12 YL. _V-4 a12 _V4 YLR g+12 YL. _V-4 g+12 _V4 YLR a12 Y.R _V-4 a12 _V4 YLR a+12 YL. _V-4 a+12 _V4 YLR b12 YL. _V-4 b12 _V4 > YLR c12 Y.R _V-4 c12 _V4 YLR d12 YL. _V-4 d12 _V4 [ YLR d24 YL. _V-3 d24 _V3 YLR d24 Y.R _V-3 d24 _V3 ]3 YLR d+12 YL. _V-4 d+12 _V4 YLR d+12 Y.R _V-4 d+12 _V4 YLR d+12 YL. _V-4 d+12 _V4 [ YLR d24 YL. _V-3 d24 _V3 YLR d24 Y.R _V-3 d24 _V3 ]3 YLR c+12 YL. _V-4 c+12 _V4 YLR c+12 Y.R _V-4 c+12 _V4 YLR c+12 YL. _V-4 c+12 _V4 [ YLR d24 YL. _V-3 d24 _V3 YLR d24 Y.R _V-3 d24 _V3 ]3 YLR d+12 YL. _V-4 d+12 _V4 YLR d+12 Y.R _V-4 d+12 _V4 YLR d+12 YL. _V-4 d+12 _V4 YLR d12 YL. _V-4 d12 _V4 YLR c+12 Y.R _V-4 c+12 _V4 YLR c12 YL. _V-4 c12 _V4 < YLR b12 YL. _V-4 b12 _V4 YLR a+12 Y.R _V-4 a+12 _V4 YLR a12 YL. _V-4 a12 _V4 V5 O2 Y.R D1 @2 E90,100,60,8,24 c+1~ c+1~ c+12 d1~ d2.~ d6 V10 O3 YLR D0 @@2,2,1 E95,100,70,4,32 g+12 Y.R _V-4 g+12 _V4 r12 YLR [ g+12 ]3 [ YLR a12 Y.R _V-4 a12 _V4 r12 ]2 YLR g+12 Y.R _V-4 g+12 _V4 r12 r2 
!2  L V10 O2 P14,13,1 YLR @@2,2,1 E95,100,70,4,32 c+12 d+12 f12 f+12 YL. _V-4 f+12 _V4 YLR e12 f+4~ f+12 YL. _V-4 f+12 _V4 YLR r12 f+12 e12 f+12 g4~ g6 YL. _V-4 g12 _V4 YLR a4 b4 a+12 YL. _V-4 a+12 _V4 YLR f+12 f+2 YL. _V-4 f+4 _V4 @0 YL. _V-4 > > [ c+12 < b12 f+12 > ]3 < < _V4 @@2,2,1 YLR c+12 d+12 f12 f+12 YL. _V-4 f+12 _V4 YLR e12 f+4~ f+12 YL. _V-4 f+12 _V4 YLR r12 f+12 e12 f+12 g4~ g6 YL. _V-4 g12 _V4 YLR a4 b4 > c+12 YL. _V-4 c+12 _V4 YLR < f+12 f+2 YL. _V-4 f+4 _V4 @0 YL. _V-4 > > [ c+12 < b12 f+12 > ]4 < < _V4 V9 O1 YL. @3 E80,100,60,20,47 g12 b12 > d12 g12 b12 > d12 g2 g+12 Y.R _V-4 g+12 _V4 YL. f12 g+2 Y.R _V-4 g+8 _V4 r8 < < YL. a12 > c+12 e12 a12 > c+12 e12 a2 a+12 Y.R _V-4 a+12 _V4 YL. g12 a+2 Y.R _V-4 a+8 _V4 r8 < < YL. O3 V8 @2 E100,0,0,16,0 YLR c4 < a+4 a4 g4 b4 a4 g+4 f+4 V12 O2 YL. @0 E80,100,60,20,47 a12 g12 a12 > [ c+12 < g12 > e12 ]3 [ f12 f12 f+12 ]2 f12 Y.R _V-4 f12 _V4 YL. e12 Y.R _V-4 e12 _V4 YL. d+12 Y.R _V-4 d+12 _V4 YL. c12 < a+12 > c12 [ e12 < a+12 > g12 ]3 [ g+12 g+12 a12 ]2 g+12 Y.R _V-4 g+12 _V4 YL. g12 Y.R _V-4 g12 _V4 YL. f+12 Y.R _V-4 f+12 _V4 V10 O3 @@2,2,1 E95,100,70,4,32 [ YLR c+24 Y.R _V-3 c+24 _V3 YLR c+24 YL. _V-3 c+24 _V3 ]3 YLR d12 Y.R _V-4 d12 _V4 YLR d12 YL. _V-4 d12 _V4 YLR d12 Y.R _V-4 d12 _V4 [ YLR c+24 Y.R _V-3 c+24 _V3 YLR c+24 YL. _V-3 c+24 _V3 ]3 YLR c12 Y.R _V-4 c12 _V4 YLR c12 YL. _V-4 c12 _V4 YLR c12 Y.R _V-4 c12 _V4 [ YLR c+24 Y.R _V-3 c+24 _V3 YLR c+24 YL. _V-3 c+24 _V3 ]3 YLR d12 Y.R _V-4 d12 _V4 YLR d12 YL. _V-4 d12 _V4 YLR d12 Y.R _V-4 d12 _V4 YLR c+12 Y.R _V-4 c+12 _V4 YLR d12 YL. _V-4 d12 _V4 YLR d+12 Y.R _V-4 d+12 _V4 YLR e12 Y.R _V-4 e12 _V4 YLR f12 YL. _V-4 f12 _V4 YLR f+12 Y.R _V-4 f+12 _V4 [ YLR g24 Y.R _V-3 g24 _V3 YLR g24 YL. _V-3 g24 _V3 ]3 YLR g+12 Y.R _V-4 g+12 _V4 YLR g+12 YL. _V-4 g+12 _V4 YLR g+12 Y.R _V-4 g+12 _V4 [ YLR g24 Y.R _V-3 g24 _V3 YLR g24 YL. _V-3 g24 _V3 ]3 YLR f+12 Y.R _V-4 f+12 _V4 YLR f+12 YL. _V-4 f+12 _V4 YLR f+12 Y.R _V-4 f+12 _V4 [ YLR g24 Y.R _V-3 g24 _V3 YLR g24 YL. _V-3 g24 _V3 ]3 YLR g+12 Y.R _V-4 g+12 _V4 YLR g+12 YL. _V-4 g+12 _V4 YLR g+12 Y.R _V-4 g+12 _V4 YLR g12 Y.R _V-4 g12 _V4 YLR f+12 YL. _V-4 f+12 _V4 YLR f12 Y.R _V-4 f12 _V4 YLR e12 Y.R _V-4 e12 _V4 YLR d+12 YL. _V-4 d+12 _V4 YLR d12 Y.R _V-4 d12 _V4 V5 O3 YL. D1 @2 E90,100,60,8,24 r24 g12 d+12 g12 a+12 g12 a+12 > c+12 < a+12 > c+12 e12 c+12 e12 g6 g+12 g6 f+12 f12 d+12 c+12 < b12 a12 g12 g+12 e12 g+12 b12 g+12 b12 > d12 < b12 > d12 f12 d12 f12 g+6 a12 g+6 g12 f+12 e12 d12 c12 < a+12 g+24 V10 O4 YLR D0 @@2,2,1 E95,100,70,4,32 c+12 YL. _V-4 c+12 _V4 r12 YLR [ c+12 ]3 [ YLR d12 YL. _V-4 d12 _V4 r12 ]2 YLR c+12 YL. _V-4 c+12 _V4 r12 r2 
!3  L V3 O1 @A3 r4 YLR f+6 Y.R ( f+12 ) YLR e6 YL. ( e12 ) YLR d6 Y.R ( d12 ) YLR c+6 YL. ( c+12 ) YLR g6 Y.R ( g12 ) YLR f+6 YL. ( f+12 ) YLR e6 Y.R ( e12 ) YLR d6 YL. ( d12 ) YLR f+6 Y.R ( f+12 ) YLR c+6 YL. ( c+12 ) YLR f+6 Y.R ( f+12 ) YLR [ c+12 ]3 YLR f+6 Y.R ( f+12 ) YLR c+6 YL. ( c+12 ) YLR f+6 Y.R ( f+12 ) YLR c+12 d+12 f12 YLR f+6 Y.R ( f+12 ) YLR e6 YL. ( e12 ) YLR d6 Y.R ( d12 ) YLR c+6 YL. ( c+12 ) YLR g6 Y.R ( g12 ) YLR f+6 YL. ( f+12 ) YLR e6 Y.R ( e12 ) YLR d6 YL. ( d12 ) YLR f+6 Y.R ( f+12 ) YLR c+6 YL. ( c+12 ) YLR f+6 Y.R ( f+12 ) YLR [ c+12 ]3 YLR f+6 Y.R ( f+12 ) YLR c+6 YL. ( c+12 ) YLR f+6 Y.R ( f+12 ) YLR f+4 < g6 Y.R ( g12 ) YLR [ g12 ]3 g12 YL. ( g12 ) YLR g12 Y.R ( g12 ) YLR g12 YL. ( g12 ) > YLR c+6 Y.R ( c+12 ) < YLR g+6 YL. ( g+12 ) > YLR c+6 Y.R ( c+12 ) YLR [ c+12 ]3 < a6 Y.R ( a12 ) YLR [ a12 ]3 a12 YL. ( a12 ) YLR a12 Y.R ( a12 ) YLR a12 YL. ( a12 ) > YLR d+6 Y.R ( d+12 ) < YLR a+6 YL. ( a+12 ) > YLR d+6 Y.R ( d+12 ) YLR [ d+12 ]3 YLR d6 Y.R ( d12 ) YLR c6 YL. ( c12 ) < YLR b6 Y.R ( b12 ) YLR a6 Y.R ( a12 ) > YLR c+6 Y.R ( c+12 ) < YLR b6 YL. ( b12 ) YLR a+6 Y.R ( a+12 ) YLR g+6 Y.R ( g+12 ) YLR g12 Y.R ( g12 ) YLR g12 [ g24 ( g24 ) ]3 YLR g12 YL. ( g12 ) YLR g12 [ g24 ( g24 ) ]3 [ g24 ( g24 ) ]6 YLR g12 Y.R ( g12 ) YLR g12 YL. ( g12 ) YLR g12 Y.R ( g12 ) YLR a+12 YL. ( a+12 ) YLR a+12 [ a+24 ( a+24 ) ]3 YLR a+12 Y.R ( a+12 ) YLR a+12 [ a+24 ( a+24 ) ]3 [ a+24 ( a+24 ) ]6 YLR a+12 YL. ( a+12 ) YLR a+12 Y.R ( a+12 ) YLR a+12 YL. ( a+12 ) > YLR c+4 _V-2 c+4 _V2 YLR d12 Y.R ( d12 ) YLR d12 YL. ( d12 ) YLR d12 Y.R ( d12 ) YLR c+4 _V-2 c+4 _V2 YLR c12 YL. ( c12 ) YLR c12 Y.R ( c12 ) YLR c12 YL. ( c12 ) YLR c+4 _V-2 c+4 _V2 YLR d12 Y.R ( d12 ) YLR d12 YL. ( d12 ) YLR d12 Y.R ( d12 ) YLR c+12 Y.R ( c+12 ) YLR d12 YL. ( d12 ) YLR d+12 Y.R ( d+12 ) YLR e12 YL. ( e12 ) YLR f12 Y.R ( f12 ) YLR f+12 YL. ( f+12 ) YLR g4 _V-2 g4 _V2 YLR g+12 Y.R ( g+12 ) YLR g+12 YL. ( g+12 ) YLR g+12 Y.R ( g+12 ) YLR g4 _V-2 g4 _V2 YLR f+12 YL. ( f+12 ) YLR f+12 Y.R ( f+12 ) YLR f+12 YL. ( f+12 ) YLR g4 _V-2 g4 _V2 YLR g+12 Y.R ( g+12 ) YLR g+12 YL. ( g+12 ) YLR g+12 Y.R ( g+12 ) YLR g12 Y.R ( g12 ) YLR f+12 YL. ( f+12 ) YLR f12 Y.R ( f12 ) YLR e12 YL. ( e12 ) YLR d+12 Y.R ( d+12 ) YLR d12 YL. ( d12 ) YLR c+6 ( c+12 ) r2 [ c+24 ( c+24 ) ]3 c+6 ( c+12 ) [ c+24 ( c+24 ) ]3 YLR c+12 Y.R ( c+12 ) YLR c+12 YL. ( c+12 ) YLR c+12 Y.R ( c+12 ) YLR d6 ( d12 ) r2 [ d24 ( d24 ) ]3 d6 ( d12 ) [ d24 ( d24 ) ]3 YLR d12 Y.R ( d12 ) YLR d12 YL. ( d12 ) YLR d12 Y.R ( d12 ) YLR c+6 ( c+12 ) [ c+24 ( c+24 ) ]3 d6 Y.R ( d12 ) YLR d6 YL. ( d12 ) YLR c+6 ( c+12 ) r2 
!4  L @3 x12 x12 x12 @8 x4 @3 [ x6 x12 ]2 x12 x12 x12 @3 x12 x12 x12 [ x6 x12 ]2 x12 x12 x12 @3 [ x6 x12 ]3 @8 x4 x4 @3 [ x12 ]6 x6 x12 @8 x4 @3 [ x6 x12 ]2 x12 x12 x12 @3 x12 x12 x12 [ x6 x12 ]2 x12 x12 x12 @3 [ x6 x12 ]3 @8 x4 x4 @3 [ x12 ]9 @8 x4 @3 x12 x12 x12 [ x6 ]3 @8 x6 @3 x12 @4 [ x24 ]6 @3 x6 x12 x12 x12 x12 @8 x4 @3 x12 x12 x12 [ x6 ]3 @8 x6 @3 x12 x12 x12 x12 x6 x12 @4 [ x24 ]6 @8 x6 @5 x12 [ @7 x6 @5 x12 ]3 @8 x6 @5 x12 [ @7 x6 @5 x12 ]2 @3 x12 x12 x12 [ @8 x6 @3 x12 x4 x6 x12 x4 @3 [ x12 ]6 [ x6 ]3 ]2 [ [ @8 x4 @3 x12 x12 x12 [ x6 ]3 ]3 @8 [ Y.R x6 YL. x6 ]3 YLR ]2 @8 x4 [ @5 x12 x12 @7 x12 ]3 [ [ @5 x12 x12 @7 x12 ]4 ]3 @8 x4 @3 x12 x12 x12 x4 x4 @8 x4 @7 x4 x4 
!5  L V1 O1 @4 YLR c+12 d+12 f12 f+4 ( e4 d4 c+4 g4 f+4 e4 ) d6 d12 f+4 c+4 f+4 [ c+12 ]3 f+4 c+4 f+4 c+12 d+12 f12 f+4 ( e4 d4 c+4 g4 f+4 e4 ) d6 d12 f+4 c+4 f+4 [ c+12 ]3 f+4 c+4 f+6 f+12 [ f+12 ]3 g4 ( [ g12 ]3 [ g6 ]3 > c+4 < g+4 > c+4 ) [ c+12 ]3 < a4 ( [ a12 ]3 [ a6 ]3 > d+4 < a+4 > d+4 ) [ d+12 ]3 < [ r1 ]2 O1 @4 YLR [ g4 ]3 [ g12 ]3 g4 [ g12 ]3 [ g6 ]3 [ a+4 ]3 [ a+12 ]3 a+4 [ a+12 ]3 [ a+6 ]3 > c+2. < a12 a12 > d12 c+2 [ c6 ]3 c+2 [ d6 ]3 < c+6 d6 d+6 e6 f6 f+6 g2. d12 d12 g+12 g2 [ f+6 ]3 g2 [ g+6 ]3 g6 f+6 f6 e6 d+6 d6 O0 @45 W0,100,50 ( c+1~ c+1 d1~ d1 ) O1 @4 c+4 [ c+12 ]3 d4 d4 c+2. 
!6  L O1 @57 W0,98,47 Y.R c+12 d+12 f12 f+12 ( f+12 ) e12 f+4~ f+6 ( f+12 ) f+12 e12 f+12 g4~ g6 ( g12 ) a4 b4 a+12 ( a+12 ) f+12 f+2. r1 O0 @42 W0,100,0 YL. r4 c+4 f+4 > c+4 d2 g2 f+12 ( f+12 ) c+12 c+4~ c+6 ( c+12 ) c+12 < b12 > c+12 < f+2. ( f+4 ) YLR d12 g12 b12 > d12 g12 b12 > d4~ d12 c+12 < b12 > c+12 ( c+12 ) < g+12 > c+2 ( c+8 ) r8 < < e12 a12 > c+12 e12 a12 > c+12 e4~ e12 d+12 c+12 d+12 ( d+12 ) < a+12 > d+2 ( d+8 ) r8 < < O2 @45 W0,100,50 e12 d12 c12 d12 c12 < a+12 > c+12 < b12 a12 b12 a12 g12 > d+12 c+12 < b12 > c+12 < b12 a12 > c12 < a+12 g+12 a+12 g+12 f+12 O0 @57 W0,98,47 YLR a12 g12 a12 > [ c+12 < g12 > e12 ]3 [ f12 f12 f+12 ]2 f12 ( f12 ) e12 ( e12 ) d+12 ( d+12 ) c12 < a+12 > c12 [ e12 < a+12 > g12 ]3 [ g+12 g+12 a12 ]2 g+12 ( g+12 ) g12 ( g12 ) f+12 ( f+12 ) O1 @48 W0,100,45 YLR r4 g+6 > c+24 d+24 g+2~ g+2. ( g+4 ) < r4 g+6 > c+24 d+24 g+4. ( g+8 ) < g+12 Y.R ( g+12 ) YLR a12 YL. ( a12 ) YLR a+12 Y.R ( a+12 ) YLR b12 YL. ( b12 ) > YLR c12 Y.R ( c12 ) YLR c+12 YL. ( c+12 ) YLR r4 d6 g24 a24 > d2~ d2. ( d4 ) < r4 d6 g24 a24 > d4. ( d8 ) < g12 Y.R ( g12 ) YLR f+12 YL. ( f+12 ) YLR f12 Y.R ( f12 ) YLR e12 YL. ( e12 ) YLR d+12 Y.R ( d+12 ) YLR d12 YL. ( d12 ) YLR O1 @45 W0,100,50 g12 d+12 g12 a+12 g12 a+12 > c+12 < a+12 > c+12 e12 c+12 e12 g6 g+12 g6 f+12 f12 d+12 c+12 < b12 a12 g12 g+12 e12 g+12 b12 g+12 b12 > d12 < b12 > d12 f12 d12 f12 g+6 a12 g+6 g12 f+12 e12 d12 c12 < a+12 g+12 O2 @8 c+4 [ c+12 ]3 d4 d4 c+2. 
