;045 001F839C
!1  T130 O1 V5 YLR @1 EX P21,14,1 L _V-2 < < f1~ f1 > > _V2 Y.R _V4 f8 _V-4 f8~ f2 _V4 f8 _V-4 f8 _V4 f8 _V-4 f8~ f2. _V4 f+8 _V-4 f+8~ f+2 _V4 f+8 _V-4 f+8 _V4 f+8 _V-4 f+8~ f+2. _V4 g+8 _V-4 g+8~ g+2 _V4 g+8 _V-4 g+8 _V4 f+8 _V-4 f+8~ f+2. _V4 f8 _V-4 f8~ f2 _V4 f8 _V-4 f8 _V4 f8 _V-4 f8~ f4 ( f4 ( f4 _V2 _V4 f8 _V-4 f8~ f2 _V4 f8 _V-4 f8 _V4 f8 _V-4 f8~ f2. _V4 f+8 _V-4 f+8~ f+2 _V4 f+8 _V-4 f+8 _V4 f+8 _V-4 f+8~ f+2. _V4 g+8 _V-4 g+8~ g+2 _V4 g+8 _V-4 g+8 _V4 f+8 _V-4 f+8~ f+2. _V4 f8 _V-4 f8~ f2 _V4 f8 _V-4 f8 _V4 f8 _V-4 f8~ f4 ( f4 ( f4 _V2 V9 O2 P15,14,1 YLR @@2,2,1 E95,100,70,4,34 d+4 Y.R _V-4 d+6 _V4 YLR c12 d+2~ d+4. Y.R _V-4 d+8 _V4 YLR c+6 Y.R _V-4 c+12 _V4 YLR d+6 Y.R _V-4 d+12 _V4 YLR f+4 Y.R _V-4 f+6 _V4 YLR c+12 f+2~ f+4. Y.R _V-4 f+8 _V4 YLR c+6 Y.R _V-4 c+12 _V4 YLR d+6 Y.R _V-4 d+12 _V4 YLR f+4 Y.R _V-4 f+6 _V4 YLR c+12 f+2~ f+6 Y.R _V-4 f+12 _V4 YLR c+6 Y.R _V-4 c+12 _V4 YLR f+6 Y.R _V-4 f+12 _V4 YLR a+6 Y.R _V-4 a+12 _V4 YLR > d+4 Y.R _V-4 d+6 _V4 < YLR a+12 > g2~ g2~ g6 Y.R _V-4 g12 _V4 YLR r4 O4 V8 @2 E80,100,60,13,34 YL. r12 g+12 > c12 d+12 c12 d+12 g+2 Y.R _V-4 g+12 _V4 < g+12 b12 > d+12 < b12 > d+12 g+2 YL. _V-4 g+12 _V4 < f+12 a+12 > c+12 < a+12 > c+12 f+2 Y.R _V-4 f+12 _V4 < f+12 a12 > c+12 < a12 > c+12 f+4. _V-4 f+8 _V4 O1 V8 YLR @0 E90,100,60,26,34 g+1 g+1 g+1 g+2. _V-5 g+4 _V5 O1 V5 YLR @1 EX P21,14,1 _V-2 < < f1~ f1 > > _V2 
!2  O2 V5 YLR @1 EX P21,14,1 L _V-2 < c1~ c1 > _V2 YL. _V4 c8 _V-4 c8~ c2 _V4 c8 _V-4 c8 _V4 c8 _V-4 c8~ c2. _V4 c+8 _V-4 c+8~ c+2 _V4 c+8 _V-4 c+8 _V4 c+8 _V-4 c+8~ c+2. _V4 d+8 _V-4 d+8~ d+2 _V4 d+8 _V-4 d+8 _V4 c+8 _V-4 c+8~ c+2. _V4 c8 _V-4 c8~ c2 _V4 c8 _V-4 c8 _V4 c8 _V-4 c8~ c4 ( c4 ( c4 _V2 _V4 c8 _V-4 c8~ c2 _V4 c8 _V-4 c8 _V4 c8 _V-4 c8~ c2. _V4 c+8 _V-4 c+8~ c+2 _V4 c+8 _V-4 c+8 _V4 c+8 _V-4 c+8~ c+2. _V4 d+8 _V-4 d+8~ d+2 _V4 d+8 _V-4 d+8 _V4 c+8 _V-4 c+8~ c+2. _V4 c8 _V-4 c8~ c2 _V4 c8 _V-4 c8 _V4 c8 _V-4 c8~ c4 ( c4 ) V10 O2 P15,14,1 YLR @@2,2,1 E95,100,70,4,34 d+12 f12 g12 g+4 YL. _V-4 g+6 _V4 YLR d+12 g+2~ g+4. YL. _V-4 g+8 _V4 YLR f+6 YL. _V-4 f+12 _V4 YLR g+6 YL. _V-4 g+12 _V4 YLR a+4 YL. _V-4 a+6 _V4 YLR f+12 a+2~ a+4. YL. _V-4 a+8 _V4 YLR f+6 YL. _V-4 f+12 _V4 YLR g+6 YL. _V-4 g+12 _V4 YLR a+4 YL. _V-4 a+6 _V4 YLR f+12 a+2~ a+6 YL. _V-4 a+12 _V4 YLR f+6 YL. _V-4 f+12 _V4 YLR a+6 YL. _V-4 a+12 _V4 > YLR d+6 YL. _V-4 d+12 _V4 YLR g4 YL. _V-4 g6 _V4 YLR d+12 a+2~ a+2~ a+6 YL. _V-4 a+12 _V4 O2 V8 YL. @0 E90,100,60,26,34 d+12 f12 g12 g+4~ g+12 _V-4 g+12 _V4 d+12 d+2~ d+4~ d+6 _V-4 d+12 _V4 d+4 f4 f+4~ f+12 _V-4 f+12 _V4 c+12 c+2~ c+4~ c+6 _V-4 c+12 _V4 c+4 d+4 c+1 c1 < a+1 > c2~ c6 _V-4 c12 _V4 < g+12 g12 f+12 f12 _V-4 f6 _V4 O2 V5 YLR @1 EX P21,14,1 _V-2 < c2.~ c1 > _V2 
!3  L V3 O0 @A3 YLR f16 Y.R ( f16 ) YLR f16 YL. ( f16 ) [ YLR f12 Y.R ( f12 YL. f12 ) ]3 [ YLR f12 Y.R ( f12 YL. f12 ) YLR f24 Y.R ( f24 ) YLR f24 YL. ( f24 ) YLR f24 Y.R ( f24 ) ]2 [ YLR f16 Y.R ( f16 ) YLR f16 YL. ( f16 ) [ YLR f12 Y.R ( f12 YL. f12 ) ]3 YLR f24 Y.R ( f24 ) YLR f24 YL. ( f24 ) YLR f24 Y.R ( f24 ) [ YLR f12 YL. ( f12 Y.R f12 ) ]2 YLR f24 YL. ( f24 ) YLR f24 Y.R ( f24 ) YLR f24 YL. ( f24 ) ]4 [ YLR f16 Y.R ( f16 ) YLR f16 YL. ( f16 ) [ YLR f12 Y.R ( f12 YL. f12 ) ]3 YLR f24 Y.R ( f24 ) YLR f24 YL. ( f24 ) YLR f24 Y.R ( f24 ) [ YLR f12 YL. ( f12 Y.R f12 ) ]2 YLR f24 YL. ( f24 ) YLR f24 Y.R ( f24 ) YLR f24 YL. ( f24 ) ]3 YLR f16 Y.R ( f16 ) YLR f16 YL. ( f16 ) [ YLR f12 Y.R ( f12 YL. f12 ) ]3 YLR f24 Y.R ( f24 ) YLR f24 YL. ( f24 ) YLR f24 Y.R ( f24 ) [ YLR f12 YL. ( f12 Y.R f12 ) ]2 YLR f4 YLR f+12 Y.R ( f+12 YL. f+12 ) YLR f+24 Y.R ( f+24 ) YLR f+24 YL. ( f+24 ) YLR f+24 Y.R ( f+24 ) YLR f+12 YL. ( f+12 Y.R f+12 ) YLR f+24 YL. ( f+24 ) YLR f+24 Y.R ( f+24 ) YLR f+24 YL. ( f+24 ) YLR f+12 Y.R ( f+12 YL. f+12 ) YLR f+24 Y.R ( f+24 ) YLR f+24 YL. ( f+24 ) YLR f+24 Y.R ( f+24 ) YLR f+24 YL. ( f+24 ) YLR f+24 Y.R ( f+24 ) YLR f+24 YL. ( f+24 ) YLR f+4 YLR e12 Y.R ( e12 YL. e12 ) YLR e24 Y.R ( e24 ) YLR e24 YL. ( e24 ) YLR e24 Y.R ( e24 ) YLR e12 YL. ( e12 Y.R e12 ) YLR e24 YL. ( e24 ) YLR e24 Y.R ( e24 ) YLR e24 YL. ( e24 ) YLR e12 Y.R ( e12 YL. e12 ) YLR e24 Y.R ( e24 ) YLR e24 YL. ( e24 ) YLR e24 Y.R ( e24 ) YLR e24 YL. ( e24 ) YLR e24 Y.R ( e24 ) YLR e24 YL. ( e24 ) YLR e24 Y.R ( e24 ) YLR e24 YL. ( e24 ) YLR e24 Y.R ( e24 ) > YLR d+12 Y.R ( d+12 YL. d+12 ) YLR d+24 Y.R ( d+24 ) YLR d+24 YL. ( d+24 ) YLR d+24 Y.R ( d+24 ) YLR d+12 YL. ( d+12 Y.R d+12 ) YLR d+24 YL. ( d+24 ) YLR d+24 Y.R ( d+24 ) YLR d+24 YL. ( d+24 ) YLR d+12 Y.R ( d+12 YL. d+12 ) YLR d+24 Y.R ( d+24 ) YLR d+24 YL. ( d+24 ) YLR d+24 Y.R ( d+24 ) YLR d+24 YL. ( d+24 ) YLR d+24 Y.R ( d+24 ) YLR d+24 YL. ( d+24 ) YLR d+4 YLR c+12 Y.R ( c+12 YL. c+12 ) YLR c+24 Y.R ( c+24 ) YLR c+24 YL. ( c+24 ) YLR c+24 Y.R ( c+24 ) YLR c+12 YL. ( c+12 Y.R c+12 ) YLR c+24 YL. ( c+24 ) YLR c+24 Y.R ( c+24 ) YLR c+24 YL. ( c+24 ) YLR c+12 Y.R ( c+12 YL. c+12 ) YLR c+24 Y.R ( c+24 ) YLR c+24 YL. ( c+24 ) YLR c+24 Y.R ( c+24 ) YLR c+6 YL. ( c+12 ) YLR c+6 Y.R ( c+12 ) YLR c2~ c6 YL. ( c12 ) YLR c24 Y.R ( c24 ) YLR c24 YL. ( c24 ) YLR c24 Y.R ( c24 ) < YLR b2~ b6 YL. ( b12 ) YLR b24 Y.R ( b24 ) YLR b24 YL. ( b24 ) YLR b24 Y.R ( b24 ) YLR a+2~ a+6 YL. ( a+12 ) YLR a+24 Y.R ( a+24 ) YLR a+24 YL. ( a+24 ) YLR a+24 Y.R ( a+24 ) YLR a2~ a6 YL. ( a12 ) YLR a24 Y.R ( a24 ) YLR a24 YL. ( a24 ) YLR a24 Y.R ( a24 ) YLR g+16 Y.R ( g+16 ) YLR g+16 YL. ( g+16 ) [ YLR g+12 Y.R ( g+12 YL. g+12 ) ]3 YLR g+24 Y.R ( g+24 ) YLR g+24 YL. ( g+24 ) YLR g+24 Y.R ( g+24 ) [ YLR g+12 YL. ( g+12 Y.R g+12 ) ]2 YLR g+24 YL. ( g+24 ) YLR g+24 Y.R ( g+24 ) YLR g+24 YL. ( g+24 ) YLR g+16 Y.R ( g+16 ) YLR g+16 YL. ( g+16 ) [ YLR g+12 Y.R ( g+12 YL. g+12 ) ]3 YLR g+24 Y.R ( g+24 ) YLR g+24 YL. ( g+24 ) YLR g+24 Y.R ( g+24 ) [ YLR g+12 YL. ( g+12 Y.R g+12 ) ]2 YLR g+12 g12 f+12 YLR f16 Y.R ( f16 ) YLR f16 YL. ( f16 ) [ YLR f12 Y.R ( f12 YL. f12 ) ]3 [ YLR f12 Y.R ( f12 YL. f12 ) YLR f24 Y.R ( f24 ) YLR f24 YL. ( f24 ) YLR f24 Y.R ( f24 ) ]2 
!4  L @3 x4 @5 x4 x4 @3 [ x12 ]3 @3 x4 x32 @4 [ x32 ]7 @3 x4 [ x12 ]3 @8 x4 @5 x4 x4 @3 [ x12 ]3 @3 x4 x32 @4 [ x32 ]7 @3 x4 x4 @3 x4 @5 x4 x4 @3 [ x12 ]3 @3 x4 x32 @4 [ x32 ]7 @3 x4 [ x12 ]3 @3 x4 @5 x4 x4 @3 [ x12 ]3 @3 x4 x32 @4 [ x32 ]7 @3 x4 x4 @3 x4 @5 x4 x4 @3 [ x12 ]3 @3 x4 x32 @4 [ x32 ]7 @3 x4 [ x12 ]3 @8 x4 @5 x4 x4 @3 [ x12 ]3 @3 x4 x32 @4 [ x32 ]7 @3 x4 x4 @3 x4 @5 x4 x4 @3 [ x12 ]3 @3 x4 x32 @4 [ x32 ]7 @3 x4 [ x12 ]3 @3 x4 @5 x4 x4 @3 [ x12 ]3 @3 x4 x32 @4 [ x32 ]7 @3 x4 x4 @3 x4 @5 x4 x4 @3 [ x12 ]3 @3 x4 x32 @4 [ x32 ]7 @3 x4 [ x12 ]3 @8 x4 @3 [ x12 ]3 x4 [ x12 ]3 @3 x4 [ x12 ]3 x4 x4 @3 x4 [ x12 ]3 x4 [ x12 ]3 @3 x4 [ x12 ]6 x32 @4 [ x32 ]7 @3 x4 [ x12 ]3 x4 [ x12 ]3 @3 x4 [ x12 ]3 x4 x4 @3 x4 [ x12 ]3 x4 [ x12 ]3 @3 x4 [ x12 ]3 @7 x4 x4 @8 x2. @3 [ x12 ]3 @8 x4 @5 x4 @3 [ x12 ]6 @8 x2. @3 [ x12 ]3 @8 x4 @5 x4 @3 [ x12 ]6 @3 x4 @5 x4 x4 @3 [ x12 ]3 @3 x4 x32 @4 [ x32 ]7 @3 x4 x4 @3 x4 @5 x4 x4 @3 [ x12 ]3 @3 x4 x32 @4 [ x32 ]7 @3 x4 [ x12 ]3 @8 x4 @5 x4 x4 @3 [ x12 ]3 @3 x4 x32 @4 [ x32 ]7 @3 x4 [ x12 ]3 
!5  V1 L O0 YLR @43 W0,100,0 f8 ( f8 Y.R f8 f8 YL. f8 f8 ) YLR f8 ( f8 ) f8 ( f8 Y.R f8 f8 YL. f8 f8 ) O1 YLR @48 W0,100,45 f4 > c4. < a+8 > c2 ( Y.R c8 YL. c8 ) YLR < f4 a+4 > f4 c4. < a+8 > c2 ( Y.R c8 YL. c8 ) r4 YLR d+4 c+4 c4. < a+8 > c2 ( Y.R c8 YL. c8 ) r4 YLR < a+4. > c16 < a+16 a1~ a2 ( Y.R a8 YL. a8 ) O0 YLR @42 W0,97,0 f4 > c4. < a+8 > c2 ( Y.R c8 YL. c8 ) YLR < f4 a+4 > f4 c4. < a+8 > c2 ( Y.R c8 YL. c8 ) r4 YLR d+4 c+4 c4. < a+8 > c2 ( Y.R c8 YL. c8 ) r4 YLR < a+4. > c16 < a+16 a1~ a2 ( Y.R a4 YL. a8 ) r8 O1 @48 W0,100,45 Y.R f+2~ f+6 YL. ( f+12 ) Y.R [ f+12 ]3 f+4~ f+6 YL. ( f+12 ) Y.R f+8. YL. ( f+16 ) Y.R f+8. YL. ( f+16 ) Y.R e2~ e6 YL. ( e12 ) Y.R [ e12 ]3 e4~ e6 YL. ( e12 ) Y.R e8. YL. ( e16 ) Y.R e8. YL. ( e16 ) Y.R d+2~ d+6 YL. ( d+12 ) Y.R [ d+12 ]3 d+4~ d+6 YL. ( d+12 ) Y.R d+8. YL. ( d+16 ) Y.R d+8. YL. ( d+16 ) Y.R c+2~ c+6 YL. ( c+12 ) Y.R [ c+12 ]3 [ c+8. YL. ( c+16 ) Y.R c+8. YL. ( c+16 ) ]2 Y.R c1 < b1 a+1 a1 ( g+4 ) g+4 > d+4 c+4 g+2 d+2 > c+1 c1 O1 YLR @4 f4 ( Y.R f4 YL. f4 ) YLR f4 f4 ( Y.R f4 YL. f4 ) r4 
!6  V1 L O1 YLR @4 f4 ( Y.R f4 YL. f4 ) YLR f4 f4 ( Y.R f4 YL. f4 ) r4 [ f4 ( Y.R f4 YL. f4 ) YLR f4 f4 ( Y.R f4 YL. f4 ) r4 ]4 [ f4 ( Y.R f4 YL. f4 ) YLR f4 f4 ( Y.R f4 YL. f4 ) r4 ]3 f4 ( Y.R f4 YL. f4 ) YLR f4 f4 ( Y.R f4 YL. f4 ) [ f12 ]3 f+4 YL. @42 W0,97,0 < a+4 > c4 d+4 g+2 ( g+4 ) YLR @4 [ f+12 ]3 e4 YL. @42 W0,97,0 < b4 > c+4 f+4 a+2 ( a+4 ) YLR @4 [ e12 ]3 d+4 YL. @42 W0,97,0 < a+4 > c+4 f+4 a+2 ( a+4 ) YLR @4 [ d+12 ]3 c+4 YL. @42 W0,97,0 < g4 a+4 > d+4 g4 a+12 g+12 g12 d+12 < a+12 ( g12 ) O1 @42 W0,97,0 YLR d+12 f12 g12 g+4~ g+12 ( g+12 ) d+12 d+2~ d+4~ d+6 ( d+12 ) d+4 f4 f+4~ f+12 ( f+12 ) c+12 c+2~ c+4~ c+6 ( c+12 ) c+4 d+4 c+1 c1 < a+1 > c2~ c6 ( c12 ) < g+12 g12 f+12 f8 ( f8 O0 YLR @43 W0,100,0 Y.R f8 f8 YL. f8 f8 ) YLR f8 ( f8 ) f8 ( f8 Y.R f8 f8 YL. f8 f8 ) r4 
