;046 001F9350
!1  T88 L V8 O2 @2 E100,0,0,25,0 Y.R g+24 YL. g+24 Y.R a+24 YL. a+24 Y.R b24 YL. b24 > Y.R c+24 YL. c+24 < Y.R b24 YL. b24 Y.R a+24 YL. a+24 > Y.R d+24 YL. d+24 Y.R c+24 YL. c+24 < Y.R b24 YL. b24 Y.R > e24 YL. e24 Y.R d+24 YL. d+24 Y.R c+24 YL. c+24 [ Y.R f24 YL. f24 Y.R d24 YL. d24 < Y.R a+24 YL. a+24 ]2 > > [ Y.R d+24 YL. d+24 < Y.R b24 YL. b24 Y.R g+24 YL. g+24 ]2 V10 O2 Y.R @1 E80,100,60,32,51 P25,18,1 r12 < b12 a+12 _V-4 a+12 _V4 > c+12 < b12 _V-4 b12 _V4 > d+12 c+12 _V-4 c+12 _V4 < b12 a+12 b6 a+12 g+6 g12 g+6 g12~ g12 e12 g12 r12 b12 a+12 _V-4 a+12 _V4 > c+12 < b12 _V-4 b12 _V4 > d+12 c+12 _V-4 c+12 _V4 < b12 a+12 b4. _V-4 b8 _V4 V5 O5 @2 E95,100,50,13,38 PX D1 d+24 < a+24 g24 d+24 < a+24 g24 > d+24 < a+24 g24 d+24 < a+24 > d+24 D0 V10 O2 Y.R @1 E80,100,60,32,51 P25,18,1 H2 r12 < b12 a+12 _V-4 a+12 _V4 > c+12 < b12 _V-4 b12 _V4 > d+12 c+12 _V-4 c+12 _V4 < b12 a+12 b6 a+12 g+6 g12 g+6 g12~ g12 e12 g12 r12 b12 a+12 _V-4 a+12 _V4 > c+12 < b12 _V-4 b12 _V4 > d+12 c+12 _V-4 c+12 _V4 < b12 a+12 b4. _V-4 b8 _V4 V5 O5 @2 E95,100,50,13,38 PX D1 d+24 < a+24 g24 d+24 < a+24 g24 > d+24 < a+24 g24 d+24 < a+24 > d+24 D0 H0 V11 O3 @0 EX PX Y.R c24 < e24 g24 e24 > c24 < e24 > e24 < e24 > c24 < e24 g24 e24 a+24 r24 a+12 _V-4 _V-3 a+12 _V3 _V4 V5 O5 @2 E95,100,50,13,38 Y.R D1 a+24 f+24 d+24 < a+24 f+24 d+24 D0 V11 O3 @0 EX PX YL. c24 < e24 g24 e24 > c24 < e24 > e24 < e24 > c24 < e24 g24 e24 a+24 r24 a+12 _V-4 _V-3 a+12 _V3 _V4 V5 O5 @2 E95,100,50,13,38 Y.R D1 a+24 f+24 d+24 < a+24 f+24 d+24 D0 V11 O2 @0 EX PX Y.R a+24 d+24 g24 d+24 a+24 d+24 > d+24 < d+24 a+24 d+24 g24 d+24 a24 r24 a12 _V-4 _V-3 a12 _V3 _V4 V5 O5 @2 E95,100,50,13,38 Y.R D1 c+24 < a24 e24 c+24 < a24 e24 D0 V11 O2 @0 EX PX YL. a+24 d+24 g24 d+24 a+24 d+24 > d+24 < d+24 a+24 d+24 g24 d+24 a24 r24 a12 _V-4 _V-3 a12 _V3 _V4 V5 O5 @2 E95,100,50,13,38 Y.R D1 c+24 < a24 e24 c+24 < a24 e24 D0 V8 O3 YLR @2 E95,100,70,6,51 P25,18,1 r12 < b12 a+12 Y.R _V-3 a+12 _V3 > YLR c+12 < b12 Y.R _V-3 b12 _V3 > YLR d+12 c+12 Y.R _V-3 c+12 _V3 < YLR b12 a+12 b6 a+12 g+6 g12 g+6 g12~ g12 e12 g12 r12 b12 a+12 Y.R _V-3 a+12 _V3 > YLR c+12 < b12 Y.R _V-3 b12 _V3 > YLR d+12 c+12 Y.R _V-3 c+12 _V3 < YLR b12 a+12 b4. Y.R _V-3 b8 _V3 V5 O5 Y.R @2 E95,100,50,13,38 PX D1 d+24 < a+24 g24 d+24 < a+24 g24 > d+24 < a+24 g24 d+24 < a+24 > d+24 D0 V8 O3 YLR @2 E95,100,70,6,51 P25,18,1 H2 r12 < b12 a+12 Y.R _V-3 a+12 _V3 > YLR c+12 < b12 Y.R _V-3 b12 _V3 > YLR d+12 c+12 Y.R _V-3 c+12 _V3 < YLR b12 a+12 b6 a+12 g+6 g12 g+6 g12~ g12 e12 g12 r12 b12 a+12 Y.R _V-3 a+12 _V3 > YLR c+12 < b12 Y.R _V-3 b12 _V3 > YLR d+12 c+12 Y.R _V-3 c+12 _V3 < YLR b12 a+12 b4. Y.R _V-3 b8 _V3 V5 O5 Y.R @2 E95,100,50,13,38 PX D1 d+24 < a+24 g24 d+24 < a+24 g24 > d+24 < a+24 g24 d+24 < a+24 > d+24 D0 H0 V11 O3 @0 EX PX Y.R c24 < e24 g24 e24 > c24 < e24 > e24 < e24 > c24 < e24 g24 e24 a+24 r24 a+12 _V-4 _V-3 a+12 _V3 _V5 V5 O5 @2 E95,100,50,13,38 Y.R D1 a+24 f+24 d+24 < a+24 f+24 d+24 D0 V11 O3 @0 EX PX YL. c24 < e24 g24 e24 > c24 < e24 > e24 < e24 > c24 < e24 g24 e24 a+24 r24 a+12 _V-4 _V-3 a+12 _V3 _V4 V5 O5 @2 E95,100,50,13,38 Y.R D1 a+24 f+24 d+24 < a+24 f+24 d+24 D0 V11 O2 @0 EX PX Y.R a+24 d+24 g24 d+24 a+24 d+24 > d+24 < d+24 a+24 d+24 g24 d+24 a24 r24 a12 _V-4 _V-3 a12 _V3 _V4 V5 O5 @2 E95,100,50,13,38 Y.R D1 c+24 < a24 e24 c+24 < a24 e24 D0 V11 O2 @0 EX PX YL. a+24 d+24 g24 d+24 a+24 d+24 > d+24 < d+24 a+24 d+24 g24 d+24 a24 r24 a12 _V-4 _V-3 a12 _V3 _V4 V8 O5 @2 E95,100,50,13,38 Y.R c+24 < a24 e24 YL. c+24 < a24 e24 V4 O2 YLR @2 E80,100,60,38,76 P20,19,1 D2 r24 > c+12 < b12 g12 f4 _V-5 f12 _V5 c+12 d+12 g12 f12 d+12 a6 g12 b6 a12 > c+6 < b12 > d+4 < b12 a12 f12 d+4 _V-5 d+12 _V5 < b12 > c+12 f12 d+12 c+12 g6 f12 a6 g12 b6 a12 > c+6~ c+24 < O2 V11 YLR @@4,2,1 E95,100,70,6,51 g+6 Y.R _V-4 g+12 _V4 YLR g+24 Y.R _V-4 g+24 _V4 YLR d+24 Y.R _V-4 d+24 _V4 YLR g+24 Y.R _V-4 g+24 _V4 YLR g+4 f4 a+6 Y.R _V-4 a+12 _V4 YLR a+24 Y.R _V-4 a+24 _V4 YLR f24 Y.R _V-4 f24 _V4 YLR a+24 Y.R _V-4 a+24 _V4 YLR > c4 < g+4 a+6 Y.R _V-4 a+12 _V4 YLR a+24 Y.R _V-4 a+24 _V4 YLR f+24 Y.R _V-4 f+24 _V4 YLR a+24 Y.R _V-4 a+24 _V4 YLR g+6 Y.R _V-4 g+12 _V4 YLR g+24 Y.R _V-4 g+24 _V4 YLR e24 Y.R _V-4 e24 _V4 YLR g+24 Y.R _V-4 g+24 _V4 YLR f2 d+4. Y.R _V-6 d+8 _V6 
!2  L V8 O1 @2 E95,100,50,13,38 PX YLR b4 YL. _V-3 b12 _V3 YLR b12 b12 b4~ b6 YL. _V-3 b12 _V3 YLR a+4 YL. _V-3 a+12 _V3 YLR a+12 a+12 b4~ b6 YL. _V-3 b12 _V3 V12 O2 YL. @1 E80,100,60,32,51 P25,18,1 r12 d+12 c+12 _V-4 c+12 _V4 e12 d+12 _V-4 d+12 _V4 f+12 e12 _V-4 e12 _V4 d+12 c+12 d+6 c+12 < b6 a+12 b6 a+12~ a+12 g+12 a+12 > r12 d+12 c+12 _V-4 c+12 _V4 e12 d+12 _V-4 d+12 _V4 f+12 e12 _V-4 e12 _V4 d+12 c+12 d+4. _V-4 d+8 _V4 V5 O5 @2 E95,100,50,13,38 PX d+24 < a+24 g24 d+24 < a+24 g24 > d+24 < a+24 g24 d+24 < a+24 > d+24 V12 O2 YL. @1 E80,100,60,32,51 P25,18,1 H2 r12 d+12 c+12 _V-4 c+12 _V4 e12 d+12 _V-4 d+12 _V4 f+12 e12 _V-4 e12 _V4 d+12 c+12 d+6 c+12 < b6 a+12 b6 a+12~ a+12 g+12 a+12 > r12 d+12 c+12 _V-4 c+12 _V4 e12 d+12 _V-4 d+12 _V4 f+12 e12 _V-4 e12 _V4 d+12 c+12 d+4. _V-4 d+8 _V4 V5 O5 @2 E95,100,50,13,38 PX d+24 < a+24 g24 d+24 < a+24 g24 > d+24 < a+24 g24 d+24 < a+24 > d+24 H0 [ V5 O2 YLR @2 E95,100,50,13,38 PX c6 _V-3 c12 _V3 c12 < g12 > c12 < a+24 _V-3 a+24 _V3 a+12 _V-3 a+12 _V3 V5 O5 @2 E95,100,50,13,38 YL. D1 a+24 f+24 d+24 < a+24 f+24 d+24 ]2 [ V5 O2 YLR @2 E95,100,50,13,38 PX d+6 _V-3 d+12 _V3 d+12 < a+12 > d+12 c+24 _V-3 c+24 _V3 c+12 _V-3 c+12 _V3 V5 O5 @2 E95,100,50,13,38 YL. c+24 < a24 e24 c+24 < a24 e24 ]2 V9 O3 YLR @2 E95,100,70,6,51 P25,18,1 r12 d+12 c+12 YL. _V-3 c+12 _V3 YLR e12 d+12 YL. _V-3 d+12 _V3 YLR f+12 e12 YL. _V-3 e12 _V3 YLR d+12 c+12 d+6 c+12 < b6 a+12 b6 a+12~ a+12 g+12 a+12 > r12 d+12 c+12 YL. _V-3 c+12 _V3 YLR e12 d+12 YL. _V-3 d+12 _V3 YLR f+12 e12 YL. _V-3 e12 _V3 YLR d+12 c+12 d+4. YL. _V-3 d+8 _V3 V5 O5 YL. @2 E95,100,50,13,38 PX d+24 < a+24 g24 d+24 < a+24 g24 > d+24 < a+24 g24 d+24 < a+24 > d+24 V9 O3 YLR @2 E95,100,70,6,51 P25,18,1 H2 r12 d+12 c+12 YL. _V-4 c+12 _V4 YLR e12 d+12 YL. _V-4 d+12 _V4 YLR f+12 e12 YL. _V-4 e12 _V4 YLR d+12 c+12 d+6 c+12 < b6 a+12 b6 a+12~ a+12 g+12 a+12 > r12 d+12 c+12 YL. _V-4 c+12 _V4 YLR e12 d+12 YL. _V-4 d+12 _V4 YLR f+12 e12 YL. _V-4 e12 _V4 YLR d+12 c+12 d+4. YL. _V-4 d+8 _V4 V5 O5 YL. @2 E95,100,50,13,38 PX d+24 < a+24 g24 d+24 < a+24 g24 > d+24 < a+24 g24 d+24 < a+24 > d+24 H0 [ V5 O2 YLR @2 E95,100,50,13,38 PX c6 _V-3 c12 _V3 c12 < g12 > c12 < a+24 _V-3 a+24 _V3 a+12 _V-3 a+12 _V3 V5 O5 @2 E95,100,50,13,38 YL. D1 a+24 f+24 d+24 < a+24 f+24 d+24 ]2 V5 O2 YLR @2 E95,100,50,13,38 PX d+6 _V-3 d+12 _V3 d+12 < a+12 > d+12 c+24 _V-3 c+24 _V3 c+12 _V-3 c+12 _V3 V5 O5 @2 E95,100,50,13,38 YL. c+24 < a24 e24 c+24 < a24 e24 V5 O2 YLR @2 E95,100,50,13,38 PX d+6 _V-3 d+12 _V3 d+12 < a+12 > d+12 c+24 _V-3 c+24 _V3 c+12 _V-3 c+12 _V3 V12 O2 YLR @2 E80,100,60,38,76 P20,19,1 r12 a12 b12 > c+12 < b12 g12 f4 _V-5 f12 _V5 c+12 d+12 g12 f12 d+12 a6 g12 b6 a12 > c+6 < b12 > d+4 < b12 a12 f12 d+4 _V-5 d+12 _V5 < b12 > c+12 f12 d+12 c+12 g6 f12 a6 g12 b6 a12 > c+4 < O3 V12 YLR @@4,2,1 E95,100,70,6,51 c6 YL. _V-4 c12 _V4 YLR c24 YL. _V-4 c24 _V4 < YLR g+24 YL. _V-4 g+24 _V4 > YLR c24 YL. _V-4 c24 _V4 YLR c+4 < g+4 > d6 YL. _V-4 d12 _V4 YLR d24 YL. _V-4 d24 _V4 < YLR a+24 YL. _V-4 a+24 _V4 > YLR d24 YL. _V-4 d24 _V4 YLR d+4 c4 c+6 YL. _V-4 c+12 _V4 YLR c+24 YL. _V-4 c+24 _V4 < YLR a+24 YL. _V-4 a+24 _V4 > YLR c+24 YL. _V-4 c+24 _V4 < YLR b6 YL. _V-4 b12 _V4 YLR b24 YL. _V-4 b24 _V4 YLR g+24 YL. _V-4 g+24 _V4 YLR b24 YL. _V-4 b24 _V4 YLR a+2 g4. YL. _V-6 g8 _V6 
!3  L O0 V3 @A3 [ YLR g+2.~ g+12 ( YL. g+12 Y.R g+12 ) ]2 [ [ YLR g+12 ( YL. g+12 Y.R g+12 ) ]4 ]3 [ YLR g+12 ( YL. g+12 Y.R g+12 ) ]3 YLR d+24 YL. ( d+24 ) YLR d+24 Y.R ( d+24 ) YLR d+24 YL. ( d+24 ) [ [ YLR a+12 ( YL. a+12 Y.R a+12 ) ]4 ]3 [ YLR a+12 ( YL. a+12 Y.R a+12 ) ]3 YLR f24 YL. ( f24 ) YLR f24 Y.R ( f24 ) YLR f24 YL. ( f24 ) > YLR c4 c24 YL. ( c24 ) YLR c24 Y.R ( c24 ) YLR c24 YL. ( c24 ) < YLR f+24 Y.R ( f+24 ) YLR f+24 YL. ( f+24 ) r12 YLR f+12 > c+12 f+12 YLR c4 c24 YL. ( c24 ) YLR c24 Y.R ( c24 ) YLR c24 YL. ( c24 ) < YLR f+24 Y.R ( f+24 ) YLR f+24 YL. ( f+24 ) r12 YLR > f+12 f12 e12 YLR d+4 d+24 YL. ( d+24 ) YLR d+24 Y.R ( d+24 ) YLR d+24 YL. ( d+24 ) < YLR a24 Y.R ( a24 ) YLR a24 YL. ( a24 ) r12 YLR a12 > e12 a12 YLR d+4 d+24 YL. ( d+24 ) YLR d+24 Y.R ( d+24 ) YLR d+24 YL. ( d+24 ) < YLR a24 Y.R ( a24 ) YLR a24 YL. ( a24 ) r12 YLR a24 Y.R ( a24 ) YLR a24 YL. ( a24 ) YLR a24 Y.R ( a24 ) [ [ YLR g+12 ( YL. g+12 Y.R g+12 ) ]4 ]3 [ YLR g+12 ( YL. g+12 Y.R g+12 ) ]3 YLR d+24 YL. ( d+24 ) YLR d+24 Y.R ( d+24 ) YLR d+24 YL. ( d+24 ) [ [ YLR a+12 ( YL. a+12 Y.R a+12 ) ]4 ]3 [ YLR a+12 ( YL. a+12 Y.R a+12 ) ]3 YLR f24 YL. ( f24 ) YLR f24 Y.R ( f24 ) YLR f24 YL. ( f24 ) > YLR c4 c24 YL. ( c24 ) YLR c24 Y.R ( c24 ) YLR c24 YL. ( c24 ) < YLR f+24 Y.R ( f+24 ) YLR f+24 YL. ( f+24 ) r12 YLR f+12 > c+12 f+12 YLR c4 c24 YL. ( c24 ) YLR c24 Y.R ( c24 ) YLR c24 YL. ( c24 ) < YLR f+24 Y.R ( f+24 ) YLR f+24 YL. ( f+24 ) r12 YLR > f+12 f12 e12 YLR d+4 d+24 YL. ( d+24 ) YLR d+24 Y.R ( d+24 ) YLR d+24 YL. ( d+24 ) < YLR a24 Y.R ( a24 ) YLR a24 YL. ( a24 ) r12 YLR a12 > e12 a12 YLR d+4 d+24 YL. ( d+24 ) YLR d+24 Y.R ( d+24 ) YLR d+24 YL. ( d+24 ) < YLR a24 Y.R ( a24 ) YLR a24 YL. ( a24 ) r12 YLR a24 Y.R ( a24 ) YLR a24 YL. ( a24 ) YLR a24 Y.R ( a24 ) > YLR [ c+12 Y.R ( c+12 ) YLR c+12 c+12 YL. ( c+12 ) YLR c+12 ]3 YLR c+12 Y.R ( c+12 ) YLR c+12 [ c+12 ]3 < [ b12 Y.R ( b12 ) YLR b12 b12 YL. ( b12 ) YLR b12 ]3 YLR b12 Y.R ( b12 ) YLR b12 b12 > c+12 d+12 f+2 f2 d+2 c+2 < b2 e2 a+2 > d+2 
!4  L @1 x12 x12 r12 @7 x4 x4 x12 @3 x12 x12 @1 x12 x12 r12 @7 x4 x4 @3 x12 x12 x12 [ @8 x4 @7 x4 x4 x12 @3 x12 x12 @1 x12 x12 r12 @7 x4 x4 x12 @3 x12 x12 @1 x12 x12 r12 @7 x4 x4 x12 @3 x12 x12 @1 x12 x12 r12 @7 x4 x4 @3 x12 x12 x12 ]2 @8 x4 @3 [ x12 ]3 [ x12 x12 r12 ]2 @8 x4 @3 [ x12 ]3 x12 x12 r12 x12 x24 x24 x12 @8 x4 @3 [ x12 ]3 [ x12 x12 r12 ]2 @8 x4 @3 [ x12 ]3 x12 x12 r12 x12 x24 x24 @7 x12 [ @8 x6 @5 x12 [ @7 x12 @5 x12 x12 ]2 @7 x12 @3 x12 x12 @1 x12 x12 @5 x12 [ @7 x12 @5 x12 x12 ]2 @7 x12 @3 x12 x12 @1 x12 x12 @5 x12 [ @7 x12 @5 x12 x12 ]2 @7 x12 @3 x12 x12 @1 x12 x12 @5 x12 [ @7 x12 @5 x12 x12 ]2 @3 x12 x12 x12 ]2 @8 x4 @3 [ x12 ]3 [ x12 x12 r12 ]2 @8 x4 @3 [ x12 ]3 x12 x12 r12 x12 x24 x24 x12 @8 x4 @3 [ x12 ]3 [ x12 x12 r12 ]2 @8 x4 @3 [ x12 ]3 x12 x12 r12 x12 x24 x24 @7 x12 @8 x4 @4 [ x12 ]3 x4 [ x12 ]3 x4 [ x12 ]3 x6 x12 [ x32 ]8 @8 x4 @4 [ x12 ]3 x4 [ x12 ]3 x4 [ x12 ]3 x6 x12 [ x12 ]3 [ @8 x4 @7 [ x4 ]2 @3 [ x12 ]3 ]2 [ @8 x4 @3 [ x12 ]3 ]2 x4 [ x12 ]3 x4 @8 x4 
!5  V1 L O1 @4 [ YLR g+6 ( Y.R g+12 YL. g+12 ) YLR g+12 g+12 g+4 ( g+12 Y.R g+12 YL. g+12 ) ]2 [ YLR g+12 ( Y.R g+12 YL. g+12 ) ]4 [ YLR g+12 ( Y.R g+12 YL. g+12 ) ]3 YLR g+12 ( g+12 ) d+12 [ YLR g+12 ( Y.R g+12 YL. g+12 ) ]4 [ YLR g+12 ( Y.R g+12 YL. g+12 ) ]3 YLR d+12 d+12 d+12 [ YLR a+12 ( Y.R a+12 YL. a+12 ) ]4 [ YLR a+12 ( Y.R a+12 YL. a+12 ) ]3 YLR a+12 ( a+12 ) f12 [ YLR a+12 ( Y.R a+12 YL. a+12 ) ]4 [ YLR a+12 ( Y.R a+12 YL. a+12 ) ]3 YLR f12 f12 f12 O2 YLR [ @48 W0,100,45 YLR e6 Y.R ( e12 ) YLR e12 c12 e12 YLR c+24 Y.R ( c+24 ) YLR c+12 Y.R ( c+12 ) YLR @4 < f+12 f+12 ( f+12 ) > ]2 @48 W0,100,45 YLR g6 Y.R ( g12 ) YLR g12 d+12 g12 YLR e24 Y.R ( e24 ) YLR e12 Y.R ( e12 ) YLR @4 < a12 a12 ( a12 > ) @48 W0,100,45 YLR g6 Y.R ( g12 ) YLR g12 d+12 g12 YLR e24 Y.R ( e24 ) YLR e12 Y.R ( e12 ) YLR @4 < a12 e12 a12 > O1 @4 [ YLR g+6 ( Y.R g+24 YL. g+24 ) ]4 [ YLR g+6 ( Y.R g+24 YL. g+24 ) ]3 YLR g+12 ( g+12 ) d+12 [ YLR g+6 ( Y.R g+24 YL. g+24 ) ]4 [ YLR g+6 ( Y.R g+24 YL. g+24 ) ]3 YLR d+12 d+12 d+12 [ YLR a+6 ( Y.R a+24 YL. a+24 ) ]4 [ YLR a+6 ( Y.R a+24 YL. a+24 ) ]3 YLR a+12 ( a+12 ) f12 [ YLR a+6 ( Y.R a+24 YL. a+24 ) ]4 [ YLR a+6 ( Y.R a+24 YL. a+24 ) ]3 YLR f12 f12 f12 O2 YLR [ @48 W0,100,45 YLR e6 Y.R ( e12 ) YLR e12 c12 e12 YLR c+24 Y.R ( c+24 ) YLR c+12 Y.R ( c+12 ) YLR @4 < f+12 f+12 ( f+12 ) > ]2 @48 W0,100,45 YLR g6 Y.R ( g12 ) YLR g12 d+12 g12 YLR e24 Y.R ( e24 ) YLR e12 Y.R ( e12 ) YLR @4 < a12 a12 ( a12 > ) @48 W0,100,45 YLR g6 Y.R ( g12 ) YLR g12 d+12 g12 YLR e24 Y.R ( e24 ) YLR e12 Y.R ( e12 ) YLR @4 < a12 e12 a12 > O1 Y.R @40 W0,97,0 [ b24 > c+24 < ]12 [ f24 g24 ]12 [ a24 b24 ]12 [ d+24 f24 ]12 O1 @4 YLR f+4 ( Y.R f+4 YL. f+4 ) YLR [ f12 ]3 YLR d+4 ( Y.R d+4 YL. d+4 ) YLR > [ c+12 ]3 < YLR b4 Y.R ( b4 ) YLR e4 YL. ( e4 ) YLR [ a+4 ]2 [ d+4 ]2 
!6  V1 L O2 YLR @48 W0,100,45 YLR d+4 Y.R ( d+12 ) YLR d+12 d+12 e4~ e6 Y.R ( e12 ) YLR d4 Y.R ( d12 ) YLR d12 d12 d+4~ d+6 Y.R ( d+12 ) O1 YLR @49 W0,100,17 g+24 a+24 b24 > c+24 < b24 a+24 g+24 a+24 b24 > c+24 d+24 e24 d+24 e24 d+24 c+24 < b24 a+24 b24 > c+24 < b24 a+24 g+24 g24 g+24 a+24 b24 > c+24 d+24 e24 d+24 e24 d+24 c+24 < b24 a+24 g+24 a+24 g+24 g24 e24 d+24 e24 d+24 c+24 < b24 a+24 g24 > g+24 a+24 b24 > c+24 < b24 a+24 g+24 a+24 b24 > c+24 d+24 e24 d+24 e24 d+24 c+24 < b24 a+24 b24 > c+24 < b24 a+24 g+24 g24 g+24 b24 > d+24 < b24 > d+24 g+24 d+24 g+24 b24 g+24 b24 > d+24 g24 d+24 < a+24 g24 d+24 < a+24 > g24 d+24 < a+24 g24 d+24 g24 a+24 > c24 c+24 d+24 c+24 c24 < a+24 > c24 c+24 d+24 f24 f+24 f24 f+24 f24 d+24 c+24 c24 c+24 d+24 c+24 c24 < a+24 a24 a+24 > c24 c+24 d+24 f24 f+24 f24 f+24 f24 d+24 c+24 c24 < a+24 > c24 < a+24 a24 f+24 f24 f+24 f24 d+24 c+24 c24 < a24 > a+24 > c24 c+24 d+24 c+24 c24 < a+24 > c24 c+24 d+24 f24 f+24 f24 f+24 f24 d+24 c+24 c24 c+24 d+24 c+24 c24 < a+24 a24 a+24 > c+24 f24 c+24 f24 a+24 f24 a+24 > c+24 < a+24 > c+24 f24 a24 f24 c24 < a24 f24 c24 a24 f24 c24 < a24 f24 a24 O2 YLR @48 W0,100,45 [ YLR g6 YL. ( g12 ) YLR g12 e12 g12 YLR f+24 YL. ( f+24 ) YLR f+12 YL. ( f+12 ) r4 ]2 [ YLR a+6 YL. ( a+12 ) YLR a+12 g12 a+12 YLR a24 YL. ( a24 ) YLR a12 YL. ( a12 ) r4 ]2 O1 @40 W0,97,0 Y.R g+24 a+24 b24 > c+24 < b24 a+24 YLR g+24 a+24 b24 > c+24 d+24 e24 YL. d+24 e24 d+24 c+24 < b24 a+24 YLR b24 > c+24 < b24 a+24 g+24 g24 Y.R g+24 a+24 b24 > c+24 d+24 e24 YLR d+24 e24 d+24 c+24 < b24 a+24 YL. g+24 a+24 g+24 g24 e24 d+24 YLR e24 d+24 c+24 < b24 a+24 g24 > Y.R g+24 a+24 b24 > c+24 < b24 a+24 YLR g+24 a+24 b24 > c+24 d+24 e24 YL. d+24 e24 d+24 c+24 < b24 a+24 YLR b24 > c+24 < b24 a+24 g+24 g24 Y.R g+24 b24 > d+24 < b24 > d+24 g+24 YLR d+24 g+24 b24 g+24 b24 > d+24 YL. g24 d+24 < a+24 g24 d+24 < a+24 YLR > g24 d+24 < a+24 g24 d+24 g24 Y.R a+24 > c24 c+24 d+24 c+24 c24 YLR < a+24 > c24 c+24 d+24 f24 f+24 YL. f24 f+24 f24 d+24 c+24 c24 YLR c+24 d+24 c+24 c24 < a+24 a24 Y.R a+24 > c24 c+24 d+24 f24 f+24 YLR f24 f+24 f24 d+24 c+24 c24 YL. < a+24 > c24 < a+24 a24 f+24 f24 YLR f+24 f24 d+24 c+24 c24 < a24 > Y.R a+24 > c24 c+24 d+24 c+24 c24 YLR < a+24 > c24 c+24 d+24 f24 f+24 YL. f24 f+24 f24 d+24 c+24 c24 YLR c+24 d+24 c+24 c24 < a+24 a24 Y.R a+24 > c+24 f24 c+24 f24 a+24 YLR f24 a+24 > c+24 < a+24 > c+24 f24 YL. a24 f24 c24 < a24 f24 c24 YLR a24 f24 c24 < a24 f24 a24 O2 YLR @48 W0,100,45 [ YLR g6 YL. ( g12 ) YLR g12 e12 g12 YLR f+24 YL. ( f+24 ) YLR f+12 YL. ( f+12 ) r4 ]2 [ YLR a+6 YL. ( a+12 ) YLR a+12 g12 a+12 YLR a24 YL. ( a24 ) YLR a12 YL. ( a12 ) r4 ]2 O1 YL. @40 W0,97,0 [ g24 a24 ]12 [ c+24 d+24 ]12 [ f24 g24 ]12 [ < b24 > c+24 ]12 O1 YLR @48 W0,100,45 r4 f+4 f4 > c+4 < a+2 > c2 < r4 b4 g+4 b4 a+4. g16 a+16 > d+2 < 
