;001 001D4E7C
!1  T130 r16 L _2 @2 O2 @@1,3,1 EP2,0,0,2,0 E100,60,40,3,15 V5 d8. r8 d16 r8 d4 r4 V4 d8. r8 @@1,2,0 P20,10,4 EP-2,0,0,2,0 EX YL. V2 O1 D1 d4 g4. > d8~ d2. V1 d8 r8 r1 YLR r4. r16. O1 V4 EP-2,0,0,2,0 a+8. a8. g+16. @@1,3,1 EP2,0,0,2,0 E100,50,30,3,15 D0 O2 V3 d8. r8 d16 r8 d4 r4 EX P20,10,4 > EX V1 @0 r16 D1 r12 [ e24~ f24~ ]2 V3 [ e24~ f24~ ( ]3 V1 [ e24~ f24~ ( ]3 e8. r16 @@1,2,0 P20,10,4 EP-2,0,0,2,0 V1 O1 Y.R r4 g4 > d4 f4 e2~ e6 d+6 d12 c+12 r4. r16. V4 O1 YLR Y.R a+24. r48 YL. a+24. r48 Y.R a24. r48 YL. g+4~ g+2 r4. r16. EP2,0,0,2,0 @@2,0,1 D0 O3 V2 YLR r4~ g4~ f+4~ f4~ e4~ d+4~ < a4~ a+4 EX r16 D1 V1 O1 Y.R [ f+24 g24 ]6 YLR [ f+24 g24 ]6 YL. [ f+24 g24 ]5 f+24 g24~ g8. r4 YLR @@1,2,0 P20,10,4 EP-2,0,0,2,0 V3 O2 d2 d+4. f8 V2 D1 r32 d2 d+4. f16. D0 @2 O2 V8 @@1,3,1 EP2,0,0,2,0 E100,60,40,3,15 V4 [ d8. r8 d16 r8 d4 r4 ]3 @@1,2,0 E80,100,80,3,7 P20,10,8 EP-6,0,0,3,0 V3 O1 r32 D1 YL. f2 Y.R e2 E80,30,100,10,77 YL. d+2. EPX EX P0,10,8 V2 Y.R d+8. r16 @@1,2,0 E80,100,80,3,7 P20,10,4 EP-2,0,0,2,0 YLR O2 V3 r16 a+16 a+16 a16 a+16 a+16 a+16 a16 r4 r32 O1 V2 D0 E80,100,50,3,10 a+8. P0,10,4 EPX @0 V4 E25,100,25,27,10 a+4.~ a+16 r16 @2 P20,10,2 @@1,3,1 EP1,0,0,2,0 E100,60,40,3,15 O2 V4 f4. V2 f8 O2 V3 f8. r8 f16 r8 f4 r4 f8. r16 @@1,2,0 E80,100,80,3,7 P20,10,2 EP-2,0,0,2,0 r32 D1 V3 O1 Y.R f4 a+4 > f4 e2 V1 e16 V3 e16 f16 g16 g+16 g16 f16 e16 r4 O2 V2 YL. [ g+24 a+24 ]2 YLR [ g+24 a+24 ]2 [ g+24 a+24 Y.R ]2 V1 g+16 r8. YLR EP2,0,0,2,0 @@2,0,1 E100,80,80,3,10 r32 O1 V3 r16 Y.R f16 YL. g16 Y.R g+16 YL. a+16 Y.R g+16 YL. g16 Y.R g+16 YL. f16 Y.R g+16 YL. g16 Y.R g+16 r4 r16 YL. f16 Y.R g16 YL. g+16 Y.R a+16 YL. g+16 Y.R g16 YL. g+16 Y.R f16 YL. g16 Y.R > f16 YL. e16 YLR r4 r8. r32 V2 O3 Y.R [ e24 @1 f24 ]2 YLR [ e24 f24 ]2 [ [ e24 f24 ]3 ]3 YL. V5 [ e24 f24 ( ]3 e24 f24 r12 r4 EP2,0,0,2,0 @@2,0,1 O2 V3 YLR [ r4 f4 e8. d+8. r8 ]2 > r4 f4 e8. d+8.~ d+8~ d+2~ d+8 V2 d+8 r8. r32 
!2  r16 L _2 @@1,3,1 EP2,0,0,2,0 E100,60,40,3,15 O1 V4 a+8. r8 a+16 r8 a+4 r4 V4 a+8. r16 @@1,2,0 E80,100,80,3,7 P20,10,4 EP-2,0,0,2,0 YLR V6 O1 D-1 r32 d4 g4. > d8~ d4. r16. D0 YLR r16 > d16 < a+16 g16 d16 g16 a+16 > d16 EP0,0,-40,5,10 r16 f12. r24 e12. r24 EP0,0,-80,7,10 g8. V3 Y.R g8. V1 YL. g8. YLR EPX r24 YLR r2 O2 V6 EP-2,0,0,2,0 g8. f+8. f8 @@1,3,1 EP2,0,0,2,0 E100,50,30,3,15 O1 V4 a+8. r8 a+16 r8 a+4 r4 E80,100,80,3,7 P20,10,4 > V2 @0 r12 [ e24~ f24~ ) ]2 V8 [ e24~ f24~ ( ]3 V2 [ e24~ f24~ ( ]3 e8. r16 @@1,2,0 E80,100,80,3,7 P20,10,4 EP-2,0,0,2,0 V6 O1 D-1 r32 YLR r4 g4 > d4 f4 e2~ e6 d+6 d12 c+12 r4. r16. D0 V8 O1 g24. r48 g24. r48 f+24. r48 f4~ f2 r2 EP2,0,0,2,0 @@2,0,1 E80,100,80,3,10 O3 V4 r4 a+4 a4 g+4 g4 f+4 c+4 d4 EX V3 O1 YLR f+24 g24 ( f+24 g24 ( f+24 g24 _V2 f+24 g24 _V2 f+24 g24 ) f+24 g24 f+24 g24 ( f+24 g24 f+24 g24 ( f+24 g24 f+24 g24 ( f+24 g24 f+24 g24 f+24 g24 ( f+24 g24 f+24 g24 ( f+24 g24 f+24 g24~ g8. r16 r4 @2 O2 V8 @@1,3,1 EP2,0,0,2,0 E100,60,40,3,15 O1 V4 a+8. r8 a+16 r8 a+4 r4 @@1,2,0 E80,100,80,3,7 P20,10,4 EP-2,0,0,2,0 V6 O2 d2 d+4. f8 @2 O2 V8 @@1,3,1 EP2,0,0,2,0 E100,60,40,3,15 V3 O1 [ a+8. r8 a+16 r8 a+4 r4 ]3 @@1,2,0 E80,100,80,3,7 P20,10,8 EP-6,0,0,3,0 V6 O1 f2 e2 E80,30,100,10,77 d+2. EPX EX P0,10,8 V2 d+8. r16 @@1,2,0 E80,100,80,3,7 P20,10,4 EP-2,0,0,2,0 O3 V6 r16 d16 d16 c+16 d16 d16 d16 c+16 r4 r16 O2 V4 E80,100,50,3,10 f8. P0,10,4 EPX @0 V8 E25,100,25,27,10 f4.~ f16 r16 @2 O2 P20,10,2 @@1,3,1 EP2,0,0,2,0 E100,60,40,3,15 V4 a+4. V2 a+8 O2 V3 a+8. r8 a+16 r8 a+4 r4 a+8. r16 @@1,2,0 E80,100,80,3,7 P20,10,2 EP-2,0,0,2,0 V6 O1 f4 a+4 > f4 e2 V2 e16 V6 e16 f16 g16 g+16 g16 f16 e16 r4 O2 V2 Y.R [ g+24 a+24 _V2 ]2 YLR [ g+24 a+24 ]2 [ g+24 a+24 _V-2 YL. ]2 V1 g+16 r8. YLR EP2,0,0,2,0 @@2,0,1 E100,80,80,3,10 O1 V6 r16 f16 g16 g+16 a+16 g+16 g16 g+16 a+16 g+16 g16 g+16 r4 r16 f16 g16 g+16 a+16 g+16 g16 g+16 a+16 g+16 > f16 e16 r4 r4 V2 O3 Y.R [ e24 @1 f24 ) ]2 YLR [ e24 f24 ) ]2 V6 [ [ e24 f24 ]3 ]3 YL. V5 [ e24 f24 ( ]3 e24 f24 r12 r4 EP2,0,0,2,0 @@2,0,1 E100,80,80,3,10 O2 V7 YLR [ r4 a+4 a8. g+8. r8 ]2 > _V-2 r4 a+4 a8. g+8.~ g+8~ g+2~ g+8 V2 g+8 r8. r16 
!3  r16 L _2 `9F00 `AE00 @A3 YLR E100,60,60,12,0 [ O0 V3 g8 V2 g16 g16 r16 V3 g16 r16 V2 g16 V3 g4 r16 V2 r8 g16 ]7 O0 V3 g8 V2 g16 g16 r16 V3 g16 r16 V2 g16 V3 g4 r16 V2 > EP0,0,-50,2,10 g8 r16 EPX [ O0 V3 g8 V2 g16 g16 r16 V3 g16 r16 V2 g16 V3 g4 r16 r8 V2 g16 ]5 O0 V3 g8 V2 g16 g16 r16 V3 g16 r16 V2 g16 V3 g4 r16 V1 g8 V2 g16 [ O0 V3 g8 V2 g16 g16 r16 V3 g16 r16 V2 g16 V3 g4 r16 r8 V2 g16 ]4 B10 O0 V3 g8 V2 g16 g16 r16 V3 g16 r16 V2 g16 V3 g4 > V2~ g16 <~ g8 r16 O0 V3 g8 V2 g16 g16 r16 V3 g16 r16 V2 g16 V3 g4 r16 r8 V2 g16 [ O0 V3 g8 V2 g16 g16 r16 V3 g16 r16 V2 g16 V3 g4 r16 r8 V2 g16 ]3 B7 O0 V3 g8 V2 g16 g16 r16 V3 g16 r16 V2 g16 V3 g4 > V2~ g16 <~ g8 r16 [ O0 V3 a+8 V2 a+16 a+16 r16 V3 a+16 r16 V2 a+16 V3 a+4 r16 r8 V2 a+16 O0 V3 a+8 V2 a+16 a+16 r16 V3 a+16 r16 V2 a+16 V3 a+4 > V2~ a+16 <~ a+8 r16 ]4 [ O0 V3 a+8 V2 a+16 a+16 r16 V3 a+16 r16 V2 a+16 V3 a+4 r16 r8 V2 a+16 ]2 O0 V3 a+8 V2 a+16 a+16 r16 V3 a+16 r16 V2 a+16 V3 a+8. a+8.~ a+8~ a+2~ a+8. r16 > V2~ a+16 <~ a+8 r16 
!4  r16 L [ @1 x16 @6 x16 x16 x16 @5 x16 @1 x16 @6 x16 x16 @1 x16 @6 x16 x16 x16 @5 x16 @6 x16 x16 x16 ]7 @1 x16 @6 x16 x16 x16 @5 x16 @1 x16 @6 x16 x16 @1 x16 @6 x16 @7 x8 @5 x16 @6 x16 @7 x8 [ @1 x16 @6 x16 x16 x16 @5 x16 @1 x16 @6 x16 x16 @1 x16 @6 x16 @7 x8 @5 x16 @6 x16 x16 x16 ]2 @1 x16 @6 x16 x16 x16 @5 x16 @1 x16 @6 x16 x16 @1 x16 @6 x16 @7 x8 @5 x16 @6 x16 @7 x8 [ @1 x16 @6 x16 x16 x16 @5 x16 @1 x16 @6 x16 x16 @1 x16 @6 x16 @7 x8 @5 x16 @6 x16 x16 x16 ]2 @1 x16 @6 x16 x16 x16 @5 x16 @1 x16 @6 x16 x16 @1 x16 @6 x16 @7 x8 @5 x16 @6 x16 @7 x8 [ @1 x16 @6 x16 x16 x16 @5 x16 @1 x16 @6 x16 x16 @1 x16 @6 x16 @7 x8 @5 x16 @6 x16 x16 x16 ]2 @1 x16 @6 x16 x16 x16 @5 x16 @1 x16 @6 x16 x16 @1 x16 @7 x8 @6 x16 @5 x16 @6 x16 x16 x16 @1 x16 @6 x16 x16 x16 @5 x16 @1 x16 @6 x16 x16 @1 x16 @6 x16 x16 x16 @5 x16 @6 x16 @7 x8 [ @1 x16 @6 x16 x16 x16 @5 x16 @1 x16 @6 x16 x16 @1 x16 @6 x16 @7 x8 @5 x16 @6 x16 @7 x8 ]2 @1 x16 @6 x16 x16 x16 @5 x16 @1 x16 @6 x16 x16 @1 x16 @7 x8 @6 x16 @5 x16 @6 x16 x16 x16 @1 x16 @6 x16 x16 x16 @5 x16 @1 x16 @7 x16 x16 @1 x16 @6 x16 x16 x16 @5 x16 @6 x16 x16 x16 @1 x16 @6 x16 x16 x16 @5 x16 @1 x16 @6 x16 x16 @1 x16 @7 x8 @6 x16 @5 x16 @6 x16 x16 x16 @1 x16 @6 x16 x16 x16 @5 x16 @1 x16 @6 x16 x16 @1 x16 @6 x16 @7 x8 @5 x16 @6 x16 @7 x8 @8 x4 @5 x16 @1 x16 @7 x8 @1 x16 @6 x16 @7 x8 @3 x16 @6 x16 @7 x8 [ @1 x16 @6 x16 @7 x8 @5 x16 @1 x16 @7 x8 @1 x16 @6 x16 @7 x8 @3 x16 @6 x16 @7 x8 ]9 @1 x16 @6 x16 @7 x8 @5 x16 @1 x16 @7 x8 @8 x8. x8.~ x8~ x8 @6 x4 x4 @1 x16 x16 @3 x4 
!5  _2 @1 V0 c32 c32 L _2 r1 r1 r2 @43 W0,97,0 B2 V1 O2 r16 d16 < a+16 g16 d16 g16 a+16 > d16 r1 O1 V0 Y.R @15 W0,97,73 r2 a+8. a8. g+8 r1 @43 W0,97,0 V0 O1 Y.R r12 e24 f24 e24 f24 V1 e24 f24 e24 f24 V0 e24 f24 e24 f24 e24 f24 e24 f24 e24 f24 e24 f24 e24 f24 r1 r1 YLR r2 @15 W0,97,73 V1 O1 a+24. r48 a+24. r48 a24. r48 g+4~ g+2 r2 @43 W0,97,0 D-1 r16 O1 V0 r4 Y.R a+4 YL. a4 Y.R g+4 YL. g4 Y.R f+4 YL. c+4 Y.R d8. V0 O0 r32 c+24 d24 c+24 d24 c+24 d24 V1 c+24 d24 c+24 d24 c+24 d24 c+24 d24 c+24 d24 c+24 d24 V0 c+24 d24 c+24 d24 c+24 d24 c+24 d24 c+24 d24 c+24 d24 c+24 d24 c+24 d24 c+24 d24 c+24 d24 c+24 r16 r32 r4 D0 @15 W0,97,73 O1 V0 YLR [ g2 g+4. a+8 ) ]2 @4 V0 D-1 O1 Y.R r32 r2 r8 @43 W0,97,0 g4.~ g16 f+16 d+16 d16 c+16 < a+16 g16 a+8. > c+8. d32~ V0 c+32 c32 < b32 a+32 r1 D0 @40 W0,97,0 YLR O1 V1 d2 c+2 c2. V0 c8. r16 @9 W0,97,77 O1 r16 a+16 a+16 a16 a+16 a+16 a+16 a16 r4 r16 O1 @15 V0 W0,97,73 a+8.~ a+4.~ a+16 r16 r2 r1 r4 O1 V1 f4 a+4 > f4 e2 r16 V1 e16 f16 g16 g+16 g16 f16 e16 r4 @15 W0,97,73 V0 [ d+24 f24 ]6 V0 d+16 r8. @26 O1 V1 Y.R r16 f16 g16 g+16 a+16 g+16 g16 g+16 a+16 g+16 g16 g+16 V0 YL. a+16 g+16 g16 g+16 V1 Y.R r16 f16 g16 g+16 a+16 g+16 g16 g+16 a+16 g+16 > f16 e16 < V0 YL. f16 g16 > f16 e16 D0 @40 W0,97,0 r4 YLR V0 O2 YLR [ [ c+24 d24 ]3 ]5 c+24 d24 r6 r8 @4 O1 YL. g24 V0 g24 g24 YLR V1 O1 a+4 @40 W0,97,0 O1 V1 f4 e8. d+8. @4 O1 Y.R g24 V0 g24 g24 YLR V1 a+4 @40 W0,97,0 O1 V1 f4 e8. d+8. @4 O1 YL. g24 V0 g24 g24 YLR O1 YLR V1 a+8. V0 a+16 YLR V1 a+24 V0 a+24 a+24 a+24 a+24 a+24 V1 a+8. a+8.~ a+8~ a+2. a+16 Y.R g8 YLR @1 V0 O2 c32 c32 
!6  r16 L _2 O1 V1 @15 W0,97,73 r1 r4 d4 g4. > d8~ d1 @43 W0,97,0 B2 V1 O2 r16 f12. r24 e12. r24 g8 V0~ f+64~ f64~ e64~ d+64~ c+64~ c64 <~ b64~ a+64~ a64~ g+64~ g64 r4 r64 r24 O2 V1 @15 W0,97,73 r2 O2 g8. f+8. f8 @4 V1 O1 r16 YLR g16 g16 YL. d8 YLR g8 Y.R d8 YLR g16 g16 YL. d16 YLR g8. g16 @40 W0,97,0 V0 O1 YL. r12 e24 f24 e24 f24 V1 e24 f24 e24 f24 V0 e24 f24 e24 f24 e24 f24 e24 f24 e24 f24 e24 f24 e24 f24 O1 V1 @15 W0,97,73 YLR r4 g4 > d4 f4 e2~ e6 d+6 d12 c+12 @4 V1 O1 r16 YLR g16 g8 YL. d16 d8 YLR g8 g8 V0 g16 V1 r16 g16 g16 g16 r16 g8 g8 V0 g16 g16 V1 g8 V0 g16 g16 V1 g16~ g4 @43 W0,97,0 O2 V1 r4 g4 f+4 f4 e4 d+4 < a4 a+4 @40 W0,97,0 P0,10,4 V0 O1 YL. f+4. V1 f+4. V0 f+4~ f+2~ f+8.~ r16 r4 @15 W0,97,73 O2 V0 YLR [ d2 d+4. f8 ) ]2 @4 V1 O1 YLR r16 g16 g16 V0 g16 V1 g16 Y.R d8 YLR g8. @43 W0,97,0 g4.~ g16 f+16 d+16 d16 c+16 < a+16 g16 a+8. > c+8. d16.~ V0 c+64 c64 < b64 a+64 a64 a64 r1 @40 W0,97,0 O1 V1 f2 e2 d+2. V0 d+8. r16 @61 W0,97,65 O2 r16 d16 d16 c+16 d16 d16 d16 c+16 r4 r16 O2 @15 V0 W0,97,73 f8.~ f4.~ f16 r16 r2 r1 @9 W0,97,77 r4 O1 V1 f4 a+4 > f4 e2 r16 V1 e16 f16 g16 g+16 g16 f16 e16 r4 O2 @9 W0,97,77 V0 [ [ g+24 a+24 ]3 V1 ]2 V0 g+16 r8. @4 O1 V1 YLR r16 f16 g16 g+16 a+16 g+16 g16 g+16 a+16 g+16 g16 g+16 r4 r16 f16 g16 g+16 a+16 g+16 g16 g+16 a+16 g+16 > f16 e16 r4 YLR @40 W0,97,0 r4 V0 O2 [ e24 f24 ]3 V1 [ [ e24 f24 ]3 ]2 V0 [ [ e24 f24 ]3 ]2 e24 f24 r6 r4 @40 W0,97,0 O1 V1 [ r4 a+4 a8. g+8. r8 ]2 O2 V1 r4 a+4 a8. g+8.~ g+8~ g+2~ g+8 V0 g+8 r4 
