;002 001D5E0E
!1  T172 @@1,2,0 EP-4,0,0,1,0 E100,80,80,4,0 O3 V6 d+8 d+8 d+8 d+8 d+8 d8 _V-2 Y.R d+8 d8 _V-2 YL. d+8 d8 YLR _V4 r2. d+8 d+8 d+8 d+8 d+8 d8 _V-2 YL. d+8 d8 _V-2 Y.R d+8 d8 YLR _V4 r2. c4 c8 c8 EP0,0,-12,8,15 < b4 EP-4,0,0,1,0 _V-2 f8 _V2 _V2 > c2 @2 EPX EX D-1 YL. V4 r24 O2 d+8 > > d+8 < a+8 f8 < < f4 > a+8 > d+8 g+8 g8 < g8 g8 O1 > Y.R c4 < f8 a+8 > d+8 > > d+8 < a+8 f8 < < f4 > a+8 > d+8 g+12 D0 YLR @@1,3,1 EP-4,0,0,2,0 E100,70,40,1,15 V6 d8 d8 _V-4 d8 d8 L @2 EP-4,0,0,1,0 B5 PX O3 V4 D-1 r16 YL. c4 c8 c8 c8 c8 c8 d8 ( d+8 ) d8 d8 c8 c8 d8 c8 d8 c8 c8 c8 c8 c8 c8 c8 d8 d+8 d8 d8 c8 c8 c8 c8 < b16 > @@1,2,0 EP-4,0,0,1,0 E100,50,50,4,0 O3 V8 YLR P15,10,8 D0 d8 d4~ f2 _V-4 f8 _V4 c8 c4~ d+2 _V-4 d+8 _V4 g8 < b8 b8 b8 _V-4 b8 ( > g8 < b8 ( b8 b8 r8 > g8 < b8 b8 r4. > @2 EP-4,0,0,1,0 O3 V4 D-1 r16 YL. PX c8 c8 c8 c8 c8 c8 c8 d8 d+8 d8 d8 c8 c8 d8 c8 d8 c8 c8 c8 c8 c8 c8 c8 d8 d+8 d8 d8 c8 c8 c8 c8 < b16 > @@1,2,0 EP-4,0,0,1,0 E100,50,50,4,0 O3 V6 YLR P15,10,8 D0 d8 d4~ f2 _V-4 f8 _V4 c8 c4~ d+2 _V-4 d+8 _V4 < b8 ( b8 ) b8 ( b8 ) b8 > f8 _V-4 f8 _V3 g8 ) f8 d+8 @@1,3,1 EPX E100,70,40,1,15 V8 O3 f8 g8 _V-4 f8 _V4 g8 f8 g8 _V-4 f8 _V4 c4. d8 _V-4 e8 _V4 e4 @@1,2,0 EP-4,0,0,1,0 E100,50,50,4,0 P15,10,8 D0 O2 V8 g+4 g+8 g+8 g+4 g+4 a+4 > c4 < a+4 g+4 g2 @@1,3,1 EPX E100,70,40,1,15 V6 P15,13,6 O2 d+2 d2 c2 @@1,2,0 EP-4,0,0,1,0 E100,50,50,4,0 P15,10,8 D0 O2 V8 f4 f4 f4 g+8 g4. g+4 g4 f4 d+2 @@1,3,1 EPX E100,70,40,1,15 V8 P15,13,6 O2 d+2 d2 c4 @@1,2,0 EP-4,0,0,1,0 E100,50,50,4,0 P15,10,8 D0 O2 V8 d+8 d+8 f8 f8 r8 _V-2 f8 _V2 f8 f8 g+8 g2. _V-4 g8 _V4 d+8 f8 g4. g8 g4 a+8 g+2 _V-4 g+8 _V4 r4 g+8 g+8 a1 r4 a8 a8 a6 > d6 c6 E100,50,65,4,31 < b2~ b8 E100,50,50,4,0 @@1,3,1 EPX E100,70,40,1,15 V6 PX H-5 O3 _V-2 a+16 > c16 d12 d+12 f12 _V2 EP-2,0,0,2,0 g+6 g+6 g+6 EP0,0,-30,5,9 g8 _V-2 g8 _V-2 g8 EPX H0 B10 @@1,2,0 EP-2,0,0,1,0 E100,50,50,4,0 P8,10,4 D0 O4 V8 d+4 ( d+8 ) d+8 ( d+8 ) d8 c8 _V-3 c8 _V3 d+4 ( d+8 ) d+8 ( d+8 ) d8 c8 _V-5 d+8 _V5 r8 < c1 <~ g+2 _V3~ > c4. EPX > d4 ( d8 ) d8 ( d8 ) c8 < a+8 _V-3 a+8 _V3 > d4 ( d8 ) d8 ( d8 ) c8 < a+8 _V-5 a+8 _V4 r8 < g8 ( g8 ) g8 ( g8 ) g8 a8 _V-3 a8 _V3 b2 _V-3 b4 _V-2 b4 _V5 > > d+4 ( d+8 ) d+8 ( d+8 ) d8 c8 _V-3 c8 _V3 d+4 ( d+8 ) d+8 ( d+8 ) d8 c8 _V-5 c8 _V5 r8 < c1~ < g+2~ > c4. r8 EPX @@1,2,0 EP-4,0,0,1,0 E100,80,80,4,0 O3 V6 d+8 d+8 d+8 d+8 d+8 d8 _V-2 Y.R d+8 d8 _V-2 YL. d+8 d8 YLR _V4 r2. d+8 d+8 d+8 d+8 d+8 d8 _V-2 YL. d+8 d8 _V-2 Y.R d+8 d8 YLR _V4 r2. c4 c8 c8 EP0,0,-12,8,15 < b4 EP-4,0,0,1,0 _V-2 < f8 _V2 d+2 _V-2 d+4 _V-2 d+4 r8 @2 V3 D-1 E100,80,70,2,8 EPX O1 PX r16 Y.R [ d+16 g16 a+16 > d+16 g16 a+16 > d+16 g16 > d+16 < a+16 g16 d+16 < a+16 g16 d+16 < a+16 d+16 g16 a+16 > d+16 g16 a+16 > d+16 g16 > d+16 < a+16 g16 d+16 < a+16 g16 d+16 < a+16 H3 YL. ]2 H6 Y.R d+16 g16 a+16 > d+16 g16 a+16 > d+16 g16 > d+16 < a+16 g16 d+16 < a+16 g16 d+16 < a+16 d+16 g16 a+16 > d+16 g16 a+16 > d+16 g16 > d+16 < a+16 g16 d+16 < a+16 g16 d+16 < a+16 H9 YL. d+16 g16 a+16 > d+16 g16 a+16 > d+16 g16 > d+16 < a+16 g16 d+16 < a+16 g16 d+16 < a+16 d+16 g16 a+16 > d+16 g16 a+16 > d+16 H0 D0 YLR @@1,3,1 EPX E100,70,40,1,15 V6 P15,13,6 O2 g8 g8 _V-6 g8 g8 
!2  @@1,2,0 EP-4,0,0,1,0 E100,80,80,4,0 O3 V8 g+8 g+8 g+8 g+8 g+8 g8 _V-4 Y.R g+8 g8 _V-2 YL. g+8 g8 YLR _V6 r2. g+8 g+8 g+8 g+8 g+8 g8 _V-4 YL. g+8 g8 _V-2 Y.R g+8 g8 YLR _V6 r2. g+4 g+8 _V-2 g+8 _V2 EP0,0,-12,8,15 g4 EP-4,0,0,1,0 _V-2 < b8 _V-2 d+4 @@1,3,1 EPX E100,70,40,1,15 V8 O1 f8 a+8 > d+8 > > d+8 < a+8 _V-2 f8 _V2 < < f4 > a+8 > d+8 g+8 g8 < g8 _V-3 g8 _V4 O1 > c4 < f8 a+8 > d+8 > > d+8 < a+8 _V-2 f8 _V2 < < f4 > a+8 > d+8 g+8 EP-4,0,0,2,0 g8 g8 _V-4 YL. g8 Y.R _V-2 g8 YLR _V6 L @@1,2,0 EP-4,0,0,1,0 E100,50,50,4,0 P15,10,4 D0 B5 O3 V10 c4 c8 ( c8 ) c8 ( c8 ) c8 ( d8 _V-4 d+8 _V4 d8 ) d8 ( c8 ) c8 _V-4 d8 _V-2 c8 d8 _V6 c8 ( c8 ) c8 ( c8 ) c8 ( c8 ) c8 ( d8 ) d+8 ( d8 ) d8 c8 _V-4 c8 _V3 c8 ) c8 < ( b8 ) a+8 a+4 >~ d2 _V-4 < a+8 _V4 g+8 g+4 >~ c2 _V-4 < g+8 _V4 b8 g8 g8 g8 _V-6 g8 ( b8 g8 ( g8 g8 r8 b8 g8 g8 r4. _V8 > c8 ( c8 ) c8 ( c8 ) c8 ( c8 ) c8 ( d8 ) d+8 ( d8 ) d8 ( c8 ) c8 _V-4 d8 _V-2 c8 d8 _V6 c8 ( c8 ) c8 ( c8 ) c8 ( c8 ) c8 ( d8 ) d+8 ( d8 ) d8 ( c8 ) c8 ( c8 ) c8 < ( b8 ) a+8 a+4 >~ d2 _V-6 < a+8 _V6 g+8 g+4 >~ c2 _V-6 < g+8 _V6 g8 ( g8 ) g8 ( g8 ) g8 > d8 _V-6 d8 _V5 d+8 ) d8 c8 @@1,3,1 EPX E100,70,40,1,15 V8 PX O2 a+8 > c8 _V-4 < a+8 > _V4 c8 < a+8 > c8 _V-4 < a+8 _V4 e4. f8 _V-4 f8 _V4 g4 @@1,2,0 EP-4,0,0,1,0 E100,50,50,4,0 P15,10,6 D0 O3 V10 c4 c8 c8 c4 c4 d4 d+4 d4 c4 < a+2 @@1,3,1 EPX E100,70,40,1,15 V8 P15,13,6 O2 g2 f2 g2 @@1,2,0 EP-4,0,0,1,0 E100,50,50,4,0 P15,10,6 D0 O2 V10 g+4 g+4 g+4 > c8 < a+4. > c4 < a+4 g+4 g2 @@1,3,1 EPX E100,70,40,1,15 V8 P15,13,6 O2 g2 f2 g4 @@1,2,0 EP-4,0,0,1,0 E100,50,50,4,0 P15,10,6 D0 g8 g8 g+8 g+8 r8 _V-2 g+8 _V2 g+8 g+8 > c8 < a+2. _V-5 a+8 _V5 g8 g+8 a+4. a+8 a+4 > d8 c2 _V-4 c8 _V4 r4 c8 c8 d1 r4 d8 d8 d6 f6 d+6 E100,50,65,4,31 d2~ d8 E100,50,50,4,0 @@1,3,1 EPX E100,70,40,1,15 V8 PX O3 _V-3 a+16 > c16 _V2 d12 ( d+12 ) f12 ) EP-2,0,0,2,0 g+6 g+6 g+6 EP0,0,-30,5,9 g8 _V-4 g8 _V-2 g8 EPX @@1,2,0 EP-4,0,0,1,0 E100,50,50,4,0 P15,10,6 D0 O3 V10 g4 ( g8 ) g8 ( g8 ) f8 d+8 _V-5 d+8 _V5 g4 ( g8 ) g8 ( g8 ) f8 d+8 _V-5 d+8 _V5 f4 f8 ( f8 ) f8 f8 g8 _V-5 g8 _V5 c2 _V-5 c2 _V5 f4 ( f8 ) f8 ( f8 ) d+8 d8 _V-5 d8 _V5 f4 ( f8 ) f8 ( f8 ) d+8 d8 _V-5 d8 _V4 r8 d+8 ( d+8 ) d+8 ( d+8 ) d+8 f8 _V-5 f8 _V5 g2 _V-5 g4 _V-2 g4 _V7 g4 ( g8 ) g8 ( g8 ) f8 d+8 _V-5 d+8 _V5 g4 ( g8 ) g8 ( g8 ) f8 d+8 _V-5 d+8 _V5 f4 f8 ( f8 ) f8 f8 g8 _V-5 g8 _V5 c2 _V-5 c2 _V5 r8 @@1,2,0 EP-4,0,0,1,0 E100,80,80,4,0 O3 V8 g+8 g+8 g+8 g+8 g+8 g8 _V-4 Y.R g+8 g8 _V-2 YL. g+8 g8 YLR _V6 r2. g+8 g+8 g+8 g+8 g+8 g8 _V-4 YL. g+8 g8 _V-2 Y.R g+8 g8 YLR _V6 r2. g+4 g+8 _V-2 g+8 _V2 EP0,0,-12,8,15 g4 EP-4,0,0,1,0 _V-2 < b8 _V2 > c2 _V-4 c4 _V-2 c4 r8 @2 V6 E100,50,20,2,8 EPX O1 PX [ d+16 g16 a+16 > d+16 g16 a+16 > d+16 g16 > d+16 < a+16 g16 d+16 < a+16 g16 d+16 < a+16 d+16 g16 a+16 > d+16 g16 a+16 > d+16 g16 > d+16 < a+16 g16 d+16 < a+16 g16 d+16 < a+16 H3 ]2 H6 d+16 g16 a+16 > d+16 g16 a+16 > d+16 g16 > d+16 < a+16 g16 d+16 < a+16 g16 d+16 < a+16 d+16 g16 a+16 > d+16 g16 a+16 > d+16 g16 > d+16 < a+16 g16 d+16 < a+16 g16 d+16 < a+16 H9 d+16 g16 a+16 > d+16 g16 a+16 > d+16 g16 > d+16 < a+16 g16 d+16 < a+16 g16 d+16 < a+16 d+16 g16 a+16 > d+16 g16 a+16 > d+16 g16 > H0 @@1,3,1 EPX E100,70,40,1,15 V8 P15,13,6 O2 b8 b8 _V-6 b8 b8 
!3  V3 O1 `9F00 `2E09 @A3 `AE00 B1 O0 V3 E100,100,80,2,4 [ O1 g+8 g+8 g+8 g+8 g+8 g8 V1 g+8 g8 r1 V3 ]2 g+8 _V-2 g+8 r4 EP-40,0,0,8,0 _V2 g4 EPX g8 c4 ( c8 ) c8 _V-2 c8 _V2 d+4 _V-2 d+8 _V2 f4 ( f8 ) f8 _V-2 f8 _V2 g4 ( g8 ) c4 ( c8 ) c8 _V-2 c8 _V2 d+4 _V-2 d+8 _V2 f4 ( f8 ) f8 _V-2 f8 _V2 g8 g8 _V-2 EX g8 g8 E100,100,80,2,4 L V3 c8 V2 c8 c8 V3 c8 V2 c8 c8 V3 c8 V2 c8 V2 c8 V3 c8 V2 c8 V3 c8 V2 c8 c8 V3 c8 V2 c8 V3 c8 V2 c8 c8 V3 c8 V2 c8 c8 V3 c8 V2 c8 V2 c8 V3 c8 V2 c8 V3 c8 V2 c8 c8 V3 c8 V2 < b8 V3 a+8 V2 a+8 a+8 V3 a+8 V2 a+8 a+8 V3 a+8 V2 a8 V2 g+8 V3 g+8 V2 g+8 V3 g+8 V2 g+8 g+8 V3 g+8 V2 g+8 V3 g8 g8 g8 g8 r2 r4 V3 EP-120,120,120,77,0 O0 g2. EPX O1 V3 c8 V2 c8 c8 V3 c8 V2 c8 c8 V3 c8 V2 c8 V2 c8 V3 c8 V2 c8 V3 c8 V2 c8 c8 V3 c8 V2 c8 V2 c8 V3 c8 V2 c8 V3 c8 V2 c8 c8 V3 c8 V2 c8 V3 c8 V2 c8 c8 V3 c8 V2 c8 c8 V3 c8 V2 < b8 V3 a+8 V2 a+8 a+8 V3 a+8 V2 a+8 a+8 V3 a+8 V2 a8 V3 g+8 V2 g+8 g+8 V3 g+8 V2 g+8 g+8 V3 g+8 V2 g+8 V3 g8 V2 g8 g8 V3 g8 V2 g8 g8 V3 g8 V2 b8 > V3 c8 c8 < a+8 > c8 V1 c8 V3 c8 < a+8 > c8 V1 c8 V3 < e4. f4 g4 `2E63 @A8 V3 E100,50,50,4,0 O2 [ c16 d+16 g+16 > c16 d+16 g+16 > c16 d+16 g+16 d+16 c16 < g+16 d+16 c16 < g+16 d+16 d16 f16 a+16 > d16 f16 a+16 > d16 f16 a+16 f16 d16 < a+16 f16 d16 < a+16 f16 d16 d+16 g16 a+16 > d16 d+16 g16 a+16 > g16 d+16 d16 < a+16 g16 d+16 d16 < a+16 d16 f16 a+16 > c16 d16 f16 a+16 > c16 g16 e16 d16 c16 < g16 e16 d16 c16 < ]2 c16 d+16 g+16 > c16 d+16 g+16 > c16 d+16 g+16 d+16 c16 < g+16 d+16 c16 < g+16 d+16 d16 f16 a+16 > d16 f16 a+16 > d16 f16 a+16 f16 d16 < a+16 f16 d16 < a+16 f16 d16 d+16 g16 a+16 > d16 d+16 g16 a+16 > g16 d+16 d16 < a+16 g16 d+16 d16 < a+16 d+16 g16 > c16 d+16 g16 > c16 d+16 g16 > c16 g16 d+16 d16 c16 < g16 d+16 V1 d16 `2E09 @A3 O1 V3 d8 V2 d8 d8 V3 d8 V2 d8 d8 V1 d8 V3 d8 d8 V2 d8 d8 V3 d8 V2 d8 d8 V1 d8 V3 d8 < V3 g8 V2 g8 g8 V3 g8 V2 g8 g8 V1 g8 V3 g8 g+6 g+6 g+6 g4 r8 > [ V3 c4 V2 c8 V3 c8 V2 c8 < V2 a+16 V1 b16 V3 > c8 V2 c8 ]2 c8 < V3 f8 V2 f8 V3 f8 V2 f8 V3 f8 V2 f8 V3 f8 V2 f8 V3 f8 V2 f8 V3 f8 V2 f8 V3 f16 f+16 V2 g16 g+16 V3 a8 [ V3 a+4 V2 a+8 V3 a+8 V2 a+8 < V2 g+16 V1 a16 V3 a+8 V2 a+8 ]2 a+8 d+8 d+8 d+8 d+8 d+8 d+8 d+8 d+8 r8 g8 g8 g8 g+8 g8 r8 > [ V3 c4 V2 c8 V3 c8 V2 c8 < V2 a+16 V1 b16 V3 > c8 V2 c8 ]2 c8 < [ V3 f8 V2 f8 ]8 [ O1 g+8 g+8 g+8 g+8 g+8 g8 V1 g+8 g8 r1 V3 ]2 g+8 _V-2 g+8 r4 EP-40,0,0,8,0 _V2 g4 EPX g8 > c4 < V2 b16 a+16 V3 a12 V2 g+12 g12 V3 f+6 V2 f6 e6 V3 d+8 d+8 c+8 d+8 r8 d+8 c+8 d+8 r8 d+8 c+8 d+8 r8 e8 f8 [ f+4 f+8 e8 f+8 r8 f+8 e8 f+8 r8 f+8 e8 f+8 r8 g8 g+8 H3 ]2 H6 f+4 f+8 e8 f+8 r8 f+8 e8 f+8 r8 f+8 e8 f+8 H0 b8 b8 V1 b8 b8 E100,100,80,2,4 
!4  r1 r1 r1 r1 r2. r8 @8 @8 x4 @6 x8 [ @5 x8 @6 x8 ]6 @5 x8 @8 x4 @6 x8 [ @5 x8 @6 x8 ]5 @8 x8 x4. L @8 x4 @6 x4 x4 x4 x4 x4 x4 x4 [ x4 x4 x4 x4 ]4 @5 x8 x8 x8 x8 @6 [ x8 ]4 @13 x1 @8 x4 @6 x4 x4 x4 x4 x4 x4 x4 [ x4 x4 x4 x4 ]5 [ @5 x8 @6 x8 ]4 @5 x8 @8 x4. @6 x4 x4 [ @5 x8 @6 x8 @5 x8 @6 x8 @5 x8 @6 x8 @5 x8 @6 x8 ]11 [ @5 x8 @6 x8 ]2 @6 x4 x4 @7 x4 @5 x8 @6 x16 x16 @5 x8 @6 x16 x16 @5 x8 @6 x16 x16 [ @5 x8 @6 x16 x16 @5 x8 @6 x16 x16 @5 x8 @6 x16 x16 @5 x8 @6 x16 x16 ]2 @7 x6 x6 x6 @8 x4 @5 x8 @8 x4. [ @5 x8 @6 x8 ]7 [ @5 x8 @6 x8 ]7 @5 x8 @8 x4. [ @5 x8 @6 x8 ]7 [ @5 x8 @6 x8 ]4 @7 x4 @6 x4 x4 x8 @8 x4. [ @5 x8 @6 x8 ]7 [ @5 x8 @6 x8 ]6 x4 x4 r1 r1 r1 r1 r2. r8 @8 @7 x4 @6 x16 x16 @5 x12 @6 x12 x12 @5 x6 @6 x6 x6 @8 x4 [ @5 x8 @6 x8 ]3 [ [ @5 x8 @6 x8 ]4 ]6 @5 x8 @6 x8 @5 x8 @6 x8 @7 x8 x4. 
!5  YLR @0 O2 [ V1 c8 V0 c8 c8 c8 c8 c8 c8 c8 @20 V1 c1 @0 ]2 @14 d+8 r4. d4. O1 V0 c4 c8 c8 r8 d+8 d+8 r8 f4 f8 f8 r8 g8 g8 r8 O1 V0 c4 c8 c8 r8 d+8 d+8 r8 f4 f8 f8 r8 > V1 g8 g8 r4 L [ V1 @0 c4 @24 c8 @0 c4. @24 c8 @0 V0 c8 ]5 V1 @0 c4 @24 c8 @0 c4. @24 c8 c16 V0 c16 V1 c8 c8 c8 c8 @24 O3 V0 Y.R c8 YL. c8 Y.R c8 YL. c8 Y.R c8 YL. c8 Y.R c8 YL. c8 O2 YLR @24 c16 c16 c16 c16 V1 c16 c16 @0 c8 [ V1 @0 c4 @24 c8 @0 c4. @24 c8 @0 V0 c8 ]7 V1 @0 c8 c8 @24 c8 @0 c4 V0 c8 V1 @24 c8 c4 @24 c4. V0 c16 V1 c16 @0 c8 @24 c8 c16 V0 c16 V1 [ @0 c2 @24 c2 r8 @0 V0 c4 V1 c8 @24 c2 @0 c2 @24 c2 r8 @0 V0 c4 V0 c16 V0 c16 V1 @24 c2 ]2 @0 c2 @24 c2 r8 @0 V0 c4 V1 c8 @24 c2 @0 c2 @24 c2 r8 @0 V0 c4 V0 c16 V0 c16 @24 c16 c16 c16 c16 c16 c16 c16 c16 [ V1 @0 c4 @24 c8 @0 c4. @24 c8 V0 @0 c8 ]3 @24 V1 c6 V0 c6 c6 V1 c4. @0 V1 c4 c8 @24 c4 @0 c4 @24 c8 @0 c4 c8 @24 c4 @0 c4 @24 c4 @0 c4 @24 c8 @0 V0 c8 V1 c4 @24 c8 @0 V0 c8 V1 c4 @24 c8 @0 V0 c8 V1 c4 @24 c8 @0 c4 c8 @24 c4 @0 c4 @24 c8 @0 c4 c8 @24 c4 @0 c4 @24 c4 @0 c4 @24 c8 @0 V0 c8 V1 c4 @24 c8 @0 V0 c8 V1 c8 @24 V0 c8 V1 c8 V0 c8 V1 c8 c8 r8 @0 V1 c4 c8 @24 c4 @0 c4 @24 c8 @0 c4 c8 @24 c4 @0 c4 @24 c4 @0 c4 @24 c8 @0 V0 c8 V1 c4 @24 c8 @0 V0 c8 V1 c4 @24 c8 @0 V0 c8 V1 c16 @24 c16 V1 c8 c8 V0 c16 V1 c16 O2 @24 V1 c8 V0 c8 c8 c8 V1 c8 c4. r4 @24 O3 c4 V0 YL. c8 YLR @22 O2 c24 c24 c24 V1 c4 @24 V1 c8 V0 c8 c8 c8 V1 c8 c4. r4 @24 O3 c4 V0 YL. c8 YLR @22 O2 c24 c24 c24 V1 c8 V0 @0 c8 @24 V1 c2 c4 @0 V0 c8 @24 c4 c16 c16 c12 c12 c12 c6 c6 c6 @0 c4 @24 c4 @0 c4 @24 c4 @0 c4 @24 c4 @0 c4 @24 c8 @0 c4. @24 c4 @0 c4 @24 c4 @0 c4 @24 c4 @0 c4 @24 c8 @0 c4. @24 c4 @0 c4 @24 c4 @0 c4 @24 c4 @0 c4 @24 c8 @0 c4. @24 c4 @0 c4 @24 c4 @0 c4 @24 c4 c8 c8 r4 
!6  O2 @24 V1 c8 V0 c8 c8 c8 V1 c8 c4. r4 @24 O3 V0 c4 YL. c8 YLR @22 O2 c24 c24 c24 V1 c4 @24 V1 c8 V0 c8 c8 c8 V1 c8 c4. r4 @24 O3 V0 c4 YL. c8 YLR @22 O2 c24 c24 c24 V1 c8 V0 @0 c8 @24 V1 c2 c4 @0 V0 c8 @0 V1 c4 V0 c8 V1 @24 c8 V0 @0 c8 V1 c4 @24 c8 @0 V1 c4 V0 c8 V1 @24 c8 V0 @0 c8 V1 c8 @24 V0 c16 V1 c16 V0 @0 c8 @0 V1 c4 V0 c8 V1 @24 c8 V0 @0 c8 V1 c4 @24 c8 @0 V0 c8 @0 V1 c8 V0 c8 V1 @24 c8 V0 @0 c16 V1 c16 V1 @24 c8 c4. L @21 O2 V1 c8 V0 c8 c8 V1 c8 V0 c8 c8 c8 c8 V0 c8 V1 c8 V0 c8 V1 c8 V0 c8 @8 V1 a8 f+8 d8 @21 V1 c8 V0 c8 c8 V1 c8 V0 c8 c8 c8 c8 V0 c8 V1 c8 V0 c8 V1 c8 V0 c8 V1 c8 c8 V0 < b8 V1 a+8 V0 a+8 a+8 V1 a+8 V0 a+8 a+8 V1 a+8 V0 a8 V1 g+8 V0 g+8 g+8 V1 g+8 V0 g+8 g+8 V1 g+8 V0 g+8 @14 > V1 b8 g8 g8 g8 r2 r1 @21 O2 V1 c8 V0 c8 c8 V1 c8 V0 c8 c8 c8 c8 V0 c8 V1 c8 V0 c8 V1 c8 @15 W0,98,57 V1 a+8 V0 a8 g+8 @21 O2 c8 V1 c8 V0 c8 c8 V1 c8 V0 c8 c8 c8 c8 V0 c8 V1 c8 V0 c8 V1 c8 V0 c8 V1 c8 @14 c8 V0 < b8 V1 a+8 O1 @21 V0 a+8 a+8 V1 a+8 V0 a+8 a+8 V1 @14 a+8 a8 V1 g+8 O1 @21 V0 g+8 g+8 V1 g+8 V0 g+8 g+8 V1 g+8 g+8 V1 g8 V0 g8 g8 V1 g8 V0 g8 g8 g8 g8 @14 O3 V1 c8 c8 < a+8 > c8 V0 < a+8 > V1 c8 < a+8 > c8 V0 < a+8 @15 W0,98,57 V1 O2 e4 V0 e8 V1 f8 V0 f8 V1 g4 @48 W0,96,56 O0 [ V1 g+4 V0 Y.R g+4 YL. g+4 Y.R r8 V0 YLR f8 V1 a+4 Y.R a+4 YL. a+4 r8 V0 YLR a+8 V1 d+4 Y.R d+4 YL. d+4 r8 V0 YLR d+8 V1 > c4 V0 c4 V1 c4 V0 c4 < ]3 @15 W0,98,57 O2 V0 d8 r4 d8 r8 V1 < a8 > d8 g8 f+4. d4 f4 d+8 d4 V0 d4 r8 O1 @14 a+16 > c16 d12 d+12 f12 V1 g+6 g+6 g+6 g4. V0 c4 c8 < a+8 > c8 < a+8 > c8 r4 @13 < r8 g8 r8 g8 f8 g8 r4 @14 r8 f8 r8 f8 r8 f8 r8 f8 r8 f8 r8 f8 @8 V0 f16 f+16 g16 g+16 V1 a8 @14 V0 a+4 a+8 a+8 a+8 g+8 a+8 r4 @13 r8 d+8 r8 d+8 r8 @3 d8 V0 d+8 f8 @13 g8 g8 r2 g8 g8 r8 @8 O1 g8 g8 g8 g+8 g8 r8 > @14 V0 c4 c8 < a+8 > c8 < a+8 > c8 r4 @13 < r8 g8 r8 g8 f8 g8 r8 r8 @14 r8 f8 r8 f8 r8 f8 r8 f8 r8 f8 r8 f8 V0 f16 f+16 g16 g+16 V1 a4 YLR @0 O2 [ V1 c8 V0 c8 c8 c8 c8 c8 c8 c8 @20 V1 c1 @0 ]2 @14 d+8 r4. d4. c4 < b16 a+16 a12 g+12 g12 f+6 f6 e6 d+8 d+8 c+8 d+8 r8 d+8 c+8 d+8 r8 d+8 c+8 d+8 r8 e8 f8 [ f+4 f+8 e8 f+8 r8 f+8 e8 f+8 r8 f+8 e8 f+8 r8 g8 g+8 H3 ]2 H6 f+4 f+8 e8 f+8 r8 f+8 e8 f+8 r8 f+8 e8 f+8 @8 H0 b8 b8 V0 b8 b8 
