;003 001D7398
!1  T150 E90,100,70,1,7 @0 EP-8,0,0,1,4 P18,13,2 V4 O1 D-2 r16 YL. d8 _V-6 d8 _V6 > d4 a4 d4 > d4. < _V-2 a8 _V2 a16 YLR @3 V6 YLR D0 d8 a8 d8 > d8. < a16 a2 r16 E90,100,70,1,7 @0 EP-4,0,0,1,4 Y.R V4 > D-1 > d8 < a8 a8 > d16 D0 YLR V8 < e4 d2. _V-2 d8. d16 _V2 c+2 _V-6 c+4 L O2 V8 E90,100,50,1,7 @@2,2,0 EP-8,0,0,1,4 P18,13,2 V8 e4 a2~ a8 _V-4 a8 _V2 > c8. d16 _V2 c2 < e8 _V-6 e8 _V4 e4 _V2 a+4. _V-4 a+8 _V4 a4 d8. _V-2 g16 _V2 f8 _V-2 @3 PX Y.R d8 f8. ( g16 )~ a4 _V2 YLR P18,13,2 @@2,2,0 f4 e4. _V-4 e8 _V4 f4 c8. _V-2 e16 _V2 d2 _V-4 d8 _V4 f8 _V2 a8 _V-2 > c8 _V2 d4 d4 e4. _V-2 d8 c+8 @3 PX YL. < < a8 >~ e8. ( a16 > )~ c+4 _V2 YLR < P18,13,2 @@2,2,0 e4 a2~ a8 _V-4 a8 _V2 > c8. d16 _V2 c8 _V-2 @3 PX < Y.R f8 e8. d16~ a4 YLR P18,13,2 @@2,2,0 _V2 e4 a+4. _V-6 a+8 _V6 a4 d8. _V-2 g16 _V2 f8 _V-2 @3 PX YL. d8 f8. ( g16 )~ a4 _V2 YLR P18,13,2 @@2,2,0 f4 e4. _V-4 e8 _V4 f4. _V-2 > c8 _V2 d8 _V-2 @3 PX < Y.R f8 e8. d16~ a8 YLR P18,13,2 @@2,2,0 _V2 f8 _V2 a8 _V-2 > c8 _V2 d4 d4 e4. _V-2 d8 c+8 _V-2 @3 PX YL. < < a8 >~ e8. ( a16 > )~ c+4 _V2 YLR < @3 g4 a4 _V-4 a4 _V4 > c8 < a+8 a8 g8 f8 < _V-2 Y.R a8 > d8 e8 f8 g8 a8 YLR _V2 e8 e4 f8 g8 f4 e4 d8 _V-2 YL. d8 e8 f8. g16 a8 _V-2 a8 YLR _V4 d8 a8 _V-4 a8 _V4 d8. e16 f8 a4 _V-2 > c8 _V2 d8 _V-4 d8 _V4 e4 _V-4 e8 _V-2 e8 _V4 d4 _V2 c+2 _V-4 c+4 _V-2 c+4 _V6 E90,100,50,1,7 @3 EP-8,0,0,1,4 P18,13,2 V5 d8 _V-2 d8 V5 d8 _V-3 d8 r4 _V3 V5 c8 _V-3 c8 _V3 d8 Y.R D-2 @2 E80,100,70,4,9 V2 r16 O2 d8 e8 f8 g8 a8 a+8 > c8 d8. < YLR D0 E90,100,50,1,7 @3 EP-8,0,0,1,4 P18,13,2 V5 d8 _V-3 d8 _V3 e8 _V-3 e8 _V3 e8 _V-3 e8 _V3 f8 YL. D-2 @2 E80,100,50,4,9 V2 r16 O2 c8 f8 > c8 < a+8 a8 g8 f8 e8. YLR D0 E90,100,50,1,7 @3 EP-8,0,0,1,4 P18,13,2 V5 e8 _V-3 e8 _V3 c+8 _V-3 c+8 _V3 c+8 _V-3 c+8 _V3 d8 Y.R D-2 @2 E80,100,50,4,9 V2 r16 O2 a8 b8 > c+8 d8 e8 f8. YLR D0 E90,100,50,1,7 @3 EP-8,0,0,1,4 P18,13,2 V5 O2 d8 _V-3 d8 _V3 d8 _V-3 d8 _V3 f8 _V-3 f8 _V3 f8 _V-3 f8 _V3 c+8 YL. D-2 @2 E80,100,50,4,9 V2 r16 O3 e8 d8 e8 a8. YLR D0 
!2  E90,100,70,1,7 @@2,2,0 EP-8,0,0,1,4 P18,13,2 V8 O1 d8 _V-6 d8 _V6 > d4 a4 d4 > d4. < _V-2 a8 _V2 a4 _V-4 a4 @3 EX Y.R D-1 V3 d16 > d8. < a16 a16 D0 E90,100,70,1,7 @@2,2,0 EP-4,0,0,1,4 YLR > V8 d8 a8 d8 > d8 < a8 a8 > d8 c4 < b2. _V-2 b8. b16 _V2 a2 _V-6 a4 L O2 V8 E90,100,50,1,7 @@2,2,0 EP-8,0,0,1,4 P18,13,2 V10 a4 > d2~ d8 _V-4 d8 _V2 e8. f16 _V2 e2 < a8 _V-6 a8 _V4 a4 > _V2 d4. _V-6 d8 _V6 c4 < g8. > _V-2 c16 _V2 < a2 _V-8 a4 _V6 a4 _V2 g4. _V-6 g8 _V6 a4 e8. _V-2 g16 _V2 f2 _V-6 f8 _V4 a8 _V2 > d8 _V-2 e8 _V2 f4 f4 g4. _V-2 f8 _V2 e2~ e8 _V-6 e8 _V6 < a4 > d2~ d8 _V-4 d8 _V2 e8. f16 _V2 e2 < a8 _V-6 a8 _V4 a4 > _V2 d4. _V-6 d8 _V6 c4 < g8. > _V-2 c16 _V2 < a2 _V-8 a4 _V6 a4 _V2 g4. _V-4 g8 _V4 a4. _V-2 > e8 _V2 f2 _V-6 f8 _V4 < a8 _V2 > d8 _V-2 e8 _V2 f4 f4 g4. _V-2 f8 _V2 e2 _V-6 e8 _V6 r8 @3 e4 f2 e8 d8 c8 < a+8 a2~ a8 _V-6 a8 _V6 a4 g4 a8 a+8 a4 g4 f2 _V-6 f8 _V4 f8 _V2 a8 _V-2 f8 _V2 > d8 _V-4 d8 _V4 < f8. g16 a8 > d4 _V-2 e8 _V2 f8 _V-4 f8 _V4 g4 _V-4 g8 _V-2 g8 _V4 f4 _V2 e2 _V-4 e4 _V-2 e4 _V6 < E90,100,50,1,7 @3 EP-8,0,0,1,4 P18,13,2 V4 f8 _V-2 f8 V6 f8 _V-4 f8 r4 _V4 V5 f8 _V-4 f8 _V4 f8 @2 E80,100,50,4,9 V5 O2 d8 e8 f8 g8 a8 a+8 > c8 d4 < E90,100,50,1,7 @3 EP-8,0,0,1,4 P18,13,2 V6 f8 _V-4 f8 _V4 g8 _V-4 g8 _V4 g8 _V-4 g8 _V4 a8 @2 E80,100,50,4,9 V5 O2 c8 f8 > c8 < a+8 a8 g8 f8 e4 E90,100,70,1,7 @3 EP-8,0,0,1,4 P18,13,2 V6 g8 _V-4 g8 _V4 e8 _V-4 e8 _V4 e8 _V-4 e8 _V4 f8 @2 E80,100,50,4,9 V5 O2 a8 b8 > c+8 d8 e8 f4 E90,100,50,1,7 @3 EP-8,0,0,1,4 P18,13,2 V6 O2 f8 _V-4 f8 _V4 f8 _V-4 f8 _V4 g+8 _V-4 g+8 _V4 g+8 _V-4 g+8 _V4 a8 @2 E80,100,50,4,9 V5 O3 e8 d8 e8 a4 
!3  @A3 `AE00 `9F00 E100,70,70,4,0 O0 V3 B6 P24,9,24 d1~ d1~ d2~ d2.~ f4~ g2. g4~ a2. L V2 a4 [ O1 [ [ V3 d4 V1 d8 V2 d8 ]2 H-2 ]2 H0 V3 < a+4 V1 a+8 V2 a+8 V3 f8 V2 f8 V3 g8 V2 g8 [ V3 a4 V1 a8 V2 a8 ]2 > [ V3 c+4 V1 c+8 V2 c+8 ]2 [ V3 d8 V2 d8 ]2 V3 c8 V2 c8 r8 c8 < V3 b4 r8 V2 b8 > V3 e8 V2 e8 r8 e8 < [ V3 a4 V1 a8 V2 a8 ]2 ]2 [ V3 a+4 V1 a+8 V2 a+8 ]2 [ V3 a4 V1 a8 V2 a8 ]2 V3 a+4 g4 e4 c4 [ V3 f4 V1 f8 V2 f8 ]2 V3 d4 V1 d8 V2 d8 V3 d8 a8 > d8 < V2 a8 > V3 d4 e2 d4 c+2 e2 V3 d4 V1 d4 V3 c4 V1 c4 < V3 a+4 V1 a+4 V3 a4 V1 a4 V3 g4 V1 g4 > V3 c4 V1 c4 < V3 f4 V1 f4 > f2 < V3 e4 V1 e4 V3 a4 V1 a4 > V3 d2 V1 d4 r4 < V3 b4 V1 b4 > V3 e4 V1 e4 V3 < a2 V1 a4 
!4  @8 x4 [ @5 x16 @6 x16 x16 x16 ]12 @8 Y.R x4 YL. x4 YLR @6 x4 @7 x4 @8 x4. @6 x4 x8 @7 x4 L @1 x4 [ @8 x4 [ @5 x8 @6 x16 x16 ]30 r8 @6 x8 ]2 @8 x4 [ @5 x8 @6 x8 ]25 @5 x8 @7 x8 x4 [ @2 x8 @6 x8 @7 x4 @5 x8 @6 x8 @7 x4 ]7 @2 x4 @7 x4 @5 x8 @6 x16 x16 
!5  V1 @0 c4 r1 r1 r8 V0 @28 W0,77,45 d8 a8 d8 > d8 < a8 a8 > d8 O2 V1 @0 c4 c2 @1 c64 c32.~ c16~ c8 @1 V1 c8. V0 c16 V1 @0 c2. L O2 V1 @45 c4 V1 @0 c12 YLR V0 @4 O1 d12 Y.R d12 YLR V1 O2 @45 c8 @0 V0 c8 V1 @0 c8 V0 c8 V1 @45 c8 @0 V0 c8 [ V1 @0 c4 @45 c8 @0 V0 c8 V1 @0 c8 V0 c8 V1 @45 c8 @0 V0 c8 ]14 V1 @0 c4 @45 c8 @0 V0 c8 V1 @0 c8 V0 @45 c8 V1 c8 V1 < @2 YL. g+8 > YLR [ V1 @0 c4 @45 c8 @0 V0 c8 V1 @0 c8 V0 c8 V1 @45 c8 @0 V0 c8 ]6 V1 @0 c4 @45 c8 @0 V0 c8 V1 @0 c8 @45 V0 c8 V1 c4 H0 @15 W0,77,45 H12 r4 O1 V0 YLR f8 V0 Y.R f8 r4 V0 YLR f8 V0 YL. f8 [ V0 YLR f8 V0 Y.R r8 V0 YLR f8 V0 YL. r8 ]3 V0 YLR g8 V0 Y.R r8 V0 YLR g8 V0 YL. r8 [ V0 YLR a8 V0 Y.R r8 V0 YLR a8 V0 YL. r8 ]2 V0 YLR g8 V0 Y.R r8 V0 YLR g8 V0 YL. r8 V0 YLR e8 V0 Y.R r8 V0 YLR e8 V0 YL. r8 [ V0 YLR f8 V0 Y.R r8 V0 YLR f8 V0 YL. r8 ]3 V0 YLR g+8 V0 Y.R r8 V0 YLR g+8 V0 YL. r8 V0 YLR a8 V0 Y.R r8 V0 YLR a8 V0 YL. r8 V0 YLR a8 V0 Y.R r8 YLR H0 
!6  @47 O1 V1 d6 V0 Y.R d6 YL. d6 YLR @15 W0,77,45 O1 d2~ d1~ d2~ d2. @47 O2 V1 c4 < b2. b8. b16 a6 Y.R V0 a6 YL. a6 r4 L Y.R O1 @4 V1 a4 YL. d8 YLR O2 @43 W0,97,0 V0 d16 c+16 @43 W0,99,0 V1 d8 V0 d8 r8 e8 f8 V0 g8 V1 f8 < a16 g16 a8 V0 [ a8 ]3 r8 a8 > V1 d16 V0 e16 f16 g16 V1 a8 V0 a8 r8 V1 g8 > c8 < g8 V1 g16 f16 e16 V0 e16 V1 c8 V0 c8 r8 < V1 a8 g8 a8 V1 e16 V0 e16 V1 a16 g16 a8 V0 a8 > r8 V1 e8 a8 g8 f8 < d16 e16 f16 V0 f16 V1 a16 V0 a16 > V1 d8 V0 [ d8 ]3 d16 V1 e16 V0 f16 g16 V1 f16 e16 d16 c+16 c16 < b16 a16 g+16 g16 g+16 a16 b16 > e8 V0 e8 d8 e8 < V1 a8 [ V0 a8 ]3 @40 W0,99,0 O1 V1 [ a16 a+16 > c16 d16 e16 f16 g16 g+16 a16 g+16 g16 f16 e16 d16 c16 < a+16 ]2 a16 a+16 > c16 d16 e16 f16 g16 g+16 a16 a+16 b16 > c16 < b16 a+16 a16 g+16 g16 f16 e16 d16 V0 c16 < a+16 a16 g+16 a16 a+16 b16 > c16 c+16 d16 d+16 e16 V1 f16 f+16 g16 g+16 a16 a+16 b16 > c16 c+16 c16 < b16 a+16 a16 g+16 g16 f+16 H1 f16 f+16 g16 g+16 a16 a+16 b16 > c16 c+16 c16 < b16 a+16 a16 g+16 g16 f+16 H2 f16 f+16 g16 g+16 a16 a+16 b16 > c16 c+16 c16 < b16 a+16 V0 a16 g+16 g16 f+16 f16 e16 d+16 d16 c+16 c16 < b16 a+16 a16 a+16 b16 > c16 c+16 d16 d+16 e16 H0 V1 e16 f16 f+16 g16 g+16 g16 f+16 f16 e16 d+16 d16 c+16 c16 < b16 a+16 a16 g+16 g16 g+16 a16 a+16 b16 > c16 c+16 d16 c+16 c16 < b16 a+16 a16 g+16 g16 V0 a16 a+16 b16 > c16 c+16 d16 V0 d16 r16 < a16 a+16 b16 V1 > c16 c+16 d16 d+16 e16 [ f+16 g16 V1 g+16 a16 a+16 b16 > c16 c+16 d16 c+16 c16 < b16 V0 a+16 a16 g+16 g16 ]2 V0 f+8 f8 V1 @15 W0,97,57 O1 e8. a+16 > d2 V0 g8 < V1 a8 > e8. d16 c+4 V0 V1 P21,9,1 @40 W0,99,0 O1 a4 > f2 e4 f8. e16 d2 V0 d4 V1 d4 a+2 a8 g8 f8 g8 a2 V0 c2 V1 g2 f8 e8 d8 e8 f2 V0 f4 V1 f4 e2 V0 e8 V1 d8 c+8 d8 e2 V0 e4 V1 PX 
