;004 001D7FBC
!1  T150 r16 E100,50,10,7,27 @@0,0,3 PX YLR O2 V4 a+8 _V-2 a+8 a+8 _V2 g+8 _V-2 g+8 _V2 a+8 _V-2 a+8 _V2 a+8 _V-2 a+8 a+8 a+8 _V2 g+8 _V-2 g+8 _V2 a+8 _V-2 a+8 f+8 _V2 [ f+8 _V-2 f+8 _V2 f+8 _V-2 f+8 _V2 f+8 _V-2 f+8 _V2 f+8 _V-2 f+8 _V2 ]2 E100,80,80,18,0 @@2,2,3 P18,9,6 EP-2,0,0,1,0 YLR O3 V6 f4. f+8 f+4. V3 D-1 r16 Y.R @3 EX f+8~ f+8 f8 f+8 f8 f+8 f8 c+4 ( c+8 ) c+8 c+8 f+8 f+8. f+8. f8 d+8. d+8. c+8 EP-2,0,-4,4,13 d+4 ( d+8. ) EP-2,0,0,1,0 D0 E100,80,80,18,0 @@2,2,3 YLR V6 f8. f8. f+8 f+4 _V-4 f+8 _V4 V3 D-1 r16 Y.R @3 EX f8~ f+8 f8 f+8 f8 f+8 f8 c+8 ( c+16 ) D0 E100,90,90,18,0 @@2,2,3 YLR V6 [ g+8 _V-2 g+8 _V2 ]5 f+8 e8 e4 _V-4 e4 L E80,100,70,4,18 @@2,2,0 P24,9,6 EP-4,0,0,3,0 V6 O3 r4 c+8 _V-4 c+8 _V4 d+4 _V-4 d+8 _V4 c8 _V-4 c8 _V4 c8 _V-4 c8 _V2 c+8 _V2 c+4 _V-4 c+8 r8 _V4 r4 c+8 _V-4 c+8 _V4 d+4 _V-4 d+8 _V4 c8 _V-4 c8 _V4 c8 _V-4 c8 < _V2 g+8 _V2 g+4 _V-4 g+8 r8 _V4 > r4 c+8 _V-4 c+8 _V4 d+4 _V-4 d+8 _V4 c8 _V-4 c8 _V4 c8 _V-4 c8 _V2 c+8 _V2 c+4 _V-4 c+8 r8 _V4 r4 c+8 _V-4 c+8 _V4 d+4 _V-4 d+8 _V4 < b8~ b2. _V-4 b8 @3 P18,9,6 EP-2,0,0,1,0 Y.R O2 V3 EX D-1 r16 c+8 f6 f6 f+6 g+6 g+3 ( g+4 ) r2. f6 f+6 g+6 f6 c+3 ( c+4 ) r2. f8. f+8. g+4 g+4. _V-2 g+4 > E100,90,90,18,0 V6 D0 YLR @@2,2,3 r8. r8 _V2 f+4 _V-2 g+8 _V2 EP-6,0,0,9,0 a+6 EP-2,0,0,1,0 g+6 f+6 f+2~ _V-2 f+2 YL. E100,80,60,4,9 @@2,1,3 P9,12,2 EP-8,0,0,9,0 O3 V8 f+8. EP2,0,0,1,0 f8. < _V-2 b8 > _V2 E100,80,30,4,18 EPX c+6~ c+16 YLR @3 P18,9,6 EP-2,0,0,1,0 Y.R O2 V3 EX D-1 f6 f+6 g+6 g+3 ( g+4 ) r2. f6 f+6 g+6 f6 c+3 ( c+4 ) r2 r8 V4 > c+8 c+8. c+8. c+8 c+8. < g+8. g+8 > d+8. f8. f8 _V-2 f8 _V2 f+4 g+8 g+4. f+8 f+2 _V-2 f+8. @@0,2,3 E100,70,70,18,0 V6 D0 YLR O1 @@2,2,0 f+4 b4 > _V2 f+4 V6 @@2,2,3 f+8. f+8. f+8 f+8. g+8. a+8 g+8. g+8. g+16 f+16 g+16 f+16 d+8. r16 _V-2 g+8 _V2 a+8. a+8. a+8 a+8. > c8. c+8 c+8. c+8. c8 c4 r8 _V-2 < a+8 _V2 b4 b8 b4 b8 > c+8 d+8 d+8 < a+4 a+4 a8 b8 > c+8 < b8 a8~ a4 _V-6 a8 _V6 a8 b8 > c+8~ c+2~ c+8 r16 @2 E100,20,20,4,0 PX EPX D-2 c+16 e16 c+16 e16 a16 D0 E100,70,70,18,0 @@2,2,3 P18,9,6 EP-2,0,0,1,0 YLR O3 V6 f4. f+8 f+4. V3 D-1 r16 Y.R @3 EX f+8~ f+8 f8 f+8 f8 f+8 f8 c+4 ( c+8 ) c+8 c+8 f+8 f+8. f+8. f8 d+8. d+8. c+8 EP-2,0,-2,4,13 d+4 ( d+8. ) EP-2,0,0,1,0 D0 E100,70,70,18,0 @@2,2,3 YLR V6 f8. f8. f+8 f+4. V3 D-1 r16 Y.R @3 EX f+8 f+8 f8 f+8 f8 f+8 f8 c+8 ( c+16 ) D0 E100,70,70,18,0 @@2,2,3 YLR V6 [ g+8 _V-2 g+8 _V2 ]5 f+8 e8 e4 _V-4 e4 D0 E100,70,70,18,0 @@2,2,3 P18,9,6 EP-2,0,0,1,0 YLR O3 V6 f4. f+8 f+4. V3 D-1 r16 Y.R @3 EX f+8~ f+8 f8 f+8 f8 f+8 f8 c+4 ( c+8 ) c+8 c+8 f+8 f+8. f+8. f8 d+8. d+8. c+8 EP-2,0,-2,4,13 d+4 ( d+8. ) EP-2,0,0,1,0 D0 E100,70,70,18,0 @@2,2,3 YLR V6 f8. f8. f+8 f+4. V3 D-1 r16 Y.R @3 EX f+8 f+8 f8 f+8 f8 f+8 f8 c+8 ( c+16 ) D0 E100,70,70,18,0 @@2,2,3 YLR V6 [ g+8 _V-2 g+8 _V2 ]5 f+8 e8 e4 _V-4 e4 
!2  r16 E100,50,10,7,27 @@0,0,3 PX YLR O3 V6 c+8 _V-2 c+8 c+8 _V2 c8 _V-2 c8 _V2 c+8 _V-2 c+8 _V2 c+8 _V-2 c+8 c+8 c+8 _V2 c8 _V-2 c8 _V2 c+8 _V-2 c+8 c+8 _V2 [ c+8 _V-2 c+8 _V2 c+8 _V-2 c+8 _V2 c+8 _V-2 c+8 _V2 c+8 _V-2 c+8 _V2 ]2 E100,80,80,18,0 @@2,2,3 P18,9,6 EP-2,0,0,1,0 YLR O3 V8 g+4. a+8 a+4. f+8~ f+8 f8 f+8 f8 f+8 f8 c+4 _V-6 c+8 _V6 c+8 c+8 f+8 f+8. f+8. f8 d+8. d+8. c+8 EP-2,0,-2,4,13 d+4 _V-4 d+4 _V4 EP-2,0,0,1,0 g+8. g+8. a+8 a+4. f8~ f+8 f8 f+8 f8 f+8 f8 c+8 _V-2 c+8 _V2 [ e8 _V-2 e8 _V2 ]5 d+8 c+8 c+4 _V-6 c+4 L E80,100,70,4,18 @@2,2,0 P24,9,6 EP-4,0,0,3,0 V8 O3 r4 f8 _V-6 f8 _V6 f+4 _V-6 f+8 _V6 d+8 _V-6 d+8 _V6 d+8 _V-6 d+8 _V3 f8 _V3 f4 _V-4 f8 r8 _V4 r4 f8 _V-6 f8 _V6 f+4 _V-6 f+8 _V6 d+8 _V-6 d+8 _V6 d+8 _V-6 d+8 _V3 c+8 _V3 c+4 _V-4 c+8 r8 _V4 r4 f8 _V-6 f8 _V6 f+4 _V-6 f+8 _V6 d+8 _V-6 d+8 _V6 d+8 _V-6 d+8 _V3 f8 _V3 f4 _V-4 f8 r8 _V4 r4 f8 _V-6 f8 _V6 f+4 _V-6 f+8 _V6 d+8~ d+2. _V-6 d+8 E100,70,70,18,0 @@2,2,3 P18,9,6 EP-2,0,0,1,0 YLR O2 V8 _V-2 c+8 _V2 f6 f6 f+6 g+6 g+3 _V-4 g+4 _V4 r2. f6 f+6 g+6 f6 c+3 _V-4 c+4 _V4 r2. f8. f+8. g+4 g+4. _V-4 g+4 _V2 > _V2 r4 r8 _V2 d+4 _V-2 f8 _V2 EP-8,0,0,9,0 f+6 EP-2,0,0,1,0 f6 d+6 c+2~ c+2 _V-6 c+4 r8 _V2 < c+8 _V2 f6 f6 f+6 g+6 g+3 _V-4 g+4 _V4 r2. f6 f+6 g+6 f6 c+3 _V-4 c+4 _V2 r2 r8 > c+8 _V2 c+8. c+8. c+8 c+8. < g+8. g+8 > d+8. f8. f8 _V-6 f8 _V6 f+4 g+8 g+4. f+8 f+2~ f+4 V8 O1 @@2,2,0 b4 > d+4 _V-2 d+8 V6 @@2,2,3 b8 _V2 a+8. a+8. a+8 a+8. > c8. c+8 c8. c8. c16 < a+16 > c16 < a+16 g+8. r16 > _V-2 c8 _V2 c+8. c+8. c+8 c+8. d+8. f8 f8. f8. d+8 d+4 r8 _V-2 d+8 _V2 d+4 d+8 d+4 d+8 f8 f+8 f+8 c+4 c+4 c+8 d+8 e8 d+8 c+8~ c+4 _V-6 c+8 _V6 c+8 d+8 e8~ e2. _V-6 e8 r8 E100,80,80,18,0 @@2,2,3 P18,9,6 EP-2,0,0,1,0 YLR O3 V8 g+4. a+8 a+4. f+8~ f+8 f8 f+8 f8 f+8 f8 c+4 _V-6 c+8 _V6 c+8 c+8 f+8 f+8. f+8. f8 d+8. d+8. c+8 EP-2,0,-2,9,13 d+4 _V-4 d+4 _V4 EP-2,0,0,1,0 g+8. g+8. a+8 a+4. f+8 f+8 f8 f+8 f8 f+8 f8 c+8 _V-2 c+8 _V2 [ e8 _V-2 e8 _V2 ]5 d+8 c+8 c+4 _V-6 c+4 YLR O3 V8 g+4. a+8 a+4. f+8~ f+8 f8 f+8 f8 f+8 f8 c+4. c+8 c+8 f+8 f+8. f+8. f8 d+8. d+8. c+8 d+4 _V-4 d+4 _V4 EP-2,0,0,1,0 g+8. g+8. a+8 a+4. f+8~ f+8 f8 f+8 f8 f+8 f8 c+8 c+8 [ e8 _V-2 e8 _V2 ]5 d+8 c+8 c+4 _V-6 c+4 
!3  r16 `9F00 `AE00 @A3 @B0 O1 V3 EP-20,0,0,9,0 P18,9,12 E100,70,70,18,0 a+4 V1 a+8 r4. r8 EPX V3 f8~ f8~ f+4~ g+4.~ f8~ f+8~ f+2~ f+4~ f+8 B9 P18,11,4~ V3 > f+2.~ f+8~ B18 V2 O0 f+4 L B1 O1 E100,70,70,18,0 V3 c+4 V2 c+8 < V2 f+8 V3 f+4 V2 f+8 V3 b4 V2 b8 [ V3 b8 V2 b8 ]2 V3 a+8 V2 g+8 [ V3 f+8 V2 f+8 ]4 [ V3 g+8 V2 g+8 ]2 V3 g+8~ > d+8~ g+8~ d+8 V3 c+4 V2 c+8 < V2 f+8 V3 f+4 V2 f+8 V3 b4 V2 b8 [ V3 b8 V2 b8 ]2 V3 a+8 V2 g+8 [ V3 f+8 V2 f+8 ]4 V2 f+8 V1 f+8 r2 V2~ g+16~ a+16~ > c+16 <~ a+16 O1 [ V3 c+8 V2 c+8 ]7 V3 c+8 V2~ < g+16~ a+16 O1 [ V3 c+8 V2 c+8 ]7 V2 <~ g+16~ a+16~ > c+16 <~ a+16 > O1 [ V3 c+8 V2 c+8 ]7 V3 c+8 V2~ < g+16~ a+16 O1 [ V3 c+8 V2 c+8 ]3 B18 V3 c+8~ b8~ b2. V1 b8 r8 [ [ V3 c+4 V1 c+8 r16 V2 d16 ]2 V3 c+4 V1 c+8 r16 V2 d16 r16 c+16 V3 c+4 V1 c+8 ]3 < V3 b4 V1 c+8 r16 V1 b16 V3 b8 b8 V1 b8 r16 V2 b16 [ V3 b8 V2 b8 ]2 V3 b8. V2 b8. V3 b8 > [ [ V3 c+4 V1 c+8 r16 V2 d16 ]2 V3 c+4 V1 c+8 r16 V2 d16 r16 c+16 V3 c+4 V1 c+8 ]3 < [ V3 b8 V2 b8 ]8 [ [ [ V3 f+8 V2 f+8 ]3 V3 f+8 V2 f+16 f+16 H2 ]2 H0 ]2 [ [ V3 b8 V2 b8 ]3 V3 b8 V2 b16 b16 H-1 ]2 H0 [ V3 a8 V2 a8 ]3 V3 a8 V2 a16 a16 [ V3 a8 V2 a8 ]3~ e4 B1 O1 E100,70,70,18,0 V3 c+4 V2 c+8 < V2 f+8 V3 f+4 V2 f+8 V3 b4 V2 b8 [ V3 b8 V2 b8 ]2 V3 a+8 V2 g+8 [ V3 f+8 V2 f+8 ]4 [ V3 g+8 V2 g+8 ]2 V3 g+8~ > d+8~ g+8~ d+8 V3 c+4 V2 c+8 < V2 f+8 V3 f+4 V2 f+8 V3 b4 V2 b8 [ V3 b8 V2 b8 ]2 V3 a+8 V2 g+8 [ V3 f+8 V2 f+8 ]6 EX V3 a8 V2 a8 V3 b8 V2 b8 
!4  r16 YLR @8 x4 YLR [ @5 x8 @6 x8 ]2 @5 x8 YL. @8 x4 x4 Y.R x4. YLR @5 x8 @8 x4. [ @5 x8 @6 x8 ]7 L @8 x4 [ @5 x8 @6 x8 ]2 @5 x8 Y.R @8 x4 YLR @6 x8 [ @5 x8 @6 x8 ]2 @5 x8 @7 x8 [ @5 x8 @6 x8 ]5 @7 x8 @6 x8 @7 x4 r8 @6 x8 @8 x4 [ @5 x8 @6 x8 ]2 @5 x8 Y.R @8 x4 YLR @6 x8 [ @5 x8 @6 x8 ]2 @5 x8 @7 x8 [ @5 x8 @6 x8 ]2 @7 x4 x4 @8 x4. @6 x4 x4 @7 x8 [ @5 x8 @6 x16 x16 ]25 Y.R @8 x4 YLR x4 @6 x8 @8 x8~ x4 [ @5 x8 @6 x16 x16 ]3 @8 x4 [ @5 x8 @6 x16 x16 ]22 @5 x8 @7 x8 @8 x4 @5 x8 @6 x16 x16 @7 x4 x4 @8 x4 r8 @6 x4 x4 x8 @8 x4 [ @5 x8 @6 x16 x16 ]22 @5 x8 @7 x8 @8 x4 @5 x8 @6 x16 x16 @7 x4 x4 @8 x4 r8 @6 x4 x8 @8 x4 @8 YL. x4 YLR [ @5 x8 @6 x8 ]14 Y.R @8 x4 YLR @8 YL. x4 YLR [ @5 x8 @6 x8 ]11 [ @7 x8 @6 x8 ]2 @7 x4 @8 x4 @8 x4 [ @5 x8 @6 x8 ]2 @5 x8 Y.R @8 x4 YLR @6 x8 [ @5 x8 @6 x8 ]2 @5 x8 @7 x8 [ @5 x8 @6 x8 ]5 @7 x8 @6 x8 @7 x4 r8 @6 x8 @8 x4 [ @5 x8 @6 x8 ]2 @5 x8 Y.R @8 x4 YLR @6 x8 [ @5 x8 @6 x8 ]2 @5 x8 @7 x8 [ @5 x8 @6 x8 ]4 [ @7 x8 @6 x8 ]2 @7 x4 YL. @8 x4 YLR 
!5  PX @1 V0 c32 c32 V1 YLR @0 c2. @24 V0 c64 V1 c32.~ c16 @0 c4 c4 c4. @24 V0 c64 V1 c32.~ c16 @0 c8~ c8 V1 O1 @43 W0,97,0 V1 O0 f+16 a+16 > c+16 f+16 c+16 f+16 a+16~ a+16~ a+2 YLR @24 V1 O2 c8 c16 V0 c16 V1 @2 YL. < f8 YLR @24 > c16 V0 c16 < V1 @2 YLR g+16 g+16 > Y.R V0 c24 V1 c24 YLR V0 YLR < g+24 V1 g+24 YL. f24 f24 YLR O2 V1 V1 @0 c4 @24 c8 @0 V0 c8 V1 c4 @24 c8 @0 c4 V0 c8 V1 @24 c4 @0 c8 V0 c8 V1 @24 c8 @0 V0 c16 c16 [ V1 @0 c4 @24 c4 ]3 @0 c8 c8 @2 Y.R c24 d+24 YLR c24 < YL. g+8 > YLR @0 c4 @24 c8 @0 V0 c8 V1 c4 @24 c8 @0 c4 V0 c8 V1 @24 c4 @0 c8 V0 c8 V1 @24 c8 @0 V0 c16 c16 V1 @0 c4 @24 c4 @0 c4 @24 c8. @0 V0 c32 V1 c32 @24 c2. V0 @0 c8 @24 c16 c16 L [ V1 @0 c8 @21 V0 c+8 V1 @24 c8 @21 V0 c+8 ]7 V1 @0 c8 @21 V0 c+8 V1 @24 c16 @2 Y.R V0 c16 YLR V1 < g+16 YL. V0 f16 > YLR [ V1 @0 c8 @21 V0 c+8 V1 @24 c8 @21 V0 c+8 ]5 V1 @0 c8 @21 V0 c+8 V1 @24 c8 @0 c8~ c2 r8 V0 c16 V1 c16 @24 V0 c64 @2 V1 O1 g+32.~ g+16~ g+8 YLR O2 V1 [ @0 c4 @24 c8. @0 V0 c16 V1 c4 @24 c8. @0 V0 c16 V1 c4 @24 c8. V0 @0 c8 c16 V1 c8 @24 c4 ]2 @0 c4 @24 c8. @0 V0 c16 V1 c4 @24 c8. @0 V0 c16 V1 c4 @24 c8. V0 @0 c8 c16 V1 c8 @2 Y.R c16 YLR < g+16 YL. f16 YLR > @0 V0 c16 V1 @0 c4 @24 c8 @0 V0 c8 V1 c8 c8 V1 @24 c8. @0 V0 c16 V1 c8 @24 c8 c16 V0 c16 V1 < YLR @2 g+16 V0 g+16 V1 YL. f16 f8 Y.R > c64 c32.~ c16 < YLR V0 g+16 YL. V1 f64 f32. YLR V0 O2 @0 c16 YLR O2 V1 [ @0 c4 @24 c8. @0 V0 c16 V1 c4 @24 c8. @0 V0 c16 V1 c4 @24 c8. V0 @0 c8 c16 V1 c8 @24 c4 ]2 @0 c4 @24 c8. @0 V0 c16 V1 c4 @24 c8. @0 V0 c16 V1 c4 @24 c8. V0 @0 c8 c16 V1 c8 @2 Y.R c16 YLR < g+16 YL. f16 YLR > @0 V0 c16 V1 @0 c4 @24 c8 @0 V0 c8 V1 c8 c8 V1 @24 c8. @0 V0 c16 V1 c8 @24 c8 c16 V0 c16 V1 < YLR @2 g+16 V0 g+16 V1 Y.R > c16 c16 YLR < a16 > V0 c16 V1 @24 c4 [ V1 @0 c8 @32 V0 c16 c16 V1 @24 c8 @32 V0 c16 c16 ]3 V1 @0 c8 c16 @32 V0 c16 V1 @24 c8 @32 V0 c16 c16 V1 @0 c8 @32 V0 c16 c16 V1 @24 c8 @32 V0 c16 c16 V1 @0 c8 @32 V0 c16 c16 V1 @24 c8 @0 c16 @32 V0 c16 V1 @0 c8 @32 V0 c16 c16 V1 @24 c8 @32 V0 c16 c16 V1 @0 c8 c16 @32 V0 c16 V1 @24 c8 @32 V0 c16 c16 [ V1 @0 c8 @32 V0 c16 c16 V1 @24 c8 @32 V0 c16 c16 ]3 V1 @0 c8 c16 @32 V0 c16 V1 @24 c8 @2 YL. < f16 f16 > YLR [ V1 @0 c8 V0 c8 V1 @24 c8 V0 @0 c8 ]2 V1 @0 c16 V0 c16 c16 c16 @24 V1 c16 @0 V0 c16 c16 c16 V1 @0 c16 V0 c16 c16 c16 @24 V1 c16 @0 V0 c16 V1 @24 c16 V0 @0 c16 @0 c4 @24 c8 @0 V0 c8 V1 c4 @24 c8 @0 c4 V0 c8 V1 @24 c4 @0 c8 V0 c8 V1 @24 c8 @0 V0 c16 c16 [ V1 @0 c4 @24 c4 ]3 @0 c8 c8 @2 Y.R c24 d+24 YLR c24 < YL. g+8 > YLR @0 c4 @24 c8 @0 V0 c8 V1 c4 @24 c8 @0 c4 V0 c8 V1 @24 c4 @0 c8 V0 c8 V1 @24 c8 @0 V0 c16 c16 V1 @0 c4 @24 c4 @0 c4 @24 c4 @0 c4 @24 c8 @0 c8 @24 c8 V0 @0 c16 V1 c16 @24 c16 @0 V0 c16 c16 c16 V1 @0 c4 @24 c8 @0 V0 c8 V1 c4 @24 c8 @0 c4 V0 c8 V1 @24 c4 @0 c8 V0 c8 V1 @24 c8 @0 V0 c16 c16 [ V1 @0 c4 @24 c4 ]3 @0 c8 c8 @2 Y.R c24 d+24 YLR c24 < YL. g+8 > YLR @0 c4 @24 c8 @0 V0 c8 V1 c4 @24 c8 @0 c4 V0 c8 V1 @24 c4 @0 c8 V0 c8 V1 @24 c8 @0 V0 c16 c16 V1 @0 c4 @24 c4 @0 c4 @24 c8. @0 V0 c32 V1 c32 @24 c2. V0 @0 c16 @24 V0 c16 V1 c16 c16 
!6  r16 PX @8 V1 O1 YLR a+4 V0 Y.R a+4 YL. a+4 r8 V1 YLR O1 @21 W0,65,55 f8~ f8 f+4 g+4. f8 f+4 @40 W0,97,0 V1 O0 f+16 a+16 > c+16 f+16 c+16 f+16 a+16~ a+16~ a+4. YLR~ a+2 V0 a+4 r4 V1 @8 O1 g+8 Y.R V0 g+8 H0 YLR @21 O2 c+8 < V0 f+8 V1 f+8 V0 f+8 f+8 V1 b4 V0 b8 [ V1 b8 V0 b8 ]2 V1 a+8 V0 g+8 @8 V1 c+4 @21 [ V1 f+8 V0 f+8 ]2 @8 V0 c+4 V1 d+4 @21 V1 g+8 V0 @8 O1 g+16 a+16 > V1 c16 c+16 d+16 f16 f+8 O2 @21 < V0 g+8 V1 @8 O1 g+8 Y.R V0 g+8 YLR @21 O2 V0 c+8 < f+8 V1 f+8 V0 f+8 f+8 V1 b4 V0 b8 [ V1 b8 V0 b8 ]2 V1 a+8 V0 g+8 V0 c+8 Y.R c+8 YLR r8 V1 @40 W0,97,0 O1 b16 > c+16 e8 e16 f+16 g+8 a16 a+16 > c+4 r2 L @43 W0,97,0 O1 V0 g+16 a+16 > c+16 < a+16 > c+1~ c+2.~ c+8 < g+16 a+16 > c+1~ c+2. O1 V0 g+16 a+16 > c+16 < a+16 > c+1~ c+2.~ c+8 < g+16 a+16 > c+2.~ c+8 < b8~ b2.~ b8 r8 @21 O2 V0 [ c+8 c+16 c+16 ]4 @43 W0,97,0 O1 b4. a+4. g+4 @21 O2 V0 [ c+8 c+16 c+16 ]4 @43 W0,97,0 O1 b4. a+4. > c+4 @21 O2 V0 [ c+8 c+16 c+16 ]4 @43 W0,97,0 O1 b4. a+4. g+4 @21 O1 V0 [ V1 b4 V0 b8 b8 ]3 V0 b8. b8. b8 @21 O2 V0 [ c+8 c+16 c+16 ]4 @43 W0,97,0 O2 d+4. c+4. < b4 @21 O2 V0 [ c+8 c+16 c+16 ]4 @43 W0,97,0 O2 d+4. c+4. f+4 f1 d+2 c+2 d+2. V1 @28 W0,99,45 O1 b16 > c+16 d+16 f16 f+2 @21 O1 [ V1 b8 V0 b16 b16 ]2 @28 W0,99,45 O2 [ V1 f+8. f+8 V0 Y.R f+16 YLR V1 c+16 d+16 f+4 V0 YL. f+8 r8 YLR V1 g+8. g+8 V0 YL. g+16 YLR V1 d+16 f16 g+4 V0 Y.R g+8 r8 YLR ]2 O2 V1 b4. a+8 f+4 g+8 V0 g+8 V1 a+4. g+8 f+4 f+8 V0 f+8 V1 e4. @28 W0,99,45 V0 e16 e16 V1 e2 @7 V1 O1 YLR e32 YL. e32 YLR a32 Y.R a32 YLR b32 YL. b32 YLR > c+32 Y.R c+32 YLR e32 YL. e32 < YLR a32 Y.R a32 YLR b32 YL. b32 > YLR c+32 Y.R c+32 < YLR a32 YL. a32 YLR b32 Y.R b32 > YLR c+32 YL. c+32 YLR e32 Y.R e32 YLR c+32 YL. c+32 YLR e32 Y.R e32 YLR a32 YL. a32 YLR b32 Y.R b32 YLR V1 @8 O1 g+8 Y.R V0 g+8 YLR @21 O2 V0 c+8 < V0 f+8 V1 f+8 V0 f+8 f+8 V1 b4 V0 b8 [ V1 b8 V0 b8 ]2 V1 a+8 V0 g+8 @8 V1 c+4 @21 [ V1 f+8 V0 f+8 ]2 @8 V0 c+4 V1 d+4 @21 V1 g+8 V0 @8 O1 g+16 a+16 > V1 c16 c+16 d+16 f16 f+8 O2 @21 V0 < g+8 V1 @8 O1 g+8 Y.R V0 g+8 YLR @21 O2 V0 c+8 < f+8 V1 f+8 V0 f+8 f+8 V1 b4 V0 b8 [ V1 b8 V0 b8 ]2 V1 a+8 V0 g+8 V0 c+8 Y.R c+8 YLR r8 V1 @40 W0,97,0 O1 b16 > c+16 e8 e16 f+16 g+8 a16 a+16 > c+4 r4 @8 O1 YLR V1 a8 V0 Y.R a8 YLR V1 b8 YL. V0 b8 YLR V1 @8 O2 c+8 Y.R V0 c+8 H0 YLR @21 O2 c+8 < V0 f+8 V1 f+8 V0 f+8 f+8 V1 b4 V0 b8 [ V1 b8 V0 b8 ]2 V1 a+8 V0 g+8 @8 V1 c+4 @21 [ V1 f+8 V0 f+8 ]2 @8 V0 c+4 V1 d+4 @21 V1 g+8 V0 @8 O1 g+16 a+16 > V1 c16 c+16 d+16 f16 f+8 O2 @21 < V0 g+8 V1 @8 O1 g+8 Y.R V0 g+8 YLR @21 O2 V0 c+8 < f+8 V1 f+8 V0 f+8 f+8 V1 b4 V0 b8 [ V1 b8 V0 b8 ]2 V1 a+8 V0 g+8 V0 c+8 Y.R c+8 YLR r8 V1 @40 W0,97,0 O1 b16 > c+16 e8 e16 f+16 g+8 a16 a+16 @8 c+4 r2 
