;007 001DB0B8
!1  T150 L @0 E80,100,70,1,3 O2 V5 [ r1 ]4 YLR e16 f+16 g16 a16 e16 YL. ( a16 ) YLR b16 e16 Y.R ( b16 ) YLR e16 > c16 YL. ( < e16 ) YLR b16 Y.R ( e16 YLR ) g16 ( YL. b16 ) YLR d16 e16 f+16 g16 d16 YL. ( g16 ) YLR a16 d16 Y.R ( a16 ) YLR d16 > c16 YL. ( < d16 ) YLR b16 Y.R ( d16 YLR ) a16 ( YL. b16 ) YLR e16 f+16 g16 a16 e16 YL. ( a16 ) YLR b16 e16 Y.R ( b16 ) YLR e16 > c16 YL. ( < e16 ) YLR b16 Y.R ( e16 YLR ) g16 ( YL. b16 ) YLR > V5 @@0,2,1 [ B3 d4~ > d8 _V-3 d8 _V3 < ]2 r1 r2. @@0,1,2 YLR V6 E80,100,70,1,4 O3 P44,15,3 d16 e16 f+16 g16 a2. _V-4 Y.R a8 YL. a8 _V4 YLR r8 g16 r16 Y.R r16 g16 _V-5 g16 _V5 YL. g16 r8 YLR f+16 r16 Y.R r16 f+16 _V-5 f+16 _V5 YL. f+16 < @2 E80,100,60,1,4 P33,15,3 YLR g2 a2 > d+2 e2 c2. _V-2 c8 e8 _V2 d2 YLR c16 d16 e16 f+16 g16 a16 b16 > c16 O3 @@0,1,2 E90,100,80,1,4 YLR g1 f+2 r8. f+8 _V-4 f+16 _V4 f+16 _V-4 f+16 _V4 e1 c4. O3 @1 E90,100,90,1,4 E80,100,60,1,4 P29,10,5 YLR V9 [ e32 _V-3 e32 _V3 ]2 e4 Y.R _V-3 e8 YL. e8 _V3 @@0,2,1 O1 V6 P0,11,3 YLR E100,100,80,3,1 e8. f+8. g8 a4 _V-3 a8 _V3 a32 _V-3 a32 _V3 a16 [ b8 _V-3 b16 _V3 ]2 b8 > e4 _V-3 e8 _V3 c16 d16 e4 _V-3 e8 _V3 d8 e8. d8. e8 f+4. f+16 _V-3 f+16 O2 V7 YLR @@0,1,2 E90,100,90,1,4 b16 > c+16 d+16 e16 f+16 g16 a16 b16 @@0,1,2 O2 EX V4 YLR P22,14,3 b8 YL. _V-2 b16 _V2 YLR > c8 YL. _V-2 c16 YLR _V2 d8 e8 _V-2 YL. e8 Y.R e8 YLR _V2 e16 d16 c8 YL. _V-2 c16 _V2 YLR < a8 _V-2 YL. a16 _V2 YLR > c8 d8 YL. _V-2 d8 Y.R d8 _V2 YLR d16 c16 < b8 YL. _V-2 b16 _V2 YLR g8 _V-2 YL. g16 _V2 YLR b8 > c+8 < a16 _V-2 YL. a16 _V2 YLR a8 > c+16 _V-2 YL. c+16 _V2 YLR d4. < a16 _V-2 YL. a16 YLR _V2 a8 _V-2 YL. a8 Y.R a8 _V2 YLR f+32 _V-2 YL. f+32 _V2 YLR f+16 g8 _V-2 YL. g16 _V2 YLR f+8 _V-2 YL. f+16 _V2 YLR g8 a8 _V-2 YL. a8 Y.R a8 _V2 [ YLR a32 _V-2 YL. a32 _V2 ]2 YLR a8 _V-2 YL. a16 _V2 YLR b8 _V-2 YL. b16 _V2 YLR > c8 d4 _V-2 Y.R d8 YL. d8 _V2 [ YLR c8 _V-2 YL. c16 _V2 ]2 YLR c16 _V-2 YL. c16 _V2 YLR c8. d8. c16 _V-2 YL. c16 _V2 YLR c4. < a16 _V-2 YL. a16 _V2 YLR b4 _V-2 Y.R b8 YL. b8 _V2 YLR @@0,2,1 O3 EX V4 YLR P22,15,3 b8 YL. _V-2 b16 _V2 YLR > c8 YL. _V-2 c16 YLR _V2 d8 D1 e8 _V-2 YL. e8 Y.R e8 YLR _V2 e16 D0 d16 c8 YL. _V-2 c16 _V2 YLR < a8 _V-2 YL. a16 _V2 YLR > c8 d8 YL. _V-2 d8 Y.R d8 _V2 YLR d16 c16 < b8 YL. _V-2 b16 _V2 YLR g8 _V-2 YL. g16 _V2 YLR b8 > c+8 < a16 _V-2 YL. a16 _V2 YLR a8 > c+16 _V-2 YL. c+16 _V2 YLR d4. < a16 _V-2 YL. a16 YLR _V2 a8 _V-2 YL. a8 Y.R a8 _V2 YLR f+32 _V-2 YL. f+32 _V2 YLR f+16 g8 _V-2 YL. g16 _V2 YLR f+8 _V-2 YL. f+16 _V2 YLR g8 a8 _V-2 YL. a8 Y.R a8 _V2 [ YLR a32 _V-2 YL. a32 _V2 ]2 YLR a8 _V-2 YL. a16 _V2 YLR b8 _V-2 YL. b16 _V2 YLR > c8 d4 _V-2 Y.R d8 YL. d8 _V2 [ D1 YLR e8 YL. _V-2 e16 _V2 ]2 YLR e16 _V-2 YL. e16 _V2 YLR e8 YL. _V-2 e16 _V2 YLR D0 d8 YL. _V-2 d16 _V2 YLR < b8 > d4 YL. _V-2 d8 _V2 YLR d16 _V-2 YL. d16 _V2 YLR [ d+8 YL. _V-2 d+16 _V2 YLR ]2 D1 e8~ e1~ e2 _V-2 e4 _V-2 YL. e8 Y.R e8 
!2  L @1 E80,100,70,1,3 O3 V6 [ YLR e16 f+16 g16 a16 e16 YL. ( a16 ) YLR b16 e16 Y.R ( b16 ) YLR e16 > c16 YL. ( < e16 ) YLR b16 Y.R ( e16 YLR ) g16 ( YL. b16 ) YLR d16 e16 f+16 g16 d16 YL. ( g16 ) YLR a16 d16 Y.R ( a16 ) YLR d16 > c16 YL. ( < d16 ) YLR b16 Y.R ( d16 YLR ) a16 ( YL. b16 ) ]4 @@0,2,1 O2 V8 P0,13,3 YLR EX e4 _V-2 Y.R e8 _V2 YLR e16 _V-2 YL. e16 _V2 YLR e4 f+8 g8 f+4. d16 _V-2 Y.R d16 _V2 YLR d4 _V-2 YL. d8 _V2 YLR [ d32 r32 ]2 [ YLR e8 _V-2 Y.R e16 _V2 ]2 YLR e16 _V-2 YL. e16 _V2 YLR e4 f+8 g8 b4. a16 _V-2 Y.R a16 _V2 YLR a4 _V-2 YL. a8 _V2 YLR [ d32 r32 ]2 e8. f+8. g8 f+4 _V-2 Y.R f+8 _V2 YLR [ f+32 r32 ]2 f+8. a8. f+8 g4 _V-2 YL. g8 _V2 YLR [ g32 r32 ]2 [ YLR a8 _V-3 Y.R a16 _V3 ]2 YLR a16 _V-2 YL. a16 _V2 YLR a8. b8. a8 g4. f+16 _V-2 Y.R f+16 _V2 YLR f+4 _V-2 Y.R f+8 YL. f+8 @@0,2,1 YLR V9 O1 E100,90,70,7,7 b8 > d8 [ g16 _V-3 g16 _V3 ]2 g8. a8. b8 a4 _V-3 a8 _V3 [ d32 _V-3 d32 _V3 ]2 > c8. < b8. a8 [ g8. a8. f+8 ]2 e4.~ e2 _V-4 e8 _V4 @@0,2,1 O2 V9 P0,7,3 YLR E100,100,90,3,1 c8. d8. e8 f+4 _V-3 f+8 _V3 f+32 _V-3 f+32 _V3 f+16 [ d8 _V-3 d16 _V3 ]2 d8 g4 _V-3 g8 _V3 a16 b16 > c4 _V-3 c8 _V3 < b8 > c8. < b8. g8 a4. b16 _V-3 b16 _V3 b4. _V-3 b8 @@0,2,1 O2 EX V9 P37,12,3 g8 YL. _V-2 g16 _V2 YLR a8 YL. _V-2 a16 YLR _V2 b8 > c8 _V-2 YL. c8 Y.R c8 YLR _V2 c16 < b16 a8 YL. _V-2 a16 _V2 YLR f+8 _V-2 YL. f+16 _V2 YLR a8 b8 YL. _V-2 b8 Y.R b8 _V2 YLR b16 a16 g8 YL. _V-2 g16 _V2 YLR e8 _V-2 YL. e16 _V2 YLR g8 a8 e16 _V-2 YL. e16 _V2 YLR e8 g16 _V-2 YL. g16 _V2 YLR g4. f+16 _V-2 YL. f+16 YLR _V2 f+8 _V-2 YL. f+8 Y.R f+8 _V2 YLR d32 _V-2 YL. d32 _V2 YLR d16 e8 _V-2 YL. e16 _V2 YLR d+8 _V-2 YL. d+16 _V2 YLR e8 f+8 _V-2 YL. f+8 Y.R f+8 _V2 [ YLR f+32 _V-2 YL. f+32 _V2 ]2 YLR f+8 _V-2 YL. f+16 _V2 YLR g8 _V-2 YL. g16 _V2 YLR a8 b4 _V-2 Y.R b8 YL. b8 _V2 [ YLR a8 _V-2 YL. a16 _V2 ]2 YLR a16 _V-2 YL. a16 _V2 YLR a8. b8. a16 _V-2 YL. a16 _V2 YLR g4. f+16 _V-2 YL. f+16 _V2 YLR f+4 _V-2 Y.R f+8 YL. f+8 _V2 YLR @@0,2,1 O3 EX V8 g8 YL. _V-2 g16 _V2 YLR a8 YL. _V-2 a16 YLR _V2 b8 > c8 _V-2 YL. c8 Y.R c8 YLR _V2 c16 < b16 a8 YL. _V-2 a16 _V2 YLR f+8 _V-2 YL. f+16 _V2 YLR a8 b8 YL. _V-2 b8 Y.R b8 _V2 YLR b16 a16 g8 YL. _V-2 g16 _V2 YLR e8 _V-2 YL. e16 _V2 YLR g8 a8 e16 _V-2 YL. e16 _V2 YLR e8 g16 _V-2 YL. g16 _V2 YLR g4. f+16 _V-2 YL. f+16 YLR _V2 f+8 _V-2 YL. f+8 Y.R f+8 _V2 YLR d32 _V-2 YL. d32 _V2 YLR d16 e8 _V-2 YL. e16 _V2 YLR d+8 _V-2 YL. d+16 _V2 YLR e8 f+8 _V-2 YL. f+8 Y.R f+8 _V2 [ YLR f+32 _V-2 YL. f+32 _V2 ]2 YLR f+8 _V-2 YL. f+16 _V2 YLR g8 _V-2 YL. g16 _V2 YLR a8 b4 _V-2 Y.R b8 YL. b8 _V2 > [ YLR c8 YL. _V-2 c16 _V2 ]2 YLR c16 _V-2 YL. c16 _V2 YLR c8 YL. _V-2 c16 _V2 YLR < b8 YL. _V-2 b16 _V2 YLR g8 a4 YL. _V-2 a8 _V2 YLR a16 _V-2 YL. a16 _V2 YLR [ a8 YL. _V-2 a16 _V2 YLR ]2 b8~ b1~ b2 _V-2 b4 _V-2 YL. b8 Y.R b8 
!3  L `9F00 `AE00 @A1 V2 O1 YLR [ [ e8 V1 e8 V2 ]2 e8 e8 V1 e8 V2 e8 d16 V1 d16 V2 d8 V1 d8 V2 d8 r8 d8 V1 d8 V2 d8 ]2 @A3 O0 V3 [ e8 V2 e8 V3 ]2 e8 e8 V2 e8 V3 e8 d16 V2 d16 V3 d8 V2 d8 V3 d8 r8 d8 V2 d8 V3 d8 [ e8 V2 e8 V3 ]2 e8 e8 V2 e8 V3 e8 [ B2 d4~ > d8 V2 < d8 V3 ]2 E100,100,80,3,4 O1 [ [ e8. V2 e16 V3 ]4 H-2 ]2 H0 [ c+8. V2 c+16 V3 ]4 [ [ c8. V2 c16 V3 ]2 H2 ]2 H0 [ [ c8. V2 c16 V3 ]2 H2 ]2 H0 [ [ d+8. V2 d+16 V3 ]2 H1 ]2 H0 [ c8. V2 c16 V3 ]6 [ d8. V2 d16 V3 ]2 [ g8. V2 g16 V3 ]4 [ [ d8. V2 d16 V3 ]2 H1 ]2 H0 [ e8. V2 e16 V3 ]4 [ c8. V2 c16 V3 ]4 [ [ c8. V2 c16 V3 ]2 H2 ]2 H0 [ [ d8. V2 d16 V3 ]2 H2 ]2 H0 < [ a8. V2 a16 V3 ]4 > [ [ d8. V2 d16 V3 ]2 H1 ]2 H0 e8 e8 e8 e8 c8 c8 c8 c8 d8 d8 d8 d8 g8 g8 g8 g8 e8 e8 e8 e8 < a8 a8 a8 a8 > d8 d8 d8 d8 d8 d8 d8 d8 c8 c8 c8 c8 d8 d8 d8 d8 d+8 d+8 d+8 d+8 e8 e8 e8 e8 c8 c8 c8 c8 c8 c8 c8 c8 c8 c8 c8 c8 < b8 b8 b8 b8 > e8 e8 e8 e8 c8 c8 c8 c8 d8 d8 d8 d8 g8 g8 g8 g8 e8 e8 e8 e8 < a8 a8 a8 a8 > d8 d8 d8 d8 d8 d8 d8 d8 c8 c8 c8 c8 d8 d8 d8 d8 d+8 d+8 d+8 d+8 e8 e8 e8 e8 c8 c8 c8 c8 c8 c8 c8 c8 d8 d8 d8 d8 d+8 d+8 d+8 e8~ e8 e8 e8 e8 e8 e8 e8 e8 e8 e8 e8 e8 e8 e8 e8 e8 EX 
!4  L [ YLR @3 x16 @4 x16 x16 x16 YL. @3 x16 @4 r16 x16 @3 x16 Y.R r16 @4 x16 @3 x16 r16 YLR x16 r16 x16 r16 ]7 YLR @3 x16 @4 x16 x16 x16 YL. @3 x16 @4 r16 x16 @3 x16 Y.R r16 @4 x16 @3 x16 r16 YL. x16 Y.R x16 YL. x16 Y.R x16 YLR YLR @8 x4 [ @5 x16 @6 x16 @7 x8 ]3 [ [ @5 x16 @6 x16 @7 x8 ]4 ]7 @8 x4 [ @5 x16 @6 x16 @7 x8 ]3 [ [ @5 x16 @6 x16 @7 x8 ]4 ]6 [ @5 x16 @6 x16 @7 x8 ]2 YL. @3 x16 @4 x16 x16 x16 Y.R x16 x16 x16 @3 x16 YLR @8 x4 [ @5 x16 @6 x16 @7 x8 ]3 [ [ @5 x16 @6 x16 @7 x8 ]4 ]6 @5 x16 @6 x16 [ @3 x16 @7 x16 ]3 YL. @3 x16 @4 x16 x16 x16 Y.R x16 x16 x16 @3 x16 YLR @8 x4 [ @5 x16 @6 x16 @7 x8 ]3 [ [ @5 x16 @6 x16 @7 x8 ]4 ]6 @5 x16 @6 x16 [ @3 x16 @7 x16 ]3 @3 x16 @4 x16 x16 x16 @3 x16 @4 x16 @7 x8 [ @5 x16 @6 x16 @7 x8 ]4 YLR @3 x16 @4 x16 x16 x16 YL. @3 x16 @4 r16 x16 @3 x16 Y.R r16 @4 x16 @3 x16 r16 YL. x16 Y.R x16 YL. x16 Y.R x16 
!5  L V1 O2 [ YLR @8 e16 @47 f+16 g16 a16 @8 e16 YL. ( @47 a16 ) YLR b16 e16 Y.R ( b16 ) YLR e16 > @8 c16 YL. ( < @47 e16 ) YLR @8 b16 Y.R ( @47 e16 YLR ) @8 g16 ( YL. @47 b16 ) YLR @8 d16 @47 e16 f+16 g16 @8 d16 YL. ( @47 g16 ) YLR a16 d16 Y.R ( a16 ) YLR d16 > @8 c16 YL. ( < @47 d16 ) YLR @8 b16 ( Y.R ( @47 d16 YLR ) @8 a16 ( YL. @47 b16 ) ]4 V1 YLR O2 @8 < e4 > @24 O1 a4 @41 O2 c8 @24 O1 a16 a16 a8 @41 O2 c8 [ @41 c4 @24 O1 a4 @41 O2 c8 @24 O1 a16 a16 a8 @41 O2 c8 ]6 @41 O2 c8 @24 O1 a8 a8 a8 @41 O2 c16 @24 O1 a16 a16 a16 a16 a16 a16 a16 [ @41 O2 c4 @24 O1 a4 @41 O2 c8 @24 O1 a16 a16 a8 @41 O2 c8 ]7 @41 O2 c8 @24 O1 a8 a8 a8 @41 O2 c16 @24 c16 c16 c16 c16 c16 c16 c16 [ [ @41 O2 c4 @24 O1 a4 @41 O2 c8 @24 O1 a16 a16 a8 @41 O2 c8 ]8 ]2 [ @41 O2 c4 @24 O1 a4 @41 O2 c8 @24 O1 a16 a16 a8 @41 O2 c8 ]2 
!6  L [ r1 ]4 V1 YLR @41 c4 c4 c16 c16 c16 c16 @24 O1 a8 @41 O2 c8 c8 c8 r8 c8 c16 c16 c16 c16 @24 O1 a8 @41 O2 c8 @41 c4 c4 c16 c16 c16 c16 @24 O1 a8 @41 O2 c8 c16 @24 V0 O1 a16 a16 a16 V1 @41 O2 a16 @24 V0 O1 a16 a16 a16 [ V1 @41 O2 a16 @24 O1 a16 a16 a16 ]2 @41 O2 c16 @44 O0 e16 g16 b16 > e16 g16 b16 > e16 g16 e16 < b16 g16 e16 < b16 g16 e16 d16 f+16 a16 > d16 f+16 a16 > d16 f+16 a16 f+16 d16 < a16 f+16 d16 < a16 f+16 c+16 e16 a16 > c+16 e16 a16 > c+16 e16 a16 e16 c+16 < a16 e16 c+16 < a16 e16 @3 O2 V0 r8 b16 r16 Y.R r16 b16 r16 YL. b16 r8 YLR a16 r16 r16 Y.R a16 r16 YL. a16 @44 O0 V1 YLR c16 e16 g16 > c16 e16 g16 > c16 < g16 < d16 f+16 a16 > d16 f+16 a16 > d16 < a16 < < d+16 f+16 b16 > d+16 f+16 b16 > d+16 f+16 g16 f+16 e16 < b16 g16 f+16 e16 < b16 a16 > c16 e16 a16 > c16 e16 a16 > c16 e16 c16 < a16 e16 c16 < a16 e16 c16 c16 g16 > c16 e16 g16 > c16 e16 ( YL. e16 YLR ) < < d16 f+16 a16 > d16 f+16 a16 > d16 ( YL. d16 YLR ) O0 V1 d16 g16 b16 > d16 g16 b16 > d16 g16 b16 g16 d16 < b16 g16 d16 < b16 g16 d16 a16 > d16 f+16 a16 > d16 f+16 a16 < < d+16 b16 > d+16 f+16 b16 > d+16 f+16 b16 < < e16 g16 b16 > e16 g16 b16 > e16 g16 b16 g16 e16 < b16 g16 e16 < b16 g16 e16 g16 > c16 e16 g16 > c16 e16 g16 > c16 < g16 e16 c16 < g16 e16 c16 < g16 > c16 e16 g16 > c16 e16 g16 > c16 e16 d16 < a16 f+16 d16 < a16 f+16 d16 < a16 g16 b16 > d16 g16 d16 g16 b16 > d16 g16 b16 g16 e16 < b16 g16 e16 < b16 a16 > c16 @3 O2 V1 a16 V0 a16 @44 O2 V1 c16 @3 O2 V1 Y.R a16 V0 a16 V0 YL. a16 YLR @44 O2 V1 a16 e16 @3 O2 V1 a16 V0 a16 @44 O3 V1 e16 @3 O2 V1 Y.R a16 V0 a16 V0 YL. a16 YLR @44 O1 V1 a16 > d16 @3 O2 V1 a16 V0 a16 @44 O2 V1 d16 @3 O2 V1 Y.R a16 V0 a16 V1 YL. a16 YLR O1 @47 V1 b16 > c+16 d+16 e16 f+16 g16 a16 b16 @40 W0,95,0 O1 [ e16 b16 ]4 [ c16 g16 ]4 [ d16 a16 ]4 [ g16 b16 ]4 [ e16 b16 ]4 [ c+16 a16 ]4 [ d16 a16 ]4 @27 O2 V0 d16 < a16 f+16 d16 < a8 Y.R a8 YLR @40 W0,95,0 O1 V1 [ e16 g16 ]4 [ f+16 a16 ]8 [ g16 b16 ]4 [ e16 a16 ]8 > [ c16 e16 ]4 [ < b16 > d+16 ]4 [ e16 g16 ]4 [ c16 e16 ]4 [ d16 f+16 ]4 [ g16 b16 ]4 [ e16 g16 ]4 [ c+16 e16 ]4 [ d16 a16 ]8 [ c16 e16 ]4 [ d16 f+16 ]4 [ d+16 b16 ]4 [ g16 b16 ]4 [ c16 g16 ]8 [ d16 a16 ]4 [ d+16 a16 ]4 [ e16 g+16 ]12 < [ e16 g+16 ]4 
