;008 001DC314
!1  T140 r4 L T140 @@2,2,1 O2 V5 P5,11,3 YLR E100,100,70,4,8 a+8 ( a+32 r32 ) a+16 _V-2 Y.R a+16 _V2 YLR ( a+32. r64 ) a+16 _V-2 YL. a+16 _V2 YLR ( a+32 r32 ) a+16 _V-2 Y.R a+16 _V2 YLR ( a+32 r32 ) a+8 _V-2 Y.R a+8 _V2 YLR a+8 ( a+32 r32 ) a+16 _V-2 Y.R a+16 _V2 YLR ( a+32. r64 ) a+16 _V-2 YL. a+16 _V2 YLR a+16 > c8 < a+16 > c8 < a+16 _V-2 a+16 _V2 a+8 ( a+32 r32 ) a+16 _V-2 Y.R a+16 _V2 YLR ( a+32. r64 ) a+16 _V-2 YL. a+16 _V2 YLR ( a+32 r32 ) a+16 _V-2 Y.R a+16 _V2 YLR ( a+32 r32 ) a+8 _V-2 Y.R a+8 _V2 YLR a+8 ( a+32 r32 ) a+16 _V-2 Y.R a+16 _V2 YLR ( a+32. r64 ) a+16 _V-2 YL. a+16 _V2 YLR a+32. r64 a+16.~ a+64 r64 a+32. r64 a+8 a+8 T141 r1 T142 @@0,1,2 O3 V5 P16,11,2 YL. E90,100,60,4,12 D1 r16 d+4. d+8 f8 d+8 f8 g16~ g2~ g8 D0 YLR c8 d8 d+8 f8 _V-2 YL. f16 _V2 YLR f8 _V-2 Y.R f16 _V2 YLR f4 _V-2 YL. f8 _V2 YLR d+8 _V-2 Y.R d+8 _V2 YLR d+8. < a+8 _V-2 YL. a+16 _V2 YLR a+4. r4 O3 YL. D1 r16 d+4. d+8 f8 d+8 f8 g16~ g2~ g8 D0 YLR c8 d8 d+8 f8 _V-2 YL. f16 _V2 YLR f8 _V-2 Y.R f16 _V2 YLR f4 _V-2 YL. f8 _V2 YLR d+8 _V-2 Y.R d+8 _V2 YLR d+8. d8 _V-3 YL. d16 _V3 YLR d4. r4 @@2,1,2 E85,100,80,5,12 O3 B2 V4 P23,8,3 [ d+8 ( Y.R d+16 ) YLR d+8 ( YL. d+16 ) YLR d+16. ( Y.R d+32 ) YLR ]2 d+8. d8. c8 d+4 ( Y.R d+8 ) YLR c16 d16 d+4 ( YL. d+8 ) YLR d+16. ( Y.R d+32 ) YLR d+8 d8 c8 d+8~ d+2 ( Y.R d+8 YL. d+8 Y.R d+8 ) YLR c16 d16 d+8 ( Y.R d+16 ) YLR d+8 ( YL. d+16 ) YLR d+16. ( Y.R d+32 ) YLR d+8. f8. g8 d+4. d16. ( Y.R d32 ) YLR d4 c8 d8~ d2 ( Y.R d8 ) YLR < a8 > d16 ( YL. d16 ) YLR d8~ d1~ d2 r2 @@2,1,2 O3 V5 E90,100,90,4,12 P12,9,2 [ d8. f8. g8 ]2 a8. g8. f8 d4 _V-2 Y.R d8 YL. d8 _V2 YLR [ d+8. f8. g8 ]2 g4. a16 r16 a4 _V-2 Y.R a8 YL. a8 _V2 YLR D1 V4 r16 g8 _V-2 Y.R g16 _V2 YLR g8. f8 d+4 _V-2 Y.R d+16 YL. d+16 _V2 YLR f16 g16 a8 _V-2 Y.R a16 _V2 YLR a8. g8 f4 _V-2 Y.R f8 YL. f16 _V2 YLR D0 V5 g8 _V-2 Y.R g16 _V2 YLR g8. f8 d+8. f8. g16 _V-2 YL. g16 _V2 YLR g4. f+16. _V-2 Y.R f+32 _V2 YLR f+4 _V-2 Y.R f+8 YL. f+8 _V2 YLR [ d8. f8. g8 ]2 a8. g8. f8 d4 _V-2 Y.R d8 YL. d8 _V2 YLR [ d+8. f8. g8 ]2 g4. a16 r16 a4 _V-2 Y.R a8 YL. a8 _V2 YLR D1 V4 r16 g8 _V-2 Y.R g16 _V2 YLR g8. f8 d+4 _V-2 Y.R d+16 YL. d+16 _V2 YLR f16 g16 a8 _V-2 Y.R a16 _V2 YLR a8. g8 f4 _V-2 Y.R f8 YL. f16 _V2 YLR D0 V5 g8 _V-2 Y.R g16 _V2 YLR g8. f8 d+8. f8. g16 _V-2 YL. g16 _V2 YLR g2 f+8 _V-2 Y.R f+8 _V2 YLR d16 _V-2 YL. d16 _V3 YLR c8~ c1~ < b2 _V-3 b4 @1 V4 O2 E100,80,50,5,5 Y.R D1 r24 c24 d24 d+24 f24 g24 
!2  @1 V4 O2 E100,80,50,5,5 YLR c24 d24 d+24 f24 g24 a+24 L @@2,2,1 O3 V7 P0,9,2 E100,100,70,4,8 YLR D1 d+8 ( d+32 r32 ) d+16 _V-2 Y.R d+16 _V2 YLR ( d+32. r64 ) d+16 _V-2 YL. d+16 _V2 YLR ( d+32 r32 ) d+16 _V-2 Y.R d+16 _V2 YLR ( d+32 r32 ) d+8 _V-2 Y.R d+8 _V2 YLR d+8 ( d+32 r32 ) d+16 _V-2 Y.R d+16 _V2 YLR ( d+32. r64 ) d+16 _V-2 YL. d+16 _V2 YLR d+32. r64 D0 f8 D1 d+32. r64 D0 f8 D1 d+16 _V-2 d+16 _V2 d+8 ( d+32 r32 ) d+16 _V-2 Y.R d+16 _V2 YLR ( d+32. r64 ) d+16 _V-2 YL. d+16 _V2 YLR ( d+32 r32 ) d+16 _V-2 Y.R d+16 _V2 YLR ( d+32 r32 ) d+8 _V-2 Y.R d+8 _V2 YLR d+8 ( d+32 r32 ) d+16 _V-2 Y.R d+16 _V2 YLR ( d+32. r64 ) d+16 _V-2 YL. d+16 _V2 YLR d+32. r64 d16.~ d64 r64 d32. r64 d8 d+8 D0 r1 @@0,1,2 O3 V8 P16,11,2 YLR E90,100,60,4,12 d+4. d+8 f8 d+8 f8 g8~ g2 _V-2 Y.R g8 _V2 YLR d+8 f8 g8 g+8 _V-2 YL. g+16 _V2 YLR g+8 _V-2 Y.R g+16 _V2 YLR g+4 _V-2 YL. g+8 _V2 YLR g8 _V-2 Y.R g8 _V2 YLR g8. f8 _V-2 YL. f16 _V2 YLR f4. r4 d+4. d+8 f8 d+8 f8 g8~ g2 _V-2 Y.R g8 _V2 YLR d+8 f8 g8 g+8 _V-2 YL. g+16 _V2 YLR g+8 _V-2 Y.R g+16 _V2 YLR g+4 _V-2 YL. g+8 _V2 YLR g8 _V-2 Y.R g8 _V2 YLR g8. f8 _V-2 Y.R f16 _V2 YLR f4. r4 @@2,1,2 E85,100,80,5,12 O3 B2 V8 P23,8,3 [ g8~ g32 _V-2 Y.R g32 _V2 YLR g8~ g32 _V-2 YL. g32 _V2 YLR g16. _V-2 Y.R g32 _V2 YLR ]2 g8. f8. d+8 g4 _V-2 Y.R g8 _V2 YLR d+16 f16 g4 _V-2 YL. g8 _V2 YLR g16. _V-2 Y.R g32 _V2 YLR g8 f8 d+8 g8~ g2 _V-2 Y.R g8 YL. g8 Y.R g8 _V2 YLR d+16 f16 g8~ g32 _V-2 Y.R g32 _V2 YLR g8~ g32 _V-2 YL. g32 _V2 YLR g16. _V-2 Y.R g32 _V2 YLR g8. g+8. a+8 g4. f16. _V-2 Y.R f32 _V2 YLR f4 d+8 f8~ f2 _V-2 Y.R f8 _V2 YLR d8 f16 _V-2 YL. f16 _V2 YLR f8~ f+1~ f+2 r2 @@2,1,2 O3 V8 E90,100,90,4,12 P12,9,2 [ g8. a8. a+8 ]2 > c8. < a+8. a8 g4 _V-3 Y.R g8 YL. g8 _V3 YLR [ g8. a8. a+8 ]2 > c4. d16 r16 d4 _V-3 Y.R d8 YL. d8 _V3 YLR < g8 _V-3 Y.R g16 _V3 YLR g8. f8 d+4 _V-3 Y.R d+16 YL. d+16 _V3 YLR f16 g16 a8 _V-3 Y.R a16 _V3 YLR a8. g8 f4 _V-3 Y.R f8 YL. f8 _V3 YLR a+8 _V-3 Y.R a+16 _V3 YLR a+8. a8 g8. a8. a+16 _V-3 YL. a+16 _V3 YLR a+4. a16. _V-2 Y.R a32 _V2 YLR a4 _V-3 Y.R a8 YL. a8 _V3 YLR [ g8. a8. a+8 ]2 > c8. < a+8. a8 g4 _V-3 Y.R g8 YL. g8 _V3 YLR [ g8. a8. a+8 ]2 > c4. d16 r16 d4 _V-3 Y.R d8 YL. d8 _V3 YLR < g8 _V-3 Y.R g16 _V3 YLR g8. f8 d+4 _V-3 Y.R d+16 YL. d+16 _V3 YLR f16 g16 a8 _V-3 Y.R a16 _V3 YLR a8. g8 f4 _V-3 Y.R f8 YL. f8 _V3 YLR a+8 _V-3 Y.R a+16 _V3 YLR a+8. a8 g8. a8. a+16 _V-3 YL. a+16 _V3 YLR a+2 a8 _V-3 Y.R a8 _V3 YLR g16 _V-3 YL. g16 _V3 YLR g8~ g1~ g2 _V-3 g4 @1 V4 O2 E100,80,50,5,5 YLR c24 d24 d+24 f24 g24 a+24 
!3  r4 L `9F00 `AE00 @A3 V3 YLR O1 E100,70,50,5,5 [ c8 < c16 > c16 < c8 > c16 < c16 > ]6 < [ g+8 < g+16 > g+16 < g+8 > g+16 < g+16 > H2 ]2 H0 r1 O1 [ c8 < c16 > c16 < c8 > c16 < c16 > H2 ]2 H0 d+8 < d+16 > d+16 < d+8 > d+16 < d+16 > d+8 < d+16 > d+16 d+16 < a+16 > d+8 f8 < f16 > f16 < f8 > f16 < f16 > f8 < f16 > f16 d+8 < d+16 > d+16 d+16 d+16 < a+4 a+4 a+8 [ b8 ]2 O1 [ c8 < c16 > c16 < c8 > c16 < c16 > H2 ]2 H0 d+8 < d+16 > d+16 < d+8 > d+16 < d+16 > d+8 < d+16 > d+16 d+16 < a+16 > d+8 f8 < f16 > f16 < f8 > f16 < f16 > f8 < f16 > f16 d+8 < d+16 > d+16 < d+16 > d+16 < g4 g4 > g8 < [ g8 ]2 O1 E100,70,70,8,5 [ [ c8 < c16 > c16 < c8 > c16 < c16 > ]2 H-2 ]2 H0 < [ g+8 > g+16 < g+16 > g+8 < g+16 > g+16 < H2 ]2 H0 > d+8 < d+16 > d+16 < d+8 > d+16 < d+16 > [ d+8 < d+16 > d+16 H-1 ]2 H0 [ c8 < c16 > c16 < c8 > c16 < c16 > ]2 < [ g8 < g16 > g16 < g8 > g16 < g16 > ]2 [ d8 < d16 > d16 < d8 > d16 < d16 > ]5 d8 d8 f8 f8 [ [ g8 < g16 > g16 < g8 > g16 < g16 > ]2 H-5 ]2 H0 < [ [ d+8 > d+16 < d+16 > d+8 < d+16 < d+16 < ]2 H-1 ]2 H0 < [ [ c8 > c16 < c16 > c8 < c16 < c16 < ]2 H2 ]2 H0 < [ [ d+8 > d+16 < d+16 > d+8 < d+16 < d+16 < ]2 H-1 ]2 H0 [ [ g8 < g16 > g16 < g8 > g16 < g16 > ]2 H-5 ]2 H0 < [ [ d+8 > d+16 < d+16 > d+8 < d+16 < d+16 < ]2 H-1 ]2 H0 < [ [ c8 > c16 < c16 > c8 < c16 < c16 < ]2 H2 ]2 H0 < [ [ d+8 > d+16 < d+16 > d+8 < d+16 < d+16 < ]2 H-1 ]2 H0 [ g8 > g16 < g16 > g8 < g16 > g16 < ]2 g8 > g16 < g16 > g8 < g16 > g16 < g8 > g16 < g16 > [ g16 < g16 > ]2 
!4  r4 L @19 x2 [ @1 YLR x16 @5 YL. x16 Y.R x16 YLR x16 ]14 @14 x8 @15 x16 x16 @16 x8 @17 x16 x16 @18 x2 [ @5 [ Y.R [ x16 ]2 YL. x16 Y.R x16 ]3 Y.R [ x16 ]2 YL. x16 Y.R @7 x16 ]4 [ @5 [ Y.R [ x16 ]2 YL. x16 Y.R x16 ]3 Y.R [ x16 ]2 YL. x16 Y.R @7 x16 ]4 [ @5 [ Y.R [ x16 ]2 YL. x16 Y.R x16 ]3 Y.R [ x16 ]2 YL. x16 Y.R @7 x16 ]9 [ @5 [ Y.R [ x16 ]2 YL. x16 Y.R x16 ]3 Y.R [ x16 ]2 YL. x16 Y.R @7 x16 ]8 [ @5 [ Y.R [ x16 ]2 YL. x16 Y.R x16 ]3 Y.R [ x16 ]2 YL. x16 Y.R @7 x16 ]9 @5 [ Y.R [ x16 ]2 YL. x16 Y.R x16 ]3 Y.R [ x16 ]2 YL. x16 Y.R @7 x16 YLR 
!5  @8 O2 V1 YL. c24 d24 d+24 f24 g24 a+24 L YLR @4 V1 O1 YLR c8 YLR @32 O2 V0 [ c16 ]2 @24 V1 c8 @32 V0 [ c16 ]2 [ @41 V1 c8 @32 V0 [ c16 ]2 @24 V1 c8 @32 V0 [ c16 ]2 ]6 @41 V1 c8 @32 V0 [ c16 ]2 @24 V1 c16 c16 c8 @41 r2 @24 c16 c16 c16 c16 V0 [ c24 ]3 V1 [ c24 ]3 [ @41 V1 c8 @32 V0 c8 @24 V1 c8 @32 V0 c8 ]7 @41 V1 c8 @32 V0 c8 @24 V1 c16 c16 @41 V1 c8 [ @41 V1 c8 @32 V0 c8 @24 V1 c8 @32 V0 c8 ]7 @24 V1 c8 c8 c16 c16 c8 [ @41 V1 c8 @32 V0 c8 @24 V1 c8 @32 V0 c8 ]17 @24 V1 c8 c8 c16 c16 c8 [ @41 V1 c8 @32 V0 c8 @24 V1 c8 @32 V0 c8 ]7 @41 V1 c8 @32 V0 c8 @24 V1 c8 @41 V0 c16 @24 V1 c16 [ @41 V1 c8 @32 V0 c8 @24 V1 c8 @32 V0 c8 ]7 @24 V1 [ c16 c16 c8 ]2 [ @41 V1 c8 @32 V0 c8 @24 V1 c8 @32 V0 c8 ]7 @41 V1 c8 @32 V0 c8 @24 V1 c8 @41 V0 c16 @24 V1 c16 [ @41 V1 c8 @32 V0 c8 @24 V1 c8 @32 V0 c8 ]11 @41 V1 c8 @32 V0 c8 @8 O2 V1 YLR c24 d24 d+24 f24 g24 a+24 
!6  @8 O2 V1 Y.R D1 r32 c24 d24 d+24 f24 g24 a+24 D0 @4 V1 O1 YL. D1 c8. YLR D0 @21 O2 V1 YLR r32 YL. [ c16 ]4 YLR [ c16 ]4 Y.R [ c16 ]4 L @48 O1 V0 Y.R g16 > c16 < a+16 g16 YLR V1 > c16 < a+16 g16 > c16 < a+16 g16 > c16 < a+16 YL. V0 g16 > c16 < a+16 g16 @40 W0,95,1 O1 V1 YLR c1 < g+2 a+2 YLR V1 @41 x4 x4 [ x8 ]2 V1 [ x24 ]6 @48 O2 V0 Y.R c8 c8 c8 c8 d8 d16 d16 d8 d8 [ d+8 d+16 d+16 ]3 [ d+16 ]4 f8 f8 f8 f8 f8 f8 d+8 d+8 d+16 d+16 < [ a+8 ]3 [ a+16 ]2 a+8 [ b16 ]2 b8 O2 c8 c8 c8 c8 d8 d16 d16 d8 d8 [ d+8 d+16 d+16 ]3 [ d+16 ]4 f8 f8 f8 f8 f8 f8 d+8 d+8 d+16 d+16 < [ g8 ]3 [ g16 ]2 g8 [ g16 ]2 g8 @46 W0,100,24 V1 O1 YLR c32 Y.R c32 YLR g32 YL. g32 > YLR c32 Y.R c32 YLR d+32 YL. d+32 YLR g32 Y.R g32 > YLR c32 YL. c32 YLR d+32 Y.R d+32 YLR g32 YL. g32 > YLR c32 Y.R c32 < YLR g32 YL. g32 YLR d+32 Y.R d+32 YLR c32 YL. c32 < YLR g32 Y.R g32 YLR d+32 YL. d+32 YLR c32 Y.R c32 < YLR g32 YL. g32 [ YLR a+32 Y.R a+32 > YLR c32 YL. c32 YLR d32 Y.R d32 YLR f32 YL. f32 ]2 [ YLR a+32 Y.R a+32 YLR f32 YL. f32 YLR d32 Y.R d32 YLR c32 YL. c32 < ]2 [ YLR g+32 Y.R g+32 YLR a+32 YL. a+32 > YLR c32 Y.R c32 YLR d+32 YL. d+32 ]2 < < YLR a+32 Y.R a+32 > YLR c32 YL. c32 YLR d32 Y.R d32 YLR f32 YL. f32 YLR a+32 Y.R a+32 YLR f32 YL. f32 YLR d32 Y.R d32 < YLR a+32 YL. a+32 YLR d+32 Y.R d+32 > YLR d+32 YL. d+32 YLR g32 Y.R g32 YLR a+32 YL. a+32 > YLR d+32 Y.R d+32 YLR f32 YL. f32 YLR g32 Y.R g32 YLR a+32 YL. a+32 > [ YLR d+32 Y.R d+32 < YLR a+32 YL. a+32 YLR g32 Y.R g32 YLR f32 YL. f32 ]2 O1 YLR c32 Y.R c32 YLR g32 YL. g32 > YLR c32 Y.R c32 YLR d+32 YL. d+32 YLR g32 Y.R g32 > YLR c32 YL. c32 YLR d+32 Y.R d+32 YLR g32 YL. g32 > YLR c32 Y.R c32 < YLR g32 YL. g32 YLR d+32 Y.R d+32 YLR c32 YL. c32 < YLR g32 Y.R g32 YLR d+32 YL. d+32 YLR c32 Y.R c32 < YLR g32 YL. g32 [ YLR g32 Y.R g32 YLR a+32 YL. a+32 YLR > d32 Y.R d32 YLR f32 YL. f32 ]2 [ YLR g32 Y.R g32 YLR f32 YL. f32 YLR d32 Y.R d32 YLR < a+32 YL. a+32 ]2 [ YLR a32 Y.R a32 YLR > c32 YL. c32 YLR d32 Y.R d32 YLR f32 YL. f32 ]2 [ YLR a32 Y.R a32 YLR f32 YL. f32 YLR d32 Y.R d32 YLR c32 YL. c32 < ]2 [ YLR a32 Y.R a32 YLR > c32 YL. c32 YLR d32 Y.R d32 YLR f+32 YL. f+32 ]2 [ YLR a32 Y.R a32 YLR f+32 YL. f+32 YLR d32 Y.R d32 YLR c32 YL. c32 < ]2 r4 @8 O2 V0 YLR [ d24 f+24 a24 > ]2 O2 V1 YLR d8 Y.R d8 YLR f8 YL. f8 @40 W0,95,1 O1 V1 YLR [ g16 > d16 < ]2 Y.R [ g16 > d16 < ]2 YLR [ g16 > d16 < ]2 YL. [ g16 > d16 < ]2 YLR [ d16 a16 ]2 Y.R [ d16 a16 ]2 YLR [ d16 a16 ]2 YL. [ d16 a16 ]2 [ YLR [ d+16 a+16 ]2 Y.R [ d+16 a+16 ]2 YLR [ d+16 a+16 ]2 YL. [ d+16 a+16 ]2 YLR [ f16 a16 ]2 Y.R [ f16 a16 ]2 YLR [ f16 a16 ]2 YL. [ f16 a16 ]2 ]2 YLR [ d+16 g16 ]2 Y.R [ d+16 g16 ]2 YLR [ d+16 g16 ]2 YL. [ d+16 g16 ]2 YLR [ d16 g16 ]2 Y.R [ d16 g16 ]2 YLR [ d16 f+16 ]2 YL. [ d16 f+16 ]2 O1 YLR [ g16 > d16 < ]2 Y.R [ g16 > d16 < ]2 YLR [ g16 > d16 < ]2 YL. [ g16 > d16 < ]2 YLR [ d16 a16 ]2 Y.R [ d16 a16 ]2 YLR [ d16 a16 ]2 YL. [ d16 a16 ]2 YLR [ d+16 a+16 ]2 Y.R [ d+16 a+16 ]2 YLR [ d+16 a+16 ]2 YL. [ d+16 a+16 ]2 YLR [ f16 a16 ]2 Y.R [ f16 a16 ]2 YLR [ f16 a16 ]2 YL. [ f16 a16 ]2 [ YLR [ d+16 a+16 ]2 Y.R [ d+16 a+16 ]2 YLR [ d+16 a+16 ]2 YL. [ d+16 a+16 ]2 H2 ]2 H0 YLR [ g16 > d16 < ]2 Y.R [ g16 > d16 < ]2 YLR [ g16 > d16 < ]2 YL. [ g16 > d16 < ]2 YLR [ g16 > d16 < ]2 Y.R [ g16 > d16 < ]2 YLR [ f+16 > d16 < ]2 YL. [ f+16 > d16 < ]2 YLR [ g16 > d16 < ]2 Y.R [ g16 > d16 < ]2 YLR [ g16 > d16 < ]2 YL. [ g16 > d16 < ]2 YLR [ g16 > d16 < ]2 Y.R [ g16 > d16 < ]2 YLR [ g16 > d16 < ]2 @24 V1 YLR O2 c8 @32 V0 c8 @4 V1 O1 YL. r32 D1 c8. YLR D0 @21 O2 V1 YLR r32 YL. [ c16 ]4 YLR [ c16 ]4 Y.R [ c16 ]4 
