;009 001DD736
!1  T145 r16 E80,100,80,3,9 EP-2,0,0,1,0 @@1,2,0 P15,11,2 D-1 r32. O3 V4 [ g+4. g16 g+16 a+4 g4 ]2 g+4. g16 f16 d+4. _V-5 d+8 _V5 > c4. < a+16 g+16 g4. _V-5 g16 r64 _V5 L O3 V6 D0 c4. < a+16 > c16 d+4 < a+4 > c4. < a+16 > c16 c+4 < a+4 > c+2. _V-5 c+4 E100,70,40,3,15 @@0,3,1 EP-4,0,0,11,0 P6,11,2 V4 O3 c4 d4 d+4 e4 YLR @@1,1,2 EX EPX P11,11,2 D-1 r32 O3 V4 g+4 g+8 g+8 g8 g8 f8 d+8 f8. f8. c8 c4. _V-2 c32. r64 c32 D0 V6 E100,70,70,3,0 f8. f8. g8 g+4 _V-4 g+8 _V4 g+8 g8. g8. g+8 a+4. _V-4 a+8 r32 D-1 V4 EX g+4 g+8 g+8 g+8 g8 f8 d+8 f8. f8. c8 c4~ c16. D0 V6 E100,70,70,3,0 c32. r64 c+32. r64 f8. f8. g8 f8 d+8 c8 < a+16 > c16~ c2~ c8 _V-2 c8 _V2 r8 V4 EX D-1 r32 f8 d+8. d+8. f8 g4 _V-2 g8 _V2 g8 g+8. g+8. f8 d+4 _V-2 d+8 _V2 d+8 d+8. d+8. f8 d+8 d+8 f8 g16 g+16~ g+2~ g+8 _V-2 g+8 _V2 r8 g+8 g8. g8. g+8 a+4 _V-2 a+8 _V2 a+16 a+16 g+8. g+8. g8 f4 _V-2 f8 _V2 r8 [ g+8. f8. g+8 ]2 g1~ g4 _V-2 g8 _V2 r8 f4 g8. r32 D0 V6 E100,70,70,3,0 c4 _V-4 c8 _V4 c8 c8 < a+8 g+8 > d+8~ d+4. _V-4 d+8 _V4 c4 d+4 d+8 f8 d+8 c+4 c4 c+8~ c+8 < g+8 g+4~ g+4 _V-4 g+8 _V4 > V4 D-1 r32 f16 g16 g+4 _V-2 g+8 _V2 g+8 g+8 g8 f8 a+8~ a+8 g4 f4 d+4 > c8~ c1~ c4. _V-2 c16~ c32 _V2 < < D0 V6 E100,70,70,3,0 g+4 > c4 c4 _V-4 c8 _V4 c8 c8 < a+8 g+8 > d+8~ d+4. _V-4 d+8 _V4 c4 d+4 d+8 f8 d+8 c+4 c4 c+8~ c+8 < g+8 g+4~ g+4 _V-4 g+8 _V4 > V4 D-1 r32 f16 g16 g+4 _V-2 g+8 _V2 g+8 g+8 g8 f8 a+8~ a+8 g4 f4 d+4 f8~ f2. _V-2 f8 r16. D0 V6 E100,70,70,3,0 < _V2 g+8. a+8. > c8 d+8. c8. d+8 f4. f8 f2~ f2. _V-2 f8 _V2 r8 E80,100,80,3,9 EP-2,0,0,1,0 @@1,2,0 P15,11,2 
!2  r16 E80,100,80,3,9 EP-2,0,0,1,0 @@1,2,0 P15,11,2 O3 V9 [ g+4. g16 g+16 a+4 g4 ]2 g+4. g16 f16 d+4. _V-5 d+8 _V5 > c4. < a+16 g+16 g4. _V-5 g8 _V5 L [ g+4. g16 g+16 a+4 g4 ]2 g+2. _V-5 g+4 _V5 g2 _V-3 g4 _V-2 g8 r8 YLR @@3,1,2 E100,70,70,3,0 EPX P11,11,2 O3 V9 g+4 g+8 g+8 g8 g8 f8 d+8 f8. f8. c8 c4 _V-6 c8 _V8 c32. r64 c32. r64 _V-2 c+8. c+8. d+8 f4 _V-6 f8 _V4 f8 _V2 e8. e8. f8 g4. _V-6 g8 _V6 g+4 g+8 g+8 g+8 g8 f8 d+8 f8. f8. c8 c4 _V-6 c8 _V8 f32. r64 g32. r64 _V-2 g+8. g+8. a+8 g+8 g8 f8 d+16 f16~ f2~ f8 _V-6 f8 _V6 r8 f8 d+8. d+8. f8 g4 _V-6 g8 _V6 g8 g+8. g+8. f8 d+4 _V-6 d+8 _V6 d+8 d+8. d+8. f8 d+8 d+8 f8 g16 g+16~ g+2~ g+8 _V-6 g+8 _V6 r8 g+8 g8. g8. g+8 a+4 _V-6 a+8 _V6 a+16 a+16 g+8. g+8. g8 f4 _V-6 f8 _V6 r8 [ g+8. f8. g+8 ]2 g1~ g4 _V-6 g8 _V6 r8 f4 g4 g+4 _V-6 g+8 _V6 g+8 g+8 g8 f8 a+8~ a+4. _V-6 a+8 _V6 g+4 a+4 > c8 c+8 c8 < a+4 g+4 a+8~ a+8 _V-2 f8 _V2 f4~ f4 _V-6 f8 _V6 f16 g16 g+4 _V-6 g+8 _V6 g+8 g+8 g8 f8 a+8~ a+8 g4 f4 d+4 > c8~ c1~ c4. _V-6 c8 _V6 < f4 g4 g+4 _V-6 g+8 _V6 g+8 g+8 g8 f8 a+8~ a+4. _V-6 a+8 _V6 g+4 a+4 > c8 c+8 c8 < a+4 g+4 a+8~ a+8 _V-2 f8 _V2 f4~ f4 _V-6 f8 _V6 f16 g16 g+4 _V-6 g+8 _V6 g+8 g+8 g8 f8 a+8~ a+8 g4 f4 d+4 f8~ f2. _V-6 f8 r8 _V6 f8. g8. g+8 a+8. g+8. a+8 > c+4. _V-2 c8 _V2 c2~ c2. _V-6 c8 _V6 r8 E80,100,80,3,9 EP-2,0,0,1,0 @@1,2,0 P15,11,2 O3 V9 
!3  r16 `9F00 `AE00 YLR E70,70,70,0,0 @A7 @B3 @~5 V3 O1 P18,11,8 f2 e2 d+2 d2 c+2. V2 c+8 r8 V3 f2 e2 L O0 V3 [ f8 > f16 f16 < ]2 [ g8 > g16 g16 < ]2 [ g+8 > g+16 g+16 < ]2 [ a+8 > a+16 a+16 < ]2 > [ c+8 > c+16 c+16 < ]4 [ c8 > c16 c16 < ]4 O0 V3 [ f8 > f16 f16 < ]4 [ d+8 > d+16 d+16 < ]4 [ c+8 > c+16 c+16 < ]4 [ c8 > c16 c16 < ]2 [ e8 > e16 e16 < ]2 [ f8 > f16 f16 < ]4 [ d+8 > d+16 d+16 < ]4 [ c+8 > c+16 c+16 < ]2 [ d+8 > d+16 d+16 < ]2 [ f8 > f16 f16 < ]4 [ [ d+8 > d+16 d+16 < ]2 [ c+8 > c+16 c+16 < ]2 [ c8 > c16 c16 < ]4 ]2 [ c8 > c16 c16 < ]4 [ f8 > f16 f16 < ]4 < [ g+8 > g+16 g+16 < ]4 > [ c8 > c16 c16 < ]8 O0 [ f8 > f16 f16 < ]4 [ g8 > g16 g16 < ]4 [ g+8 > g+16 g+16 < ]4 [ a+8 > a+16 a+16 < ]4 [ f8 > f16 f16 < ]4 [ d+8 > d+16 d+16 < ]4 [ g+8 > g+16 g+16 < ]4 > c8 > c16 c16 < c8 c8~ c8 > c16 c16 < c8 > c16 c16 < O0 [ f8 > f16 f16 < ]4 [ g8 > g16 g16 < ]4 [ g+8 > g+16 g+16 < ]4 [ a+8 > a+16 a+16 < ]4 [ f8 > f16 f16 < ]4 [ d+8 > d+16 d+16 < ]4 [ c+8 > c+16 c+16 < ]6 [ d+8 > d+16 d+16 < ]2 [ f8 > f16 f16 < ]4 [ d+8 > d+16 d+16 < ]4 
!4  r16 @8 x1 Y.R x1 YLR @1 x2 x2 x4 x4 @3 x16 x16 x8 x16 x16 x16 @1 x16 L @8 x4. @6 x8 [ r8 x16 @5 x16 @6 ]2 [ r8 @6 x16 @5 x16 ]8 @8 x4. @6 x8 [ r8 x16 @5 x16 @6 ]2 [ @8 x4. @6 x8 [ r8 x16 @5 x16 @6 ]2 [ [ r8 @6 x16 @5 x16 ]4 ]7 ]2 @1 x8 @6 x16 @5 x16 @3 x8 @6 x16 @5 x16 @3 x16 @4 x16 x16 @3 x16 [ x24 x24 ]3 @8 x4. @6 x8 [ r8 x16 @5 x16 @6 ]2 [ [ r8 @6 x16 @5 x16 ]4 ]6 YL. @8 x4. Y.R x4. YLR r8 @6 x16 @5 x16 @8 x4. @6 x8 [ r8 x16 @5 x16 @6 ]2 [ [ r8 @6 x16 @5 x16 ]4 ]7 YLR @8 x4. YLR @6 x8 [ r8 x16 @5 x16 @6 ]2 [ r8 @6 x16 @5 x16 ]4 
!5  @31 V0 x32 x32 @41 V1 c1 c1 c2 c2 @44 V1 O1 [ Y.R c24 c24 f24 f24 g24 g24 YL. f24 f24 g24 g24 > c24 c24 ]2 L V1 O2 YLR [ @41 c8 @32 V0 c16 V1 c16 @31 c8 @32 c16 c16 ]7 @41 c8 @32 c16 @41 c16 @31 c16 c16 c16 @41 V0 c16 V1 [ @41 c8 @32 V0 c16 V1 c16 @31 c8 @32 c16 c16 ]7 @41 c8 @32 c16 c16 @31 c8 @41 V1 c16 V0 c16 V1 [ @41 c8 @32 V0 c16 V1 c16 @31 c8 @32 c16 c16 ]7 @31 c16 c16 c16 @32 c16 @31 c8 c16 c16 V1 [ [ @41 c8 @32 V0 c16 V1 c16 @31 c8 @32 c16 c16 ]8 ]2 @44 V1 V1 O1 YLR @41 O2 c24 Y.R @44 V1 O1 c24 f24 f24 g24 g24 @41 YLR O2 c24 YL. @44 O1 f24 g24 g24 O2 c24 c24 YLR O2 @41 c24 Y.R @44 V1 O2 c24 f24 f24 g24 g24 @41 YLR O2 c24 YL. @44 f24 g24 g24 O3 c24 c24 O2 YLR [ @41 c8 @32 V0 c16 V1 c16 @31 c8 @32 c16 c16 ]7 @41 c8 @32 V0 c16 V1 c16 @31 c8 @41 V0 c16 @32 c16 V1 [ @41 c8 @32 V0 c16 V1 c16 @31 c8 @32 c16 c16 ]6 @41 c8 @32 V0 c16 V1 c16 @31 c8 @41 c16 @32 c16 @31 c16 c16 c16 c16 c16 c16 c16 c16 [ @41 c8 @32 V0 c16 V1 c16 @31 c8 @32 c16 c16 ]7 @41 c8 @32 V0 c16 V1 c16 @31 c8 @41 V0 c16 @32 c16 [ @41 c8 @32 V0 c16 V1 c16 @31 c8 @32 c16 c16 ]7 @41 c8 c16 @31 c8 @41 c16 c16 @32 c16 [ @41 c8 @32 V0 c16 V1 c16 @31 c8 @32 c16 c16 ]3 @41 c8 @31 c8 c8 c16 c16 
!6  r16 @40 W0,97,0 O2 V1 f2 e2 d+2 d2 c+1 @25 V1 O1 D-1 r24 YL. c24 c24 f24 f24 g24 g24 Y.R f24 f24 g24 g24 > c24 c24 YL. c24 c24 f24 f24 g24 g24 Y.R f24 f24 g24 g24 > c24 L YLR D0 @40 W0,97,0 O2 V1 YLR f2 g2 g+2 a+2 > c+2. @62 W0,97,41 EP-4,0,0,177,0 V0 O2 YLR c+4 V1 Y.R c4 YL. d4 Y.R d+4 YL. e4 EPX YLR V1 O2 @44 V1 [ V1 [ r8 g+16 g+16 ]4 [ r8 g16 g16 ]2 g16 g16 g16 g16 r8 g16 g16 ]3 [ r8 g+16 g+16 ]2 [ r8 g+16 g+16 ]2 @40 W0,97,0 O2 V1 YLR a+2 a4. V0 a8 @56 W0,97,60 V1 O2 [ d+2 c+2 c1 ]2 c1 f1 < g+1 > c1 @44 V1 O1 D-1 r24 YL. c24 c24 f24 f24 g24 g24 Y.R f24 f24 g24 g24 > c24 c24 YL. c24 c24 f24 f24 g24 g24 Y.R f24 f24 g24 g24 > c24 D0 @63 W0,97,60 YLR O2 V1 r8 [ f32. r64 ]2 f8. V0 f16 V1 [ f32. r64 ]2 f4 V0 f8 V1 r8 [ g32. r64 ]2 g8. V0 g16 V1 [ g32. r64 ]2 g4 V0 g8 V1 r8 [ g+32. r64 ]2 g+8. V0 g+16 V1 [ g+32. r64 ]2 g+4 V0 g+8 V1 r8 [ a+32. r64 ]2 a+8. V0 a+16 V1 [ a+32. r64 ]2 a+4 V0 a+8 O2 V1 r8 [ f32. r64 ]2 f8. V0 f16 V1 [ f32. r64 ]2 f4 V0 f8 V1 r8 [ d+32. r64 ]2 d+8. V0 d+16 V1 [ d+32. r64 ]2 d+4 V0 d+8 V1 r8 [ g+32. r64 ]2 g+8. V0 g+16 V1 [ g+32. r64 ]2 g+4 V0 g+8 V1 O2 @40 W0,97,0 a+4 V0 a+8 > V1 c8~ c4 V0 c8 r8 @63 W0,97,60 O2 V1 r8 [ f32. r64 ]2 f8. V0 f16 V1 [ f32. r64 ]2 f4 V0 f8 V1 r8 [ g32. r64 ]2 g8. V0 g16 V1 [ g32. r64 ]2 g4 V0 g8 V1 r8 [ g+32. r64 ]2 g+8. V0 g+16 V1 [ g+32. r64 ]2 g+4 V0 g+8 V1 r8 [ a+32. r64 ]2 a+8. V0 a+16 V1 [ a+32. r64 ]2 a+4 V0 a+8 O2 V1 r8 [ f32. r64 ]2 f8. V0 f16 V1 [ f32. r64 ]2 f4 V0 f8 V1 r8 [ d+32. r64 ]2 d+8. V0 d+16 V1 [ d+32. r64 ]2 d+4 V0 d+8 V1 r8 [ f32. r64 ]2 f8. V0 f16 V1 [ f32. r64 ]2 f4 V0 f8 V1 f4. V0 f8 V1 g4. V0 g8 @40 W0,97,0 O2 V1 YLR > f1 d+2 @44 V0 O2 YL. c24 c24 f24 f24 g24 g24 Y.R f24 f24 g24 g24 > c24 c24 
