;010 001DE2DE
!1  T140 r8 EX @2 PX L r1 r1 E80,100,80,3,9 @@1,2,0 EP-6,0,0,3,0 P19,11,2 O2 V6 r4 d+4 f16 V3 f16 V6 c+8~ c+4~ c+8. V3 c+16 V4 @2 EP2,0,0,1,0 O2 g+16 f16 g+16 > c+16 f16 g+16 > c16 V2 c16 r4 E80,100,80,3,9 @@1,2,0 EP-6,0,0,3,0 P19,11,2 O2 V6 r4 d+4 f12 V3 f12 V6 c+12 V3 c+12 V6 f12 V3 f12 V6 g4. V3 g8 r8 V6 d+8 f8 E100,20,100,28,101 c+8~ c+1~ c+4. E80,100,80,3,9 c+8 V6 c+12 V3 c+12 V6 d+12 V3 d+12 V6 c+12 V3 c+12 V6 c12 V3 c12 r12 @2 EPX O3 V8 Y.R c16 < g16 > c16 e16 d16 < a16 f+16 V2 YL. f+16 r4 r4 O3 V8 YL. c16 < g16 > c16 e16 d16 f+16 a16 V2 Y.R a16 r4 r4 O3 V8 Y.R c16 < g16 > c16 e16 d16 < a16 f+16 V2 YL. f+16 r4 r4 O3 V8 YL. c16 < g16 > c16 e16 d16 f+16 a16 V2 Y.R a16 r8 E80,100,60,3,9 @@1,2,0 EP-2,0,0,1,0 P19,11,2 YLR O2 V3 g32 r32 g32 r32 V5 a4 > d4 < g4 a8 V2 a8 V5 > d16 V2 d16 V5 < g8 a2 V2 a8 V3 g32 r32 g32 r32 V5 a4 > d4 < g4 a8 V2 a8 V5 > d16 V2 d16 V5 < g8 E100,20,100,19,79 a2. E80,100,80,3,9 c+8 c+8 r2. r6 c+6 c+6 r2 r8 c+8 c+8 r8 r8 c+8 r4 c+24. r48 c+24. r48 c+24. r48 r4 E60,100,70,3,14 @@1,2,1 EPX P9,12,2 O1 V4 YLR f1~ f1 g1~ g1 g+1 a1 a+1~ a+1 [ E80,100,80,3,9 @@1,2,0 EP-2,0,0,1,0 V4 O3 YLR c8 E100,60,20,5,9 @@1,3,1 PX EPX O2 g+24 g24 g+24 [ [ g24 g+24 ]3 ]2 g24 g+24 g24 f24 g24 g+24 a+4 V2 a+8 V4 g+16 g16 d+8 g8 f8. V2 a+16 V4 ]2 E80,100,80,3,9 @@1,2,0 EP-2,0,0,1,0 V6 O3 c8 O2 Y.R V2 O1 f32 r32 f32 r32 g+16 V3 g+16 YLR V6 > c16 Y.R V2 c16 < YLR V6 a+16 YL. V2 a+16 > YLR V6 d+16 Y.R V2 d+16 YLR V6 c+16 YL. V2 c+16 YLR V6 f+16 Y.R V2 f+16 YLR YLR O1 V8 r8 H-1 f+32 r32 f+32 r32 f+2.~ f+1 V4 @0 EPX EX PX f+4 V2 f+4 YLR H0 
!2  r8 L r1 r1 E80,100,80,3,9 @@1,2,0 EP-6,0,0,3,0 P19,11,2 O2 V9 r4 g4 g+16 V4 g+16 V9 f8~ f4~ f8. V4 f16 V6 @2 EP2,0,0,1,0 O3 c+16 < g+16 > c+16 f16 g+16 > c+16 f16 V4 f16 r4 E80,100,80,3,9 @@1,2,0 EP-6,0,0,3,0 P19,11,2 O2 V9 r4 g4 g+12 V4 g+12 V9 f12 V3 f12 V9 g+12 V3 g+12 V9 a+4. V4 a+8 r8 V9 g8 g+8 E100,20,100,28,101 f8~ f1~ f4. E80,100,60,3,9 f8 f12 V4 f12 V9 g12 V4 g12 V9 f12 V4 f12 V9 e12 V4 e12 r12 @2 EPX E100,60,50,3,9 O3 V8 Y.R e16 c16 e16 g16 _V2 f+16 _V-2 d16 < a16 V2 YL. a16 r4 r4 O3 V8 YL. e16 c16 e16 g16 _V2 f+16 _V-2 a16 > d16 V2 Y.R d16 r4 r4 O3 V8 Y.R e16 c16 e16 g16 _V2 f+16 _V-2 d16 < a16 V2 YL. a16 r4 r4 O3 V8 YL. e16 c16 e16 g16 _V2 f+16 _V-2 a16 > d16 V2 Y.R d16 r8 E80,100,80,3,9 @@1,2,0 EP-2,0,0,1,0 YLR V5 O3 c32 r32 c32 r32 V7 d4 g4 c4 d8 V4 d8 V7 g16 V4 g16 V7 c8 d2 V4 d8 V5 c32 r32 c32 r32 V7 d4 g4 c4 d8 V4 d8 V7 g16 V4 g16 V7 c8 E100,20,100,19,79 d2. E80,100,80,3,9 V9 g8 g8 r2. r6 g6 g6 r2 r8 g8 g8 r8 r8 g8 r4 g24. r48 g24. r48 g24. r48 r4 E60,100,70,3,14 @@1,2,1 EPX P9,12,2 r32. r4 V4 O4 Y.R c4 < a+6 > d+6 c+6 < f2. a+4 YL. g4.~ V2 c8 V4 g2~ g4 V2 g8 V4 f8 g+6 > c6 g6 Y.R g4. f8 < g+2~ g+8 V2 g+8 V4 r8 f4 > d+4 c+8 YL. f4. a+8 g2~ g2. V2 g8. r64 [ E80,100,80,3,9 @@1,2,0 EP-2,0,0,1,0 V6 O3 YLR f8 O3 E100,60,20,5,9 @@1,3,1 PX EPX V4 g+24 g24 g+24 [ [ g24 g+24 ]3 ]2 g24 g+24 g24 f24 g24 g+24 V6 a+4 V2 a+8 V6 g+16 g16 d+8 g8 f8. V2 a+16 V4 ]2 E80,100,80,3,9 @@1,2,0 EP-2,0,0,1,0 V6 O3 f8 O2 V2 O1 c32 r32 c32 r32 f16 V3 f16 YLR V6 g+16 Y.R V2 g+16 YLR V6 g16 YL. V2 g16 YLR V6 a+16 Y.R V2 a+16 YLR V6 g+16 YL. V2 g+16 YLR > V6 c+16 Y.R V2 c+16 YLR O2 V8 H-1 r8 c32 r32 c32 r32 c2.~ c1 V4 @0 EPX EX PX c4 V2 c4 YLR H0 
!3  r8 L `9F00 `AE00 YLR @A7 @B3 @~1 O0 [ V3 g16 V2 g16 g16 g16 V3 g16 V2 g16 V3 g16 V2 g16 V1 g16 r16 V3 g16 V2 g16 V1 g16 r16 r8 ]15 V3 g16 V2 g16 g16 g16 V3 g16 V2 g16 V3 g16 V2 g16 V1 g16 r16 V3 g16 V2 g16 V2 g16 B13 > g8. B2 @~X @A12 O2 V2 [ [ [ g24~ g+24~ ]3 ]4 ]3 [ g24~ g+24~ ]3 @A7 @B3 O0 P19,11,30 V1 c+16 d16 d+16 e16 V2 @~1 f1~ f1 g1~ g1 g+1 a1 a+1 a+1 @A7 @B3 @~1 [ V3 f16 V2 f16 f16 f16 V3 f16 V2 f16 V3 f8 r8 f8 r8 f16 V2 f16 V3 f16 V2 f16 f16 f16 V3 f8 f8 r8 f8 r8 V2 f8 ]2 O0 V3 f8 > f8 d+8 c+8 c8 < a+8 g+8 f+8 D-100 c1~ V2 B38 P38,11,20 D0 b1 EX P0,11,20 b4. V1 b8 PX B1 
!4  r8 L [ @5 c16 @6 c16 c16 c16 @5 c8 c4 c8~ c8 @6 x16 x16 ]15 @5 c16 @6 c16 c16 c16 @5 c8 c4 @5 c32 @6 c32 c32 c32 @5 c32 c32 c32 c32 @4 c32 c32 @3 c32 c32 @8 c8 c8~ c2. r6 x6 x6~ x2 r8 x8 x8 r8 r16 @1 x32 x32 @8 x8~ x8. @1 x32 x32 @3 x12 x12 x12 @8 x4 [ [ @2 x8 @6 x8 x8 ]2 @4 x8 @6 x8 ]3 [ @2 x8 @6 x8 x8 ]2 @7 x4 [ [ @2 x8 @6 x8 x8 ]2 @4 x8 @6 x8 ]3 [ @2 x8 @6 x8 x8 ]2 @5 x24 @6 x24 x24 YL. @8 x8 YLR @8 x8. @5 x16 @4 x16 x16 x4 x4 x16 x16 x16 x16 x16 x16 x8 x4 x4 x8 @8 x8. @5 x16 @4 x16 x16 x4 x4 x16 x16 x16 x16 x16 x16 x8 x4 x8 @3 x16 x16 x16 x16 @8 x8 @3 x16 x16 x8 x8 x8 x8 x8 @8 x8~ x8 @5 x16 @6 x16 @8 x2. r8 @6 x4 x4 x4 x8 r4 @7 x4 
!5  r8 L @40 W0,97,0 r4 @40 W0,97,0 O2 V1 g24 g+24 g24 g+24 V0 g24 g+24 r4 < V1 g24 g+24 g24 g+24 V0 g24 g+24 r4 O2 V1 g24 g+24 g24 g+24 V0 g24 g+24 r4 < V1 g24 g+24 g24 g+24 V0 g24 g+24 @4 O1 V1 YLR g12 V0 Y.R g12 YL. g12 YLR @40 W0,97,0 O2 V1 g24 g+24 g24 g+24 V0 g24 g+24 r4 < V1 g24 g+24 g24 g+24 V0 g24 g+24 r4 O2 V1 g24 g+24 g24 g+24 V0 g24 g+24 r4 < V1 g24 g+24 g24 g+24 V0 g24 g+24 @4 O1 V1 YLR g12 V0 Y.R g12 YL. g12 YLR @40 W0,97,0 O2 V1 g24 g+24 g24 g+24 V0 g24 g+24 r4 < V1 g24 g+24 g24 g+24 V0 g24 g+24 r4 O2 V1 g24 g+24 g24 g+24 V0 g24 g+24 r4 < V1 g24 g+24 g24 g+24 V0 g24 g+24 r4. @28 W0,97,56 O1 V1 f16 f16 f4 V0 f8 V1 g+16 g+16 g+4 V0 g+8 > V1 c+16 c+16 c+12 r12 f12 r12 d6 r4 @27 V1 [ O2 [ V0 YLR g6 YL. V0 g6 Y.R g6 < ]2 ]6 O2 V0 YLR g6 YL. V0 g6 Y.R g6 < YLR V0 g6 YL. g12 r4 O2 V0 YLR g6 YL. V0 g6 Y.R g6 < @8 O1 YLR V0 c16 d16 e16 f+16 V1 @8 V1 Y.R g8 YL. g8 r2. r6 Y.R g6 YL. g6 r2 r8 Y.R g8 YL. g4 r8 YLR g4. Y.R g12 YL. g12 Y.R g12 @40 W0,97,0 O2 YLR V0 d+24 c+24 c24 < a+24 g+24 g24 V1 a+1~ a+1 > c1~ c1 c+1~ c+1 c+2.~ c+8 V0 c+8 c+2~ c+8 V1 c+4. @8 V1 O2 f12 Y.R V0 f24 V1 Y.R @15 W0,97,64 V1 O1 f16 r16 a+16 r16 g+16 g16 d+16 r16 f16 r16 r4 r8 f16 r16 a+16 r16 g+16 g16 d+8 f16 r16 e16 V0 g+48 a48 a+48 V1 P0,9,2 b8 PX @8 V1 O2 f12 YL. V0 f24 V1 Y.R @15 W0,97,64 V1 O1 f16 r16 a+16 r16 g+16 g16 d+16 r16 f16 r16 r4 r8 f16 r16 a+16 r16 g+16 g16 d+8 f16 r16 e16 V0 g+48 a48 a+48 V1 P0,9,2 b8 PX @8 V1 O2 f12 YL. V0 f24 YLR V1 @15 W0,97,64 V1 O2 f32 r32 f32 r32 g+16 r16 > c16 r16 < a+16 r16 > d+16 r16 c+16 r16 f+16 r16 r1 r32 D-1 @25 O0 H-1 V0 Y.R c8 YL. d8 Y.R f+8 YL. g+8 Y.R a+8 YL. > d8 Y.R e8 YL. f+16. Y.R a+8 YL. > d8 Y.R e8 YL. f+8 H0 YLR D0 
!6  @4 O1 V0 g24 g24 g24 L V1 g12 V0 Y.R g12 YL. g12 YLR @25 V0 O0 g8 > c+8 f8 a+8 > d+8 g8 c+8 < g8 c+8 < g8 > g8 > c+8 c+8 g8 [ f8 > c+8 O0 g8 > c+8 f8 a+8 > d+8 g8 c+8 < g8 c+8 < g8 > g8 > c+8 c+8 g8 ]2 f8 > c+8 O0 g8 > @28 W0,97,56 O1 V1 g+16 g+16 g+4 V0 g+8 > V1 c+16 c+16 c+4 V0 c+8 V1 f16 f16 f12 r12 a+12 r12 g6 @40 W0,97,0 O0 V0 g1~ g2. r8 O1 @15 W0,97,65 V1 d16 d16 V1 e16 V0 e16 V1 g16 V0 g16 > V1 c4. V0 c8 V1 d16 V0 d16 < V1 a16 V0 a16 > V1 f+4 e2.~ e8 V0 e8 r2 r8 < g16 g16 V1 a4 > d4 < g4 a4 > d8 < g8 a2 V1 > @61 W0,97,50 r8 g16 g16 g4. g16 g16 g8. r16 V1 < < b32 > c32 c+32 d32 d+32 e32 f32 f+32 @52 V1 O1 YLR g8 g8 r2. r6 g6 g6 r2 r8 g8 g4 r8 g4. g12 g12 g12 V0 @40 W0,97,0 O1 g+24 g24 f24 d+24 c+24 c24 < V0 a+4 O2 V1 @43 W0,97,0 c4 < a+6 > d+6 c+6 < f2. a+4 g4. c8 g2~ g4 V0 g8 V1 f8 g+6 > c6 g6 g4. f8 < g+2~ g+8 V0 g+8 r8 V1 f4 > d+4 c+8 f4. a+8 g2~ g2~ g8 V0 g8 @8 O1 V0 [ g24 g24 ]2 V1 g24 g24 [ YLR @52 V1 O1 f8 @61 W0,97,65 YL. V1 O2 f16 r16 a+16 r16 g+16 g16 d+8 f16 r16 r4 r8 V1 O2 f16 r16 a+16 r16 g+16 g16 d+8 f16 r16 e16 V0 g+48 a48 a+48 V1 P0,9,2 b8 PX ]2 @52 V1 O1 f8 @28 W0,97,56 V1 O2 f32 r32 f32 r32 g+16 V0 g+16 > V1 c16 V0 c16 < V1 a+16 V0 a+16 > V1 d+16 V0 d+16 V1 c+16 V0 c+16 V1 f+16 V0 f+16 r1 @25 V1 O0 H-1 V1 c16 V0 c16 V1 d16 V0 c16 V1 f+16 V0 d16 V1 g+16 V0 f+16 V1 a+16 V0 g+16 V1 > d16 V0 < a+16 > V1 e16 V0 d16 V1 f+16 V0 e16 r4 YLR @4 O1 V1 g12 V0 g24 g24 g24 g24 H0 YLR 
