;011 001DEF1C
!1  T162 @@2,2,0 EP-12,0,0,1,0 E100,80,80,4,0 O2 V4 D-4 r32 Y.R d8 d8 _V-2 d8 _V2 d4 < a8 > c8 _V-2 < a16. _V2 > L r32 YL. d8 d8 _V-2 d8 _V2 d4 < a8 > c8 _V-2 < a8 _V2 > Y.R d8 d8 _V-2 d8 _V2 d4 < a8 > c8 _V-2 < a8 _V2 > YLR O3 V6 D-1 d8 d8 _V-4 d8 _V4 d4 < a8 > c8 _V-4 < a16. _V4 > EPX E80,100,80,1,14 @@0,3,2 P20,10,10 V6 [ d8 d8 _V-2 d8 _V2 EP0,0,-10,5,14 a4 _V-2 a4 EPX < a8 _V2 > ]3 d8 d8 _V-2 d8 EP0,0,-10,5,14 a4 @@2,2,0 EP-12,0,0,1,0 E100,80,80,4,0 O3 V2 D0 _V2 e8 _V2 g4 _V-2 g4 @@2,0,2 E100,70,25,4,16 V4 O2 D-1 EPX r32 f16 _V-2 f16 f16 f16 _V2 f16 _V-2 f16 f16 f16 _V2 a+16 _V-2 > c16 d16 e16 _V2 f16 _V-2 f16 f16 ( f16 ) f16 f32 @@2,2,0 EP-12,0,0,1,0 E100,80,80,4,0 P16,9,6 O3 V6 D0 d4 e8 g4 _V-3 a8 EPX E80,100,80,1,14 @@0,3,2 P20,10,10 V4 D-2 O2 r32 d8 d8 e8 f4 e8 d8 e8 g4 f8 e4 d4 a8 a8 a8 a4 g8 f8 d8 e8 e8 e8 f8 e4 _V-2 e4 _V2 r8 f8 f8 e8 d4 c+8 d8 > c4. < a+4 r8 a8 a+8 > c+8 c+4 r16. @1 EPX EX P8,9,6 O3 V2 D0 a8 _V2 P0,9,6 a8 _V2 a8 _V2 a8 _V-6 a8 EPX E80,100,80,1,14 @@0,3,2 P20,10,10 D-2 V4 O2 r32 a8 _V-4 a8 _V4 a8 a+8 a8 g8 f8 e8 e8 e8 d8 c+4 e8 _V-4 e8 _V4 d2. _V-4 d8. r32 _V4 @@2,2,0 EP-12,0,0,1,0 E100,80,80,4,0 P16,9,6 O3 V8 d8 EX EPX @0 PX _V-2 c16 < b16 @@2,2,0 EP-12,0,0,1,0 E100,80,80,4,0 P16,9,6 _V2 a+4 _V-4 a+8 _V2 > c8 _V2 c+4 _V-6 c+4 EPX E80,100,80,1,14 @@0,3,2 P20,10,10 V4 D-2 O2 r32 f+4 f+4 g4 a4 a4 f+4 d4 g8 g4 _V-2 f+8 _V2 g8 a8 _V-4 a8 _V4 a+16. E100,70,70,4,0 P16,11,12 EP4,0,0,3,0 @@2,1,0 D0 O2 V8 _V-2 d8 _V2 a+8 > d8 f8 EP0,0,-24,8,4 g4 EP4,0,0,3,0 _V-2 d4 _V2 e4. _V-4 e8 r4 EPX E80,100,80,1,14 @@0,3,2 P20,10,10 V4 D-2 O2 r32 g8 g8 > c8 c4 _V-2 c8 _V2 c4 < a+16. E100,70,70,4,0 P16,11,6 EP4,0,0,3,0 @@2,1,0 D0 O3 V8 c8 d8 f8 EP0,0,-24,8,4 a4 EP4,0,0,3,0 f4 EP0,0,-24,8,4 g4 > EP4,0,0,3,0 d4 EP0,0,-12,8,4 d4 < EP4,0,0,3,0 a4 EPX E80,100,80,1,14 @@0,3,2 P20,10,10 V4 D-2 O2 r32 a+8 > c+8 d16. @@2,2,0 EP-1,0,0,1,0 E100,80,80,4,0 P16,9,6 O3 V6 D0 f32 a16. f32 a16. f32 a16. f32 a16. EPX E80,100,80,1,14 @@0,3,2 P20,10,10 V4 D-2 O3 r32 d8 c8 < a8 a+16. @@2,2,0 EP-1,0,0,1,0 E100,80,80,4,0 P16,9,6 O3 V6 D0 g32 a+16. g32 a+16. g32 a+16. g32 a+16. EPX E80,100,80,1,14 @@0,3,2 P20,10,10 V4 D-2 O2 r32 ) g8 _V2 f+8 _V-2 g16. _V2 > @0 EX P16,9,6 O3 V6 D0 e32 c32 _V-2 e32 c32 _V-2 e32 c32 ( [ e32 c32 ]9 [ _V2 e32 c32 ]2 ) [ e32 c32 ]2 V8 f32 c32 _V-2 f32 c32 _V-2 f32 c32 ( f32 c32 [ _V2 f32 c32 ]2 ) [ f32 c32 ]2 V8 [ e32 c+32 _V-2 ]2 _V-2 [ e32 c+32 ]2 r4 E100,80,80,4,0 P16,11,6 @@2,1,0 D0 O4 V8 EP0,0,-24,16,8 d4 EP4,0,0,3,0 c8 d4. _V-4 d4 r8 _V4 EP0,0,-24,8,4 d4 EP4,0,0,3,0 < a8 r8 g8 f4 EP-24,0,0,8,0 a4. _V-4 a8 EPX E80,100,80,1,14 @@0,3,2 P20,10,10 V4 D-2 O3 r32 c+4 < _V-2 b8 > c+8 _V2 d4. _V-4 d8 @@2,2,0 EP-12,0,0,1,0 E100,80,80,4,0 O2 V4 D-4 Y.R r8 < a8 > c8 _V-2 < a16. _V2 > 
!2  @@2,2,0 EP-12,0,0,1,0 E100,80,80,4,0 O2 V6 d8 d8 _V-4 d8 _V4 d4 < a8 > c8 < _V-4 a8 _V4 > L [ d8 d8 _V-4 d8 _V4 d4 < a8 > c8 < _V-4 a8 _V4 > ]2 O3 V8 d8 d8 r8 d4 < a8 > c8 _V-4 c8 _V4 @@2,2,0 EP-12,0,0,1,0 E100,80,80,4,0 O2 V6 [ d8 d8 _V-4 d8 _V4 d4 < a8 > c8 < _V-4 a8 _V4 > ]3 d8 d8 > r8 d4 a8 > c4 _V-4 c4 @@2,0,2 E100,70,30,4,16 V8 O3 EPX f16 _V-2 f16 f16 f16 _V2 f16 _V-2 f16 f16 f16 _V2 a+16 _V-2 > c16 d16 e16 _V2 f16 _V-2 f16 f16 ( f16 _V2 f16 f16 @@2,2,0 EP-12,0,0,1,0 E100,80,80,4,0 P16,9,6 O3 V8 g4 a8 > c4 _V-3 d8 EPX E80,100,80,1,14 @@0,3,2 P20,10,10 V6 O2 d8 d8 e8 f4 e8 d8 e8 g4 f8 e4 d4 a8 a8 a8 a4 g8 f8 d8 e8 e8 e8 f8 e4 _V-4 e4 _V4 r8 f8 f8 e8 d4 c+8 d8 > c4. < a+4 r8 a8 a+8 > c+8 c+4~ c+4. @2 EPX EX P16,9,6 O4 V2 _V2 P0,9,6 _V2 e8 _V2 e8 _V-6 e8 EPX E80,100,80,1,14 @@0,3,2 P20,10,10 V6 O2 a8 _V-4 a8 _V4 a8 a+8 a8 g8 f8 e8 e8 e8 d8 c+4 e8 _V-4 e8 _V4 d2. _V-4 d4 _V4 @@2,2,0 EP-12,0,0,1,0 E100,80,80,4,0 P16,9,6 O3 V8 f8 EX EPX @0 PX _V-4 e16 d+16 @@2,2,0 EP-12,0,0,1,0 E100,80,80,4,0 P16,9,6 _V4 d4 _V-6 d8 _V4 g8 _V2 a4 _V-6 a4 EPX E80,100,80,1,14 @@0,3,2 P20,10,10 V8 O2 f+4 f+4 g4 a4 a4 f+4 d4 g8 g4 _V-2 f+8 _V2 g8 a8 _V-6 a8 _V6 a+4. _V-4 a+4 _V-2 a+4 _V4 g8 g8 _V2 > c8 c4. _V-4 c4 _V2 < g8 g8 _V2 > c8 c4 _V-6 c8 _V6 c4 < _V-2 a+8 _V-4 a+8 _V6 a2. _V-4 a4 E100,80,80,4,0 P16,11,6 EP4,0,0,3,0 @@2,1,0 D0 O3 V4 Y.R r32 > EP4,0,0,3,0 d4 EP0,0,-12,8,4 d4 < EP4,0,0,3,0 a16. YLR EPX E80,100,80,1,14 @@0,3,2 P20,10,10 V8 O2 a8 a+8 > c+8 d2 _V-4 d8 EPX E80,100,80,1,14 @@0,3,2 P20,10,10 V8 O3 d8 _V2 c8 < _V-2 a8 _V2 a+2 _V-4 a+8 EPX E80,100,80,1,14 @@0,3,2 P20,10,10 V8 O2 ) g8 _V2 f+8 _V-2 g8 _V2 > c4. _V-6 c8 _V6 d8. c8. < _V-2 a+8 _V2 a4. _V-6 a4 r8 _V4 g8 a8 _V2 a+4. _V-6 a+4 _V4 a+8 a8 g8 _V2 > d4. _V-6 d4 r8 _V4 < a8 a8 b4 b4 > c+4 < _V-2 b8 > c+8 _V2 d4. _V-4 d4 @@2,2,0 EP-12,0,0,1,0 E100,80,80,4,0 O1 V6 a8 > c8 < _V-4 a8 > 
!3  `9F00 `2E09 @A3 `AE00 B1 O0 V3 E100,100,80,3,4 L [ V3 O1 d4 V1 d8 V3 d4 V1 d4 r8 ]3 V2 O1 d8 V3 d8 V1 d8 V3 d4 V1 d4 r8 [ V3 O1 d4 V1 d8 V2 d8 V3 d8 a4 < V2 a8 V3 > ]3 V2 O1 d8 V3 d8 V1 d8 V3 d4 < V2 a8 > V2 c4 r4 @A8 EX O3 f16 ( f16 f16 f16 ) f16 ( f16 f16 f16 ) a+16 ( > c16 d16 e16 ) f16 f16 f16 f16 f16 f16 f16 f16 f16 ( f16 f16 f16 f16 f16 f16 f16 @A3 `AE00 B1 O1 V3 E100,100,80,3,4 [ V3 d4 V2 d8 V3 d8 d8 V1 d4 V2 d8 < V3 a4 V2 a8 V3 a8 a8 V1 a4 V2 a8 > ]2 V3 d4 V1 d8 V2 d8 V3 d4 V1 d8 V2 d8 V3 g4 V1 g8 V2 g8 V3 g4 V1 g8 V2 g8 V3 a4 V1 a8 V2 a8 V3 a8 a8 V1 a8 V2 a8 V3 a8 r4. r4 r4 V3 e4 V1 e8 V2 e8 V3 a4 V1 a8 V2 a8 V3 d4 V1 d8 V2 d8 V3 d4 V1 d8 V2 d8 V3 f8 V1 e16 d+16 V3 d4 V1 d8 V3 g8 e4 V3 d8 d8 V1 d8 V2 a8 V3 > d4 d8 < V2 d8 r8 V3 d8 V1 d8 V2 a8 V3 d4 V3 e8 V2 f+8 V3 g8 g8 V1 g8 V2 d8 V3 g4 V1 g8 V3 g8 V1 g8 V3 g8 V1 g8 V2 d8 V3 g8 d8 g4 c8 c8 r8 V2 g8 > V3 c4 V2 c8 < g8 V3 > c8 c8 r8 < c4 d8 e8 V1 e8 V3 f8 f8 V1 f8 V3 c8 V3 f4 V1 f8 V3 f8 < a8 a8 r8 V2 a8 V3 a8 > d8 < a4 > [ [ V3 d8 V1 d8 ]4 H5 ]2 H0 [ V3 c8 V1 c8 ]4 [ [ V3 f8 V1 f8 ]2 H-8 ]2 H0 [ [ V3 g4 V1 g8 V2 g8 ]2 H-5 ]2 H0 V3 e4 V1 e8 V2 e8 V3 a4 V1 a4 
!4  L [ Y.R @6 x8 x8 @9 x4 @6 x8 @10 x4 r8 YL. @6 x8 x8 @9 x4 @6 x8 @10 x4 r8 ]3 Y.R @6 x8 x8 @9 x4 @6 x8 @10 x4 r8 YLR @6 x8 x8 @9 x4 @6 x8 x8 @8 x4 @6 x4 r4 r4 r4 r4 r8 @8 x4. r8 @6 x8 @7 x4 [ @5 x8 @6 x8 ]3 [ @5 x8 @6 x8 ]22 @5 x8 @11 x4. @12 x4. r8 r4 r4 @7 x4 [ @5 x8 @6 x8 ]3 [ @5 x8 @6 x8 ]4 @8 x4 @5 x8 @6 x8 @5 x8 r8 @7 x4 @8 x4 [ @5 x8 @6 x8 ]2 @5 x8 @7 x4 @6 x8 [ @5 x8 @6 x8 ]2 @7 x4 [ [ @5 x8 @6 x8 ]3 @5 x8 @7 x4 @6 x8 [ @5 x8 @6 x8 ]2 @7 x4 ]3 [ @1 x8 @6 x8 ]16 @8 x4 [ @5 x8 @6 x8 ]9 @8 x4. @6 x8 
!5  O2 L @15 W0,90,54 [ V1 d8 d8 r8 d4 < a8 > c8 r8 ]4 [ @36 c4. @37 c4. r4 ]3 @36 c4. @37 c4. @38 c4 V1 @4 O1 g4 O2 @0 [ c4 ]4 V0 c16 V1 c16 @1 c4 @4 c8 < g+4 > V1 [ @0 c4 @1 c8 @0 V1 c4 V0 c8 V1 @1 c4 ]7 @1 V1 c4 r4. @4 Y.R e8 < YL. a8 V0 a+32 b32 > c16 YLR [ @0 c4 @1 c8 @0 V1 c4 V0 c8 V1 @1 c4 ]2 @1 c4 @0 c4 V0 c8 V1 @1 c8 r4 [ YLR V1 @0 c8 @18 V0 YL. c8 V1 c8 YLR @0 c8 @1 c8 @18 YL. < a+8 > c8 YLR r4 @0 c8 V0 c8 V1 YLR @0 c8 @1 c8 YL. V0 @18 < a+4 a+8 > ]4 YLR [ @1 V1 c8 c8 c32 V0 [ c32 ]7 V1 c16 V0 c16 c16 c16 V0 c32 V0 [ c32 ]7 V1 c8 c8 c16 V0 c16 c16 c16 V1 c8 c16 V0 c16 V0 c32 V0 [ c32 ]7 ]2 [ V1 @0 c4 @1 c8 @0 V1 c4 V0 c8 V1 @1 c4 ]2 @0 c4 @1 c8 @0 V0 c8 V1 c4 r4 
!6  L O2 [ @0 V1 c8 @32 V0 c8 V1 c8 @0 c8 @32 c8 V0 c8 V1 c8 V0 c8 ]3 @2 V1 Y.R c8 < YLR g+8 > @32 V1 c8 YL. @2 < f8 > YLR @32 c8 < YL. @2 V0 d+8 V1 d+8 YLR > @32 V0 c8 [ @0 V1 c16 @32 V0 c16 V1 c16 V0 c16 V1 @1 c8 @0 V1 c16 @32 V0 c16 V1 c16 V0 c16 V1 @0 c16 @32 V0 c16 V1 @1 c8 @32 c16 V0 c16 ]3 @2 V1 Y.R c8 < YLR g+8 > @32 V1 c8 YL. @2 < f8 > YLR @32 c8 < YL. @2 V0 d+8 V1 YLR @0 O2 c16 @4 < V0 [ g32 ]6 @38 > Y.R r4 YL. r4 [ r4 ]3 YLR @28 O1 r8 V1 g4 V0 a8 V1 > c4 V0 @3 d4 r4 r4 r4 [ r4 ]10 @15 W0,90,54 O2 V1 a8 V0 a8 V1 g8 V0 g8 V1 f2.~ f8 V0 f8 V1 g2.~ g8 V0 g8 V1 a2.~ a8 V0 a8 V1 f8 V0 f8 r4 r4 r4 [ r4 ]8 @14 O2 V1 f8 V0 e16 d+16 @13 V1 d4 r8 @14 g8 a4 [ r4 ]28 @3 O1 r8 V0 c+8 e8 V1 a4. V0 a4 @13 O1 V1 a8 V0 [ a8 ]7 @14 V1 g8 V0 [ g8 ]7 @13 V1 g8 V0 [ g8 ]7 @14 V1 f8 V0 [ f8 ]3 V1 @13 e4 V0 Y.R e4 YLR [ r4 ]12 
