;012 001DFC94
!1  T150 r16 E80,100,70,3,18 @@2,2,0 P24,9,8 EP-2,0,0,3,0 r16 YLR O3 V4 d8 e8 _V-2 d8 _V2 g8 _V-2 e8 _V2 a8 _V-2 g8 _V2 > c8 _V-2 < a8 > c16 _V2 YLR V6 < f8. < V2 d16 V8 YLR PX D0 B37 E60,100,0,29,44 > >~ d2 < E80,100,70,3,18 @@2,2,0 P24,9,4 EP-2,0,0,3,0 f+8 _V-4 f+8 _V-2 f+8 r8 r8 L EX @2 P24,9,4 EPX r16 D-1 O1 V4 YLR b8 > d8 b8 a4 _V-2 a8 _V2 g8 g8 < b8 > d8 g8 f+4 _V-2 f+8 _V2 e8 e4 < b8 b8 > c8 c4 _V-2 c8 _V2 c8 c8 d8 e16 @@2,3,1 E100,50,20,6,18 D0 V8 YLR O2 d4 d4 e4 f+4 EP-12,0,0,18,0 g2 EX @2 P24,9,4 EPX r16 D-1 O2 V4 YLR _V-2 b8. _V2 a8 b8 > c+2 _V-2 c+8 r8 _V2 < a8 a8 > d4.~ d16 YLR V6 PX D0 B44 E60,100,0,29,44 > >~ d2.~ d16 B1 EX @2 P24,9,4 EPX D-1 O3 V4 YLR _V-2 d4. E80,100,70,3,18 @@2,2,0 P24,9,8 EP-2,0,0,3,0 D0 YLR V4 O2 d4. EX @2 P24,9,4 EPX r16 D-1 O3 V4 YLR c8 c8 c8 c8 c8 < a8 a8 > c8 < b8 g8 E100,0,0,9,0 @2 PX YL. O4 V6 d16 c16 < b16 g16 d4 EX @2 P24,9,4 EPX V4 O2 YLR g8 b8 a4. _V-4 a8 _V4 e4 a4 a4. _V-4 a8 _V4 r8 _V-2 d8 _V2 d8 _V-2 d8 _V2 e8 e4 e8 f+8 _V-2 f+8 _V2 f+8 _V-2 f+8 _V2 g8 g4 a8 b8 _V-6 b8 _V6 > c8 < b8 a4. _V-4 a8 _V4 e4 f+4 g2 _V-4 g8 _V4 b8 b8 b8 > c2 _V-4 c8 _V4 < a8 a8 > c8 < b4. _V-4 b4 r8 _V4 g8 b8 a8 _V-4 a8 _V4 a8 _V-4 a8 _V4 a8 a8 _V-4 a8 _V4 a8 a8 _V-4 a8 _V4 a4 b8 _V-4 b8 _V4 a8 _V-4 a8 _V4 > d12 _V-2 E100,50,0,6,18 @@0,0,1 EPX PX O3 D0 YLR e12 f+12 a12 > d12 V2 Y.R < a12 V4 YLR YLR c12 d12 f+12 a12 > d12 V2 YL. < a12 V4 YLR YLR < b12 > d12 g12 b12 > d12 V2 Y.R < b12 V4 YLR EX @2 P24,9,4 EPX V4 O3 YLR D-1 _V-2 d4 _V2 e16 r16 e8 d4 _V-2 d8 _V2 < b8 > c8 < b8 a8 g8 e8 e8 e8 b8 a8 _V-3 b8 _V3 e8 e8 g4. g8 g16 g16~ g4 _V-3 g8 _V3 > c4 < b8 _V-2 b8 _V2 a4 a8 _V-2 a16 _V2 E80,100,70,3,18 @@2,2,0 P24,9,8 EP-2,0,0,3,0 O3 V8 d8 e8 _V-6 d8 _V6 g8 _V-6 e8 _V6 a8 _V-6 g8 _V6 > c8 EX @2 P24,9,4 EPX V4 O3 YLR D-1 r16 d4 _V-4 d8 _V4 d8 e8 d8 c8 < b8 > c2 _V-4 c8 _V-2 c8 _V6 c8 c8 < b4 a8 _V-4 a8 _V4 e4 f+8 _V-4 f+8 _V4 g1~ g4 _V-4 g4 _V-2 g8 r8 _V6 g8 EP-2,0,0,3,0 > d8~ d8 V2 d16 V6 YLR @1 PX D0 B66 E60,100,0,44,29 > >~ d2. < < V4 YLR @1 PX D0 B44 E60,100,0,44,29~ d2 _V-2 d8 
!2  r16 E80,100,70,3,18 @@2,2,0 P24,9,8 EP-2,0,0,3,0 O3 V8 d8 e8 _V-6 d8 _V6 g8 _V-6 e8 _V6 a8 _V-6 g8 _V6 > c8 _V-4 < a8 _V-2 > c8 _V6 d4 EX EPX P0,9,4 @0 _V-2 d8 _V-2 d8 _V2 d8 _V2 d8 E80,100,70,3,18 @@2,2,0 P24,9,4 EP-2,0,0,3,0 d8 _V-4 d8 _V-2 d8 r8 r8 L E100,80,80,6,0 @2 P24,9,4 EPX O1 V8 b8 > d8 b8 a4 _V-4 a8 _V4 g8 g8 < b8 > d8 g8 f+4 _V-4 f+8 _V4 e8 e4 < b8 b8 > c8 c4 _V-4 c8 _V4 c8 c8 d8 e8 _V2 g8 _V-4 g8 _V4 f+8 _V-4 f+8 _V4 e8 _V-4 e8 _V4 f+8 _V-4 f+8 _V4 b8. _V-2 b16 _V2 b4. _V-4 b8 _V4 a8 b8 > c+2 _V-4 c+8 r8 _V2 < a8 a8 > d1~ d4 _V-4 d4 _V-2 d8 E80,100,70,3,18 @@2,2,0 P24,9,8 EP-2,0,0,3,0 V6 O2 f4. E100,70,70,6,0 @2 P24,9,4 EPX O3 V8 c8 c8 c8 c8 c8 < a8 a8 > c8 < b8 g8~ g4 _V-4 g4 _V4 g8 b8 a4. _V-4 a8 _V4 e4 a4 a4. _V-4 a8 _V4 r8 _V-2 d8 _V2 d8 _V-2 d8 _V2 e8 e4 e8 f+8 _V-2 f+8 _V2 f+8 _V-2 f+8 _V2 g8 g4 a8 b8 _V-6 b8 _V6 > c8 < b8 a4. _V-4 a8 _V4 e4 f+4 g2 _V-6 g8 _V6 b8 b8 b8 > c2 _V-6 c8 _V6 < a8 a8 > c8 < b4. _V-4 b4 r8 _V4 g8 b8 a8 _V-4 a8 _V4 a8 _V-6 a8 _V4 a8 _V2 a8 _V-4 a8 _V4 a8 a8 _V-4 a8 _V4 a4 b8 _V-4 b8 _V4 a4 _V2 > EP-2,0,0,3,0 d1 _V-4 d4 _V-2 d4 r4 _V4 EPX e16 r16 e8 _V-2 d4 _V-4 d8 _V4 < b8 > c8 < b8 a8 g8 e8 e8 e8 b8 a8 _V-6 b8 _V6 e8 e8 g4. _V-2 g8 g16 _V2 g16~ g4 _V-6 g8 _V6 > c4 < b8 _V-4 b8 _V4 a4 a8 _V-4 a8 _V4 g4. _V-4 g8 _V4 r8 b8 b8 > _V-2 c8 _V2 d4 _V-4 d8 _V4 d8 e8 d8 c8 < b8 > c2 _V-4 c8 _V-2 c8 _V6 c8 c8 < b4 a8 _V-4 a8 _V4 e4 f+8 _V-4 f+8 _V4 g1~ g4 _V-4 g4 _V-2 g8 r8 _V6 g8 EP-2,0,0,3,0 _V3 > d8~ d1 V1 Y.R @1 PX D0 B1 EX > >~ d16 < < V2 Y.R B44~ d2~ d16 YLR 
!3  r16 `9F00 `AE00 @A3 E100,70,70,4,0 O0 V3 d8 e8 r8 g8 r8 a8 r8 > c8 V2 < d8 r8 V3 a+2 V2 d4 V3 d8 r8 r2. L O1 V3 g8 V1 g8 V3 d8 V1 d8 V3 g8 V1 g8 V3 d8 V2 d+8 V3 e8 V1 e8 < V3 b8 V1 b8 > V3 e8 V1 e8 V3 g8 V2 g+8 [ V3 a8 V1 a8 V3 e8 V1 e8 ]2 V3 d4 d4 e4 f+4 V3 g8 V1 g8 V3 d8 V1 d8 V3 g8 f+8 e8 V2 d8 V3 a8 V1 a8 V3 e8 V1 e8 V3 a8 g8 f+8 V2 e8 [ V3 d4 V1 d8 H2 ]2 H0 V3 f2 V1 d4 r8 V3 d4 V2 d8 V3 c8 c8 V1 c8 < V2 g8 > V3 c8 < e8 V1 e8 V2 f8 V3 g8 g8 V1 g8 V2 > d8 V3 g4 V1 g8 V2 d8 V3 < a8 a8 V1 a8 > V2 e8 V3 a4 V1 a8 V2 a8 V2 d8 V3 d8 V1 d8 V2 d8 V1 d8 V2 d8 < V3 a8 V1 a8 > V3 c8 c8 V1 c8 V2 c8 V3 d8 d8 V1 d8 V3 d8 < V3 g8 g8 V1 g8 > V2 d8 V3 e8 g8 < V2 g8 V1 g8 > V3 d4. V1 d8 V3 d8 V2 d8 V3 d8 r8 < V3 g8 g8 V1 g8 > V2 d8 V3 g4 V2 g8 V1 g8 [ V3 f8. V2 f16 V3 c16 V1 c16 V3 f8~ f4 V1 f8 V2 f8 H2 ]2 H0 < V3 a8 a8 V1 a8 > V2 e8 V3 a8 a8 V1 a8 V2 e8 < V3 a8 a8 V1 a8 > V3 a8 V1 a8 V2 e8 V3 a8 V1 a8 V3 d4 V2 d4 V3 c4 V2 c4 < V3 b4 V2 b4 V3 a8 r8 > d4 V3 g8 V2 g8 V1 g8 V2 d8 V3 g8 g8 V1 g8 V2 g8 V3 a8 a8 V1 a8 V3 a8 V1 a8 V2 e8 < V3 a8 V1 a8 > V3 c4 V1 c8 < V2 g8 > V3 c4 V1 c8 V2 c8 V3 d4 V2 d8 V1 d8 V3 d8 V2 d8 V1 d8 r8 O0 V3 d8 e8 r8 g8 r8 a8 r8 > c8 V2 V3 g8 V1 g8 V3 d8 V1 d8 V3 e8 V1 e8 V3 g+8 V1 g+8 V3 a8 V1 a8 V3 e8 V1 e8 V3 a8 V1 a8 V3 e8 V2 d+8 V3 d8 V1 d8 V3 a8 V1 a8 V3 d8 V1 d8 V3 e8 V2 f+8 [ [ V3 g8 V1 g16 ]2 < V3 g8~ g2 > ]2 V3 g8 V1 g8 V3 d8 V1 d8 V3 g8 V1 g8 V3 d8 V2 d8 < V3 g8 r8 r2. 
!4  r16 @3 x8 @6 x4 r4 r4 r8 r4 @8 x2 @6 r8 x8 @5 x4. @6 x4 x4 x8 L @8 x4 @3 x8 @6 x8 @1 x8 @7 x8 @3 x8 @2 x8 [ @1 x8 @7 x8 @3 x8 @6 x8 @1 x8 @7 x8 @3 x8 @2 x8 ]5 [ @8 x4 @3 x8 ]3 @6 r8 x4 x8 @8 x4. @8 x4 @5 x8 @6 x8 @3 x8 @6 x8 @5 x8 @7 x8 @6 x8 @1 x8 @6 x8 @8 x8 @3 x8 @6 x8 @5 x8 @7 x8 [ @1 x8 @6 x8 @5 x8 @6 x8 @3 x8 @6 x8 @5 x8 @7 x8 @6 x8 @1 x8 @6 x8 @8 x8 @3 x8 @6 x8 @5 x8 @7 x8 ]2 @1 x8 @6 x8 @5 x8 @6 x8 @3 x8 @6 x8 @5 x8 @7 x8 @6 x8 @1 x8 @6 x8 @8 x8 @3 x8 @6 x8 @7 x4 [ @8 x8. @4 x16 @3 x8 @8 x8~ x4. @6 x8 ]2 @1 x8 @6 x8 @5 x8 @6 x8 @3 x8 @6 x8 @5 x8 @7 x8 @6 x8 @1 x8 @6 x8 @8 x8 @3 x8 @6 x8 @7 x4 [ @7 x6 @4 x6 x6 ]3 @1 x4 @8 x4 @8 x4 @5 x8 @6 x8 @3 x8 @6 x8 @5 x8 @7 x8 @6 x8 @1 x8 @6 x8 @8 x8 @3 x8 @6 x8 @5 x8 @7 x8 @1 x8 @6 x8 @5 x8 @6 x8 @3 x8 @6 x8 @5 x8 @7 x8 @6 x8 @1 x8 @6 x8 @8 x8 @3 x8 @6 x8 @7 x4 @3 x8 @6 x4 r4 r4 r8 @8 x4 @3 x8 @6 x8 @1 x8 @7 x8 @3 x8 @6 x8 [ @1 x8 @7 x8 @3 x8 @6 x8 @1 x8 @7 x8 @3 x8 @6 x8 ]2 [ @8 x4 @3 x8 @8 x4 @4 x8 @6 x4 ]2 @8 x4. @6 x4 x4 x8 @1 x4 r2 @3 x8 @7 x8 
!5  @1 V0 c32 c32 V1 @2 r8 Y.R e4 c4 YLR < g+4 YL. f24 YLR > @4 V0 c24 c24 V1 c4 @0 c2 r8 @4 V0 d24 d24 d24 V1 d8 @2 YLR O2 c4 < YL. g+4. r4 L @40 W0,95,0 V0 YLR O2 b1 b1 > c1 r16 Y.R @19 O0 V0 d4 d4 e4 f+8. @40 W0,95,0 V0 YLR O3 d2 @15 YL. V1 O1 g16 V0 g16 V1 f+16 V0 f+16 V1 e16 V0 e16 V1 d16 V0 f16 YLR @40 W0,95,0 V0 YLR O3 e2 @15 Y.R V1 O1 a16 V0 a16 V1 g16 V0 g16 V1 f+16 V0 f+16 V1 e16 V0 e16 @40 W0,95,0 V0 YLR O2 d4. e4. f4. @2 O1 g+8 g+4 YL. f8 @43 W0,95,0 V0 YLR O1 V0 d24 < a24 > d24 < V1 a24 > d24 < a24 > d24 < V0 a24 > d24 r8 @18 O2 V1 c4. @17 c2 @18 r8 c8 @27 O2 V0 d16 c16 < b16 g16 d2 r8 @18 O2 V1 c4. @17 c2 @18 r8 c4 c8 @17 c2 r8 @18 O2 V1 c4 @15 Y.R V1 O1 g16 V0 g16 V1 g16 V0 g16 YLR O2 @17 c4. @18 r8 c4 @15 Y.R V1 O1 g16 V0 g16 V1 g16 V0 g16 @17 YLR O2 c4. r8 @18 O2 V1 c4. @17 c2 r8. @25 O1 V0 Y.R d16 YLR a16 YL. a16 YLR g16 Y.R g16 > YLR c16 YL. c16 < YLR b16 YL. b16 > YLR e16 Y.R e16 YLR d16 YL. d16 YLR f8 @28 W0,95,45 YLR V0 O2 c4 V1 c4. @17 V0 r8 @28 W0,95,45 V1 c8 @28 W0,95,45 YLR V1 O2 d4 V0 d4 @17 V1 r8 @15 W0,96,57 O1 YLR V1 b4 d8 @40 W0,95,0 V0 YLR O2 e8 a4. e2 e2 g2 @40 W0,95,0 V1 Y.R O1 D-1 d12 e12 f+12 a12 > d12 V0 < a12 V1 c12 d12 f+12 a12 > d12 V0 < a12 V1 < b12 > d12 g12 b12 > d12 V0 < b12 V1 < a8 r8 D0 > YLR d4 @40 W0,95,0 V0 YLR O2 d4. V1 @18 O2 c8 @17 c8 @40 W0,95,0 V0 d4. c+8 V1 @18 O2 c4 c8 @17 c8 @40 W0,95,0 V0 c+4. c4. V1 @18 O2 c8 @17 c8 @40 W0,95,0 V0 c4. d8 V1 @18 O2 c4 c8 @17 c8 @40 W0,95,0 V0 d4 V0 @4 d24 d24 d24 V1 d8 @2 Y.R e4 c4 YLR < g+4 YL. f8 @40 W0,95,0 V0 YLR O2 g4. d8 e2 c2 e4 < a4 > c2. r4 [ @39 O1 V1 b8. b8. > c8~ c8 @3 W0,33,6 V0 < g16 g16 > d16 g8 r16 < ]2 @39 O1 V1 b4 r2 r8 @4 O2 V0 d24 d24 d24 V1 d8 @2 YLR c4 < YL. g+4. r8 > YLR @0 V0 c8 
!6  r16 @15 W0,95,58 P27,9,2 O1 V1 d8 e8 YL. ( d8 ) YLR g8 Y.R ( d8 ) YLR a8 ( YL. g8 YLR ) > c8 ( < Y.R a8 > YL. c8 ) YLR d2. d8. r16 r2. L @40 W0,95,0 V0 YLR O3 d1 e1~ e1 f+1 @40 W0,95,0 g1 a1 V1 d4. e4. f2. V0 f8 d4. @40 W0,95,0 V0 YLR V0 g1~ g1 a1~ a1 e2 d2 d2 e2 f+1 @40 O0 V1 r8 d16 d16 a16 a16 g16 g16 > c16 c16 < b16 b16 > e16 e16 d16 d16 @28 W0,95,45 YLR V1 O2 f4 V0 f8 V1 f4 @2 Y.R c8 < YLR g+8 @28 W0,95,45 V1 O2 f8 @28 W0,95,45 YLR V1 O2 g4 V0 g8 V1 g4 < @2 YLR g+8 YL. f8 YLR @28 W0,95,45 V1 O2 g8 @40 W0,95,0 V0 YLR O3 e1 c+2 e2 @40 W0,95,0 V1 YL. O1 d12 e12 f+12 a12 > d12 V0 < a12 V1 c12 d12 f+12 a12 > d12 V0 < a12 V1 < b12 > d12 g12 b12 > d12 V0 < b12 V1 a8 r8 YLR > f+4 @40 W0,95,0 V0 YLR O2 [ g1 a1 ]2 @3 P27,9,2 O1 V0 d8 e8 r8 g8 r8 a8 r8 > c8 V1 d4. @40 W0,95,0 V0 YLR O2 g8 g+2 a4 b4 > c4 < e4 f+2. r4 [ @39 YLR O2 V1 d8. d8. e8~ e8 @2 Y.R V1 c16 c16 < YLR g+16 g+16 YL. f16 f16 ]2 @39 YLR O2 V1 d4 V1 [ @2 Y.R c8 < YL. f8 > ]2 < YLR g+8 YL. f8 Y.R > c4 r2. YLR 
