;013 001E0C32
!1  T85 @@4,2,0 E80,100,80,5,16 P24,18,2 V6 O3 r8 d+8 d+8 d+8 c+8 c+8 d+8 f+8 g+8. < b8. > e8 d+4 V3 @0 P0,18,2 d+8 r16 V6 @@3,2,0 e16 P24,18,2 e8 f+16 g+8 r8 d+16 d+8 e16 f+8 r8 < b16 > e8 f+16 g+8 g+8 f+8. r16 f+16 e16 f+16 PX f+8 EX T188 V5 @0 P10,9,2 f+1~ f+2. V4 P0,9,2 f+8. r16 @@1,0,3 E100,80,50,2,14 P14,8,8 EP-8,0,0,3,0 V5 O1 f+2.~ f+8 r8 ) a2.~ a8 r8 ) b2.~ b8 r8 > L ) d4. d4. e8 r8 @@1,2,0 E80,100,80,2,7 P10,8,2 EP0,0,-12,3,14 V8 O3 f+12 V4 f+12 V2 f+12 r8 < V3 Y.R EX EP-2,0,0,2,0 r32. D-1 f+8 f+4 g+8 f+8~ f+4 b8 b4 > d+4 c+8~ c+4 < b8 > c+4 d+4 < b8~ b4. V2 b8 r4. r32 r32. @@1,2,0 E80,100,80,2,7 D0 YLR EP0,0,-12,3,14 V8 O3 f+12 V4 f+12 V2 f+12 r8 YL. EX @3 EP-2,0,0,2,0 < V3 r32. D-1 e8 e4 g+8 g+8~ g+8. V1 g+16 V3 b8 b4 > d+4 c+8~ c+4 < b8 > c+4 d+4 < b8~ b4. V1 b8 r8 r32. r32 YLR > D0 @@1,2,0 E100,60,80,3,19 V6 f+8 e8~ e2. f+8 e8~ e8. r16 r2 c+8 f+8~ f+2. g+8 e8~ e8. r16 r8 f+4. e8 e8 e4 d+8 d+4. V3 @0 EPX P0,8,2 d+4 E80,100,80,2,8 @@1,1,0 P10,8,2 YLR V4 O3 d+8 c+8 d+8 e4 r8 f+8. r16 @@0,2,3 P19,10,2 D-1 r32. V4 O3 Y.R r4 r8 e8 e4 g+8 f+8~ f+4 f+8 d+4. @3 V2 P0,10,2 d+8 r8 @@0,2,3 P19,10,2 V4 YL. e4 d+8 e4 c+4 d+8~ d+8.~ d+64 YLR D0 @@1,2,0 E80,100,80,2,7 EP-2,0,0,2,0 P7,10,2 O3 V8 d+4 e4 f+4 EPX E100,60,100,2,38 V6 g+1 f+2.~ f+8 r8 E80,100,80,2,7 YLR f+4 f+8 f+8 V4 f+8 V8 d8 V4 d8 V8 c+8~ c+1 E100,60,100,2,38 P7,10,2 V4 f+2 @3 EX V2 P0,10,4 f+4 r4 @@1,2,0 E80,100,80,2,7 P19,8,2 EP-2,0,0,2,0 O3 r4 [ V6 d+4 ]3 [ V6 c+8. V3 c+16 ]2 V6 d+4 V6 f+4 V6 g+4. < b4. > e4 d+2 r4 r8 e8 e4 f+8 g+8~ g+8 V3 g+8 r8 V6 d+8 d+4 e8 f+8~ f+8 V3 f+8 V6 r8 d+8 e4 f+8 g+8 V3 g+8 Y.R V6 YLR g+8 V3 YL. g+8 V6 YLR f+8 Y.R V4 f+8 YLR V6 c+4.~ c+4 P0,8,2 EX @0 c+8 r8 @@1,2,0 E80,100,80,2,7 P19,8,2 EP-2,0,0,2,0 O3 r4 [ V6 d+4 ]3 [ V6 c+8. V3 c+16 ]2 V6 d+4 V6 f+4 V6 g+4. < b4. > e4 d+2 r4 r8 e8 e4 f+8 g+8~ g+8 V3 g+8 r8 V6 d+8 d+4 e8 f+8~ f+8 V3 f+8 V6 r8 d+8 e4 f+8 g+8 V3 g+8 Y.R V6 YLR g+8 V4 YL. g+8 V6 YLR f+8 V6 f+8 V3 f+8 V2 f+8 r8 V6 f+8 _V-3 f+8 _V3 f+8 EP-8,0,0,14,0 f+8 f+1~ f+4. EPX EX P0,8,2 @0 V4 f+4. V2 f+4 r1 @@1,0,3 E100,80,50,2,14 P14,8,8 EP-8,0,0,3,0 V5 O2 
!2  @@2,2,3 E100,80,80,2,0 P19,10,2 V9 O3 r8 f+8 f+8 f+8 f+8 f+8 g+8 a+8 b8. d+8. g+8 f+4 V4 @3 P0,10,2 f+8 r16 V9 @@0,2,3 g+16 P19,10,2 g+8 a+16 b8 r8 f+16 f+8 a+16 b8 r8 f+16 g+8 a+16 b8 b8 a+8. r16 a+16 g+16 a+16 PX b8 EX V7 @3 P19,14,2 b1~ b2. V4 P0,14,2 b8. r16 @@1,1,3 E100,80,50,2,14 P14,8,8 EP-8,0,0,3,0 V7 O1 b2.~ b8 r8 > d2.~ d8 ) r8 e2.~ e8 r8 L ) g4. g4. a8 r8 @@0,2,3 E100,70,70,2,0 P19,10,2 EP0,0,-12,3,14 V9 O3 d+12 V4 d+12 V2 d+12 r8 EPX < V9 f+8 f+4 g+8 f+8~ f+4 b8 b4 > d+4 c+8~ c+4 < b8 > c+4 d+4 < b8~ b4. V4 b8 r2 EP0,0,-12,3,14 V9 O3 d+12 V4 d+12 V2 d+12 r8 EPX < V9 e8 e4 g+8 g+8~ g+8. V2 g+16 V9 b8 b4 > d+4 c+8~ c+4 < b8 > c+4 d+4 < b8~ b4. V4 b8 r4 > V9 d+8 c+8~ c+2. d+8 < b8~ b8. r16 r2 b8 > d+8~ d+2. e8 c+8~ c+8. r16 r8 d+4. c+8 c+8 c+4 < b8 b4. V4 @3 EX P0,10,2 b4 @@1,1,0 D-1 P19,10,2 r32. V3 O2 Y.R b8 a+8 b8 > c+4 r8 d+8. r64 D0 @@0,2,3 E100,70,70,2,0 P19,10,2 YLR V9 O3 r4 r8 e8 e4 g+8 f+8~ f+4 f+8 d+4. @3 EX V4 P0,10,2 d+8 r8 @@0,2,3 E100,70,70,2,0 P19,10,2 V9 e4 d+8 e4 c+4 d+8~ d+2 @3 EX V4 P0,10,2 d+4 r4 @@0,2,3 E100,70,70,2,0 P19,10,2 V9 O3 r4 r8 e8 e4 g+8 f+8~ f+4 f+8 b4.~ b8 r8 b4 b8 a8 V4 a8 V9 g8 V4 g8 V9 f+8~ f+1~ f+2 @3 EX V4 P0,10,2 f+4 r4 @@0,2,3 E100,80,80,2,0 P19,10,2 V9 O3 r4 [ V9 f+4 ]5 V9 g+4 V9 a+4 V9 b4. d+4. g+4 f+2 r4 r8 _V-2 g+8 _V2 g+4 a+8 b8~ b8 V4 b8 r8 V7 f+8 V9 f+4 a+8 b8~ b8 V4 b8 r8 V7 f+8 V9 g+4 a+8 b8 V4 b8 Y.R V9 YLR b8 V4 YL. b8 V9 YLR a+8 Y.R V4 a+8 YLR V9 f+4.~ f+4 P0,10,2 EX @3 f+8 r8 @@0,2,3 E100,80,80,2,0 P19,10,2 V9 O3 r4 [ V9 f+4 ]5 V9 g+4 V9 a+4 V9 b4. d+4. g+4 f+2 r4 r8 _V-2 g+8 _V2 g+4 a+8 b8~ b8 V4 b8 r8 V7 f+8 V9 f+4 a+8 b8~ b8 V4 b8 r8 V7 f+8 V9 g+4 a+8 b8 V4 b8 Y.R V9 YLR b8 V4 YL. b8 V9 YLR a+8 V6 a+8 V4 a+8 V2 a+8 r8 V9 a+8 g+8 a+8 b8 b1~ b4. EPX EX P0,10,2 @3 V4 b4. V2 b4 r1 @@1,1,3 E100,80,50,2,14 P14,8,8 EP-8,0,0,3,0 V7 O2 
!3  `9F00 `9F00 `AE01 V3 YLR @A7 @B3 @~2 E70,70,70,0,0 r1 r1 r1 r1 r1 r1 L @B3 O0 V3 [ [ b8 ]8 ]4 [ [ b8 ]8 ]2 [ b8 ]7 f+8 b8 b8 b8 a+8 b8 b8 f+8 a+8 [ [ e8 ]8 ]3 [ e8 ]5 > e8 d+8 < b8 [ c+8 ]8 c+8 < b8 > c+8 c+8 c+8 < g+8 e8 g+8 f+8 c+8 f+8 f+8 f+8 a+8 > d+8 < f+8 > f+8 e8 f+8 c+4. f+8 < f+8 b8 a+8 b8 b4 d+8 a+8 V2 b8 V3 b8 a+8 b8 > c+4. d+4 [ e4 r8 < ]2 b8 > e8 d+8 r4 d+8 r8 < d+8 a+8 b8 > [ c+4 r8 ]2 < e8 a+8 b8 a+8 b8 > c+4. d+4 [ e4 r8 < ]2 b8 > e8 < f+8 f8 f+8 g+4 b8 > d+8 <~ d+8 g4 [ g8 ( g8 ) ]2 g8 f+8~ f+8 f+8 f+8 c+4 e8 f+8 e8 f+8 f8 f+8 g+8 a+8 b8 > c+8 d+8 < [ b8 ]5 f+8 a+8 b8 [ a+8 ]5 g+8 a+8 f+8 [ g+8 ]5 d+8 g+8 d+8 f+8 c+8 f+8 b8 a+8 f+8 d+8 c+8 [ < b8 > e8 ]3 < b8 g+8 b8 > d+4 c+8 d+8 < b8 f+8 d+8 c+4 V2 c+8 V3 d+8 V2 d+8 V3 e8 V2 e8 V3 f+8 V2 f+8 V3 f+8~ f+8 V2 f+8 V3 f+8 c+8 f+8 c+8 [ b8 ]5 f+8 a+8 b8 [ a+8 ]5 g+8 a+8 f+8 [ g+8 ]5 d+8 g+8 d+8 f+8 c+8 f+8 b8 a+8 f+8 d+8 c+8 [ < b8 > e8 ]3 < b8 g+8 b8 > d+4 c+8 d+8 < b8 f+8 d+8 c+4 V2 c+8 V3 d+8 V2 d+8 V3 e8 V2 e8 V3 f+8 V2 f+8 V3 < f+8~ f+2~ f+8 r8 
!4  r1 r1 r1 r1 r1 @20 x2. @8 x4 L Y.R [ @8 x4 YLR [ @1 x16 @6 x16 x16 x16 ]2 @1 x16 @6 x16 @7 x8 YL. ]2 Y.R @8 x4 YLR [ @1 x16 @6 x16 x16 x16 ]2 @1 x16 @6 x16 @7 x8 Y.R [ @8 x4 YL. @6 x16 x16 ]2 Y.R @8 x4 YLR @8 x4. @6 x8 [ @5 x8 @6 x8 ]2 [ [ @5 x8 @6 x8 ]4 ]3 [ [ @5 x8 @6 x8 ]4 ]9 @8 x4 @6 x8 @7 x4. @5 x8 x8 @8 x4. @5 x8 @6 x8 x8 @7 x4 [ [ @5 x8 @6 x8 x8 ]2 @7 x4 ]2 Y.R @8 x4. YL. x4. Y.R x4 YLR @8 x4. @5 x8 @6 x8 x8 @7 x4 @5 x8 @6 x8 @5 x8 @7 x4 @8 x8 @7 x4 @8 x4. @6 x8 [ @5 x8 @6 x8 ]2 [ @5 x8 @6 x8 ]4 @8 x4 @6 x8 x4 x4 x8 @8 x4 [ @5 x8 @6 x8 ]3 [ [ @5 x8 @6 x8 ]4 ]2 [ @5 x8 @6 x8 ]3 @5 x8 @7 x8 @8 x4 [ @5 x8 @6 x8 ]3 @5 x8 @6 x8 @5 x8 @7 x4 @6 x8 @5 x8 @6 x8 @8 x4 @6 x8 @7 x4 x4 x4 x4 @6 x4 x4 x8 @8 x4 [ @5 x8 @6 x8 ]3 [ [ @5 x8 @6 x8 ]4 ]2 [ @5 x8 @6 x8 ]3 @5 x8 @7 x8 @8 x4 [ @5 x8 @6 x8 ]3 @5 x8 @6 x8 @5 x8 @7 x4 @6 x8 @5 x8 @6 x8 @8 x4 @6 x8 @7 x4 x4 @8 x8 @5 x4 @8 x2 r8 @6 x8 
!5  @40 W0,97,0 O1 V1 d+2 c+2 < b2 a+2 > e2 d+2 c+4 d+4 < f+2 b2. V0 b8. r16 @24 V1 O2 c16 c16 @0 c8 c8 @2 < g+16 g+16 > @0 c8 c8 @24 c4 L YLR O1 @34 [ V1 b16. r32 V0 b16. r32 b16. r32 ]2 V1 b16. r32 V0 b16. r32 O2 [ V1 d16. r32 V0 d16. r32 d16. r32 ]2 V1 d16. r32 V0 d16. r32 O2 [ V1 e16. r32 V0 e16. r32 e16. r32 ]2 V1 e16. r32 V0 e16. r32 O2 V1 [ @24 c8 @0 c8 c8 ]2 @24 c16 c16 @0 c8 [ @0 c4 @24 c4 @0 c8 c8 @24 c4 ]13 @0 c4 @24 c8 @0 c4 V0 c16 V1 c16 @24 c8 c8 @0 c4. c4. @24 c8 @0 c8 @0 c4. c4 c8 @24 c4 @0 c4. c4. @24 c8 @0 c8 @0 c4 @24 c8 @0 c4 c8 @24 c8 @0 c8 @0 c4. c4. @24 c8 @0 c8 @0 x4 @24 x8 @0 x4 x8 @24 x4 [ @0 c4 @24 c4 @0 c8 c8 @24 c4 ]2 @0 c4 @24 c4 @2 YL. < g+8. YLR > @24 V0 c16 V1 c16 c16 c16 c16 @36 c12 V0 @4 Y.R < b12 YL. b12 YLR V1 > @24 c4. @0 c8 @24 c4 @0 c4 @24 c8 @0 c4 c8 @24 c4 [ @0 c4 @24 c4. @0 c8 @24 c4 @0 c4 @24 c8 @0 c4 c8 @24 c4 ]2 @0 c4 @24 c8 @0 c4 c8 @24 c8 @0 c4 c8 @24 c8 @0 c8 @2 Y.R c8. YLR @24 V0 c16 V1 c16 c16 @2 YL. < g+8 > YLR @36 c12 V0 @4 Y.R < b12 YL. b12 YLR V1 > @24 c4. @0 c8 @24 c4 @0 c4 @24 c8 @0 c4 c8 @24 c4 [ @0 c4 @24 c4. @0 c8 @24 c4 @0 c4 @24 c8 @0 c4 c8 @24 c4 ]2 @0 c4 @24 c8 @2 YL. < g+8 > @24 YLR c8 @2 < g+8 YL. f8 > YLR @0 c8 r8 V1 c8 @24 c6 @35 O1 Y.R f+6 YL. V0 f+6 YLR V1 @8 @2 YL. f32 f32~ f8. > YLR 
!6  @58 W0,97,29 YLR O1 V0 f+1~ f+1~ b1~ b1 b1 r32 D-1 YLR @24 V1 O2 c16 c16 @0 c8 c8 @2 < g+16 g+16 > @0 c8 c8 @24 c8. r32 L @40 W0,97,0 YLR O2 V1 b1~ b1~ b4 V1 b4~ b4 V0 b4 @62 W0,97,62 V1 O2 V1 g4. g4. a4 @35 V1 O1 YLR f+6 Y.R V0 f+12 YLR @50 W0,97,56 YLR V1 r8 O2 b4. d+4 < b4. > b4. d+4 e4. > c+4.~ c+4 < d+4. b4. f+4 @8 V1 O1 YLR f+6 YL. V0 f+12 YLR @50 W0,97,56 YLR r8 V1 O2 b4. < b4 > g+4. b4. < b4 > c+4. > d+4 < g+8 f+4 d+4. b4 f+8 d+4 e4. g+4 > c+4. < e4. g+4 c+4. f+4. g+4 c+4. f+4. c+4 f+4. c+4. d+4. r4 @40 W0,97,0 V1 < b8 a+8 b8 > c+4 V0 c+8 V1 d+4 @50 W0,97,56 V1 O2 e4. b4. @32 O1 V0 a+4 O2 @50 W0,97,56 V1 d+4. b4. @32 O1 V0 a+4 O2 @50 W0,97,56 V1 c+4. b4. @32 O1 V0 a+4 O2 @50 W0,97,56 V1 d+4. e4. @32 O1 V0 a+8 O2 @40 W0,97,0 V1 f+8 @50 W0,97,56 O2 e4. b4. @32 O1 V0 a+4 O2 @50 W0,97,56 V1 O2 d+4. g+4. @32 O1 V0 a+4 @34 W0,97,62 O1 V0 g4. g8 V0 r8 g8 @32 O1 V0 a+8 O1 @34 W0,97,62 r8 V0 f+2~ f+4. r8 @63 W0,97,62 V1 O1 f+8 f8 f+8 g+8 a+8 b8 > c+8 d+8 O2 @34 W0,97,62 V1 b4. b4. b4 a+4. a+4. a+4 g+4. g+4. g+4 f+4. f+4. f+4 e4. e4. e4 d+4. d+4. d+4 c+4. d+8 r8 e8 r8 f+8 r8 c+2~ c+8. r16 @4 Y.R O1 f+16 f+16 YLR O2 @34 W0,97,62 V1 b4. b4. b4 a+4. a+4. a+4 g+4. g+4. g+4 O2 f+8 f8 f+8 b8 a+8 f+8 c+8 < a+8 > e4. e4. e4 d+4. d+4. d+8. r16 @34 W0,97,62 V1 c+4. d+8 r8 e8 r8 f+8. r16 r8 @35 O1 V1 f+2. 
