;014 001E1A9E
!1  T133 L @1 V4 O1 YLR E100,100,95,12,12 P17,11,4 D1 g1~ g1 D0 V6 f1~ f1 g1 > c1~ c4 ( c4 @@1,2,1 O1 V4 E100,85,30,3,3 Y.R D1 r32 [ [ g24 > d24 g24 > d24 g24 > d24 g24 d24 < g24 d24 < g24 d24 < ]6 H3 YL. ]2 H0 Y.R _-6 [ [ g24 > d24 g24 > d24 g24 > d24 g24 d24 < g24 d24 < g24 d24 < ]3 H3 YL. ]2 H0 _0 D0 V8 YLR O2 E100,100,30,17,8 e4 E30,70,100,30,30 e2~ e8.~ e32 O1 V5 E100,30,100,22,50 d1 d+1 e1 f1 b1 > c1 c+1 d1 @@1,2,0 O1 EX [ [ V9 a8 r8 [ a32 r32 ]4 a16 _V-5 a16 _V5 a8 _V-5 Y.R a8 YL. a8 YLR ]2 H3 ]2 H0 @@1,2,1 P17,12,3 O2 V8 D1 Y.R r4 r16 d+4 a+4 a8. D0 YLR g+16 r8 g32 r32 g2. _V-3 Y.R g8 YL. g8 _V3 > D1 YL. r16 d+4 a+4 a8. D0 YLR g+16 r8 g32 r32 g2.~ g4 _V-3 Y.R g8 YL. g8 
!2  L @1 V8 O1 YLR E100,100,95,12,12 P17,11,4 [ g1~ g1 H3 ]2 H0 > c1 g1~ g4 _V-3 g4 O1 V8 D1 E100,100,60,25,25 YL. r32 [ g24 _V-4 g24 _V4 > d24 _V-4 d24 _V4 c+12~ c+2 < ]2 g24 _V-4 g24 _V4 > d24 _V-4 d24 _V4 c+12 e12 d12~ d12~ d2 _V-3 d2 O2 V8 Y.R [ a+24 _V-4 a+24 _V4 > f24 _V-4 f24 _V4 e12~ e2 < ]2 a+24 _V-4 a+24 _V4 > f24 _V-4 f24 _V4 e12 g12 f12~ f12~ f2 _V-3 f2 O1 YL. V8 c+4 g+4 g4 a+16 _V-4 Y.R a+16 YL. _V4 g+8~ g+2 H15 Y.R c+4 g+4 g4 a+16 _V-4 YL. a+16 Y.R _V4 g+8~ g+4.~ g+16. H0 V10 YLR O2 E100,100,30,17,8 b4 E30,70,100,30,30 b2. O1 V8 E100,30,100,22,50 B2 [ g1 g+1 a1 a+1 > ]2 <~ a8 r8 V7 E100,100,90,8,8 O1 a4 > e4 d+4 d16 r8 c+32 r32 c+2 _V-3 c+4 _V3 r4 c4 g4 f+4 f16 r8 e32 r32 e2 _V-3 e4 _V3 @@1,2,1 O2 V9 P17,12,3 EX r4 d+4 a+4 a4 > c16 r8 < a+32 r32 a+2. _V-3 Y.R a+8 YL. a+8 YLR _V3 > d+4 a+4 a4 > c16 r8 < a+32 r32 a+2.~ a+4 _V-3 Y.R a+8 YL. a+8 
!3  L `9F00 `AE00 @A3 V3 O0 YLR E100,100,80,25,17 g1~ g1~ g1~ g1 > c1~ c1~ c2 @A3 V3 O0 YLR E100,100,80,25,17 [ g1~ g1~ g1 H3 ]2 H0 > [ c+1~ c+2 H3 ]2 H0 e1 @A1 V2 EX O1 b1 > c1 c+1 d1 @A3 O1 E100,100,80,8,8 [ g4 [ g16 ]4 g8 g4. ]4 V3 E100,80,60,8,25 [ [ a4 [ a16 ]4 a8 a4. ]2 H3 ]2 H0 E100,100,70,25,25 d+1~ d+2. r8 < a+8 d+1~ d+1~ d+2 
!4  L @6 [ [ x16 ]4 ]24 r2 [ r1 ]9 r2 @7 [ x16 ]8 [ @3 x4 x16 @4 x16 x16 x16 @3 x8 x8 r4 ]7 @3 x4 x16 @4 x16 x16 x16 @3 x8 x8 r8. @4 [ x32 ]2 [ @8 x4 @3 x16 @4 x16 x16 x16 @3 x8 x8 r4 @3 x4 x16 @4 x16 x16 x16 @3 x8 x8 r8. @4 [ x32 ]2 ]2 @7 [ [ x16 ]4 ]7 [ x16 ]2 @3 x8 @8 x4 @7 [ [ x16 ]4 ]9 
!5  L @27 O2 V0 YLR g16 Y.R g16 YLR d16 YL. d16 YLR f16 Y.R f16 YLR g16 YL. g16 YLR d16 Y.R d16 YLR f16 YL. f16 YLR g16 Y.R g16 YLR d16 YL. d16 YLR g8 Y.R g8 YLR d16 YL. d16 YLR f16 Y.R f16 YLR g16 YL. g16 YLR d16 Y.R d16 YLR f16 YL. f16 YLR g16 Y.R g16~ YL. g16 Y.R g16 YLR d16 YL. d16 YLR f16 Y.R f16 YLR g16 YL. g16 YLR d16 Y.R d16 YLR f16 YL. f16 YLR g16 Y.R g16 YLR d16 YL. d16 YLR g8 Y.R g8 YLR d16 YL. d16 YLR f16 Y.R f16 YLR g16 YL. g16 YLR d16 Y.R d16 YLR f16 YL. f16 YLR g16 Y.R g16~ YL. g16 Y.R g16 YLR d16 YL. d16 YLR f16 Y.R f16 YLR g16 YL. g16 YLR d16 Y.R d16 YLR f16 YL. f16 YLR g16 Y.R g16 YLR d16 YL. d16 YLR f16 Y.R f16 YLR g16 YL. g16 YLR d16 Y.R d16 YLR f16 YL. f16 YLR g16 Y.R g16 YLR d16 YL. d16 YLR f16 Y.R f16 YLR g16 YL. g16 r2 [ @4 O1 YLR V1 g4 @44 O3 V1 YLR g24 d24 < g24 d24 < g24 d24 < [ g24 > d24 g24 > d24 g24 > d24 g24 d24 < g24 d24 < g24 d24 < ]5 H3 ]2 H0 _-6 [ @4 O1 YLR V1 g4 @44 O3 V1 YLR g24 d24 < g24 d24 < g24 d24 < [ g24 > d24 g24 > d24 g24 > d24 g24 d24 < g24 d24 < g24 d24 < ]2 _-3 ]2 [ g24 > d24 g24 > d24 g24 > d24 g24 d24 < g24 d24 < g24 d24 < ]2 _0 @40 W0,95,1 O0 V1 [ g8 r8 [ g32 r32 ]4 [ g16 r16 ]2 r4 ]4 O1 g1 g+1 a1 a+1 a8 r8 @28 W0,90,39 O0 YLR V1 a4 > e4 d+4 f+16 r8 e32 r32 e2 V0 e4 V1 r4 c4 g4 f+4 a16 r8 g32 r32 g2 V0 g4 @43 W0,91,11 O0 V1 d+24 f24 g24 a+24 > c24 d24 d+2.~ d+1 d+24 f24 g24 a+24 > c24 d24 d+2.~ d+1~ d+2 
!6  L @27 O2 V0 D1 r16 YLR g16 Y.R g16 YLR d16 YL. d16 YLR f16 Y.R f16 YLR g16 YL. g16 YLR d16 Y.R d16 YLR f16 YL. f16 YLR g16 Y.R g16 YLR d16 YL. d16 YLR g8 Y.R g8 YLR d16 YL. d16 YLR f16 Y.R f16 YLR g16 YL. g16 YLR d16 Y.R d16 YLR f16 YL. f16 YLR g16 Y.R g16~ YL. g16 Y.R g16 YLR d16 YL. d16 YLR f16 Y.R f16 YLR g16 YL. g16 YLR d16 Y.R d16 YLR f16 YL. f16 YLR g16 Y.R g16 YLR d16 YL. d16 YLR g8 Y.R g8 YLR d16 YL. d16 YLR f16 Y.R f16 YLR g16 YL. g16 YLR d16 Y.R d16 YLR f16 YL. f16 YLR g16 Y.R g16~ YL. g16 Y.R g16 YLR d16 YL. d16 YLR f16 Y.R f16 YLR g16 YL. g16 YLR d16 Y.R d16 YLR f16 YL. f16 YLR g16 Y.R g16 YLR d16 YL. d16 YLR f16 Y.R f16 YLR g16 YL. g16 YLR d16 Y.R d16 YLR f16 YL. f16 YLR g16 Y.R g16 YLR d16 YL. d16 YLR f16 Y.R f16 YLR g16 YL. g16 r4 r8. D0 @28 W0,90,39 O0 YLR V1 [ YLR V1 g24 Y.R V0 g24 > YLR V1 d24 YL. V0 d24 YLR V1 c+12~ c+4 V0 c+4 < ]2 YLR V1 g24 Y.R V0 g24 > YLR V1 d24 YL. V0 d24 YLR V1 c+12 e12 d12~ d12~ d2 V0 d2 @28 W0,100,36 O1 [ YLR V1 a+24 Y.R V0 a+24 > YLR V1 f24 YL. V0 f24 YLR V1 e12~ e4 V0 e4 < ]2 YLR V1 a+24 Y.R V0 a+24 > YLR V1 f24 YL. V0 f24 YLR V1 e12 g12 f12~ f12~ f2 V0 f2 @28 W0,90,39 O1 V1 [ c+4 g+4 g4 a+16 V0 Y.R a+16 YLR V1 g+8~ g+2 H3 ]2 H0 @4 O1 YLR V1 e4 Y.R V0 e4 YLR V1 e4 YL. V0 e4 YLR V1 g4 r8 V0 Y.R g8 V1 YLR g8 g8 r4 [ YLR V1 g4 V0 YL. g8 YLR g8 V1 g8 g8 r4 YLR V1 g4 V0 Y.R g8 YLR g8 V1 g8 g8 r4 ]3 YLR V1 g4 V0 YL. g8 YLR g8 V1 g8 g8 r4 [ [ V1 a4 V0 [ a16 ]4 V1 a8 a8 r4 ]2 H3 ]2 H0 @24 O2 c32 c32 c32 c32 V0 c32 c32 c32 c32 [ c32 c32 c32 c32 ]12 c32 c32 c32 c32 V1 c8 c32 c32 c32 c32 V0 c32 c32 c32 c32 [ c32 c32 c32 c32 ]18 
