;015 001E23D0
!1  T177 r4 L E80,100,80,2,7 @@1,2,0 EP-2,0,0,2,0 P20,9,2 V6 O1 g2~ g2~ g4~ g4. > V8 r8 g16 r8 b16 b2 V2 b8. r16 EP-6,0,0,2,0 D-2 r32 Y.R V8 O1 g8~ ( a48~ ( b48~ > ( c48 YLR~ d48~ ) e48~ f+48~ YL. V8 g2.~ g8. r32 D0 YLR V6 O1 g2 > V8 g4. Y.R V3 g8 V8 YLR a+12 g12 a+12~ a4. YL. V3 a8 YLR > V6 c16 r8 e16 e1 Y.R V3 e8 YL. D-2 r32 YL. V7 O1 a48~ ( b48~ > ( c48 YLR~ d48~ ) e48~ f+48~ Y.R V8 g2~ g8. r32 D0 YLR E80,100,80,2,7 @@1,2,0 EP-2,0,0,2,0 r32 D-1 YL. Y.R V4 O3 c16. V2 c32 V4 g16. V2 g32 V4 f+2~ f+8 V2 f+8 Y.R V4 c16. V2 c32 V4 g16. V2 g32 V4 f+2~ f+8 V2 f+8 YL. V4 c16. V2 c32 V4 g16. V2 g32 V4 f+16. V2 f+32 V4 a16. V2 a32 V4 g2~ g2. Y.R V2 g4 E70,100,70,2,11 EPX @@1,1,3 Y.R O3 [ V2 d+8 a+8 a2~ a8 V1 a8 YL. ]2 Y.R V2 d+8 a+8 a8 > c8 < a+2~ a+2. YL. V1 a+8. r32 r24 Y.R V2 b8 a+8 b8 f+8~ f+4. b8 a+3 g3 V1 g3 YL. V2 b8 a+8 b8 f+8~ f+4. b8 a+3~ a+3 V1 a+3 V1 [ Y.R b12 d+12 f+12 b12 YL. a+12 d+12 g12 a+12 ]3 [ Y.R b12 d+12 f+12 b12 YL. a+12 d+12 g12 a+12 ) ]2 Y.R b12 d+12 f+12 b12 YL. a+12 d+12 g12 a+24 YLR E70,100,70,2,11 EPX @@1,1,3 O3 V6 b1~ b1~ b1~ b2. V2 b4 V6 d+1~ d+2.~ d+8 V2 d+8 V6 d+4~ d+12 V3 d+12 V1 d+12 V6 d2 
!2  r4 L E80,100,80,2,7 @@1,2,0 EP-2,0,0,2,0 P15,9,2 D0 YLR V6 O2 g2~ g32 D-1 Y.R > d2 f12 _V-2 d12 f12 _V2 e4. V3 e8 V6 c16 r8 d32 D0 YLR _V4 d1~ d2. V3 d8 r8 V6 V8 O2 g2~ g32 > Y.R D-1 V6 g2 a+12 g12 a+12 a4. V3 a8 V8 f16 r8 g32 D0 YLR _V4 g1~ g2. V3 YL. g4 D0 YLR YLR V10 O3 c16. Y.R V4 c32 YLR V10 g16. YL. V4 g32 YLR V10 f+2~ f+8 YL. V4 f+8 YLR V10 c16. Y.R V4 c32 YLR V10 g16. YL. V4 g32 YLR V10 f+2~ f+8 Y.R V4 f+8 YLR V10 c16. YL. V4 c32 YLR V10 g16. Y.R V4 g32 YLR V10 f+16. YL. V4 f+32 YLR V10 a16. Y.R V4 a32 YLR V10 g2~ g2. YL. V4 g4 YLR E70,100,70,2,11 EPX @@1,1,2 O3 [ V6 d+8 a+8 a2~ a8 V2 a8 ]2 V6 d+8 a+8 a8 V6 > c8 < a+2~ a+2. V2 a+4 V6 b8 a+8 b8 f+8~ f+4. b8 a+3 g3 V3 g3 V6 b8 a+8 b8 f+8~ f+4. b8 a+3~ a+3 V3 a+3 V4 [ b12 d+12 f+12 b12 a+12 d+12 g12 a+12 ]3 [ b12 d+12 f+12 b12 a+12 d+12 g12 a+12 ) ]3 H-1 YLR V8 O2 c16. YL. V4 c32 YLR V8 g16. Y.R V4 g32 YLR V8 f+2~ f+8 Y.R V4 f+8 YLR V8 c16. YL. V4 c32 YLR V8 g16. Y.R V4 g32 YLR V8 f+2~ f+8 YL. V4 f+8 YLR V8 c16. Y.R V4 c32 YLR V8 g16. YL. V4 g32 YLR V8 f+16. Y.R V4 f+32 YLR V8 a16. YL. V4 a32 YLR V8 g2~ g2. Y.R V4 g4 H0 YLR V8 b1~ b2.~ b8 V2 b8 V8 b12 V6 b12 V4 b12 V3 b12 V2 b12 V1 b12 V8 g2 
!3  `9F00 `AE00 @A3 P20,8,12 r4 L O0 V3~ g1~ g1~ g1~ g2~ g8 V2 g8 d4 V3~ g1~ g1~ > c2.~ c12 c12 V2 c12 V3 c2. V2 c4 V3 c1~ c1~ c1~ c3~ c3 d3 V3 d+1~ d+1~ d+1~ d+3~ d+3 f3 E100,100,70,5,22 f+1 g1 f+1 g1 V3 [ f+3 g3 ]6 EX O0 b1~ b1~ b1~ b2.~ b8 V2 b8 V3 b1~ b2.~ b8 V1 b8 V3 b8. V2 b16 V3 r4 V3 d2 
!4  @8 YL. x4 L YLR @8 x2. @5 x2 x2 x2 x2 x2 x2 @3 x12 x12 x12 @8 x2. @5 x2 x2 x2 x2 @3 x12 x12 x12 @8 x4 @5 x4 @8 Y.R x2 YLR [ x3. @5 [ x3 ]10 x6 @8 ]2 @8 x1 r1 r1 r3 r3 @7 x3 [ Y.R @7 x12~ x12~ x12~ x12 YL. x12~ x12~ x12~ x12 ]3 [ Y.R @8 x12~ x12~ x12~ x12 YL. x12~ x12~ x12~ x12 ]3 YLR @8 x2. @5 x2 x2 x2 x2 x2 x2 Y.R @8 x4 YLR @8 x2. @5 x2 x2 @7 x4 @8 Y.R x2 YL. x2 
!5  r4 L @61 W0,97,50 @8 O1 V1 g6 V0 YL. g6 Y.R g6 YLR @61 W0,97,50 V1 > d2 f12 d12 f12~ e4. V0 e8 V1 c16 r8 d16 d2. O0 g8~ a48~ b48 >~ c48~ d48~ e48~ f+48~ g2. V1 @4 YLR O1 d12 V0 d12 d12 @8 O1 V1 g6 V0 YL. g6 Y.R g6 V1 @61 W0,97,50 YLR > g2 a+12 g12 a+12~ a4. V0 a8 V1 f16 r8 g16 @8 O1 YLR g6 V0 YL. g6 Y.R g6 YLR @61 W0,97,50 g4 V1 @4 YLR O2 c12 V0 c12 c12 V1 @8 < c12 V0 YL. c24 @61 W0,97,50 YLR O0 V1~ a48~ b48~ > c48~ d48~ e48~ f+48~ g2 V0 g4 @4 V1 O2 [ c16. r32 ]2 [ c16 V0 c16 c16 c16 ]14 V1 c12 V0 Y.R c12 YL. c12 YLR V1 @61 W0,98,50 YLR YLR V1 O1 V1 d+16. Y.R V0 d+32 YLR V1 a+16. YL. V0 a+32 YLR V1 a2~ a8 YL. V0 a8 YLR V1 O1 d+16. Y.R V0 d+32 YLR V1 a+16. YL. V0 a+32 YLR V1 a2~ a8 YL. V0 a8 YLR V1 d+16. YL. V0 d+32 YLR V1 a+16. Y.R V0 a+32 YLR V1 a16. YL. V0 a32 > YLR V1 c16. Y.R V0 c32 YLR V1 < a+2~ a+2. YL. V0 a+4 @43 W0,97,0 YLR V1 b8 a+8 b8 f+8~ f+4. b8 a+3 g3 V0 g3 V1 b8 a+8 b8 f+8~ f+4. b8 a+3~ a+3 V0 a+3 [ @15 V0 O1 b12 @43 W0,97,0 O1 V1 d+12 f+12 b12 @15 V0 O1 a+12 @43 W0,97,0 O1 V1 d+12 g12 a+12 ]3 V1 [ @15 O1 a+12 @43 W0,97,0 O1 d+12 f+12 b12 @15 O1 b12 @43 W0,97,0 O1 d+12 g12 a+12 ]3 @4 V1 O1 [ b16. r32 ]2 [ b16 V0 b16 b16 b16 ]14 V1 b12 V0 Y.R b12 YL. b12 YLR V1 V1 [ b16 V0 b16 b16 b16 ]7 b16 b16 b16 r16 YLR V1 b12 V0 Y.R b12 YL. b12 Y.R b12 YL. b12 r12 @61 W0,98,50 YLR V1 O1 YLR d4. @4 YLR V0 O1 d24 d24 d24 
!6  @40 W0,97,0 O1 V1 g24 a24 b24 > d24 e24 f24 L @4 YLR V1 O1 g12 V0 Y.R g12 YL. g12 YLR @40 W0,97,0 O2 V1 g2.~ g1~ g1~ g2. V0 g8 r8 @4 YLR V1 O1 g12 V0 Y.R g12 YL. g12 YLR @40 W0,97,0 V0 O2 g4 V1 g4. V0 g8 V1 a+16 g16 a+16 a16~ a4. V0 a8 V1 f16 V0 f16 r16 V1 g16 O1 @4 YLR g12 V0 Y.R g12 YL. g12 YLR @40 W0,97,0 O2 V0 g8 V1 g2~ g8 @4 O2 YLR V1 c12 Y.R V0 c12 YL. c12 V1 YLR @40 W0,97,0~ V0 g4 V1 g4 V0 g8 r8 [ [ @40 O0 V1 c12 @44 V1 O0 e24 g24 > c24 e24 g24 > c24 ]3 ]4 H3 @4 O1 V1 c12 @44 V1 O0 e24 g24 > c24 e24 g24 > c24 [ @40 O0 V1 c12 @44 V1 O0 e24 g24 > c24 e24 g24 > c24 ]5 [ [ @40 O0 V1 c12 @44 V1 O0 e24 g24 > c24 e24 g24 > c24 ]3 ]2 H0 [ [ @40 O0 V1 f+12 @44 V0 O0 f+24 b24 > d+24 f+24 b24 > d+24 ]3 [ @40 O0 V1 g12 @44 V0 O0 g24 a+24 > d+24 g24 a+24 > d+24 ]3 ]2 [ @8 O1 V0 f+12. @44 V0 O0 b24 > d+24 f+24 b24 > d+24 @8 O1 V0 g12. @44 V0 O0 a+24 > d+24 g24 a+24 > d+24 ]4 [ @8 O1 V1 f+12. @44 V1 O0 b24 > d+24 f+24 b24 > d+24 @8 O1 V1 g12. @44 V1 O0 a+24 > d+24 g24 a+24 > d+24 ]2 H-1 @61 W0,98,50 YLR YLR V1 O2 c16. Y.R V0 c32 YLR V1 g16. YL. V0 g32 YLR V1 f+2~ f+8 YL. V0 f+8 YLR V1 c16. Y.R V0 c32 YLR V1 g16. YL. V0 g32 YLR V1 f+2~ f+8 Y.R V0 f+8 YLR V1 c16. YL. V0 c32 YLR V1 g16. Y.R V0 g32 YLR V1 f+16. YL. V0 f+32 YLR V1 a16. Y.R V0 a32 YLR V1 g2~ g2. YL. V0 g4 H0 YLR V1 b1~ b2. V0 b8 r8 V1 b4. V0 b8 @4 O1 V1 d12 V0 Y.R d12 YL. d12 YLR @40 W0,97,0 O1 V1 g24 a24 b24 > d24 e24 f24 
