;018 001E4268
!1  T185 r2 L [ O3 V7 YLR @@1,0,1 `2E1E E100,80,100,2,1 EP-10,-5,0,2,2 d+6 _V-2 Y.R d+6 _V-2 d+6 _V4 YLR d+6 _V-2 YL. d+6 _V-2 d+6 V5 E40,100,80,1,3 P0,5,10 O1 @0 `2E0A YLR c8 _V-2 c8 _V2 c8 _V-2 c8 _V2 d+8 `2E63 f4. PX ]2 O3 V7 YLR @@1,0,1 `2E1E E100,80,100,2,1 EP-10,-5,0,2,2 f6 _V-2 Y.R f6 _V-2 f6 _V4 YLR f6 _V-2 YL. f6 _V-2 f6 V5 E40,100,80,1,3 P0,5,10 O1 @0 `2E0A YLR f8 _V-3 f8 _V3 f8 _V-3 f8 _V3 g+8 `2E63 a+4. PX O3 V8 Y.R @@0,0,1 E100,80,100,2,1 D2 EPX r4 [ c16 _V-5 c16 _V5 ]2 c8 _V-5 c8 _V5 < B1 a+8~ > c8 E50,80,100,12,6 c4 PX E95,100,80,1,2 YLR D0 < e16 _V-5 e16 _V5 [ YLR e8. _V-5 YL. e16 _V5 ]2 YLR e16. _V-5 e32 _V5 e8. r16 r4 @@0,0,1 E100,100,60,2,2 `2E63 YLR EP-10,-5,0,1,1 D2 > a+8 g+8 _V-5 Y.R g+8 _V5 YLR f8~ f8 _V-5 f8 r2. r1 D3 @@1,0,1 EX O2 Y.R V4 f8. _V-2 f16 _V2 f16 _V-2 f16 _V2 f8 _V-2 f8 _V2 D0 E80,40,90,6,6 P18,9,10 EP-30,-10,0,5,5 YLR V7 < a4. EX EPX > c8 _V-4 Y.R c8 _V4 D3 Y.R @@1,0,1 EP-10,-5,0,1,1 EX V5 f8 _V-2 f8 _V2 g+4 f8 c8 [ d+16 _V-2 d+16 _V2 ]3 d+8 f8 O3 V7 YLR @@1,0,1 E100,80,100,2,1 c16 _V-4 c16 _V4 D0 c8. r16 V5 YLR c16 r16 c8 r8 c4. Y.R _V-3 c8 YL. c8 D3 @@1,0,1 EX O2 Y.R V5 f16 _V-2 f16 _V2 f8 _V-2 f8 _V2 [ f16 _V-2 f16 _V2 ]2 D0 E100,100,90,1,1 P18,9,10 EP-30,-10,0,5,5 YLR V7 < a4. EX EPX > c8 _V-4 Y.R c8 _V4 D3 Y.R @@1,0,1 EP-10,-5,0,1,1 EX V5 f8 _V-2 f8 _V2 g+4 f8 c8 d+8 _V-2 d+8 _V2 d+8 f8 _V-2 f8 D0 O3 V5 YLR @@1,0,1 E100,80,100,2,1 c16 _V-3 c16 _V3 d+8. r16 YLR f16 r16 d+8 r8 c4. Y.R _V-3 c8 YL. c8 D3 @@1,0,1 EX O2 Y.R V5 r4 EP-30,-15,0,9,9 P18,9,4 a+2 EPX g+8 f8 g+8 a+8 g+8 a+8. _V-2 a+16 D0 YLR @@1,0,1 E100,80,100,2,1 V6 g+8 _V-4 g+8 _V4 g+16 r16 g+8 _V-4 g+8 D3 @@1,0,1 EX O2 Y.R V5 [ f8 _V-2 f8 _V2 ]3 EP-30,-15,0,6,6 g+8 EPX _V-3 g+8 _V3 g+8 f4 D0 YLR @@1,0,1 E100,80,100,2,1 V6 g+16 _V-4 g+16 _V4 g+4 a+8 _V-4 a+8 D3 @@1,0,1 EX P18,6,6 O2 Y.R V5 [ g8 _V-2 g8 _V2 ]3 > c4. _V-2 c8 _V2 [ c8 _V-2 c8 _V2 ]2 D0 YLR @@1,0,1 E100,80,100,2,1 O3 V6 [ c8 _V-4 c8 _V4 ]2 D3 @@1,0,1 EX O3 Y.R V5 c8 < a+8 _V-2 a+8 _V2 g+8 [ f8 _V-2 f8 _V2 ]2 YLR @@1,0,1 E100,80,100,2,1 O1 V6 r8 a8 D3 Y.R PX @@0,2,1 V6 E100,100,80,2,2 O2 r32. d16 ) e16 ) f16 g16 V7 a8 _V-4 a8 _V4 > c16 _V-5 c16 _V5 c16 _V-5 c16 _V5 d8 < a4 > P45,9,7 c8~ c2. _V-4 YL. c8 Y.R c8 _V4 EP-15,-10,0,3,3 f8 _V-5 EPX f8 _V5 e8 _V-5 e8 _V5 d16 r16 d8 _V-5 d8 _V5 < a8~ a2. _V-4 YL. a8 Y.R a8 _V4 g8. _V-5 g16 _V5 [ g16 _V-5 g16 _V5 ]2 [ d16 _V-5 d16 _V5 ]4 [ g16 _V-5 g16 _V5 ]4 P19,9,7 d4 _V-4 YL. d8 Y.R d8 _V4 [ e8 _V-4 e8 _V4 ]3 f8 _V-4 f8 _V4 g4 > d8 P30,9,7 c8~ c4 _V-4 YL. c8 Y.R c8 _V4 EP-10,-5,0,3,3 d8 EPX c8 d8 c8 < a8 > c4 < f8~ f2. _V-4 YL. f8 _V4 r16 r64 D0 YLR O1 E95,100,100,1,1 a8 _V-4 a8 _V4 > d8 _V-4 d8 _V4 f4 _V-4 Y.R f8 YL. f8 _V4 YLR f8 a8 _V-4 a8 _V3 f16 _V-4 f16 _V4 f4 _V-4 Y.R f8 YL. f8 _V4 YLR g8 _V-4 g8 _V4 g4 d8 _V-4 d8 _V4 d4 e8 r8 P24,9,10 e4~ e8 r8 e8 _V-4 e8 _V2 E100,80,60,38,38 D3 f1~ f2. r4 
!2  r2 L [ O3 V7 YLR @@1,0,1 `2E1E E100,80,100,2,1 EP-10,-5,0,2,2 f6 _V-2 Y.R f6 _V-2 f6 _V4 YLR f6 _V-2 YL. f6 _V-2 f6 V6 E100,80,80,2,0 P0,6,3 O2 @0 `2E0A YLR c8 _V-3 c8 _V3 c8 _V-3 c8 _V3 d+8 `2E63 f4. PX ]2 O3 V7 YLR @@1,0,1 `2E1E E100,80,100,2,1 a+6 _V-2 Y.R a+6 _V-2 a+6 _V4 YLR a+6 _V-2 YL. a+6 _V-2 a+6 V6 E100,80,80,2,0 P0,6,3 O2 @0 `2E0A YLR f8 _V-3 f8 _V3 f8 _V-3 f8 _V3 g+8 `2E63 a+4. PX O3 V8 YL. @@0,0,1 E100,80,100,2,1 P12,9,9 EPX r4 [ c16 _V-5 c16 _V5 ]2 c8 _V-5 c8 _V5 < B1 a+8~ > c8 E50,80,100,12,6 c4 PX E95,100,80,1,2 YLR < a+16 _V-5 a+16 _V5 [ YLR a+8. _V-5 YL. a+16 _V5 ]2 YLR a+16. _V-5 a+32 _V5 a+8. r16 r4 @@0,0,1 E100,100,60,2,2 `2E63 YLR EP-10,-5,0,1,1 a+8 g+8 _V-5 Y.R g+8 _V5 YLR f8~ f8 _V-5 f8 r2. r1 @@1,0,1 E100,100,80,1,1 O2 YLR V8 f8. _V-4 f16 _V4 f16 _V-4 f16 _V4 f8 _V-4 f8 _V4 E80,40,90,6,6 P18,9,10 EP-30,-10,0,5,5 V7 d+4. EX EPX d+8 _V-4 Y.R d+8 _V4 YLR @@1,0,1 EP-10,-5,0,1,1 E100,100,80,1,1 V8 f8 _V-4 f8 _V4 g+4 f8 c8 [ d+16 _V-4 d+16 _V4 ]3 d+8 f8 O3 V7 YLR @@1,0,1 E100,80,100,2,1 c16 _V-4 c16 _V4 d+8. r16 YLR V5 d+16 r16 d+8 r8 d+4. Y.R _V-3 d+8 YL. d+8 @@1,0,1 E100,100,80,1,1 O2 YLR V8 f16 _V-4 f16 _V4 f8 _V-4 f8 _V4 [ f16 _V-4 f16 _V4 ]3 f4 E80,40,90,6,6 P18,9,10 EP-30,-10,0,5,5 V7 d+8 _V-4 Y.R d+8 _V4 YLR @@1,0,1 EP-10,-5,0,1,1 E100,100,80,1,1 V8 f8 _V-4 f8 _V4 g+4 f8 c8 d+8 _V-4 d+8 _V4 d+8 f8 _V-4 f8 O3 V5 YLR @@1,0,1 E100,80,100,2,1 EPX d+16 _V-3 d+16 _V3 f8. r16 YLR g+16 r16 f8 r8 d+4. Y.R _V-3 d+8 YL. d+8 @@1,0,1 E100,100,80,1,1 O2 YLR V8 r4 EP-30,-15,0,9,9 P18,9,4 a+2 EPX g+8 f8 g+8 a+8 g+8 a+8. _V-4 a+16 YLR @@1,0,1 E100,80,100,2,1 V6 a+8 _V-4 a+8 _V4 a+16 r16 a+8 _V-4 a+8 @@1,0,1 E100,100,80,1,1 O2 YLR V8 [ f8 _V-4 f8 _V4 ]3 EP-30,-15,0,6,6 g+8 EPX _V-5 g+8 _V5 g+8 f4 YLR @@1,0,1 E100,80,100,2,1 V6 a+16 _V-4 a+16 _V4 a+4 > c8 _V-4 c8 @@1,0,1 E100,100,80,1,1 P18,6,6 O2 YLR V8 [ g8 _V-4 g8 _V4 ]3 > c4. _V-4 c8 _V4 [ c8 _V-4 c8 _V4 ]2 YLR @@1,0,1 E100,80,100,2,1 O2 V6 [ a+8 _V-4 a+8 _V4 ]2 @@1,0,1 E100,100,80,1,1 O3 YLR V8 c8 < a+8 _V-4 a+8 _V4 g+8 [ f8 _V-4 f8 _V4 ]2 YLR @@1,0,1 E100,80,100,2,1 O2 V6 r8 c8 YLR PX @@0,2,1 V6 E100,100,80,2,2 O2 d16 ) e16 ) f16 g16 V9 a8 _V-4 a8 _V4 > c16 _V-5 c16 _V5 c16 _V-5 c16 _V5 d8 < a4 > P45,9,5 c8~ c2. _V-4 YL. c8 Y.R c8 _V4 EP-15,-10,0,3,3 YLR f8 _V-5 EPX f8 _V5 e8 _V-5 e8 _V5 d16 r16 d8 _V-5 d8 _V5 < a8~ a2. _V-4 YL. a8 Y.R a8 _V4 YLR g8. _V-5 g16 _V5 [ g16 _V-5 g16 _V5 ]2 [ d16 _V-5 d16 _V5 ]4 [ g16 _V-5 g16 _V5 ]4 P19,9,5 d4 _V-4 YL. d8 Y.R d8 _V4 YLR [ e8 _V-4 e8 _V4 ]3 f8 _V-4 f8 _V4 g4 > d8 P30,9,5 c8~ c4 _V-4 YL. c8 Y.R c8 _V4 YLR EP-10,-5,0,3,3 d8 EPX c8 d8 c8 < a8 > c4 < f8~ f2. _V-4 YL. f8 Y.R f8 _V4 YLR O2 V9 E95,100,100,1,1 d8 _V-4 d8 _V4 f8 _V-4 f8 _V4 a4 _V-4 Y.R a8 YL. a8 _V4 YLR a8 > d8 _V-4 d8 _V3 < a16 _V-4 a16 _V4 a4 Y.R a8 YL. a8 YLR a+8 _V-4 a+8 _V4 a+4 a8 _V-4 a8 _V4 a4 g8 r8 > P24,9,8 c4~ c4 < a8 _V-4 a8 _V4 E100,80,60,38,38 f1~ f2. r4 
!3  `9F00 `AE00 @A3 EP-20,-10,0,1,1 r2 L `9F00 `AE00 @A3 EP-20,-10,0,1,1 E100,100,70,2,2 V3 O0 [ f4 r8 f16 r16 f4 r8 f16 r16 ]3 f4 r8 f8 f2 a+4 r8 a+16 r16 a+4 r8 f16 r16 a+4 r8 a+16 r16 a+4 r8 a+16 r16 [ > c4 r8 c16 r16 c4 r8 < g16 r16 ]2 > c4 r8 c16 r16 c4 r8 c16 r16 < f4 r8 f16 r16 f4 r8 f16 r16 f8 r8 f8 g+8. r16 a+8. r16 > c8 < [ [ f4 r8 f16 r16 f4 r8 f16 r16 ]3 f8 f8 r8 f4. r8 f8 ]2 a+4 r8 a+16 r16 a+4 r8 f16 r16 a+4 r8 a+16 r16 r8 a+16 r16 f4 a+4 r8 a+16 r16 a+4 r8 a+16 r16 a+4 r8 a+4 f8 a+8 r8 > [ c4 r8 c16 r16 c4 r8 < g16 r16 > ]2 c4 r8 c16 r16 c4 r8 c16 r16 < f4 r8 f16 r16 f4 r8 > c16 r16 < O1 f4 r8 c16 r16 f4 c4 a4 r8 e4 r8 r8 e8 d4 r8 d16 r16 d4 < a4 > [ d4 r8 d16 r16 ]2 g4 r8 g16 r16 g4 r8 d8 g4 r8 g8~ g8 d8 g4 c4 r8 c16 r16 c2 g4 r8 c8~ c4 r8 c16 r16 g4 r8 g16 r16 c4 r8 c16 r16 f4 r8 f16 r16 c4 f4 d4 r8 d16 r16 d8 r8 < a4 > d4 r8 d4 e8 f4 g4 r8 g16 r16 d4 r8 d16 r16 [ c4 r8 c16 r16 ]2 f4 r8 f16 r16 f4 r8 c16 r16 f16 r16 d4 c8~ c4 f8 r8 
!4  r2 L [ [ @5 x4 @7 x4 ]2 ]10 @5 [ x4 ]2 @7 [ x4 ]2 @8 x4 @5 x8 x8 @5 x8 x8 x8 x8 [ [ @5 x8 x8 x8 x8 ]2 ]7 [ [ @5 x8 x8 x8 x8 ]2 ]7 @5 x8 x8 x8 x8 @7 x8 @5 x8 @7 x8 @5 x8 @8 x4 @5 x8 x8 @5 x8 x8 x8 x8 [ [ @5 x8 x8 x8 x8 ]2 ]9 @8 x4 @5 x8 x8 @5 x8 x8 x8 x8 [ [ @5 x8 x8 x8 x8 ]2 ]4 @5 x8 x8 x8 x8 x8 x8 @7 x4 
!5  @4 V0 c8 ) c8 ( YL. c8 < YLR ) g8 L O1 @4 f4 O2 @1 c4 @0 c8 ( c8 ) @1 c4 @0 c8 ( c8 ) @1 c8 @0 c8 r8 ( c8 ) @1 c8 @4 O1 f8 > c4 O2 @1 c4 @0 c8 ( c8 ) @1 c4 @0 c8 ( c8 ) @1 c8 @0 c8 r8 ( c8 ) @1 c8 @4 O1 f8 a+4 O2 @1 c4 @0 c8 ( c8 ) @1 c4 @0 c8 ( c8 ) @1 c8 @0 c8 r8 ( c8 ) @1 c8 @4 O1 g8 > c4 O2 @1 c8 @0 c8 r8 ( c8 ) @1 c4 @0 c8 ( c8 ) @1 c8 @0 c8 r8 ( c8 ) @1 c4 @0 c8 ( c8 ) @1 c8 @0 c8 r8 ( c8 ) @1 c4 @0 c4 @1 c4 @0 c8 ( c8 ) @1 c4 @0 c8 ( c8 ) @1 c8 @0 c8 r8 ( c8 ) @1 c16 ( c16 ) c8 @0 c4 @1 c4 @0 c8 ( c8 ) @1 c4 @0 c8 ( c8 ) @1 c8 @0 c8 r8 ( c8 ) @1 c4 @0 c4 @1 c4 @0 c8 ( c8 ) @1 c4 @1 c8 ( @1 c8 ) @0 x8 @1 c4 ( @1 c8 ) @1 c16 ( @1 c16 @0 c8 ) @0 c4 @1 c4 @0 c8 ( c8 ) @1 c4 @0 c8 ( c8 ) @1 c8 @0 c8 r8 ( c8 ) @1 c4 @0 c4 @1 c4 @0 c8 ( c8 ) @1 c4 @0 c8 ( c8 ) @1 c8 @0 c8 r8 ( c8 ) @1 c8 ( c8 ) @0 c4 @1 c4 @0 c8 ( c8 ) @1 c4 @0 c8 ( c8 ) @1 c8 @0 c8 r8 ( c8 ) @1 c4 @0 c4 @1 c4 @0 c8 ( c8 ) @1 c4 @0 c8 ( c8 ) @1 c8 @0 c8 r8 ( c8 ) @1 c8 ( c8 ) @0 c4 @1 c4 @0 c8 ( c8 ) @1 c4 @0 c8 ( c8 ) @1 c8 @0 c8 r8 ( c8 ) @1 c4 @1 c8 @0 c8 @1 c8 @0 c8 @0 c8 ( c8 ) @1 c4 @0 c8 ( c8 ) @1 c8 @0 c8 r8 @2 c8 < a16 > r16 @1 c16 ( c16 ) [ @0 c4 @1 c4 @0 c8 ( c8 ) @1 c4 @0 c8 ( c8 ) @1 c8 @0 c8 r8 ( c8 ) @1 c4 @0 c4 @1 c4 @0 c8 ( c8 ) @1 c4 @0 c8 ( c8 ) @1 c8 @0 c8 r8 ( c8 ) @1 c8 ( c8 ) ]2 [ @0 c4 @1 c4 @0 c8 ( c8 ) @1 c4 @0 c8 ( c8 ) @1 c8 @0 c8 r8 ( c8 ) @1 c8 ( c8 ) ]3 @0 c4 @1 c4 @0 c8 ( c8 ) @1 c4 @0 c8 ( c8 ) @1 c8 @0 c8 r8 ( c8 ) @1 c8 @4 O1 c8 
!6  r2 L [ @5 O2 V1 YLR c4 ( YL. c4 ) YLR c4 ( Y.R c4 ) YLR @48 W0,90,10 YL. V1 c8 V0 c8 V1 c8 V0 c8 V1 d+8 f4. ]2 @5 O2 V1 YLR c4 ( YL. c4 ) YLR c4 ( Y.R c4 ) YLR @48 W0,90,10 YL. V1 f8 V0 f8 V1 f8 V0 f8 V1 g+8 a+4. r1 YLR @14 V1 O2 r4 c8 c8 YL. V0 c8 YLR V1 c8 YL. V0 c8 YLR V1 c8 c4 YL. V0 c4 YLR V1 O1 a+8 g+8 YL. V0 g+8 YLR V1 @3 W0,30,5 f8~ f8 r8 O1 @4 f8 > c4 YL. c8 Y.R c8 YLR < f4 f8 f8 V0 YL. f8 V1 YLR f8 > c4 V0 Y.R c16 YL. c16 YLR V1 @14 W0,45,10 O1 r2 r8 g+4. f8 Y.R V0 f8 V1 YLR r2. r2 r8 @3 W0,33,6 O2 c16 r16 d+4 f8 f8 r8 f4. V0 Y.R f8 YL. f8 V1 YLR O1 r2 r8 g+4. f8 Y.R V0 f8 V1 YLR r2. r2 r8 @3 W0,33,6 O2 f16 r16 g+4 a+8 g+8 r8 f4. V0 Y.R f8 YL. f8 @13 YLR O2 V1 r1 r2 r8 f4 f8 f4 r2. r2 r8 f8 f4 g4 r2. r1 @14 O3 c4 c4 r2 < r4 f8 r8 r8 W0,30,10 f4. @40 W0,95,0 O2 V1 c1~ c4 < a4 > c4 e4 d1~ d1 @15 W0,75,42 O1 YL. r4 g4 a+8 > d8~ d4 g4 @3 W0,33,6 O2 Y.R d4 g8 f4 d8 @3 e4 V0 e4 V1 @15 W0,75,42 O1 YL. a+8 > d4. f4. e8 Y.R V0 e8 V1 @14 O2 YLR c8 r8 c8 @40 W0,95,0 O2 a+2 a2 f4 @3 O2 YLR c16 r16 c4 d8 f8 d8 f4 Y.R V1 f4 V1 r8 YLR @13 O1 a8 Y.R V0 a8 YLR V1 a8 a4 r4 r8 a8 Y.R V0 a8 YLR V1 a8 @14 g4 YL. V0 g4 YLR V1 f4 YL. V0 f4 YLR V1 @14 e8 r8 @14 W0,45,10 > c2 < @14 a8 r8 @14 W0,45,10 f4 @3 O2 f16 r16 f8 Y.R V1 f8 YLR V1 d8 YL. V1 d8 YLR V1 c8 d8 < f8 Y.R V1 f8 YLR V1 f4. V1 Y.R f8 YL. f8 
