;019 001E5348
!1  T148 r4 @@0,2,1 O2 V6 YLR E100,100,80,7,7 P15,10,2 g+2. O3 f+16 f+16 e16 f+16 d16 f+16 c+16 f+16 < b16 > f+16 < a16~ a48 > f+16~ f+48 < g+16~ g+48. > f+16~ f+48. < a16~ a48.~ a64 > f+16~ f+48.~ f+24 T86 O3 @1 D1 r24 Y.R f24 f+24 g+24 a24 b24 > c+24 YL. < f+24 g+24 a24 b24 > c+24 d24 Y.R < g+24 a24 b24 > c+24~ c+64 d24~ d48 e48. D0 YLR < @0 EX r4 V5 [ g32 g+32 g32 g+32 _V2 ]4 g32 g+32 T145 @@0,0,1 YL. V5 O1 E100,100,90,8,8 P8,10,4 g+16 a+16 a16 g+8 r16 g+16 g16 f+16 f8 r16 f16 e16 d+16 d16 r16 c+16 c16 c+16 d+16 f16 f+16 g16 _V2 g+4 > c+4 L @1 O1 YLR V4 [ [ a16 > d16 < ]4 H2 ]2 H0 > [ c+16 f+16 ]8 < [ [ a16 > d16 < ]4 H2 ]2 H0 > [ d+16 f+16 ]4 f16 g+16 r8 D1 r16. Y.R O2 V5 EX @@1,2,1 P8,11,3 f+8 g+8 a4 g+8 a8~ a8 b8 g+8 a8~ a4 _V-2 [ Y.R a8 YL. a8 ( ]2 V4 Y.R f+8 g+8 a4 g+8 a8~ a8 b8 > c+8 d4 c+8 _V-2 Y.R c+8 _V2 Y.R d4 c+8 < b8 a32 D0 @@0,2,1 V5 O3 P15,11,2 YLR a8 Y.R a16 YLR a8 YL. a16 YLR g+4. _V-2 Y.R g+8 YL. g+8 _V2 YLR f+8 Y.R f+16 YLR f+8 YL. f+16 YLR g+4. @@0,1,2 YL. O2 D1 r16. V5 P8,11,3 f+8 g+8 a4 g+8 a8~ a8 b8 g+8 a8~ a4 _V-2 [ Y.R a8 YL. a8 ( ]2 V5 YL. f+8 g+8 a4 g+8 a8~ a8 b8 > c+8 d4 c+8 _V-2 Y.R c+8 _V2 YL. d4 c+8 < b8 a32 D0 @@0,2,1 V5 O3 P15,11,2 YLR a8 Y.R a16 YLR a8 YL. a16 YLR g+4. _V-2 Y.R g+8 YL. g+8 _V2 YLR f+8 Y.R f+16 YLR f+8 YL. f+16 YLR g+4. _V-2 Y.R g+8 YL. g+8 @1 O1 V5 E100,100,80,3,3 YLR [ [ f16 > c16 f16 c16 < ]8 H2 ]2 H0 [ f16 > c16 f16 c16 < ]8 @@0,0,1 O2 V7 g8 _V-3 Y.R g16 _V3 YLR g8 _V-3 YL. g16 _V3 YLR g8 @1 V7 [ g16 > d16 g16 d16 < ]2 @@0,0,1 O2 V7 g+8 _V-3 Y.R g+16 _V3 YLR g+8 _V-3 YL. g+16 _V3 YLR g+8 @1 V7 [ g+16 > e16 g+16 e16 < ]2 @1 EX V2 Y.R O3 D1 [ c+32 d32 ]4 _V2 [ c+32 d32 ]4 _V2 [ c+32 d32 ]4 _V2 [ c+32 d32 ]2 YLR [ c+32 d32 ]2 @@0,2,1 O2 YLR V6 E100,100,90,15,8 P15,11,3 a8 g+8 f+8 g+8 a16 b16 _V-3 b16 _V3 YLR a8 _V-3 a16 _V3 YLR > d8~ d8 c+16 _V-3 c+16 _V3 YLR c+8 < b16 _V-3 b16 _V3 YLR b16 a16 _V-3 a16 _V3 YLR a8 _V-3 a16 _V3 YLR b8~ b8 a8 g+8 f+16 _V-3 f+16 _V3 YLR f+16 g+16 _V-3 g+16 _V3 YLR a8 _V-3 a16 _V3 YLR b8. _V-3 b16 _V3 b8 > c+8 d+8 f8 _V-3 f8 _V3 YLR f8 _V-3 f8 _V3 YLR < a8 g+8 f+8 g+8 a16 b16 _V-3 b16 _V3 YLR a8 _V-3 a16 _V3 YLR > d8~ d8 c+16 _V-3 c+16 _V3 YLR c+8 < b16 _V-3 b16 _V3 YLR b16 a16 _V-3 a16 _V3 YLR a8. _V-3 a16 a16 _V3 YLR [ b8 a8 g+16 r16 ]3 b8 a8 g+8 f8 _V-3 f8 _V3 YLR f4 V9 > f+2. _V-3 f+8 O3 V6 d8~ d8 c+16 _V-3 c+16 _V3 YLR c+8 < b16 _V-3 b16 _V3 YLR b16 a16 _V-3 a16 _V3 YLR a8 _V-3 a16 _V3 YLR b8~ b8 a8 g+8 f+16 _V-3 f+16 _V3 YLR f+16 g+16 _V-3 g+16 _V3 YLR a8 _V-3 a16 _V3 YLR b8. _V-3 b16 _V3 b8 > c+8 d+8 f8 _V-3 f8 _V3 YLR f8 _V-3 f8 _V3 YLR < a8 g+8 f+8 g+8 a16 b16 _V-3 b16 _V3 YLR a8 _V-3 a16 _V3 YLR > d8~ d8 c+16 _V-3 c+16 _V3 YLR c+8 < b16 _V-3 b16 _V3 YLR b16 a16 _V-3 a16 _V3 YLR a8. _V-3 a16 a16 _V3 YLR [ b8 a8 g+16 r16 ]3 b8 a8 g+8 f8 _V-3 f8 _V3 YLR f4 D1 > f+1 D0 V8 < a2. _V-3 a4 r2 f+2 > c+2 < f+2 
!2  r4 @@0,2,1 O3 V7 YLR E100,100,80,8,8 P15,11,2 f2. O2 f+16 _V-2 f+16 e16 f+16 d16 f+16 c+16 f+16 < b16 > f+16 < a16~ a48 > f+16~ f+48 < g+16~ g+48. > f+16~ f+48. < a16~ a48.~ a64 > f+16~ f+48.~ f+24 O3 @1 f24 f+24 g+24 a24 b24 > c+24 < f+24 g+24 a24 b24 > c+24 d24 < g+24 a24 b24 > c+24~ c+64 d24~ d48 e24~ e48. _V2 f2.~ f16 @@0,0,1 YLR V6 O2 E100,100,75,8,8 P8,10,2 g+16 a+16 a16 g+8 r16 g+16 g16 f+16 f8 r16 f16 e16 d+16 d16 r16 c+16 c16 c+16 d+16 f16 f+16 g16 _V2 g+4 > c+4 L @@0,2,1 Y.R O1 V7 E100,100,80,8,8 P8,11,2 f+8 > c+16 r16 < b8 f+16 r16 a8. b16 _V-3 Y.R b16 YL. b16 _V3 Y.R > e8~ e8 d+16 r16 c+8 < a16 r16 b16 > c+16 _V-3 Y.R c+16 _V3 Y.R < b8 _V-3 Y.R b16 YL. b16 r16 _V3 Y.R f+8 > c+16 r16 < b8 f+16 r16 a8. b16 _V-3 Y.R b16 YL. b16 _V3 Y.R > e8~ e8 d+16 r16 a16 r16 g+16 YLR O3 g+8. r8 @@1,2,1 E100,100,85,8,8 [ O2 V8 f+8 g+8 a4 g+8 a8~ a8 b8 g+8 a8~ a4 _V-3 [ Y.R a8 YL. a8 _V-2 ]2 V8 YLR f+8 g+8 a4 g+8 a8~ a8 b8 > c+8 d4 c+8 _V-3 Y.R c+8 _V3 YLR d4 c+8 < b8 a8 b8. > e8 _V-3 YL. e16 _V3 YLR e8~ e2~ e2 _V-3 Y.R e8 YL. e8 YLR @@0,1,2 ]2 r4 @@1,2,1 O3 V9 P15,11,3 E100,100,90,8,8 e4. d16 r16 d4 < a8 > c4 d4 [ c16 r16 ]2 c8 d8 c8 e4. d16 r16 d4. @@0,1,2 g8 _V-3 Y.R g8 _V3 YLR f8 _V-3 YL. f8 _V3 YLR e8 _V-3 Y.R e8 _V3 YLR d4 _V-3 YL. d8 _V3 YLR e4. c16 r16 c4 < a8 > c4 d4 [ c16 r16 ]2 c8 d8 c8 e8 _V-3 Y.R e16 _V3 YLR e8 _V-3 YL. e16 _V3 YLR d8~ d4 _V-3 Y.R d8 YL. d8 _V3 YLR f8 _V-3 Y.R f16 _V3 YLR f8 _V-3 YL. f16 _V3 YLR e8~ e4. _V-3 Y.R e8 YLR @1 EX V3 YL. O3 [ c+32 d32 ]4 _V2 [ c+32 d32 ]4 _V2 [ c+32 d32 ]4 _V2 [ c+32 d32 ]2 r8 @@0,2,1 O3 YLR V9 E100,100,90,15,8 P15,11,4 c+8 < b8 a8 b8 > c+16 d16 _V-4 d16 _V4 YLR c+8 _V-4 c+16 _V4 YLR f+8~ f+8 e16 _V-4 e16 _V4 YLR e8 d16 _V-4 d16 _V4 YLR d16 c+16 _V-4 c+16 _V4 YLR c+8 _V-4 c+16 _V4 YLR d8~ d8 c+8 < b8 a16 _V-4 a16 _V4 YLR a16 b16 _V-4 b16 _V4 YLR > c+8 _V-4 c+16 _V4 YLR d+8. _V-4 d+16 _V4 d+8 f8 f+8 a8 _V-4 a8 _V4 YLR g+8 _V-4 g+8 _V4 YLR c+8 < b8 a8 b8 > c+16 d16 _V-4 d16 _V4 YLR c+8 _V-4 c+16 _V4 YLR f+8~ f+8 e16 _V-4 e16 _V4 YLR e8 d16 _V-4 d16 _V4 YLR d16 c+16 _V-4 c+16 _V4 YLR c+8. _V-4 c+16 c+16 _V4 YLR [ d8 c+8 < b16 r16 > ]3 d8 c+8 < b8 > c+8 _V-4 c+8 _V4 YLR c+4 O3 c+8 < b8 a8 b8 > c+16 d16 _V-4 d16 _V4 YLR c+8 _V-4 c+16 _V4 YLR f+8~ f+8 e16 _V-4 e16 _V4 YLR e8 d16 _V-4 d16 _V4 YLR d16 c+16 _V-4 c+16 _V4 YLR c+8 _V-4 c+16 _V4 YLR d8~ d8 c+8 < b8 a16 _V-4 a16 _V4 YLR a16 b16 _V-4 b16 _V4 YLR > c+8 _V-4 c+16 _V4 YLR d+8. _V-4 d+16 _V4 d+8 f8 f+8 a8 _V-4 a8 _V4 YLR g+8 _V-4 g+8 _V4 YLR c+8 < b8 a8 b8 > c+16 d16 _V-4 d16 _V4 YLR c+8 _V-4 c+16 _V4 YLR f+8~ f+8 e16 _V-4 e16 _V4 YLR e8 d16 _V-4 d16 _V4 YLR d16 c+16 _V-4 c+16 _V4 YLR c+8. _V-4 c+16 c+16 _V4 YLR [ d8 c+8 < b16 r16 > ]3 d8 c+8 < b8 > c+8 _V-4 c+8 _V4 YLR c+4 f+1~ f+2. _V-4 f+8. @@0,2,1 YLR O3 V6 E100,100,80,8,8 P8,11,2 d8~ d16 c+16 r16 < b8 a16 r16 a16 b16 r16 > c+16~ c+8. r16 < g+4 > c+4 < f+4 r4 
!3  `9F00 `AE00 @A3 V2 YLR O1 f+1 f+1~ f+24~ f+24~ f+24~ f+24~ f+24~ f+64 V3 < b4 a4 g+4~ g+64~ g+48~ g+48. g2.~ g16 O1 E100,100,70,8,6 g+16 a+16 a16 g+8 r16 g+16 g16 f+16 f8 r16 f16 e16 d+16 d16 r16 c+16 c16 c+16 d+16 f16 f+16 g16 g+4 c+4 L O1 E100,100,70,11,8 d4 d8 < a16 > d16 e4 e16 < b16 > e8 [ f+4 ]2 c+4 c+8 e8 < b4 b8 a16 b16 > c+8. c+8 < g+16 b16 > c+16 d+4 d+8 < b16 > d+16 f8 r4. O1 B2 [ [ f+4 ]4 H-2 ]2 H0 [ d4 ]4 < [ a4 ]4 [ e4 ]3 e8~ b8~ > [ e4 ]3 f4 O1 [ [ f+4 ]4 H-2 ]2 H0 [ d4 ]4 < [ a4 ]4 e4 < b16 > c+16 e4 f+16 g+16 f+16 e16 < b16 > c+16 e4 < b16 > c+16 e4 d16 c16 < a16 g16 a16 g16 O1 [ f4 ]7 f8 f8 [ g4 ]6 [ g8 d8 ]2 [ f4 ]7 f8 c8 [ g4 ]2 [ g8 d8 ]2 [ g+4 ]4 r1 [ f+4 ]2 [ [ c+4 ]2 H1 ]2 H0 [ a4 ]2 < [ b4 ]2 > [ f+4 ]2 [ g+8 d+8 ]2 > c+4~ < c+4 [ [ f+4 ]2 H-2 ]2 H0 [ d4 ]2 [ a4 ]2 b4. a4. g+4. g4. c+4 > c+4 O1 [ f+4 ]2 [ [ c+4 ]2 H1 ]2 H0 [ a4 ]2 < [ b4 ]2 > [ f+4 ]2 [ g+8 d+8 ]2 > c+4~ < c+4 [ [ f+4 ]2 H-2 ]2 H0 [ d4 ]2 [ a4 ]2 b4. a4. g+4. g4. > c+4 < c+4 [ [ f+4 ]2 H-2 ]2 H0 [ d4 ]2 [ a4 ]2 < [ [ b4 ]2 H-2 ]2 H0 g+4 > c+4 < [ f+4 ]2 
!4  r4 r2. r1 r24 r24 r24 r24 r24 r64 r2 r4 r64 r48 r48. r2. r16 [ @4 [ x16 ]3 @8 x8. ]2 @4 [ x16 ]3 @8 x8 @5 [ x32 ]2 x16 x16 x16 x16 x16 x16 [ @8 x4 ]2 L @8 x4 @5 x8 [ x16 ]2 r16 x16 @7 x8 r8 @5 [ x16 ]2 [ x16 ]2 x8 x16 @7 x8 @5 x16 [ x24 ]3 x16 x16 [ x16 ]2 @7 x8 @8 x4 @5 x8 [ x16 ]2 r16 x16 @7 x8 r8 @5 [ x16 ]2 [ x16 ]2 x8 x16 @7 x8 @5 x16 [ x8 ]4 @8 x4 @5 x8 [ x16 ]2 r16 x16 @7 x8 r8 @5 [ x16 ]2 [ x16 ]2 x8 x16 @7 x8 @5 x16 [ x24 ]3 x16 x16 [ x16 ]2 @7 x8 [ @5 [ x8 ]3 [ x16 ]2 r16 x16 @7 x8 r8 @5 [ x16 ]2 [ x16 ]2 x8 x16 @7 x8 @5 x16 [ x24 ]3 x16 x16 [ x16 ]2 @7 x8 ]2 @8 x4 @5 x8 [ x16 ]2 r16 x16 @7 x8 r8 @5 [ x16 ]2 [ x16 ]2 x8 x16 @7 x8 @5 x16 [ x24 ]3 x16 x16 [ x16 ]2 @7 x8 [ @5 [ x8 ]3 [ x16 ]2 r16 x16 @7 x8 r8 @5 [ x16 ]2 [ x16 ]2 x8 x16 @7 x8 @5 x16 [ x24 ]3 x16 x16 [ x16 ]2 @7 x8 ]2 @8 x4 @5 x8 [ x16 ]2 r16 x16 @7 x8 r8 @5 [ x16 ]2 [ x16 ]2 x8 x16 @7 x8 @5 x16 [ x24 ]3 x16 x16 [ x16 ]2 @7 x8 @5 [ x8 ]3 [ x16 ]2 r16 x16 @7 x8 r8 @5 [ x16 ]2 [ x16 ]2 x8 x16 @7 x8 @5 x16 [ x24 ]3 x16 x16 [ x16 ]2 @7 x8 @8 x4 @5 x8 [ x16 ]2 r16 x16 @7 x8 r8 @5 [ x16 ]2 [ x16 ]2 x8 x16 @7 x8 @5 x16 [ x24 ]3 x16 x16 [ x16 ]2 @7 x8 @5 [ x8 ]3 [ x16 ]2 r16 x16 @7 x8 r8 @5 [ x16 ]2 YL. @8 x8. Y.R x8. YLR x4 @5 [ x8 ]3 r2. @8 x4 @8 x4 @5 x8 [ x16 ]2 r16 x16 @7 x8 r8 @5 [ x16 ]2 [ x16 ]2 x8 x16 @7 x8 @5 x16 [ x24 ]3 x16 x16 [ x16 ]2 @7 x8 @5 [ x8 ]3 [ x16 ]2 r16 x16 @7 x8 r8 @5 [ x16 ]2 [ x16 ]2 x8 x16 @7 x8 @5 x16 @8 [ x4 ]2 @8 x4 @5 x8 [ x16 ]2 r16 x16 @7 x8 r8 @5 [ x16 ]2 [ x16 ]2 x8 x16 @7 x8 @5 x16 [ x24 ]3 x16 x16 [ x16 ]2 @7 x8 @8 x4 @5 x8 [ x16 ]2 r16 x16 @7 x8 @8 x4 @5 [ x16 ]2 @8 x4 @7 x8 @8 x4 @5 [ x16 ]2 @7 x8 @8 x4 @5 x8 [ x16 ]2 r16 x16 @7 x8 r8 @5 [ x16 ]2 [ x16 ]2 x8 x16 @7 x8 @5 x16 [ x24 ]3 x16 x16 [ x16 ]2 @7 x8 @5 [ x8 ]3 [ x16 ]2 r16 x16 @7 x8 r8 @5 [ x16 ]2 [ x16 ]2 x8 x16 @7 x8 @5 x16 @8 [ x4 ]2 @5 [ x16 ]2 x8 @8 x4 @5 [ x24 ]3 x16 x16 [ x16 ]2 @7 x8 @5 [ x16 ]2 x8 x16 @7 x8 @5 x16 [ x24 ]3 x16 x16 [ x16 ]2 @7 x8 @8 YL. x4. x4. Y.R x4. YL. x4. Y.R x4 YL. x4 YL. x4 Y.R x4 r16 YLR x16 @7 x8 r8 @5 [ x16 ]2 [ x16 ]2 x8 x16 @7 x8 @5 x16 [ x24 ]3 x16 x16 [ x16 ]2 @7 x8 @5 [ x8 ]3 [ x16 ]2 r16 x16 @7 x8 r8 @5 [ x16 ]2 @8 YL. x4 Y.R x4 YLR x4 @5 x16 x16 @7 x8 
!5  r4 @40 W0,95,1 O2 V1 d2. f+1~ f+24~ f+24~ f+24~ f+24~ f+24~ f+64 c+4 d4 e4~ e64~ e48~ e48. f2.~ f16 @24 O2 [ [ c16 ]3 c8. ]2 [ c16 ]3 c8 @2 YL. [ e32 ]2 YLR d16 c16 < b16 a+16 Y.R a16 g+16 YLR O2 [ @24 c4 ]2 L YLR O2 [ @41 c4 @24 c4 ]6 @41 c16 @2 YL. e16 c16 < YLR b16 @24 O2 c16 @2 O1 Y.R a8. YLR @41 O2 c8 @32 V0 [ c8 ]3 V1 [ @41 [ c4 ]3 @24 c4 ]5 @41 [ c4 ]3 @24 [ c16 ]4 [ @41 c4 @24 c4 ]11 @41 c8 @24 V0 [ c24 ]3 V1 YLR [ c16 ]4 [ @41 c4 @24 c4 ]3 @41 c4 @24 c8 @41 c8 [ @41 c4 @24 c4 ]3 @41 c4 @24 c8 [ c16 ]2 [ @41 c4 @24 c4 ]3 @41 c4 @24 c8 @41 c8 @41 c4 @24 c4 @41 c4 @24 c8 [ c16 ]2 @41 c4 @24 c8 @41 c8 @2 YL. [ e16 ]2 YLR d16 c16 < b16 a+16 Y.R a16 g+16 YLR @41 O2 c8. c16 @32 V0 O2 c8 c16 c16 r16 c8 c16 @8 V1 c+4 [ @41 c4 @24 c4 ]7 @41 c4 @24 c8. @41 c16 [ @41 c4 @24 c4 ]3 @41 c4 @24 c8 [ c16 ]2 [ @41 c4 @24 c4 ]2 @41 c4 @24 c16 @2 e16 c16 < a16 O2 @41 c8 @24 V0 [ c24 ]3 V1 c8 [ c16 ]2 [ @41 c4 @24 c4 ]6 @41 c16 @2 YL. e16 e16 YLR d16 c16 Y.R < b16 a16 g16 O2 YLR [ @41 c8 @24 c16 c16 ]2 @2 YL. e24 d24 YLR c24 < a+24 Y.R a24 g24 YLR O2 @24 c4 [ @41 c4 @24 c4 ]2 @41 c4 @24 [ c16 ]4 @41 c4 c8 @24 c8 @41 c8 @2 c16 c16 @24 c8 @2 e24 d24 c24 @41 c16 c16 O2 @2 YL. e16 d16 YLR c16 < b16 Y.R a+16 a16 YLR O2 @41 c4 c4 [ @41 c4 @24 c4 ]5 @41 c4 @24 c8 [ c16 ]2 [ @24 c16 @41 c16 c8 ]2 c16 @2 YL. e16 YLR c16 < Y.R a16 YLR O2 @24 [ c16 ]4 
!6  r4 @40 W0,95,1 O1 V1 b2. < f+1~ f+24~ f+24~ f+24~ f+24~ f+24~ f+64 > c+2.~ c+64~ c+48~ c+48. g2.~ g16 r8. @8 c+8 Y.R c+16 r8. YLR d8 YL. d16 r8. YLR f8 Y.R f16 r4. YLR g+8 YL. g+16 Y.R g+16 YLR c+8 Y.R c+16 YL. c+16 L @28 W0,100,36 YLR O1 V1 f+8 > c+16 r16 < b8 f+16 r16 a8. b16 V0 Y.R b16 YL. b16 V1 YLR > e8~ e8 d+16 r16 c+8 < a16 r16 b16 > c+16 Y.R c+16 YLR < b8 Y.R b16 YL. b16 r16 YLR f+8 > c+16 r16 < b8 f+16 r16 a8. b16 V0 Y.R b16 YL. b16 V1 YLR > e8~ e8 d+16 r16 a16 r16 g+16 g+16 V1 @3 O1 Y.R g+4 YL. g+4 [ @21 O1 YLR [ [ V1 f+8 V0 f+16 f+16 ]4 H-2 ]2 H0 [ [ V1 d8 V0 d16 d16 ]4 H7 ]2 H0 @43 W0,97,11 O0 V1 YLR f+8 Y.R f+16 YLR f+8 YL. f+16 YLR e4. Y.R e8 YL. e8 YLR d8 Y.R d16 YLR d8 YL. d16 YLR e4. Y.R e8 YL. e8 ]2 @28 W0,100,36 O1 Y.R r1 e4. d4. c4 < b2.~ b8 @27 O2 r32 YLR g8 Y.R g8 YLR f8 YL. f8 YLR e8 Y.R e8 YLR d8 Y.R d8 YL. d16. @28 W0,100,36 O2 YLR r1 g4. f4. e8 V0 Y.R e8 V1 YLR c8 V0 Y.R c16 V1 YLR c8 V0 YL. c16 YLR V1 < b8~ b4 V0 Y.R b8 YL. b8 V1 YLR b8 V0 Y.R b16 V1 YLR b8 V0 YL. b16 YLR V1 b8~ b4. V0 Y.R b8 @43 W0,97,11 O2 V0 YLR c+4 V1 c+2 @8 YLR < c+4 @40 W0,95,1 V1 O1 YLR a16 > c+16 < Y.R a16 > c+16 < YL. a16 > c+16 < YLR a16 > c+16 < YLR g+16 > c+16 < Y.R g+16 > c+16 < YL. g+16 > c+16 < YLR g+16 > c+16 < YLR f+16 > c+16 < Y.R f+16 > c+16 < YL. f+16 > c+16 < YLR f+16 > c+16 < YLR e16 > c+16 < Y.R e16 > c+16 < YL. e16 > c+16 < YLR e16 > c+16 < YLR f+16 > d16 < Y.R f+16 > d16 < YL. f+16 > d16 < YLR f+16 > d16 < YLR f+16 > c+16 < Y.R f+16 > c+16 < YL. f+16 > c+16 < YLR f+16 > c+16 < YLR b16 > d+16 < Y.R b16 > d+16 < YL. b16 > d+16 < YLR b16 > d+16 YLR c+16 f16 Y.R c+16 f16 YL. c+16 f16 YLR c+16 f16 < YLR a16 > c+16 < Y.R a16 > c+16 < YL. a16 > c+16 < YLR a16 > c+16 < YLR g+16 > c+16 < Y.R g+16 > c+16 < YL. g+16 > c+16 < YLR g+16 > c+16 < YLR f+16 > c+16 < Y.R f+16 > c+16 < YL. f+16 > c+16 < YLR f+16 > c+16 < YLR e16 > c+16 < Y.R e16 > c+16 < YL. e16 > c+16 < YLR e16 > c+16 @15 W0,100,54 O1 Y.R b4. a4. @28 W0,100,36 O1 YL. [ b4. ]2 > c+8 Y.R c+8 YL. c+4 f+4 @40 W0,95,1 V1 O1 YL. a16 > c+16 < YLR a16 > c+16 < YLR g+16 > c+16 < Y.R g+16 > c+16 < YL. g+16 > c+16 < YLR g+16 > c+16 < YLR f+16 > c+16 < Y.R f+16 > c+16 < YL. f+16 > c+16 < YLR f+16 > c+16 < YLR e16 > c+16 < Y.R e16 > c+16 < YL. e16 > c+16 < YLR e16 > c+16 < YLR f+16 > d16 < Y.R f+16 > d16 < YL. f+16 > d16 < YLR f+16 > d16 < YLR f+16 > c+16 < Y.R f+16 > c+16 < YL. f+16 > c+16 < YLR f+16 > c+16 < YLR b16 > d+16 < Y.R b16 > d+16 < YL. b16 > d+16 < YLR b16 > d+16 YLR c+16 f16 Y.R c+16 f16 YL. c+16 f16 YLR c+16 f16 < YLR a16 > c+16 < Y.R a16 > c+16 < YL. a16 > c+16 < YLR a16 > c+16 < YLR g+16 > c+16 < Y.R g+16 > c+16 < YL. g+16 > c+16 < YLR g+16 > c+16 < YLR f+16 > c+16 < Y.R f+16 > c+16 < YL. f+16 > c+16 < YLR f+16 > c+16 < YLR e16 > c+16 < Y.R e16 > c+16 < YL. e16 > c+16 < YLR e16 > c+16 @15 W0,100,54 O1 Y.R b4. a4. @28 W0,100,36 O1 YL. [ b4. ]2 > c+8 Y.R c+8 YL. c+4 @28 W0,100,36 YLR O2 V1 c+8 < b16 r16 a8 b16 r16 > c+16 d16 r16 c+8 r16 f+8~ f+8 e16 r16 e8 d16 r16 d16 c+16 r16 c+8. r16 d8~ d16 c+16 r16 < b8 a16 r16 a16 b16 r16 > c+16~ c+8. r16 < g+4 > c+4 < f+4 r4 
