;020 001E6992
!1  T156 O2 V6 YLR @@0,0,1 E100,85,65,4,2 `2E35 b16 b16 r16 b16 > `2E63 e16 r16 d8. r16 d16 r16 < a4 [ a+32 r32 ]4 a+16 r16 b8 r8 `2E63 b4. L D2 O2 V8 @@1,2,1 E100,85,65,4,2 [ YLR e8 _V-3 Y.R e8 _V3 ]2 P35,10,6 Y.R e2 d8 < b8 > d8 E100,85,85,4,2 e2 r8 @@0,0,2 O2 E100,100,80,7,2 P21,13,6 V5 YL. r32 e4. _V-3 e8 _V3 g4. _V-3 g8 _V3 f+8 _V-3 f+8 _V3 d8 _V-3 d8 _V3 e4. r8 a4. _V-3 a8 _V3 B4 a4.~ g8 [ b16 _V-3 b16 _V3 ]4 b4. _V-3 b8 _V3 e8 _V-3 e8 _V3 e8 d8 e16. r32 e8 g16. r32 g8 f+4. _V-3 f+8 _V3 f+8~ g8 f+8~ d16. D0 E100,70,70,4,0 P17,11,6 EP4,0,0,3,0 @@2,1,0 O3 V8 YL. e8 < b8 > e8 g4 a8 b4 a2 r8 c8 e8 g8 a1 b1 b2 r8 d+8 f+8 > c8 < b8 YLR d+4. c+4 _V-4 c+8 _V4 c+8 d+4. _V-4 d+8 _V4 d+8 O3 V8 YL. d+8 f+8 > c8 < b8 YLR d+4. c+4 _V-4 c+8 _V4 c+8 [ d+16 _V-4 d+16 V8 ]3 d+2 _V-4 d+8 _V4 YL. r8 b4. a8 _V-4 a8 _V4 g8 f+8 e4 r2. @@0,0,1 V6 O1 E100,100,80,7,2 P21,13,6 YLR b16 r16 b8 _V-4 b8 _V4 b8 > e8 _V-4 e8 _V4 e16 _V-4 e16 _V4 e8 d8 _V-4 d8 _V4 d8 e8 [ f+16 _V-4 f+16 _V4 ]2 f+8 _V-4 f+8 _V4 [ e16 _V-4 e16 _V4 ]3 e8 [ g16 _V-4 g16 _V4 ]2 g8 _V-4 g8 _V4 [ e16 _V-4 e16 _V4 ]3 e8 a8 _V-4 a8 _V4 a4 f+2. e4 d+2. r4 @@0,0,1 V7 YL. O2 r32 e16 _V-4 e16 _V4 e8 _V-4 e8 _V4 e8 g8.~ g32 @@2,2,1 YLR e4 @@0,0,1 V7 YL. O2 r32 a16 _V-4 a16 _V4 a8 _V-4 a8 _V4 a8 > c8. c32 @@2,2,1 < YLR e4 d+8 @@0,0,1 V7 YL. O2 r32 b8 _V-4 b8 _V4 b8 > d8 < b8 > d4 e4 r2 r8. r32 r1 
!2  O3 V8 YLR @@0,0,1 E100,85,65,4,2 `2E35 e16 e16 r16 e16 `2E63 g16 r16 f+8. r16 f+16 r16 d4 [ e32 r32 ]4 e16 r16 d+8 r8 `2E63 b4. L @@1,2,1 O3 E100,85,65,4,2 V8 [ YLR e8 _V-3 YL. e8 _V3 ]2 P35,10,6 YLR e2 d8 < b8 > d8 E100,85,85,4,2 e2 r8 @@0,0,2 O2 E100,100,80,7,2 P21,13,6 V8 e4. _V-4 e8 _V4 g4. _V-4 g8 _V4 f+8 _V-4 f+8 _V4 d8 _V-4 d8 _V4 e4. r8 a4. _V-4 a8 _V4 B4 a4.~ g8 [ b16 _V-5 b16 V8 ]4 b4. _V-4 b8 _V4 e8 _V-4 e8 _V4 e8 d8 e16. r32 e8 g16. r32 g8 f+4. _V-4 f+8 _V4 f+8~ g8 f+8~ d8 e2. r4 a8 _V-4 a8 _V4 a8 g8 [ a16 _V-5 a16 _V5 ]3 g8 a4. _V-4 a8 _V4 a8 g8 a4 b2 < < V5 b4 r4 b4 r8 b8 r2 > > V8 r8 b4. a4 _V-4 a8 _V4 f+8 b4. _V-4 b8 _V4 b4. _V-4 b8 V8 r8 b4. a4 _V-4 a8 _V4 f+8 [ b16 _V-4 b16 V8 ]3 b2 _V-4 b8 _V4 r8 b4. a8 _V-4 a8 _V4 g8 f+8 e4 r2. @@0,0,1 V9 e16 r16 e8 _V-4 e8 _V4 e8 g8 _V-4 g8 _V4 g16 _V-4 g16 _V4 g8 f+8 _V-4 f+8 _V4 f+8 g8 [ a16 _V-4 a16 _V4 ]2 a8 _V-4 a8 _V4 [ g16 _V-4 g16 _V4 ]3 g8 [ b16 _V-4 b16 _V4 ]2 b8 _V-4 b8 _V4 [ a16 _V-4 a16 _V4 ]3 a8 > c8 _V-4 c8 _V4 c4 < b1 P0,13,6 b2. r4 P21,13,6 @@0,0,1 V9 e16 _V-4 e16 _V4 e8 _V-4 e8 _V4 e8 g2 a16 _V-4 a16 _V4 a8 _V-4 a8 _V4 a8 > c2 < r8 b8 _V-4 b8 _V4 b8 > d8 < b8 > d4 _V2 e4 r2. r1 
!3  `AE00 `9F00 @A3 E100,100,80,3,4 P14,11,13 V3 O1 EP-4,-2,0,1,1 e8. r16 e8 d8. r16 d16 r16 d4 c8. r16 c8 < b8 r2 > L O1 e4 r8 < b8 r8 > e4 < b8 > d8 r8 d8 e4. r4 e4 r8 < b8 r8 > e4 < b8 > d4 r8 d8 e4 r8 e8 < a8 > e8 r8 a8 r8 e4 a8 < b8 > f+8 r8 b8 r8 a8 r8 b8 e16 r16 e4 < b8 r8 > e4 < b8 > d16 r16 d4 < a8 r8 > d4 d8 e4 r8 e4 g8 e4 < a8 > e8 r8 a8 r8 a8 r8 e8 < a8 > e8 r8 a8 r8 e8 r8 a8 [ < [ b16 r16 ]2 r8 > f+8 ]2 < b4 r8 b2 > c8 < b8 b16 r16 r4 a16 r16 a8. r16 a8 b4. r16 > f+16 b16 r16 b4 f+8 < b8 b16 r16 r4 a16 r16 a8. r16 a8 b4 r8 b4 > f+8 a16 f+16 a8 < b4 r2. > e8 g4 a4 a+8 b4 e4 r8 < b8 r8 > e8 r8 < b8 > d4 r8 < a8 r8 > d8 r8 < a8 > e4 r8 < b8 r8 > e8 r8 < b8 a4 r8 < e4 a4 e8 < b32 r32 b16 r16 b32 r32 b16 r16 b8. r16 b16 r16 b8. r16 [ b32 r32 ]4 b16 r16 b8. r16 b16 r16 b4 > e2 g4 r8 g8 a2 > c16 r16 c4 < c8 < b4 r2. > e4 r8 < b8 > e16 r16 e4 < b8 > e4 r8 e4 < b8 > d8 < b8 
!4  V15 r1 r4. @8 x8 r2 L [ @5 x8 @6 x8 ]3 @6 x8 @8 x8 @5 x8 @6 x8 x8 @8 x8 r2 [ @5 x8 @6 x8 ]2 [ @5 x8 @6 x16 x16 ]2 [ @5 x16 @6 x16 @7 x8 ]2 @5 x8 @6 x16 x16 @5 x16 @6 x16 x16 x16 [ @5 x8 @6 x16 x16 ]2 @5 x16 @6 x16 @7 x8 @5 x8 @6 x16 x16 [ @5 x8 @6 x16 x16 ]2 [ @5 x16 @6 x16 @7 x8 ]2 [ @5 x8 @6 x16 x16 ]8 @5 x8 x8 x8 @7 x4 r4. [ [ @5 x8 @6 x8 ]3 @5 x8 @6 x16 x16 ]2 @6 x8 x16 x16 @5 x8 @6 x16 x16 @7 x8 @6 x16 x16 @5 x8 @6 x16 x16 @5 x8 @6 x16 x16 x8 @7 x4 @6 x16 x16 r8 r8 [ @5 x8 @6 x16 x16 ]2 @7 x8 @6 x16 x16 @5 x8 @6 x16 x16 @5 x8 @6 x16 x16 @5 x16 @6 x16 x16 x16 [ @5 x8 @6 x16 x16 ]2 [ @5 x8 @6 x16 x16 ]4 @5 x8 @6 x16 x16 x8 @7 x8 r8 @6 x8 x8 x8 x4 r2. r8 @7 x8 r8 x8 r8 x8 @5 x8 @6 x16 x16 [ @5 x8 @6 x16 x16 ]2 @5 x16 @6 x16 @7 x8 @5 x8 @6 x16 x16 [ @5 x8 @6 x16 x16 ]2 [ @5 x16 @6 x16 @7 x8 ]2 [ @5 x8 @6 x16 x16 ]4 [ @5 x8 @6 x16 x16 ]2 [ @5 x16 @6 x16 @7 x8 ]2 @5 x16 x8 x16 x8 @7 x4 @5 x8 x4 @5 x16 @6 x16 x16 x16 @5 x8 @7 x4 r4. [ @5 x8 @6 x16 x16 ]2 @5 x16 @6 x16 @7 x8 @5 x8 @6 x16 x16 [ @5 x8 @6 x16 x16 ]2 [ @5 x16 @6 x16 @7 x8 ]2 @5 x4 r2. [ @7 x8 @5 x16 @6 x16 ]2 @5 x16 @6 x16 @7 x8 @5 x16 @6 x16 x16 x16 @5 x8 @6 x16 x16 @5 x8 @7 x8 r2 
!5  V1 O2 @1 c16 c8 c16 c8 c8 r8 @2 < a8 a4 > @1 c8. c16 c8 r8 r8 @4 < b16 b16 b16 b16 b8 L V1 O2 @0 c4 @1 c4 @0 c4 r4 @0 c4 @1 c8 @0 c8 r8 @2 < a16 a16 f16 e16 c8 > O2 @0 c4 @1 c4 @0 c4 @1 c4 @0 c4 @1 c4 @0 c8 @1 c16 V0 c16 V1 c16 c16 V0 c8 V1 [ @0 c4 @1 c4 @0 c4 @1 c4 ]4 @1 c8 c8 r8 @0 c8 r8 @2 < a8 e16 e16 e16 e16 > [ @0 c4 @1 c4 @0 c4 @1 c4 ]3 @0 c4 @1 c4 r8 @2 < b16 a16 g16 e16 c8 > [ @0 c4 @1 c4 @0 c4 @1 c4 ]3 @0 c8 @1 c8 c8 c8 @0 c8 @2 < a16 f16 a16 f16 a8 > @0 c4 r2. c8 c4 c4 c8 @2 c16 < a16 f16 e16 > [ @0 c4 @1 c4 @0 c4 @1 c4 ]4 @4 O1 b16 b8 b16 b8 b8 r8 b8 b4 b16 b16 b16 b16 b8 b4 > b16 b16 < b16 b16 > b8 < e4 O2 @1 c4 @0 c4 @1 c4 @0 c4 @1 c4 @0 c4 @1 c4 @4 O1 b4 r2. O2 @0 c4 @1 c4 @0 c4 @1 c4 @0 c4 @1 c8 @0 c8 r8 @2 c16 c16 < a16 f16 e8 > 
!6  V1 YLR O2 @9 g16 g16 r16 g16 b8 a8. r16 a8 f+4 [ g32 r32 ]4 g16 r16 f+8 r8 b4 r16. @30 V1 YLR O2 c4 c4 c2 r32 L r2. r8 @4 O1 b8 > e4 r2. r2 r8 @3 O2 e16 e16 g16 a16 b4 V0 Y.R b4 YL. b4 r4. V1 YLR r2 r8 b16 a16 r16 g16 f+8 V0 Y.R r16 g16 f+8 V1 YLR r2. r1 r1 r1 r1 @4 O2 < r2 b4 V0 YL. b4 V1 YLR b4 r8 b4 b16 V0 b16 V1 b16 b16 b8 r1 r1 r1 r2 r8 @3 O2 f+8 a16 f+16 a8 b4 V0 Y.R b4 YL. b4 r4 V1 YLR e8 g4 a4 a+8 b8 V0 Y.R b8 V1 YLR @40 O1 V1 [ b16 > e16 < ]8 [ a16 > d16 < ]8 [ b16 > e16 < ]8 > [ c16 e16 ]8 < @3 O1 YLR V1 b16 b8 b16 > e8 @3 W0,30,5 f+8. @3 V0 f+16 V1 f+8 @3 W0,30,5 e4 @3 [ f+16 ]4 g8 @3 W0,30,5 f+8. V0 @3 f+16 @3 W0,30,5 V1 b4 @3 V0 b8 V1 YLR @3 r2. g4 r2. @3 W0,30,5 > c4 < @3 b4 r2. @30 V1 YLR O2 c4 @4 O1 YLR r4 e2 e4 r8 e4 r4~ r16. @30 V1 YLR O2 c4 c4 c2 r32 
