;021 001E739C
!1  T180 `2E63 E90,100,70,1,6 @@1,2,0 EP-8,0,0,1,3 P15,10,8 V8 O2 YLR D0 f12 g12 _V-4 g12 _V4 g12 _V-4 g12 _V4 f12 g2 _V-4 g6 _V4 a+6 > c6 E100,80,80,1,7 EPX @@X @2 V5 O5 PX `2E01 r24 Y.R c12 _V-4 YL. c12 _V4 Y.R c12 _V-4 YL. c12 _V4 Y.R c12 YL. c12 _V-4 Y.R c12 _V4 YL. c12 Y.R c12 _V-4 YL. c12 _V4 Y.R c12 YL. c12 _V-4 Y.R c12 _V4 YL. c24 E90,100,70,1,6 @@1,2,0 EP-8,0,0,1,3 P15,10,8 V8 O2 YLR `2E63 a+12 > c12 _V-4 c12 _V4 c12 _V-4 c12 _V4 < a+12 > c2 _V-4 c6 _V4 c6 _V2 g6 E100,80,80,1,7 EPX @@X @2 V4 O5 PX `2E01 r24 _V-4 Y.R c12 _V4 YL. c12 Y.R c12 _V-4 YL. c12 _V4 Y.R c12 YL. c12 _V-4 Y.R c12 _V4 YL. c12 Y.R c12 _V-4 YL. c24 E100,50,20,1,7 EPX @@X @2 V3 O5 PX `2E01 _V2 c12 c12 _V-2 YL. c12 YLR ) c12 c12 c12 _V-4 Y.R c12 _V4 c12 c12 _V-4 YL. c12 _V4 YLR c12 c12 _V-4 Y.R c12 _V4 YLR c12 c12 _V-4 YL. c12 _V4 YLR c12 c12 _V-4 E90,100,70,1,6 @@1,2,0 EP-8,0,0,1,3 `2E63 P15,10,8 V6 O3 YLR < r24 d+12 d12 c3 _V-4 c3 _V-2 c3 r6. r24 L E100,80,80,5,0 @@0,0,1 P15,7,4 V6 O2 EP-2,0,0,2,0 g6 g3 > c6 d+6 d+6 d6 c6 d6 d3 d+6 d6 _V-4 d6 d6 r6 _V4 < b6 b3 > c6 d6 d6 c6 < b6 > c6 c6 c6 d6 d+6 _V-4 d+6 d+6 _V4 < g6 > c6 c6 c6 f6 g+6 g+6 g6 f6 d+3 d+6 c6 d+6 _V-4 d+6 _V4 d6 c6 < b6 b6 _V-2 b6 _V2 b6 > d6 < b6 g6 f6 g6 f6 d+4 _V-4 d+4 r6 _V4 d+6 d+6 d3 f3 a+6 > c6 d6 d6 c6 d6 d+6 _V3 EP-12,0,0,29,0 E100,60,40,2,15 @@1,0,2 g+6 EP-2,0,0,1,0 a+3 _V-5 a+6 E100,80,80,5,0 @@0,0,1 P15,10,4 V6 O3 EP-2,0,0,2,0 d+6 d3 d6 d6 d3 e6 f+6 EP-8,0,0,29,0 E100,60,40,2,15 @@1,0,2 O3 EP-2,0,0,1,0 _V3 g6 f6 d12 c6. < a+3 E100,80,80,5,0 @@0,0,1 P15,10,4 V6 O3 EP-2,0,0,2,0 d6 d6 d+3 d+3 c6 d3 < b2 _V-4 b3 E90,100,70,1,6 @@1,2,0 EP-8,0,0,1,3 `2E63 P15,10,8 V8 O2 YLR g6. a6. b6 E100,80,80,5,0 @@0,0,1 P15,10,4 V8 O3 EP-2,0,0,2,0 D0 YLR g3 g3 g3 f3 g3 f6 d+3 _V-2 E90,100,70,1,6 @@1,2,0 EP-8,0,0,1,3 P15,10,8 V4 O2 `2E63 d+12 _V-2 d+12 _V2 d+12 f12 g12 _V-2 g12 _V2 E100,80,80,5,0 @@0,0,1 P15,10,4 V8 O3 EP-2,0,0,2,0 D0 YLR f6 f6 f6 f6 c6 d3 d+2 _V-4 d+3 _V4 r3 r3 c3 c6 c3. < g6 g+6 a+3 g6 d+3 EP0,0,-60,15,29 E100,60,40,2,15 @@1,0,2 Y.R V6 O2 PX g3. E100,80,80,5,0 @@0,0,1 P15,10,4 V6 O2 EP-2,0,0,2,0 D0 YLR f+3 f+3 a3 > c6 < b2 _V-4 b2 _V4 g6 g6 f6 d+6 V8 > g6 g6 f6 e3 _V-4 e3 _V4 r6 f6 > c6 < a+6 g+3 _V-4 g+3 V6 d3 d3 g6 f3 d+2 _V-2 d+2 _V-2 d+3 r6 E90,100,70,1,6 @@1,1,2 EPX P15,10,8 V6 O3 YLR g12 _V-4 g12 _V4 g12 f+12 g12 a+12 a12 g12 f12 _V-4 f12 _V4 f12 e12 f12 a12 g12 f12 d+12 _V-4 d+12 _V4 d+12 d12 d+12 g12 f12 d+12 d12 _V-4 d12 _V-2 d12 r12 _V6 E90,100,70,1,6 @@1,1,3 EP-2,0,0,1,3 `2E63 P15,10,8 V6 O3 YLR g12 f12 d+12 d12 c3 _V-2 c3 _V-2 c3 < _V4 g12 f12 d+12 d12 c3 _V-2 c3 _V-2 c3 r3 
!2  O2 `2E63 E90,100,70,1,6 @@1,2,0 EP-8,0,0,1,3 P15,10,8 V8 O2 YLR a+12 > c12 _V-4 c12 _V4 c12 _V-4 c12 _V4 < a+12 > c2 _V-4 c6 _V4 d+6 E100,50,20,1,7 EPX @@X @2 V8 O5 PX `2E01 c12 c12 c12 _V-4 c12 _V4 c12 _V-4 c12 _V4 c12 c12 _V-4 c12 _V4 c12 c12 _V-4 c12 _V4 c12 c12 _V-4 c12 _V4 c12 E90,100,70,1,6 @@1,2,0 EP-8,0,0,1,3 P15,10,8 V8 O3 `2E63 d+12 f12 _V-4 f12 _V4 f12 _V-4 f12 _V4 d+12 f2 _V-4 f6 _V4 f6 `2E01 E100,50,20,1,7 EPX @@X @2 V8 O5 PX c12 c12 _V-4 c12 _V4 c12 c12 _V-4 c12 _V4 c12 c12 _V-4 c12 _V4 c12 c12 _V-4 c12 _V4 L `2E63 E90,100,70,1,6 @@1,2,0 EP-8,0,0,1,3 P15,10,8 V4 O3 YLR D-1 g12 f12 d+12 d12 c3 _V-4 c3 _V-2 c3 < _V6 g12 f12 d+12 d12 c3 _V-4 c3 _V-2 c3 r3 E100,80,80,5,0 @@0,0,1 P15,10,4 V8 O3 EP-2,0,0,2,0 D0 c6 c3 d+6 g6 g6 f6 d+6 f6 f3 g6 f6 _V-4 f6 _V-2 f6 r6 _V6 d6 d3 d+6 f6 f6 d+6 d6 d+6 d+6 d+6 f6 g6 _V-4 g6 _V-2 g6 _V6 c6 f6 f6 f6 g+6 > c6 c6 < a+6 g+6 g3 g6 d+6 g6 _V-4 g6 _V4 f6 d+6 d6 d6 _V-2 d6 _V2 d6 g6 f6 d+6 d6 d+6 d6 c4 _V-4 c4 r6 _V4 c6 c6 < a+3 a+3 > d6 d+6 f6 f6 d+6 f6 g3 EP-2,0,0,1,0 E100,60,40,2,15 @@1,0,2 Y.R V6 D-1 r24 a+6. r24 YLR E100,80,80,5,0 @@0,0,1 P15,10,4 V8 O3 EP-2,0,0,2,0 D0 g6 g6 f+3 f+6 f+6 f+3 g6 a6 a+3 EP-2,0,0,1,0 E100,60,40,2,15 @@1,0,2 Y.R V6 O3 D-1 r24 d12 c6. < a+6. r24 E100,80,80,5,0 @@0,0,1 P15,10,4 V8 O3 EP-2,0,0,2,0 D0 YLR a+6 a+6 g+3 g+3 d+6 f3 g2 _V-4 g3 E90,100,70,1,6 @@1,2,0 EP-8,0,0,1,3 P15,7,8 V10 O2 `2E63 b6. > c6. d6 E100,80,80,5,0 @@0,0,1 P15,10,4 V8 O3 EP-2,0,0,2,0 D0 YLR > c3 c3 c3 < a+3 > c3 < a+6 g3 _V-4 E90,100,70,1,6 @@1,2,0 EP-8,0,0,1,3 P15,10,8 V6 O2 `2E63 g12 _V-4 g12 _V4 g12 g+12 a+12 _V-4 a+12 _V4 E100,80,80,5,0 @@0,0,1 P15,10,4 V8 O3 EP-2,0,0,2,0 D0 YLR g+6 _V-2 g+6 _V2 g+6 _V-2 g+6 _V2 d+6 f3 g2 _V-4 g3 _V4 r3 r3 f3 f6 f3. d+6 f6 g3 d+6 c3 EP0,0,-50,15,29 E100,60,40,2,15 @@1,0,2 Y.R V8 O3 PX g3. E100,80,80,5,0 @@0,0,1 P15,10,4 V8 O3 EP-2,0,0,2,0 D0 YLR d3 d3 d3 d+6 d2 _V-4 d2 _V4 d+6 d+6 d6 c3. _V-4 c3 _V4 c6 > c6 < a+6 g+2 _V-4 g+2 _V4 r3 g3 g3 a+6 > d3 c2 _V-4 c2 _V-2 c3 r6 E90,100,70,1,6 @@1,1,2 EPX P15,10,8 V8 O4 YLR c12 _V-6 c12 _V6 c12 < b12 > c12 d+12 d12 _V-2 c12 _V2 < a+12 _V-6 a+12 _V6 a+12 a12 a+12 > d12 c12 < _V-2 a+12 _V2 g+12 _V-6 g+12 _V6 g+12 g12 g+12 > c12 < a+12 g+12 g12 _V-4 g12 _V-2 g12 r12 _V6 
!3  V3 O1 `9F00 `2E09 @A3 `AE00 E100,95,90,12,0 < V2 a+12 > V3 c6 V2 c6 < a+12 > V3 c6. V2 c6. V3 c6 < V2 g12 a+12 > V3 c6 r3. r3 r3 < V2 d+12 V3 f6 V2 f6 d+12 V3 f6. V2 f6. V3 f6 V2 f6 V3 g6 r3. r3 r3 > L [ c6 r6 < g6 r6 > ]4 V3 [ c6 r6 < g6 r6 > ]2 [ f6 r6 c6 r6 ]2 g6 r6 d6 r6 < V3 g6 V2 g6 a6 b6 V3 [ c6 r6 < g6 r6 > ]2 [ f6 r6 c6 r6 ]2 [ c6 r6 < g6 r6 > ]2 [ d6 r6 < g6 r6 > ]2 c6 r6 < g6 r6 > c6 r6 c6 V2 c6 V3 < a+2 V1 a+6 r6 V2 a+6 > V3 c6 d6 d+2 V1 d+6 r6 V2 < a+6 > V3 d6 d+6 d2 V1 d6 r6 V2 d6 V3 e6 f+6 g2 V1 g6 r6 V2 d6 V3 f6 g6 g+3 V1 g+6 V2 d+6 V2 g+6 V3 g+3 g3 V1 g6 V2 g6 V1 g6 V3 g6. g6. V2 g6 V3 [ c6 r6 < g6 r6 > ]4 [ f6 r6 c6 r6 ]2 c6 r6 < g6 r6 > V2 c6 c6 d6 V2 d+6 V3 [ f6 r6 c6 r6 ]2 [ c6 r6 < g6 r6 > ]2 d6 r6 < a6 r6 > d6 r6 a6 V3 < g3 V2 g6 V3 g6 V2 g6 V3 g6 V1 g6 r3 V3 > c6 r6 < g6 r6 > c6 V2 c6 V3 d6 V2 e6 V3 [ f6 r6 c6 r6 ]2 g3 r6 V1 g6 V3 V2 g6 V3 g3 c2 r6 < r6 V2 > c6 V1 c6 < g12 V3 g+12 V2 a+12 b12 > [ V3 c6 V1 c6 < V3 g6 V1 g6 > H-2 ]2 H0 < V3 g+6 V1 g+6 > V3 d+6 V2 g+6 V3 g6 V1 g6 V3 < g6 V1 g6 V3 
!4  @6 x12 @5 x6 x6 @6 x12 @7 x6 @6 x3 x3 r3 r3 r3 r3 @6 x12 @5 x6 x6 @6 x12 @7 x6 @6 x3 x3 r3 r6 x6 x3 @8 x3 L [ r6 @5 x6 ]8 [ r6 @5 x6 ]30 @7 x6 r6 @6 x6 @5 x6 [ @5 x6 @6 x6 ]16 @7 x3 @6 r6 x6 @5 x6 @8 x3 x3 @6 x6 @5 x6 @6 x6 @8 x6. x6. @7 x6 [ r6 @5 x6 ]16 [ r6 @5 x6 ]11 @7 c6 @6 c6 c3 @6 c3 r3 c3 [ r6 @5 x6 ]8 @8 x3 @6 x3 x6 @7 x3 @8 x3 r3 @6 x6 x3 x3 [ r6 @5 x6 ]7 @8 x3 
!5  V1 O2 @0 c3 r3 c12 Y.R @2 V0 d+24 d+24 V1 d+12 V0 d+12 YLR V1 c12 c12 YL. < g+6 YLR > [ @0 c3 ]3 @1 V0 c12 V1 c12 YL. @2 < g+6 YLR > V1 O2 @0 c3 r3 c12 Y.R @2 V0 d+24 d+24 V1 d+12 V0 d+12 YLR V1 c12 c12 YL. < g+6 YLR > @0 c3 c3 @1 c6. V0 c12 V1 c3 L [ V1 @0 c6 V0 @1 c6 ]8 [ V1 @0 c6 V0 @1 c6 ]30 V1 c3 r3 [ @0 c3 @1 c3. @0 c6 @1 c3 ]3 @0 c3 @1 c3. @0 c6 @1 V1 c6 V0 @0 c6 V1 @0 c3 @1 c6 r12 V0 c12 V1 c6 @0 c3 c3 r6 @1 c3 @0 c6. c6. c6 [ V1 @0 c6 V0 @1 c6 ]16 [ V1 @0 c6 V0 @1 c6 ]11 V1 c6 @0 c3 @1 V0 c6 V1 c6 c6 @0 c6 @1 c6 V0 c12 V1 c12 Y.R @2 < g+6 YLR > [ V1 @0 c6 V0 @1 c6 ]8 @0 c3 r3 @1 c6 @0 c3 V0 c3 @2 YL. d+6 V1 d+6 V0 YLR @0 c6 V1 @2 c6 < Y.R V0 g+6 V1 g+12 g+12 YLR O2 @0 V1 c6 [ V1 @0 c6 V0 @1 c6 ]6 @0 c6. @1 V0 c12 V1 c3 
!6  O2 @28 W0,97,47 O1 V1 a+12 > c12 V0 c12 V1 c12 V0 c12 < V1 a+12 > c6~ c3 V0 c6 V1 d+6 c6 r3. r3 r3 @28 W0,97,47 V1 d+12 f12 V0 f12 V1 f12 V0 f12 V1 d+12 f6~ f3 V0 f6 V1 f6 g6 r3. r3 L @28 W0,97,47 O2 V1 g12 V0 f12 d+12 d12 V1 c3 V0 c3. r6 < g12 f12 d+12 d12 V1 c3 V0 r3. r6 r3 @6 r3 r3 r3 r3 r3 r3 r6 O2 V1 g+12 g12 f12 d+12 d12 c12 < [ b12 b12 V0 ]6 r3 > V1 [ c24 g24 c24 g24 V0 ]5 r6 V1 c12 d12 d+12 V0 d+12 V1 [ f24 g+24 f24 g+24 V0 ]6 r3 V1 [ c24 g24 c24 g24 V0 ]6 r3 V1 < [ g12 g12 V0 ]6 r6 V1 b12 V0 b12 V1 [ > c24 < g24 > c24 < g24 V0 ]4 @7 > c3 r3 @15 W0,97,57 [ V1 O1 a+3 V0 Y.R a+3 YL. a+3 r3 YLR H5 ]2 H0 V1 O2 d3 V0 Y.R d3 YL. d3 r3 YLR V1 O2 g3 V0 Y.R g3 YL. g3 @9 V1 YLR a+6 a+6 g+3 g+3 d+6 f3 g3 V0 Y.R g3 YL. g6 YLR V1 @3 O1 b6. > c6. d6 d+3 V0 Y.R d+3 YL. d+3 @15 W0,97,57 Y.R c3 YLR c3 Y.R c3 YL. c3 r3 < YLR V1 f3 Y.R V0 f3 YL. f3 r3 YLR V1 g3 @28 > V1 c12 d12 d+3 V0 d+3 r6 @9 V1 f3 V0 Y.R f3 YLR V1 @6 [ f24 g+24 V0 f24 g+24 ]4 [ g24 c24 g24 c24 V0 ]6 r3 V1 [ f+24 d24 f+24 d24 V0 ]2 V1 @13 < a3. V0 a6 a6 @14 V1 g3 V0 g12 r12 V1 g12 r12 V0 g12 r12 V1 g6 @9 > V0 d+6 d+6 d6 c6 @6 V0 g6 V1 g6 V0 f6 V1 g24 e24 V0 g24 e24 @9 c6 > c6 < a+6 g+6 @6 V0 c6 > V1 c6 < V0 a+6 V1 [ g+24 f24 g+24 f24 V0 ]4 [ V1 g24 d24 g24 d24 V0 g24 d24 r12 ]2 V1 g6 V1 b24 d24 V0 b24 d24 b24 d24 r12 g6 V1 g24 d+24 g24 d+24 V0 @15 W0,95,57 V0 g6 V1 g6 V0 f6 V1 f12 d+6. V0 f12 d+6. V0 YLR @9 O2 V1 c3 r6 V0 c6 < V1 a+3 r6 V0 a+6 V1 g+3 r6 V0 g+6 V1 g6 V0 g6 
