;023 001E9C6E
!1  T135 @@1,2,1 O3 V6 Y.R E100,100,40,0,5 e24 g24 a24 > c24 d24 e24 < g24 a24 > c24 d24 e24 g24 E100,50,0,13,13 YLR V7 a8. @1 O1 V5 P16,11,3 D1 r32 EX YLR g4 > d4 Y.R _V-2 d4 YL. d4 Y.R d4 YL. d4 Y.R d4 r8 < _V2 YLR e8. g8. > d4 Y.R _V-2 d4 YL. d4 Y.R d4 YL. d4 Y.R d4 r32 L @@3,2,1 V5 O1 YL. P16,11,3 E100,95,80,6,8 D1 r16 b8 _V-3 b16 _V3 > c8. d4 e8 g8 f+8 e8. d8. e8~ e4. _V-3 e8 _V3 < b8 _V-3 b16 _V3 > c8. d4 e8 g8 f+8 e8. d8. e8~ e4 _V-3 e8 _V3 c8 < a8. > e8 _V-3 Y.R e16 _V3 YL. e8~ e4 _V-3 e8 _V3 < a8 g8. > d8 _V-3 Y.R d16 _V3 YL. d8~ d4 _V-3 d8 _V3 < b16 @1 O1 V7 E85,100,80,5,13 P16,11,3 YLR e8. g8. > d4. Y.R _V-2 d4 @0 V8 YLR E100,100,85,8,8 EP-20,-10,0,10,10 g4. _V-2 Y.R g4. YL. g4 EPX [ @@1,1,0 O2 V6 E100,100,70,8,8 P8,11,3 EP-6,-3,0,4,4 YLR b8. > c8. d8. Y.R _V-3 d8. YL. d4 _V3 YLR EP-17,-8,0,4,4 a4. _V-2 Y.R EPX a4. YL. a4 ]2 O3 V7 EP-4,-2,0,4,4 YLR c4 _V-3 Y.R c8 _V3 YLR c4. _V-3 YL. c4 _V3 < YLR g8. > d8 _V-3 Y.R d16 _V3 YLR d8. _V-3 YL. d8. Y.R d4 _V3 < YLR g4 _V-3 Y.R g8 _V3 YLR > c4. _V-3 YL. c4 _V3 < EPX E100,100,80,8,8 YLR a6~ a6 _V-2 Y.R a6 _V2 YLR b6~ b6 _V-2 Y.R b6 _V2 H0 @@1,2,1 O1 V6 YL. E100,100,85,8,8 P22,11,6 e8. > c8 _V-3 c16 _V3 c8~ c8. < b8. > c8 < a2 > ) d4 f+4 ( e8. d8 _V-3 d16 _V3 d8~ d8. c8. < b8 a2 b4. _V-3 b8 _V3 Y.R e8. > c8 _V-3 c16 _V3 c8~ c8. < b8. > c8 < a2 > ) d4 f+4 ( e8. d8 _V-3 d16 _V3 d8~ d8. c8. < b8 a2 @2 O1 V6 Y.R E100,100,40,0,5 D1 r24 f+24 a24 > d24 e24 f+24 a24 > d24 e24 f+24 a24 > d24 YLR V4 EX B1 f+16~ f16~ e16~ d+16~ d16~ c+16~ c16 <~ b16~ a+16~ a16~ g+16~ g16~ f+16~ f16~ e16~ d+16 @@1,2,0 O2 V5 YLR EX B2 D1 a2~ a8. ( a2 Y.R a4 YL. a4 ) YLR EP-8,-4,0,5,5 > g8. EPX e8.~ d8 EP-8,-4,0,8,8 e4. _V-2 Y.R EPX e4. ( YL. e4. _V3 YLR EP-8,-4,0,8,8 a2 EPX g16 ( Y.R g16 ) YLR d8 e16 ( YL. e16 ) YLR EP-8,-4,0,8,8 d+4. ( EPX Y.R d+4. ( YL. d+4. ( Y.R d+4. _V3 YLR EPX f16 <~ f16~ f4 g8 _V-2 Y.R g8 YL. g8 _V2 YLR > EP-12,-6,0,8,8 c4.~ c4 _V-2 EPX Y.R c4 _V2 YLR c16 <~ a+8.~ a+4 _V-3 a+8. 
!2  @@1,2,1 O2 V6 YLR E100,100,40,0,5 e24 g24 a24 > c24 d24 e24 < g24 a24 > c24 d24 e24 g24 E100,50,0,13,13 V8 a4 _V-2 Y.R a4 ( YL. a4 r4 [ r1 ]3 L @@3,2,1 V5 O1 YLR P16,11,3 E100,95,80,6,8 b8 _V-3 b16 _V3 > c8. d4 e8 g8 f+8 e8. d8. e8~ e4. _V-3 e8 _V3 < b8 _V-3 b16 _V3 > c8. d4 e8 g8 f+8 e8. d8. e8~ e4 _V-3 e8 _V3 c8 < a8. > e8 _V-3 Y.R e16 _V3 YLR e8~ e4 _V-3 e8 _V3 < a8 g8. > d8 _V-3 Y.R d16 _V3 YLR d8~ d4 _V-3 d8 _V3 < b8 a1~ a2. _V-3 Y.R a8 YL. a8 _V3 YLR O1 V5 E100,100,90,8,6 b8 _V-3 b16 _V3 > c8. d4 e8 g8 f+8 e8. d8. e8~ e4. _V-3 e8 _V3 < b8 _V-3 b16 _V3 > c8. d4 e8 g8 f+8 e8. d8. e8~ e4 _V-3 e8 _V3 c8 < a8. > e8 _V-3 Y.R e16 _V3 YLR e8~ e4 _V-3 e8 _V3 < a8 g8. > d8 _V-3 Y.R d16 _V3 YLR d8~ d4 _V-3 d8 _V3 < b8 > g8. f8. e8 d8. c8. d8 e2. @1 O2 V6 YLR e24 f+24 g+24 a48. b48. > c48. d48. @@1,1,0 O2 V9 YLR P22,11,4 B4 EP-6,-3,0,3,3 e8. > c8 _V-3 c16 _V3 c8 EPX~ c8. <~ b8. >~ c8 < EP-6,-3,0,3,3 a2 EPX~ d4. _V-3 d8 _V3 EP-6,-3,0,3,3 e8. > d8 _V-3 d16 _V3 d8 EPX~ d8.~ c8. <~ b8 EP-6,-3,0,3,3 a2 EPX~ b4. _V-3 b8 _V3 EP-6,-3,0,3,3 e8. > c8 _V-3 c16 _V3 c8 EPX~ c8. <~ b8. >~ c8 < EP-6,-3,0,3,3 a2 EPX~ d4. _V-3 d8 _V3 EP-6,-3,0,3,3 e8. > d8 _V-3 d16 _V3 d8 EPX~ d8.~ c8. <~ b8 EP-6,-3,0,3,3 a2 EPX @2 O1 V7 YLR E100,100,40,0,5 f+24 a24 > d24 e24 f+24 a24 > d24 e24 f+24 a24 > d24 e24 f+8 @@1,1,0 O3 V9 YLR E100,100,90,8,6 B2 d8 c8 <~ a8 d8 d+16~ d16 > c8 <~ a8~ a2 _V-2 a2 ( Y.R a4 YL. a4 _V3 YLR EP-8,-4,0,5,5 > g8. EPX e8.~ d8 EP-8,-4,0,8,8 e4. _V-2 Y.R EPX e4. ( YL. e4. _V3 YLR EP-8,-4,0,8,8 a2 EPX g16 _V-2 Y.R g16 _V2 YLR d8 e16 _V-2 YL. e16 _V2 YLR EP-8,-4,0,8,8 d+4. _V-2 EPX Y.R d+4. ( YL. d+4. ( Y.R d+4. _V4 YLR EPX f16 <~ f16~ f4 g8 _V-2 Y.R g8 YL. g8 _V2 YLR > EP-12,-6,0,8,8 c4.~ c4 _V-2 EPX Y.R c4 _V2 YLR c16 <~ a+8.~ a+4 _V-3 a+4. 
!3  `9F00 `AE00 @A1 V3 YL. O3 E100,100,40,0,5 D1 r48 e24 g24 a24 > c24 d24 e24 < g24 a24 > c24 d24 e24 g48 D0 @A3 YLR O1 E100,100,60,3,5 a8 g16 e16 d16 e16 c16 d16 [ < a16 > a16 g16 e16 d16 e16 c16 d16 ]7 L O1 [ < a16 > a16 g16 e16 d16 e16 c16 d16 ]8 < [ f16 > c16 < a16 g16 f16 c16 a16 c16 ]2 [ g16 > d16 < b16 a16 g16 d16 b16 d16 ]2 [ < a16 > a16 g16 e16 d16 e16 c16 d16 ]4 [ < a16 > a16 g16 e16 d16 e16 c16 d16 ]8 < [ f16 > c16 < a16 g16 f16 c16 a16 c16 ]2 [ g16 > d16 < b16 a16 g16 d16 b16 d16 ]2 [ f16 > c16 < a16 g16 f16 c16 a16 c16 ]2 f+16 > c16 < a16 g16 f+16 d16 a16 d16 g+16 > d16 < b16 a16 g+16 e16 b16 e16 [ [ < a16 > a16 g16 e16 d16 e16 c16 d16 ]2 H2 ]2 H0 c16 > c16 < a16 g16 e16 g16 d16 e16 c16 > c16 < a16 g16 c16 g16 c16 g16 < a16 > a16 f+16 e16 d16 < a16 > f+16 < a16 b16 > e16 c+16 < b16 b16 b16 b16 b16 O1 [ [ < a16 > a16 g16 e16 d16 e16 c16 d16 ]2 H2 ]2 H0 c16 > c16 < a16 g16 e16 g16 d16 e16 c16 > c16 < a16 g16 c16 g16 c16 g16 < [ d16 > d16 < b16 a16 f+16 d16 a16 d16 < ]2 @A1 O4 V2 YLR B2 D1 r16 r8 d8 c8 <~ a8 d8 d+16~ d16 > c8 <~ a16 @A3 O0 V3 [ f16 > f16 d16 c16 < f16 f16 > c16 < f16 ]8 [ g+16 > g+16 f16 d+16 < g+16 g+16 > d+16 < g+16 ]8 
!4  r2 [ @5 [ [ x16 ]4 ]7 [ x16 ]2 @7 x8 ]2 L [ @5 [ [ x16 ]4 ]7 [ x16 ]2 @7 x8 ]4 @8 x4 @5 [ [ x16 ]4 ]6 [ x16 ]2 @7 x8 [ @5 [ [ x16 ]4 ]7 [ x16 ]2 @7 x8 ]3 [ @8 x4 @5 [ [ x16 ]4 ]6 [ x16 ]2 @7 x8 @5 [ [ x16 ]4 ]7 [ x16 ]2 @7 x8 ]2 @8 x4 r4 @18 x2 [ @5 [ [ x16 ]4 ]7 [ x16 ]2 @7 x8 ]4 
!5  @61 V0 O1 e24 g24 a24 > c24 d24 e24 < g24 a24 > c24 d24 e24 g24 YLR O2 [ [ V1 @0 c8 @32 V0 c8 @24 V1 c8 @32 V0 c8 ]3 V1 @0 c8 @32 V0 c8 V1 @24 [ c16 ]2 @32 V0 c8 V1 ]2 L [ [ V1 @0 c8 @32 V0 c8 @24 V1 c8 @32 V0 c8 ]3 V1 @0 c8 @32 V0 c8 V1 @24 [ c16 ]2 @32 V0 c8 V1 ]4 [ [ V1 @0 c8 @32 V0 c8 @24 V1 c8 @32 V0 c8 ]3 V1 @0 c8 @32 V0 c8 V1 @24 [ c16 ]2 @32 V0 c8 V1 ]4 [ V1 @0 c16 @32 V0 c16 @24 V1 c16 @32 V0 c16 ]14 V1 @0 c16 @32 V0 c16 V1 @24 [ c16 ]2 V1 @0 c16 @32 V0 c16 @24 V1 c16 @32 V0 c16 [ V1 @0 c16 @32 V0 c16 @24 V1 c16 @32 V0 c16 ]14 [ V1 @0 c16 @32 V0 c16 ]2 V1 @24 c16 @32 V0 c16 V1 @24 [ c16 ]2 [ V1 @0 c16 @32 V0 [ c16 ]3 ]4 [ V1 @0 c16 @32 V0 c16 @24 V1 c16 @32 V0 c16 ]30 V1 @0 c16 @24 V1 c16 @32 V0 c16 @24 V1 c16 @24 V1 c16 @32 V0 c16 @24 V1 [ c16 ]2 
!6  @61 V0 O2 e24 g24 a24 > c24 d24 e24 < g24 a24 > c24 d24 e24 g24 @9 O1 [ YLR V1 e8. g8. > d4. Y.R V0 d4. YL. d4. Y.R d4 YL. d4 < ]2 L @57 W0,100,1 O0 V1 YLR b8. > c8. d4 e8 g8 f+8 e8. d8. e8~ e4. V0 e8 V1 < b8. > c8. d4 e8 g8 f+8 e8. d8. e8~ e4 V0 e8 V1 c8 < a8. > e8 V0 Y.R e16 V1 YLR e8~ e4~ e8 < a8 g8. > d8 V0 Y.R d16 V1 YLR d8~ d4~ d8 < b8 a1 @9 O1 YLR V1 > EP-20,-10,0,10,10 c4. V0 Y.R c4. YL. c4 V1 YLR EPX @57 W0,100,1 O0 V1 YLR b8. > c8. d4 e8 g8 f+8 e8. d8. e8~ e4. V0 e8 V1 < b8. > c8. d4 e8 g8 f+8 e8. d8. e8~ e4 V0 e8 V1 c8 < a8. > e8 V0 YL. e16 V1 YLR e8~ e4~ e8 < a8 g8. > d8 V0 YL. d16 V1 YLR d8~ d4~ d8 < b8 > g8. f8. e8 d8. c8. d8 e2. @43 W0,91,11 O0 YLR e24 f+24 g+24 a48. b48. > c48. d48. O1 V1 YLR e1 f+1 g1 a2 g+2 a2 e2 f+1 g1 a2 @28 O0 V1 YLR f+24 a24 > d24 e24 f+24 a24 > d24 e24 f+24 a24 > d24 e24 @46 W0,100,24 O3 V1 B2 H-9 f+16~ f16~ e16~ d+16~ d16~ c+16~ c16 <~ b16~ a+16~ a16~ g+16~ g16~ f+16~ f16~ e16~ d+16 H0 @40 W0,95,1 O1 YLR [ f12 > c12 < ]3 Y.R [ f12 > c12 < ]3 H2 YLR [ f12 > c12 < ]3 YL. [ f12 > c12 < ]3 H0 YLR [ a12 > e12 < ]3 Y.R [ a12 > e12 < ]3 H-2 YLR [ a12 > e12 < ]3 YL. [ a12 > e12 < ]3 H0 YLR [ g+12 > d+12 < ]3 Y.R [ g+12 > d+12 < ]3 H2 YLR [ g+12 > d+12 < ]3 YL. [ g+12 > d+12 < ]3 H0 > YLR [ c12 g12 ]3 Y.R [ c12 g12 ]3 H-2 YLR [ c12 g12 ]3 YL. [ c12 g12 ]3 H0 
