;024 001EA8F8
!1  T190 _4 r4 B2 B2 @@0,3,2 E100,70,70,2,0 P14,8,4 O1 V4 e16 r16 L O0 D0 YLR V4 < @@1,3,0 E100,70,70,2,0 P14,8,8 b8 > c+8 d8 e8 d8 c+8 f+8 e8 d8 a8 g8 f+8 b8 a8 g8 EP-2,0,0,2,0 @@1,2,0 E80,100,80,2,7 V8 O2 g+8 V4 Y.R g+8 V4 O2 @@1,3,0 EX EPX P10,8,2 D-1 r32 Y.R g+8 g+8 g+8 a8~ a8 b8~ b8 V2 b8 V4 a4 g+4 e4 YL. f+4 V2 f+8 V4 d8 d2~ d8 O3 @1 V2 YL. a16 V1 Y.R f+16 V2 YL. f+16 V1 Y.R a16 V2 YL. d16 V1 Y.R f+16 V2 YL. a16 V1 Y.R d16 V2 YL. f+16 V1 Y.R a16 V2 YL. d16 V1 Y.R f+16 V2 YL. < V2 YL. a16 V1 Y.R > d32 EP-2,0,0,2,0 @@1,2,0 E80,100,80,2,7 V8 O2 g+8 V4 Y.R g+8 V4 O2 @@1,3,0 EX EPX P10,8,2 D-1 r32 Y.R e8 e8 e8 f+8~ f+8 g+8~ g+8 a8~ a8 b8~ b8 > e8~ e8 V4 f+8~ f+2. V2 f+8 V1 f+16. D0 @@1,3,0 E100,70,70,2,0 P14,8,8 < YLR V3 f+8 V4 f+8 g8 a8 b8 a8 g8 f+8 EP-2,0,0,2,0 @@1,2,0 E80,100,80,2,7 V8 O2 g+8 V4 Y.R g+8 V4 O2 @@1,3,0 EX EPX P10,8,2 D-1 r32 Y.R g+8 g+8 g+8 a8~ a8 b8~ b8 V2 b8 V4 a4 g+4 e4 YL. f+4 V2 f+8 V4 d8 d2~ d8 O3 @1 V2 YL. a16 V1 Y.R f+16 V2 YL. f+16 V1 Y.R a16 V2 YL. d16 V1 Y.R f+16 V2 YL. a16 V1 Y.R d16 V2 YL. f+16 V1 Y.R a16 V2 YL. d16 V1 Y.R f+16 V2 YL. < V2 YL. a16 V1 Y.R > d32 D0 @@1,3,0 E100,70,50,2,0 EPX P10,8,2 YLR V7 O1 g4. > c4. < g4 a4. > d4 d8 e8 f+8 g+2.~ g+8 V4 g+4 @@1,3,0 E100,70,70,2,0 P14,8,8 O1 b8 > d8 < b8 a8 f+8 b8 g8 YLR V4 O3 @@1,3,0 E100,70,50,2,0 EPX P10,8,2 Y.R D-1 r32 r4 c4 < a4 a4 b4 b4 a4 b4 > d2 < g4 b4 > c2 V2 c4 V4 c4 YL. r4 c4 < a4 a4 b4 b4 a4 g4 e2 e4 e4 >~ e2 V2 e4 r4 V4 Y.R r4 c4 < a4 a4 b4 b4 a4 b8.~ b32 YLR V6 D0 > c2 < b2 a4. V3 a8 V6 a4 V3 g4 V6 f2 a2 g2 > d2 < g+1 YLR EP-2,0,0,2,0 @@1,2,0 E80,100,80,2,7 b8 b8 r2. YLR V6 O2 @@1,3,0 E100,70,50,2,0 EPX P10,8,2 a4. > c4. e8 d8~ d4. < a4. > d8 d8~ d4. < a4. > d8 c8~ c4 < b8 a8 V3 a8 V6 g+8 a8 b8 a4. > c4. e8 f+8~ f+4. d4. < a8 a8~ a8 V3 a8 V6 a8 V3 a8 V6 b8 V3 b8 V6 a8 g+8~ g+2 g+4. V3 g+8 V6 a4. > c4. e8 d8~ d4. < a4. > d8 d8~ d4. < a4. > d8 c8~ c4 < b8 a8 V3 a8 V6 g+8 a8 b8 EP-3,0,0,14,0 a2.~ a8 EPX g8~ g4. V3 g8 V6 b8 > d8 V3 d8 V6 c+8~ c+2. V3 c+8 B2 @@0,3,2 E100,70,70,2,0 P14,8,4 D-1 r32 O1 a8~ V3 YL. a8 a8 > e8 < a8 > d8~ c+8 < b8 < g8 @@0,3,2 E100,70,70,2,0 P14,8,4 O2 Y.R V6 e8 e8 g8 e8 > EP0,0,-20,7,3 e4 < EPX g8 e8~ e8 YL. V2 e8 V6 g8 e8 > EP0,0,-17,7,3 d4 < EPX g8 e8~ e8 Y.R V2 e8 V6 g8 e8 > c8 < b8 g8 e8~ e8 YL. V2 e8 V6 g8 e8 d8 < b8 > d+4 Y.R V4 e8 e8 V6 g8 e8 > e8 d8 < g8 e8~ e8 YL. V2 e8 V6 g8 e8 > d8 c+8 < g8 e8~ e8 Y.R V2 e8 V6 g8 e8 > c8 < b8 g8 e8~ V2 e16. 
!2  _4 B2 r4 @@1,1,3 `EC00 P14,7,2 E100,70,70,2,0 EP1,0,0,1,0 O1 V4 b16 r16 L EP-2,0,0,1,0 @@1,3,0 E100,70,70,2,0 P14,8,8 O1 e8 f+8 g8 a8 g8 f+8 b8 a8 g8 > c+8 < b8 a8 > d8 c+8 < b8 EP-4,0,0,2,0 @@1,2,0 E80,100,80,2,7 V12 O3 e8 V6 Y.R e8 YLR V9 O2 @@1,3,0 E100,70,50,2,0 EPX P10,8,2 g+8 g+8 g+8 a8~ a8 b8~ b8 V4 b8 V9 a4 g+4 e4 f+4 V4 f+8 V9 d8 d2~ d2 V4 d4 V2 d8 r8 EP-4,0,0,2,0 @@1,2,0 E80,100,80,2,7 V12 O3 e8 V6 YL. e8 YLR V9 O2 @@1,3,0 E100,70,50,2,0 EPX P10,8,2 e8 e8 e8 f+8~ f+8 g+8~ g+8 a8~ a8 b8~ b8 > e8~ e8 V9 f+8~ f+2. V4 f+4 V2 f+8 EP-2,0,0,1,0 @@1,3,0 E100,70,70,2,0 P14,8,8 O1 V4 d8 e8 f+8 g8 f+8 e8 d8 EP-4,0,0,2,0 @@1,2,0 E80,100,80,2,7 V12 O3 e8 V6 Y.R e8 YLR V9 O2 @@1,3,0 E100,70,50,2,0 EPX P10,8,2 g+8 g+8 g+8 a8~ a8 b8~ b8 V4 b8 V9 a4 g+4 e4 f+4 V4 f+8 V9 d8 d2~ d2 V4 d4 V2 d8 r8 @@1,3,0 E100,70,50,2,0 EPX P10,8,2 V9 O2 c4. g4. c4 d4. a4 f+8 g8 a8 b2.~ r8 V4 b4 EP-2,0,0,1,0 @@1,3,0 E100,70,70,2,0 P14,8,8 O2 e8 g8 e8 d8 < b8 > e8 d8 YLR V9 O3 @@1,3,0 E100,70,50,2,0 EPX P10,8,2 r4 c4 < a4 a4 b4 b4 a4 b4 > d2 < g4 b4 > c2 V4 c4 V9 c4 r4 c4 < a4 a4 b4 b4 a4 g4 e2 e4 e4 >~ e2 V4 e4 r4 V9 r4 c4 < a4 a4 b4 b4 a4 b4 > e2 d2 c4. V4 c8 V9 c4 < b4 a2 > d2 < b4 b4 > g2 e1 EP-2,0,0,2,0 @@1,2,0 E80,100,80,2,7 e8 e8 r2. YLR V9 O3 @@1,3,0 E100,70,50,2,0 EPX P10,8,2 c4. e4. g8 f+8~ f+4. d4. f+8 f8~ f4. d4. f8 e8~ e4 d8 c8 V4 c8 V9 < b8 > c8 d8 c4. e4. g8 a8~ a4. f+4. d8 c8~ c8 V4 c8 V9 c8 V4 c8 V9 d8 V4 d8 V9 c8 EP-3,0,0,10,0 e8~ e2. EPX~ e8 V4 e8 V9 c4. e4. g8 f+8~ f+4. d4. f+8 f8~ f4. d4. f8 e8~ e4 d8 c8 V4 c8 V9 < b8 > c8 d8 EP-8,0,0,14,0 c2.~ c8 EPX d8~ d4. V4 d8 V9 e8 g8 V4 g8 V9 a8~ a2. V4 a8 @@1,1,3 `EC00 P14,7,2 E100,70,70,2,0 EP1,0,0,1,0 O1 V5 EP-9,0,0,14,0 a8~ a8 EP1,0,0,1,0 _V-2 a8 _V2 > e8 _V-2 < a8~ EP-6,0,0,3,0 _V2 > d8~ EPX @3 EX V6~ c+8 @@1,1,3 E100,70,70,2,0 EP1,0,0,1,0 < b8 < _V2 g8 @@1,1,3 `EC00 P14,7,2 E100,70,70,2,0 EP1,0,0,1,0 O2 V8 EP-9,0,0,14,0 e8 EP1,0,0,1,0 _V-2 e8 _V2 g8 _V-2 e8 EP-6,0,0,3,0 _V2 > e8 EPX @3 EX V6~ d8 @@1,1,3 E100,70,70,2,0 EP1,0,0,1,0 < g8 _V2 EP-9,0,0,14,0 e8~ e8 EP1,0,0,1,0 _V-2 e8 _V2 g8 _V-2 e8 EP-6,0,0,3,0 _V2 > d8 EPX @3 EX V6~ c+8 @@1,1,3 E100,70,70,2,0 EP1,0,0,1,0 < g8 _V2 EP-9,0,0,14,0 e8~ e8 EP1,0,0,1,0 _V-2 e8 _V2 g8 _V-2 e8 EP-6,0,0,3,0 _V2 > c8 EPX @3 EX V6~ < b8 @@1,1,3 E100,70,70,2,0 EP1,0,0,1,0 g8 _V2 EP-9,0,0,14,0 e8~ e8 EP1,0,0,1,0 _V-2 e8 _V2 g8 _V-2 e8 EP-6,0,0,3,0 _V2 d8 EPX @3 EX V6 <~ b8 @@1,1,3 E100,70,70,2,0 EP1,0,0,1,0 > V8 d+4 e8 EP1,0,0,1,0 _V-2 e8 _V2 g8 _V-2 e8 EP-6,0,0,3,0 _V2 > e8 EPX @3 EX V6~ d8 @@1,1,3 E100,70,70,2,0 EP1,0,0,1,0 < g8 _V2 EP-9,0,0,14,0 e8~ e8 EP1,0,0,1,0 _V-2 e8 _V2 g8 _V-2 e8 EP-6,0,0,3,0 _V2 > d8 EPX @3 EX V6~ c+8 @@1,1,3 E100,70,70,2,0 EP1,0,0,1,0 < g8 _V2 EP-9,0,0,14,0 e8~ e8 EP1,0,0,1,0 _V-2 e8 _V2 g8 _V-2 e8 EP-6,0,0,3,0 _V2 > c8 EPX @3 EX V6~ < b8 @@1,1,3 E100,70,70,2,0 EP1,0,0,1,0 g8 _V2 EP-9,0,0,14,0 e8~ e8 
!3  _4 r4 `9F00 @A3 @B0 @~3 P14,8,12 O0 V3 b16. r32 L O0 V3 e8 f+8 g8 a8 g8 f+8 b8 a8 g8 > c+8 < b8 a8 > d8 c+8 < b8 V3 O0 e8 e8 g+8 e8 b8 a8 g+8 e8~ e8 e8 g+8 e8 b8 a8 g+8 e8 d8 d8 f+8 d8 a8 g8 f+8 d8~ d8 d8 f8 d8 a8 g8 f+8 d8 O0 e8 e8 g+8 e8 b8 a8 g+8 e8~ e8 e8 g+8 e8 b8 a8 g+8 e8 d8 d8 f+8 d8 a8 g8 f+8 d8~ d8 > d8~ e8~ f+8~ g8~ f+8~ e8~ d8 O0 e8 e8 g+8 e8 b8 a8 g+8 e8~ e8 e8 g+8 e8 b8 a8 g+8 e8 d8 d8 f+8 d8 a8 g8 f+8 d8~ d8 d8 f8 d8 a8 g8 f+8 d8 O0 c8 c8 c8 c8 c8 g8 c8 d8~ d8 d8 f+8 d8 a8 g8 f+8 e8~ e8 e8 g+8 e8 b8 a8 g+8 e8 O1 e8 e8 g8 e8 d8 < b8 > e8 d8 O0 V3 c4 r8 f4 c8 f4 g4 r8 g4 > d8 < g4 e4 r8 e4 b8 e4 a4 r8 a8 r8 a8 g4 f4 r8 f4 c8 f4 g4 r8 g4 > d8 < g4 e4 r8 e4 b8 e4 a4 r8 a8 r8 > c+8 g4 < f4 r8 f4 c8 f4 g4 r8 g4 > d8 < g4 a2 b2 > c2 < e2 f4 c8 f4 c8 f8 c8 g4 d8 g4 d8 g8 d8 g+4 e8 g+4 e8 g+8 b8 e16 r16 e8 r2. V3 a8 a8 > c8 < a8 > a8~ g8 V2 c8 < V3 a8~ a8 a8 > c8 < a8 > g8~ f+8 V2 c8 < V3 a8~ a8 a8 > c8 < a8 > f8~ e8 V2 c8 < V3 a8~ a8 a8 > c8 < a8 > e8~ d8 V2 c8 V3 g8 < V3 a8 a8 > c8 < a8 > a8~ g8 V2 c8 < V3 a8~ a8 a8 > c8 < a8 > g8~ f+8 V2 c8 < V3 a8~ a8 a8 > c8 < a8 > f8~ e8 V2 c8 < V3 b8~ b8 b8 > d8 < b8 > e8 < b8 > V3~ g+4 < V3 a8 a8 > c8 < a8 > a8~ g8 V2 c8 < V3 a8~ a8 a8 > c8 < a8 > g8~ f+8 V2 c8 < V3 a8~ a8 a8 > c8 < a8 > f8~ e8 V2 c8 < V3 a8~ a8 a8 > c8 < a8 > e8~ d8 V2 c8 V3 g8 < V3 f8 f8 > c8 < f8 b8 >~ c8 V2 < f8 V3 g8~ g8 g8 > d8 < g8 > c8~ d8 V2 < g8 V3 a8~ a8 a8 > e8 < a8 > g8~ a8 V2 c+8 < V3 a8~ a8 a8 > e8 < a8 > d8~ c+8 < b8 < g8 > V3 e8 e8 e8 e8 e8 e8 V2 e8 V3 d8~ d8 d8 d8 d8 d8 d8 V2 d8 V3 c8~ c8 c8 c8 c8 c8 c8 c8 < b8~ b8 b8 b8 b8 V2 b8 V3 b8 > V3~ d+4 V3 e8 e8 e8 e8 e8 e8 V2 e8 V3 d8~ d8 d8 d8 d8 d8 d8 V2 d8 V3 c8~ c8 c8 c8 c8 c8 c8 V2 c8 O0 V3 b8~ b8 
!4  r8. @5 x16 @8 Y.R x8 YLR L YLR @5 x4 x4 x4 x4 x4 x4 x4 x8 @8 x4 [ @5 x8 @6 x8 ]2 x8 @7 x8~ x8 @6 x8 [ @5 x8 @6 x8 ]3 [ @5 x8 @6 x8 ]3 x8 @7 x8~ x8 @6 x8 [ @5 x8 @6 x8 ]3 @8 x4 [ @5 x8 @6 x8 ]2 x8 @7 x8~ x8 @6 x8 [ @5 x8 @6 x8 ]3 [ @5 x8 @6 x8 ]3 x8 @8 x8~ x8 @5 x8 [ r8 x8 ]3 @8 x4 [ @5 x8 @6 x8 ]2 x8 @7 x8~ x8 @6 x8 [ @5 x8 @6 x8 ]3 [ @5 x8 @6 x8 ]3 x8 @7 x8~ x8 @6 x8 [ @5 x8 @6 x8 ]3 Y.R [ @8 x4 YLR @7 x4 x4 x4 YL. ]2 YLR @8 x4 YLR @7 x4 x4 Y.R @8 x4 YLR @8 x4. @5 x4 x4 x8 [ @8 x4. @6 x8 [ @5 x8 @6 x8 ]2 @5 x8 @6 x8 @5 x8 @7 x8 [ @5 x8 @6 x8 ]2 [ @5 x8 @6 x8 ]5 @5 x8 @7 x8 @5 x8 @6 x8 @7 x4 ]2 @8 x4. @6 x8 [ @5 x8 @6 x8 ]2 @5 x8 @6 x8 @5 x8 @7 x8 [ @5 x8 @6 x8 ]2 Y.R [ @8 x4. YLR @6 x8 YL. ]2 Y.R @8 x4. YLR @6 x4 x4 x8 @8 YL. x4 @7 YLR x4 x4 x4 Y.R @8 x4 YLR @7 x4 x4 @8 x4 @6 r8 x4 x4 x4 x8 @8 Y.R x8 YL. x8 YLR @18 x2. @8 x4 @7 x4 x4 x8 Y.R @8 x8~ x4 @7 YLR x4 x4 x8 YL. @8 x8~ x4 @7 YLR x4 x4 x8 Y.R @8 x8~ x4 @7 YLR @5 x8 @6 x8 x4 @5 x8 YLR @8 x8 @8 x4 @7 x4 x4 x8 Y.R @8 x8~ x4 @7 YLR x4 x4 x8 YL. @8 x8~ x4 YLR @7 x4 @5 x8 @6 x8 @5 x8 Y.R @8 x8~ x4 @7 YLR x4. @6 x8 @7 x8 r16 @8 YL. x16 Y.R @8 x4 YLR @7 x4 x4 x8 Y.R @8 x8~ x4 @7 YLR x4 x4 x8 YL. @8 x8~ x4 @7 YLR x4 x4 x8 Y.R @8 x8~ x4 @7 YLR @5 x8 @6 x8 x4 @5 x8 YLR @8 x8 Y.R @8 x4 YLR @5 x8 @6 x8 @7 x8 @5 x4 YL. @8 x8~ x4 YLR @7 x4 @6 x4 x8 Y.R @8 x8~ x4 YLR @7 x4 @5 x8 @6 x8 @5 x8 @13 x8~ x2. @8 x4 @8 x4. @6 x8 @5 x8 @6 x8 @5 x8 @7 Y.R x8~ x8 YLR @6 x8 [ @5 x8 @6 x8 ]2 @5 x8 @7 YL. x8~ x8 YLR @6 x8 [ @5 x8 @6 x8 ]2 @5 x8 @7 Y.R x8~ x8 YLR @6 x8 [ @5 x8 @6 x8 ]2 @7 x4 @8 x4. @6 x8 @5 x8 @6 x8 @5 x8 @7 Y.R x8~ x8 YLR @6 x8 [ @5 x8 @6 x8 ]2 @5 x8 @7 YL. x8~ x8 YLR @6 x8 [ @5 x8 @6 x8 ]2 @5 x8 @8 YLR x8~ x8 
!5  V1 @1 c64 c64~ c16. c16 c16 @0 V1 O2 c8 L YLR @1 V1 c16 V0 c16 V1 c64 c64~ c16. @2 < YL. f8 > YLR @1 V1 c16 V0 c16 V1 @2 Y.R c8 < YL. g+8 > YLR @1 V1 c16 @2 Y.R c16 YLR V1 < g+8 YL. f8 > YLR @1 V1 c16 V0 c16 V1 c8 V0 c8 V1 c64 c64~ c16. V0 c16 c16 V1 c16 c16 [ @0 c4 @1 c4 @0 c8 c8 @1 c8 @0 c8~ c8 c8 @1 c8 @0 c8 @0 c4 @1 c8 @0 c8 ]3 @0 c4 @1 c4 @0 c8 c8 @1 c8 @0 c8~ c8 @1 c8 c8 c8 c64 c32~ c64 c16 @2 Y.R c8 < YLR g+8 YL. f8 > YLR [ @0 c4 @1 c4 @0 c8 c8 @1 c8 @0 c8~ c8 c8 @1 c8 @0 c8 @0 c4 @1 c8 @0 c8 ]2 @0 c4 @1 c4 @0 c8 c8 @1 c4 @0 c4 @1 c4 @0 c8 c8 @1 c8 c16 c16 @0 c4 @1 c4 @0 c8. c32 c32 @1 c4 @1 c8 Y.R @2 c8 YL. < f8 f8 > YLR @1 c8 c16 V0 c16 V1 c16 c16 @2 YL. < f8 > YLR V1 [ @0 c4. c8 @1 c4. @0 c8 ]3 @0 c4. c16 c16 @1 c4 c8 @0 c8 [ @0 c4. c8 @1 c4. @0 c8 ]3 @0 c4. c16 c16 @1 c8 c8 c8 c8 @0 c4. c8 @1 c4. @0 c8 @0 c4. c8 @1 c4. @1 V0 c16 c16 @0 c4. V0 c16 V1 c16 @1 c4. V0 c16 V1 c16 @0 c4. @0 V0 c16 V1 c16 r8 @1 c32 c32~ c16 c32 c32~ c16 @2 YL. < f8 > YLR @0 c4 @1 c4 @0 c8 c8 @1 c4 @0 c8 c8 @1 c8 @0 c4 c8 @1 c8 @0 c8 @1 c16 c16 c8 c8 @2 Y.R c16 c16 c8 < YL. f8 f8. > @0 YLR c32 c32 @1 c8 c8 r2 @2 < YL. f32 f32~ f16~ f8 YLR O2 @0 c4 @1 c4 @0 c8 c8 @1 c8 @0 c8~ c8 c8 @1 c4 @0 c8 c8 @1 c8 @0 c8~ c4 @1 c4 @0 c8 c8 @1 c8 @0 c8~ c8 c8 @1 c4 @0 c8 c8 @1 c8 @1 c16 c16 @0 c4 @1 c4 @0 c8 c8 @1 c8 @0 c8~ c8 c8 @1 c4 @0 c8 c8 @1 c8 @0 c8~ c4 @1 c4 @0 c8 c8 @1 c8 @0 c8~ c8 c8 @1 c8 @0 c8 @1 c8 @0 c16 c16 @1 c16 c16 @2 YL. < f16 > YLR @0 V0 c16 V1 @0 c4 @1 c4 @0 c8 c8 @1 c8 @0 c8~ c8 c8 @1 c4 @0 c8 c8 @1 c8 @0 c8~ c4 @1 c4 @0 c8 c8 @1 c8 @0 c8~ c8 c8 @1 c4 @0 c8 c8 @1 c8 @1 c16 c16 @0 c4 @1 c4 c8. c16 @0 c8 @0 c8~ c4 @1 c4 c8 @2 Y.R c24 YLR < g+24 YL. f24 > YLR @0 c8 @0 c8~ c4 @1 c4 c8. c16 @0 c8 @0 c16 c16 V1 @1 c16 c16 c16 c16 @0 c16 c16 @2 Y.R c16 c16 YLR < a16 YL. f16 > YLR @0 c16 c16 @1 c4 O2 V1 @0 c4 @1 c4 @0 c8 c8 @1 c8 @0 c8~ c8 c8 @1 c4 @0 c8 c8 @1 c8 @0 c8~ c4 @1 c4 @0 c8 c8 @1 c8 @0 c8~ c8 c8 @1 c4 @0 c8 c16 c16 @1 c8 c16 c16 O2 V1 @0 c4 @1 c4 @0 c8 c8 @1 c8 @0 c8~ c8 c8 @1 c4 @0 c8 c8 @1 c8 @0 c8~ c4 @1 c4 @0 c8 c16 c16 @1 c8 @2 Y.R c32 c32~ c16 YLR @0 c8 
!6  O2 V0 D-1 _0 r4 D0 _4 @8 YLR V1 O1 YLR e8 O1 @56 YLR V1 e8 f+8 g8 a8 g8 f+8 b8 a8 g8 > c+8 < b8 a8 > d8 c+8 < b8 L @8 O1 e6 @53 O2 V0 Y.R g+6 YL. g+6 [ O2 YLR g+6 V0 Y.R g+6 YL. g+6 ]3 V1 [ O2 YLR f+6 V0 Y.R f+6 YL. f+6 ]2 V0 O2 YLR f+8 @40 W0,97,0 O2 V1 a16 V0 f+16 V1 f+16 V0 a16 V1 d16 V0 f+16 V1 a16 V0 d16 V1 f+16 V0 a16 V1 d16 V0 f+16 V1 < V1 a16 V0 > d16 @8 O1 V1 e6 @53 O2 V0 Y.R g+6 YL. g+6 [ O2 YLR g+6 V0 Y.R g+6 YL. g+6 ]3 V1 [ O2 YLR f+6 V0 Y.R f+6 YL. f+6 ]2 V0 O2 YLR f+8 @21 O1 V1 d8 e8 f+8 g8 f+8 e8 d8 @8 O1 e6 @53 O2 V0 Y.R g+6 YL. g+6 [ O2 YLR g+6 V0 Y.R g+6 YL. g+6 ]3 V1 [ O2 YLR f+6 V0 Y.R f+6 YL. f+6 ]2 V0 O2 YLR f+8 @40 W0,97,0 O2 V1 a16 V0 f+16 V1 f+16 V0 a16 V1 d16 V0 f+16 V1 a16 V0 d16 V1 f+16 V0 a16 V1 d16 V0 f+16 V1 < V1 a16 V0 > d16 @8 O1 V1 c6 @53 O2 V0 Y.R e6 YL. e6 O2 YLR e6 V0 Y.R e6 YL. e6 YLR @8 O1 V1 d6 @53 O2 V0 YL. f+6 YL. f+6 O2 YLR f+6 V0 Y.R f+6 YL. f+6 YLR @8 O1 V1 e6 @53 O2 V0 Y.R g+6 YL. g+6 O2 YLR g+6 V0 Y.R g+6 YL. g+6 O0 @8 YLR V1 e12. O1 @21 V0 e8 V1 g8 e8 d8 < b8 > e8 d8 @40 W0,97,0 V1 O2 c1 d1 < b1 > c1 c1 d1 < b1 > c2 < b2 a1 b2. a4 g2 g+2 a1 @19 V1 O3 Y.R [ c16 < a16 f16 c16 a16 f16 c16 < f16 > ]2 O3 YL. [ d16 < b16 g16 d16 b16 g16 d16 < g16 > ]2 O0 Y.R e16 g+16 b16 > d16 < YL. g+16 b16 > d16 e16 Y.R < b16 > d16 e16 g+16 YL. b16 e16 g+16 b16 YLR @3 O2 e16. r32 e8~ e2. @21 YLR O1 [ V1 a8 V0 a16 a16 ]3 V1 a8 g8~ g8 V0 g16 g16 [ V1 g8 V0 g16 g16 ]2 V1 g8 f8~ f8 V0 f16 f16 [ V1 f8 V0 f16 f16 ]2 V1 f8 e8~ e8 V0 e16 e16 [ V1 e8 V0 e16 e16 ]3 [ V1 a8 V0 a16 a16 ]3 V1 a8 > c8~ c8 V0 c16 c16 [ V1 c8 V0 c16 c16 ]2 V1 c8 d8~ d8 V0 d16 d16 [ V1 d8 V0 d16 d16 ]2 d8 e8~ e8 V0 e16 e16 [ V1 e8 V0 e16 e16 ]2 V1 g+4 < [ V1 a8 V0 a16 a16 ]3 V1 a8 g8~ g8 V0 g16 g16 [ V1 g8 V0 g16 g16 ]2 V1 g8 f8~ f8 V0 f16 f16 [ V1 f8 V0 f16 f16 ]2 V1 f8 e8~ e8 V0 e16 e16 [ V1 e8 V0 e16 e16 ]3 [ V1 f8 V0 f16 f16 ]3 V1 f8 g8~ g8 V0 g16 g16 V1 g8 V0 g16 g16 @3 O1 V1 e8 g8. r16 a8~ a6 V0 Y.R a6 YLR r6 r2 O2 V0 r32 O2 V0 D-1 _0 Y.R @1 c16 YL. c16 Y.R c16 YL. c16 @0 Y.R c16 YL. c16 YL. @2 c16 c16 < a16 Y.R f16 > Y.R @0 c16 YL. c16 YLR V1 @1 c8. r32 D0 _4 @8 YLR V1 O1 e12~ e24 @21 YLR O2 V0 e8 [ V1 e8 V0 e8 ]2 V1 e8 @8 O1 YLR V1 d12~ d24~ d24 Y.R d12 O2 @21 YLR V0 d8 [ V1 d8 V0 d8 ]2 V1 d8 @8 O1 YLR V1 c12~ c24~ c24 YL. c12 O2 @21 YLR V0 c8 [ V1 c8 V0 c8 ]2 V1 c8 O0 @8 YLR V1 b12~ b24~ b24 Y.R b12 O1 @21 YLR V0 b8 [ V1 b8 V0 b8 ]2 V1 > d+4 O1 @8 YLR V1 e12~ e24 O2 @21 YLR V0 e8 [ V1 e8 V0 e8 ]2 V1 e8 @8 O1 YLR V1 d12~ d24~ d24 YL. d12 O2 @21 YLR V0 d8 [ V1 d8 V0 d8 ]2 V1 d8 O1 @8 YLR V1 c12~ c24~ c24 Y.R c12 @21 YLR V0 O2 c8 [ V1 c8 V0 c8 ]2 V1 c8 < O0 @8 YLR V1 b12~ b24~ b24 YL. b12 O1 @56 YLR V1 e8 f+8 g8 a8 g8 f+8 b8 a8 g8 > c+8 < b8 a8 > d8 c+8 < b8 
