;025 001EC182
!1  T152 _1 L @@0,2,1 O3 YLR V6 E100,100,90,14,7 P14,10,3 a8 b8 > c16 r16 < b4 a8 g16 r16 f4 g8 a16 r16 g4 f16 r16 e16 r16 d8~ d2.~ d16 r16 ) c+8~ c+2. _V-3 c+4 @@0,1,2 O3 D1 r16 V5 c4 _V-2 c8 _V2 < b16 > c16 d8 c8 < b8 g8~ g2 _V-2 Y.R g8 YL. g16 D0 _V2 YLR < b8 > e8 f4 _V-2 f8 _V2 a4. _V-2 Y.R a8 _V2 YLR a16 b16 > c4 d16 _V-2 YL. d16 _V2 < YLR b8~ b4 _V-2 Y.R b8 YL. b8 _V2 YLR O3 D1 r16 V5 c4 _V-2 c8 _V2 < b16 > c16 d8 c8 < b8 g8~ g2 _V-2 Y.R g8 YL. g16 D0 _V2 YLR < b8 > e8 f4 _V-2 f8 _V2 a4. _V-2 Y.R a8 _V2 YLR a16 b16 > c8 d8 e16 _V-2 YL. e16 _V2 YLR < b8~ b4 _V-2 Y.R b8 YL. b8 _V2 @@0,2,1 V5 O3 YLR E100,100,90,14,7 d+4. d16 r16 d4 c8 < a+8~ a+4 > c4 d4 f4 g4. d8 _V-2 Y.R d8 YL. d8 _V2 YLR c4~ c2 @2 O1 V6 YLR g+32 Y.R g+32 > YLR d+32 YL. d+32 YLR g+32 Y.R g+32 > YLR d+32 YL. d+32 YLR g+32 Y.R g+32 YLR d+32 YL. d+32 @@0,2,1 V5 O3 YLR D1 r32 c16 d16 d+2~ d+8 _V-2 Y.R d+8 _V2 YLR d12 d+12 f12 f+4 d+4 d4 c8. r32 D0 _V3 c2.~ c8 d16 c16 < b1 > r2. @@0,3,1 V7 YLR [ d24 r24 Y.R ]2 YL. d24 r24 @@0,3,2 O3 V6 YLR P14,10,2 [ e4 _V-3 e8 _V3 ]2 e4 g4. d8~ d4 _V-3 Y.R d8 YL. d8 _V3 YLR f8 g8 a8 g4 < b8 > d16 r16 e8~ e2. _V-3 Y.R e8 YL. e8 _V3 YLR [ d4 _V-3 d8 _V3 ]2 d4 c4. e8~ e4 _V-3 Y.R e8 YL. e8 _V3 YLR d8 e8 d8 c8 _V-3 c8 _V3 d8 c8 < b4 _V-3 b8 _V3 b8 > c8 _V-3 c8 _V3 d4 _V-3 d8 _V3 O3 [ e4 _V-3 e8 _V3 ]2 e4 g4. d8~ d4 _V-3 Y.R d8 YL. d8 _V3 YLR c8 d8 e8 d4 e8 f8 g8~ g2. _V-3 Y.R g8 _V3 YLR b16 > c16 d8 c8 < a+16 r16 a+8~ a+4 _V-3 a+8 _V3 a+8 > c8 < b8 a16 r16 a8~ a4 _V-3 Y.R a8 YL. a8 _V3 YLR a4 _V-3 Y.R a8 YL. a8 _V3 YLR f6 g6 a6 g4 r4 d8 _V-3 d8 _V3 d16 r16 d8~ d1 c+2. _V-3 Y.R c+8 YL. c+8 
!2  _1 L @@0,2,1 O3 YLR V8 E100,100,90,14,7 P14,10,3 c8 d8 e16 r16 d4 c8 < b16 r16 a4 b8 > c16 r16 < b4 a16 r16 g16 r16 a8 E50,70,100,36,36 a1~ a2. _V-3 E100,100,90,14,7 a4 @@0,1,2 O3 V8 c4 _V-3 c8 _V3 < b16 > c16 d8 c8 < b8 g8~ g2 _V-3 Y.R g8 YL. g8 _V3 YLR e8 g8 a4 _V-3 a8 _V3 > c4. _V-3 Y.R c8 _V3 YLR c16 d16 e4 f16 _V-3 YL. f16 _V3 YLR d8~ d4 _V-3 Y.R d8 YL. d8 _V3 YLR c4 _V-3 c8 _V3 < b16 > c16 d8 c8 < b8 g8~ g2 _V-3 Y.R g8 YL. g8 _V3 YLR e8 g8 a4 _V-3 a8 _V3 > c4. _V-3 Y.R c8 _V3 YLR c16 d16 e8 f8 g16 _V-3 YL. g16 _V3 YLR d8~ d4 @@0,2,1 V8 O3 YLR c4 E100,100,90,14,7 V8 g4. f16 r16 f4 d+8 d8~ d4 d+4 f4 > c4 < a+4. g8 _V-3 Y.R g8 YL. g8 _V3 YLR d+4~ d+2~ d+8 _V-3 Y.R d+8 YL. d+8 _V3 YLR c16 d16 d+2~ d+8 _V-3 Y.R d+8 _V3 YLR d12 d+12 f12 f+4 d+4 d4 c4 g1~ g1 r2. @@0,3,1 V9 YLR [ g+24 r24 Y.R ]2 YL. g+24 r24 @@0,3,2 O4 V8 YLR P14,10,2 [ c4 _V-3 c8 _V3 ]2 c4 d4. < b8~ b4 _V-3 Y.R b8 YL. b8 _V3 YLR a8 b8 > c8 < b4 a8 g16 r16 g8~ g2. _V-3 Y.R g8 YL. g8 _V3 YLR [ f4 _V-3 f8 _V3 ]2 f4 e4. > c8~ c4 _V-3 Y.R c8 YL. c8 _V3 YLR < b8 > c8 < b8 a8 _V-3 a8 _V3 b8 a8 g+4 _V-3 g+8 _V3 g+8 a8 _V-3 a8 _V3 b4 _V-3 b8 _V3 O4 [ c4 _V-3 c8 _V3 ]2 c4 d4. < b8~ b4 _V-3 Y.R b8 YL. b8 _V3 YLR a8 b8 > c8 < b4 > c8 d8 e8~ e2. _V-3 Y.R e8 _V3 YLR d16 e16 f8 e8 d16 r16 d8~ d4 _V-3 d8 _V3 c16 d16 e8 d8 c16 r16 c8~ c4 _V-3 Y.R c8 YL. c8 _V3 YLR c4 _V-3 Y.R c8 YL. c8 _V3 YLR < a6 b6 > c6 < b4 r4 a8 g8 a16 r16 a8~ a1~ a2. _V-3 Y.R a8 YL. a8 
!3  _1 L `9F00 `AE00 @A3 V3 YLR O1 E100,100,80,7,7 a4. g8~ g4. f8~ f4. e8~ e4. a8~ a4 < a4 [ > a4 < a4 ]2 [ > a8 < a8 ]2 O0 [ [ a8 > a8 < ]4 H-5 ]2 H0 [ f8 > f8 < ]4 > [ c8 > c8 < ]2 < [ g8 > g8 < ]2 O0 [ [ a8 > a8 < ]4 H-5 ]2 H0 [ f8 > f8 < ]4 > [ c8 > c8 < ]2 < [ g8 > g8 < ]2 O0 [ [ g+8 > g+8 < ]4 H2 ]2 H0 [ g8 > g8 < ]3 g+4. > g+8 g8 d+8 c8 < a+8 g+8 > g+8 < [ [ f8 > f8 < ]4 H1 ]2 H0 [ g8 > g8 < ]8 r2. e12 > e12 < e12 [ [ a8 > a8 < ]4 H-5 ]2 H0 [ f8 > f8 < ]2 [ g8 > g8 < ]2 > [ c8 > c8 < ]4 < [ [ a+8 > a+8 < ]4 H-1 ]2 H0 [ b8 > b8 < ]4 [ e8 > e8 < ]2 [ f+8 > f+8 < H2 ]2 H0 [ [ a8 > a8 < ]4 H-5 ]2 H0 [ f8 > f8 < ]2 [ g8 > g8 < ]2 > [ c8 > c8 < ]4 < [ [ a+8 > a+8 < ]4 H-1 ]2 H0 [ [ f8 > f8 < ]4 H2 ]2 H0 [ a8 > a8 < ]8 
!4  L @8 x4. x4. @5 [ x16 ]2 @8 x4 @3 x8 @1 x8 @8 x4. @3 [ x16 ]2 @1 x8 [ @5 [ x16 ]2 @7 x8 ]6 @18 x2 @8 x4 [ @5 [ x16 ]2 @7 x8 ]15 @8 x4 [ @5 [ x16 ]2 @7 x8 ]15 @8 x4 [ @5 [ x16 ]2 @7 x8 ]15 @8 x4 [ @5 [ x16 ]2 @7 x8 ]17 @18 x2 [ @8 x4 [ @5 [ x16 ]2 @7 x8 ]15 ]2 @8 x4 [ @5 [ x16 ]2 @7 x8 ]15 @8 x4 [ @5 [ x16 ]2 @7 x8 ]23 
!5  L _1 @43 W0,97,11 V0 O0 YLR a16 > c16 e16 a16 > c16 e16 a16 > c16 < b16 g16 d16 < b16 g16 d16 < b16 g16 f16 a16 > c16 f16 a16 > c16 f16 a16 g16 e16 < b16 g16 e16 < b16 g16 e16 _0 @42 O2 YLR V1 [ c4 ]5 c8. @24 [ c+32 ]2 [ c+16 ]8 [ @42 V1 c8 @32 V0 c8 @24 V1 c+8 @32 V0 c8 ]7 @42 V1 c8 @32 V0 c16 @24 V0 [ c+32 ]2 V1 [ c+16 ]2 c+8 [ @42 V1 c8 @32 V0 c8 @24 V1 c+8 @32 V0 c8 ]7 @42 V1 c8 @32 V0 c16 @24 V0 [ c+32 ]2 V1 [ c+16 ]4 [ @42 V1 c8 @32 V0 c8 @24 V1 c+8 @32 V0 c8 ]7 @42 V1 c8 @32 V0 c16 @24 V0 [ c+32 ]2 V1 [ c+16 ]2 c+8 [ @42 V1 c8 @32 V0 c8 @24 V1 c+8 @32 V0 c8 ]8 Y.R @2 V1 e16 e16 @24 c16 @2 c16 c16 @24 c16 @2 O1 a16 a16 @24 O2 c16 @2 O1 f16 f16 @24 O2 V0 [ c+32 ]2 V1 [ c+12 ]3 YLR [ @42 V1 c8 @32 V0 c8 @24 V1 c+8 @32 V0 c8 ]8 [ @42 V1 c8 @32 V0 c8 @24 V1 c+8 @32 V0 c8 ]7 @42 V1 c8 @32 V0 c16 @24 V0 [ c+32 ]2 V1 [ c+16 ]4 [ @42 V1 c8 @32 V0 c8 @24 V1 c+8 @32 V0 c8 ]7 @42 V1 c8 @32 V0 c16 @24 V0 [ c+32 ]2 V1 [ c+16 ]2 c+8 [ @42 V1 c8 @32 V0 c8 @24 V1 c+8 @32 V0 c8 ]11 @42 V1 c8 @32 V0 c16 @24 V0 [ c+32 ]2 V1 [ c+16 ]4 
!6  _1 L @44 V1 O0 YLR a32 Y.R a32 [ > YLR c32 YL. c32 YLR e32 Y.R e32 YLR a32 YL. a32 ]2 > YLR c32 Y.R c32 < [ YLR b32 YL. b32 YLR g32 Y.R g32 YLR d32 YL. d32 < ]2 YLR b32 Y.R b32 YLR g32 YL. g32 YLR f32 Y.R f32 [ YLR a32 YL. a32 > YLR c32 Y.R c32 YLR f32 YL. f32 ]2 YLR a32 Y.R a32 YLR g32 YL. g32 [ YLR e32 Y.R e32 < YLR b32 YL. b32 YLR g32 Y.R g32 ]2 YLR e32 YL. e32 [ YLR a32 Y.R a32 > YLR d32 YL. d32 YLR e32 Y.R e32 YLR a32 YL. a32 ]2 [ YLR a32 Y.R a32 YLR e32 YL. e32 YLR d32 Y.R d32 < YLR a32 YL. a32 ]2 [ YLR a32 Y.R a32 > YLR c+32 YL. c+32 YLR e32 Y.R e32 YLR a32 YL. a32 ]2 [ YLR a32 Y.R a32 YLR e32 YL. e32 YLR c+32 Y.R c+32 < YLR a32 YL. a32 ]2 [ r1 ]4 @27 O2 V1 r4 YLR c8 Y.R c8 < YLR b8 YL. b8 YLR g8 e8~ e6 [ Y.R e6 YL. e6 V0 ]2 Y.R e6 @40 W0,95,1 V1 O2 YLR c1 < g4 > c4 < b4 > c4 @40 W0,95,1 O0 V1 [ [ [ YLR g+16 > d+16 < ]2 Y.R g+16 > d+16 < YL. g+16 > d+16 < ]2 H2 ]2 H0 [ YLR g16 > d16 < ]2 Y.R g16 > d16 < YL. g16 > d16 < [ YLR g16 > d16 < ]2 [ YLR g+16 > d+16 < ]2 Y.R g+16 > d+16 < YL. g+16 > d+16 < [ YLR g+16 > d+16 < ]2 @44 O0 YLR g+32 Y.R g+32 > YLR d+32 YL. d+32 YLR g+32 Y.R g+32 > YLR d+32 YL. d+32 YLR g+32 Y.R g+32 YLR d+32 YL. d+32 < YLR g+32 Y.R g+32 YLR d+32 YL. d+32 @40 W0,95,1 O1 V1 YLR [ [ YLR f16 > c16 < ]2 Y.R f16 > c16 < YL. f16 > c16 < ]2 [ [ YLR f+16 > c16 < ]2 Y.R f+16 > c16 < YL. f+16 > c16 < ]2 [ [ YLR g16 > d16 < ]2 Y.R g16 > d16 < YL. g16 > d16 < ]3 [ YLR g16 > d16 < ]4 YL. D1 O2 V1 @2 V1 e16 e16 @24 c16 @2 c16 c16 @24 c16 @2 O1 a16 a16 @24 O2 c16 @2 O1 f16 f16 @24 O2 V0 [ c+32 ]2 V1 D0 YLR @8 O2 e12 > e12 < e12 @40 W0,95,1 O0 YLR [ [ a16 > e16 a16 > c16 e16 c16 < a16 e16 < ]2 H-5 ]2 H0 [ f16 > c16 f16 a16 > c16 < a16 f16 c16 < H2 ]2 H0 > [ [ c16 g16 > c16 e16 g16 e16 c16 < g16 ]2 H-2 ]2 H0 < [ a16 > e16 a16 > c16 e16 c16 < a16 e16 < ]2 [ d16 a16 > d16 f16 a16 f16 d16 < a16 ]2 [ e16 b16 > e16 g+16 b16 g+16 e16 < b16 ]2 O0 [ [ a16 > e16 a16 > c16 e16 c16 < a16 e16 < ]2 H-5 ]2 H0 [ f16 > c16 f16 a16 > c16 < a16 f16 c16 < H2 ]2 H0 > [ [ c16 g16 > c16 e16 g16 e16 c16 < g16 ]2 H-2 ]2 H0 < [ a16 > e16 a16 > c16 e16 c16 < a16 e16 < ]2 [ [ f16 > c16 f16 a16 > c16 < a16 f16 c16 < ]2 H2 ]2 H0 [ a16 > e16 a16 > e16 a16 e16 < a16 e16 < ]4 
