;026 001ECE8C
!1  T170 E80,100,80,2,8 @@1,2,0 P15,10,2 EP-2,0,0,2,0 YLR V4 O3 c16 d16 d+16 f16 L V6 g4. f4. d+4 d4. < a+4. > c4 d4. < g4. > c4 d2~ d8 V2 d8 V4 c16 d16 d+16 f16 V6 g4. f4. d+4 d4. < a+4. > c4 d+4. f+4. > c4 < b2~ b8 V2 b8 r4 E100,50,20,2,8 @@0,1,3 EPX O3 V2 r4. c16 g16 O4 [ c16 < g16 c16 g16 > c16 < g16 c16 g16 > ) ]3 _V3 [ c16 < g16 c16 g16 > ( ]4 [ c16 < g16 c16 g16 > _V2 ]4 O3 V6 [ a+16 f16 < a+16 > f16 a+16 f16 < a+16 > f16 ( ]2 ) [ a+16 f16 < a+16 > f16 a+16 f16 < a+16 > f16 ) ]2 O4 [ c16 < g16 c16 g16 > c16 < g16 c16 g16 > ( ]2 ) [ c16 < g16 c16 g16 > c16 < g16 c16 g16 > ) ]2 O3 V6 [ a+16 f16 < a+16 > f16 a+16 f16 < a+16 > f16 ( ]2 ) [ a+16 f16 < a+16 > f16 a+16 f16 < a+16 > f16 ) ]2 O1 V4 YLR b32 V2 Y.R g32 > V4 YLR d32 < V2 YL. b32 > V4 YLR f32 V2 Y.R d32 V4 YLR g32 V2 YL. f32 V5 YLR d32 V2 Y.R g32 V5 YLR f32 V2 YL. d32 V5 YLR g32 V2 Y.R f32 V5 YLR b32 V2 YL. g32 V5 YLR f32 V2 Y.R d32 V5 YLR g32 V2 YL. f32 V5 YLR b32 V2 Y.R g32 > V5 YLR d32 < V2 YL. b32 V6 YLR g32 > V2 Y.R d32 < V6 YLR b32 V2 YL. g32 > V6 YLR d32 < V2 Y.R b32 > V6 YLR f32 V2 YL. d32 < V6 YLR b32 > V2 Y.R f32 V6 YLR d32 V2 YL. < b32 > V6 YLR f32 V2 Y.R d32 V6 YLR g32 V2 YL. f32 V6 YLR d32 V2 Y.R g32 V6 YLR f32 V2 YL. d32 V7 YLR g32 V2 Y.R f32 V7 YLR b32 V2 YL. g32 V7 YLR f32 V2 Y.R b32 V7 YLR g32 V2 YL. f32 V7 YLR b32 V2 Y.R g32 > V7 YLR d32 < V7 YL. b32 > V7 YLR f32 V2 Y.R d32 V8 YLR g32 V2 YL. f32 V8 YLR b32 V2 Y.R g32 V8 YLR > d32 < V2 YL. b32 E80,100,80,2,8 @@1,2,0 P15,10,2 EP-2,0,0,2,0 O3 YLR [ V8 d+16 f16 d+16 d16 d+16 V2 d+16 ]2 V8 d+16 f16 d+16 d16 d+4 V2 d+8 E100,50,20,2,8 @@0,1,3 EPX O3 V2 r32 D-1 Y.R c16 f+16 O4 c16 < f+16 c16 f+16 > c16 < f+16 c16 f+32 > E80,100,80,2,8 @@1,2,0 P15,10,2 EP-2,0,0,2,0 D0 O3 YLR [ V8 f16 g16 f16 e16 f16 V2 f16 ]2 V8 f16 g16 f16 e16 f4 V2 f8 E100,50,20,2,8 @@0,1,3 EPX O3 V2 r32 D-1 YL. d16 g+16 O4 d16 < g+16 d16 g+16 > d16 < g+16 d16 g+32 > E80,100,80,2,8 @@1,2,0 P15,10,2 EP-2,0,0,2,0 D0 O3 YLR [ V8 d+16 f16 d+16 d16 d+16 V2 d+16 ]2 V8 d+16 f16 d+16 d16 d+4 V2 d+8 E100,50,20,2,8 @@0,1,3 EPX O3 V2 r32 D-1 Y.R c16 f+16 O4 c16 < f+16 c16 f+16 > ) c16 < f+16 c16 f+32 > ) YLR D0 E100,80,80,2,0 @@1,0,1 EPX O2 V6 H-3 [ f16 g+16 b16 > d16 < b16 > d16 f16 g+16 ]2 > d16 < b16 g+16 f16 b16 g+16 f16 d16 g+16 f16 d16 < b16 H0 c16 d16 d+16 f16 E80,100,80,2,8 @@1,2,0 P15,10,2 EP-2,0,0,2,0 YLR V4 O3 
!2  E80,100,80,2,8 @@1,2,0 P15,10,2 EP-2,0,0,2,0 YLR V2 O3 f16 g16 g+16 a+16 L V8 > c4. < a+4. g+4 g4. d+4. f4 g4. c4. f4 g2~ g8 V3 g8 f16 g16 g+16 a+16 V8 > c4. < a+4. g+4 g4. d+4. f4 f+4. > c4. d+4 d2~ d8 V3 d8 r4 E70,100,70,2,12 @@1,1,3 EPX [ O2 V4 r8 c8 c8 c8 d8 d8 V2 d8 V4 < a+8 a+8 a+8 > c8 c8 V2 c8 r4. ]2 E80,100,80,2,8 @@1,2,0 P15,10,2 EP-2,0,0,2,0 V6 O2 f4. V2 f8 V6 f12 V2 f12 V6 g12 V2 g12 V6 a+12 V2 a+12 V6 a+4. V2 a+8 V6 a+12 V2 a+12 > V6 c12 V2 c12 V6 d12 V2 d12 V6 d+2 c2~ c2. V2 c4 O2 V6 f4. V2 f8 V6 f12 V2 f12 V6 g12 V2 g12 V6 a+12 V2 a+12 V6 a+4. V2 a+8 V6 a+12 V2 a+12 > V6 c12 V2 c12 V6 d12 V2 d12 V6 d2 g2 b2 > d2 E80,100,80,2,8 @@1,2,0 P15,10,2 EP-2,0,0,2,0 O3 [ V8 g16 g+16 g16 f+16 g16 V2 g16 ]2 V8 g16 g+16 g16 f+16 g4 V2 g8 E100,50,20,2,8 @@0,1,3 EPX O3 V2 c16 f+16 O4 c16 < f+16 c16 f+16 > ) c16 < f+16 c16 f+16 > ) E80,100,80,2,8 @@1,2,0 P15,10,2 EP-2,0,0,2,0 O3 [ V8 g+16 a+16 g+16 g16 g+16 V2 g+16 ]2 V8 g+16 a+16 g+16 g16 g+4 V2 g+8 E100,50,20,2,8 @@0,1,3 EPX O3 V2 d16 g+16 O4 d16 < g+16 d16 g+16 > ) d16 < g+16 d16 g+16 > ) E80,100,80,2,8 @@1,2,0 P15,10,2 EP-2,0,0,2,0 O3 [ V8 g16 g+16 g16 f+16 g16 V2 g16 ]2 V8 g16 g+16 g16 f+16 g4 V2 g8 E100,50,20,2,8 @@0,1,3 EPX O3 V2 c16 f+16 O4 c16 < f+16 c16 f+16 > ) c16 < f+16 c16 f+16 > ) E100,80,80,2,0 @@1,0,1 EPX O2 V8 [ f16 g+16 b16 > d16 < b16 > d16 f16 g+16 ]2 > d16 < b16 g+16 f16 b16 g+16 f16 d16 g+16 f16 d16 < b16 f16 g16 g+16 a+16 E80,100,80,2,8 @@1,2,0 P15,10,2 EP-2,0,0,2,0 YLR V2 O3 
!3  `9F00 `AE00 r4 L @A3 P21,10,4 O1 [ [ V3 c8 V2 c8 c8 ]2 V3 c8 V2 c8 ]3 < [ V3 b8 V2 b8 b8 ]2 V3 g8 b8 O1 [ V3 c8 V2 c8 c8 ]2 V3 c8 V2 c8 < [ V3 g+8 V2 g+8 g+8 ]2 V3 g+8 V2 g+8 V3 f+8 V2 f+8 f+8 V3 f+8 V2 f+8 f+8 V3 f+8 d+8 [ V3 d8 V2 d8 d8 H5 ]2 H0 V3 b4 [ O1 [ V3 c8 V2 c8 c8 ]2 V3 c8 V2 c8 [ V3 c8 V2 c8 c8 ]2 V3 c8 < g8 ]2 [ V3 a+4 r8 a+4 f8 a+8 V2 a+8 ]2 > [ V3 c4 r8 c4 < g8 > c8 V2 c8 ]2 < [ V3 a+4 r8 a+4 f8 a+8 V2 a+8 ]2 V2 b8 V3 b8 r8 b8 > V3 d8 V3 d8 r8 d8 < V2 g8 V3 g8 r8 g8 V2 b8 V3 b8 r8 b8 > [ V3 c8 V2 c8 r8 ]2 V3 c8 r8 c4 r2. [ V3 d8 V2 d8 r8 ]2 V3 d8 r8 d4 r2. [ V3 c8 V2 c8 r8 ]2 V3 c8 r8 c4 r4 < d+16 f16 g16 g+16 a+16 > c16 d16 < a+16 > d4 < b4 g+4 f4 d4 f4 g+4 b4 
!4  YL. @8 x4 YLR L [ @8 x2 @7 x4 x4 [ x4 x4 x4 x4 ]2 x4 x4 x4 Y.R @8 x4 YLR ]2 @8 x2 @5 x4 x4 x4 x4 x4 x4 [ x4 x4 x4 x4 ]2 @8 x2 @5 x4 x4 x4 x4 x4 x4 [ x4 x4 x4 x4 ]2 @8 x2 @5 x4 x4 x4 x4 x4 x4 [ x4 x4 x4 x4 ]2 [ @5 x8 @6 x16 x16 ]22 @5 x8 @7 x8 @8 Y.R x4 YLR [ @1 x8 @5 x8 ]7 @8 x4 
!5  @1 V1 O2 c16 c16 V0 c16 V1 c16 L [ [ [ @0 V1 c8 @1 c16 c16 ]4 ]3 [ @0 V1 c8 @1 c16 c16 ]3 c16 V0 c16 c16 V1 c16 ]2 [ [ @0 c8 @1 V0 c16 V1 c16 ]7 c16 V0 c16 c16 V1 c16 ]2 [ [ @0 c8 @1 V0 c16 V1 c16 ]7 c16 V0 c16 c16 V1 c16 ]3 @0 c8 @1 V0 c16 c16 V1 c8 V0 c16 c16 @2 Y.R c8 YLR @1 V0 c16 c16 V1 c8 c8 @0 c8 @1 V0 c16 c16 @0 V1 c8 @2 < g+16 g+16 > @1 V0 c16 V1 c16 @0 c16 @1 V0 c16 V1 c16 c16 c16 @0 V0 c32 V1 c32 [ [ @1 V1 O2 c16 c16 c16 c16 c16 @0 V0 c16 ]2 @1 V1 O2 c16 c16 c16 c16 c8 @4 O2 V1 c8 < g8 V0 Y.R g8 YLR V1 > c8 @4 < g8 YL. V0 g8 YLR V1 g24 V0 g24 g24 ]2 [ @1 V1 O2 c16 c16 c16 c16 c16 @0 V0 c16 ]2 @1 V1 O2 c16 c16 c16 c16 c8 @4 O2 V1 c8 < g8 V0 Y.R g8 YLR O2 @1 V1 c16 c16 c16 @0 V0 c32 V1 c32 @1 V1 c8 c16 c16 @1 V1 [ c32 V0 c32 V1 c16 c16 c16 ]4 V1 c32 V0 c32 V1 c16 c16 Y.R @2 c32 c32 c16 c16 YLR < g+32 g+32 g+16 g+16 YL. f32 f32 f16 f16 > YLR @1 V1 c32 V0 c32 c32 c32 V1 c16 c16 
!6  @8 O1 V0 f16 g16 g+16 a+16 L O2 V1 c6 Y.R V0 c12 YLR @58 W0,97,29 c12. < V1 a+4. g+4 g4. d+4. f4 g4. c4. f4 g2~ g8 V0 g8 @8 V0 f16 g16 g+16 a+16 O2 V1 c6 Y.R V0 c12 YLR @58 W0,97,29 c12. < V1 a+4. g+4 g4. d+4. f4 f+4. > c4. d+4 d2~ d8 V0 d8 r8 @4 V1 O1 g8 [ O2 c8 @57 W0,97,0 d+8 d+8 d+8 f8 f8 V0 f8 V1 d8 d8 d8 d+8 d+8 V0 d+8 r8 @4 O1 g24 g24 g24 V1 g8 ]2 @58 W0,97,29 O1 V1 a+4. V0 a+8 V1 a+12 V0 a+12 > V1 c12 V0 c12 V1 d12 V0 d12 V1 d4. V0 d8 V1 d12 V0 d12 V1 d+12 V0 d+12 V1 f12 V0 f12 V1 g2 d+2~ d+2. V0 d+4 O1 V1 a+4. V0 a+8 V1 a+12 V0 a+12 > V1 c12 V0 c12 V1 d12 V0 d12 V1 d4. V0 d8 V1 d12 V0 d12 V1 d+12 V0 d+12 V1 f12 V0 f12 V1 g2 b2 > d2 f2 @3 V1 O2 YLR g16 g+16 g16 f+16 g16 V0 Y.R g16 YLR V1 g16 g+16 g16 f+16 g16 V0 YL. g16 YLR V1 g16 g+16 g16 f+16 g6 Y.R V0 g12 V1 YLR @0 c4 c4 c4 @3 V1 O2 YLR g+16 a+16 g+16 g16 g+16 V0 Y.R g+16 YLR V1 g+16 a+16 g+16 g16 g+16 V0 YL. g+16 YLR V1 g+16 a+16 g+16 g16 g+6 V0 YL. g+12 V1 YLR @0 c4 c4 c4 @3 @3 V1 O2 YLR g16 g+16 g16 f+16 g16 V0 Y.R g16 YLR V1 g16 g+16 g16 f+16 g16 V0 YL. g16 YLR V1 g16 g+16 g16 f+16 g6 Y.R V0 g12 V1 YLR @0 c4 c4 c4 @3 < O1 YLR V1 f12 Y.R V0 f12 YL. f12 YLR V1 g+12 V0 Y.R g+12 YL. g+12 YLR V1 b12 Y.R V0 b12 YL. b12 > YLR V1 d12 Y.R V0 d12 YL. d12 YLR V1 f12 Y.R V0 f12 YL. f12 YLR V1 g+12 V0 Y.R g+12 YL. g+12 > YLR V1 d12 Y.R V0 d12 YL. d12 < YLR V1 b12 Y.R V0 b12 YL. b12 YLR @8 
