;027 001EDA86
!1  T175 r4 L _1 [ @@0,2,1 O2 YL. V6 E100,100,95,6,6 P16,9,2 D1 r16 g4 > c4.~ c16 D0 < a+8 > c8 d8 d+8~ d+2 _V-2 d+4 _V2 d+4 d4 c4 < a+4 f8 > c8~ c8 < a+8 g4 _V-2 g4 _V2 Y.R D1 r16 g4 > c4.~ c16 D0 < a+8 > c8 d8 d+8~ d+2 _V-2 d+4 _V2 d+4 d4 f4 d+4 d16 r16 d4 d+8 c4~ c4. _V-2 c8 Y.R c8 YL. c8 _V2 < c4 d+8~ g+8 _V-2 g+8 _V2 g+16 r16 a+4 _V-2 a+8 _V2 a+4 f16 _V-2 f16 _V2 f4 _V-2 Y.R f8 YL. f8 _V2 < a+4 >~ d8~ f8 _V-2 f8 _V2 f16 r16 f4. g4. _V-2 g4 Y.R g8 YL. g8 _V2 Y.R c4 d+8~ g+8 _V-2 g+8 _V2 g+16 r16 a+4 _V-2 a+8 _V2 a+4 > c8 d4 YLR c2.~ c8 _V2 d16 c16 < _V-2 b2. _V-2 b4 _V2 @@2,2,1 O3 r4 [ c8 _V-2 c8 _V2 ]2 c4 d4 c8 < a+4 f16 _V-2 f16 _V2 f4 g+4 _V-2 g+8 _V2 > c8~ c16 _V-2 c16 _V2 c16 _V-2 c16 _V2 c4~ c2. _V-2 Y.R c8 YL. c8 _V2 YLR < g+4 _V-2 g+8 _V2 > c8~ c16 _V-2 c16 _V2 c16 _V-2 c16 _V2 c4~ c2. _V-2 c8 _V2 c16 d16 d+4 _V-2 d+8 _V2 d+4 d8 c8 < a+8~ a+2. _V-2 Y.R a+8 YL. a+8 _V2 YLR O3 r4 [ c8 _V-2 c8 _V2 ]2 c4 d4 c8 < a+4 f16 _V-2 f16 _V2 f4 g+4 _V-2 g+8 _V2 > c8~ c16 _V-2 c16 _V2 c16 _V-2 c16 _V2 c4~ c2. _V-2 Y.R c8 YL. c8 _V2 YLR < g+4 _V-2 g+8 _V2 > c8~ c16 _V-2 c16 _V2 c16 _V-2 c16 _V2 c4~ c2. _V-2 c8 _V2 c16 d16 [ d+4 _V-2 d+8 _V2 ]2 d+4 d4. f4 _V-2 f8 _V2 f16 _V-2 f16 _V2 f8~ f1 e2 _V-2 e4 _3 ]2 
!2  r4 L _1 [ @@0,2,1 O2 YLR V9 E100,100,90,6,6 P16,9,2 B2 g4 > c2 d8 d+8 f8 g8~ g2 _V-3 g4 _V3 g4 f4 d+4 d4 < a+8 > d+8~ d+8 d8 c4 _V-3 c4 _V3 < g4 > c2 d8 d+8 f8 g8~ g2 _V-3 g4 _V3 g4 a+4 g+4 g4 f16 r16 f4 g8 d+4~ d+4. _V-3 d+8 Y.R d+8 YL. d+8 _V3 YLR < d+4 g+8~ > d+8 _V-3 d+8 _V3 d+16 r16 d+4. d4 c8 < a+4 _V-3 Y.R a+8 YL. a+8 _V3 YLR d4~ f8~ a+8 _V-3 a+8 _V3 a+16 r16 a+4. > c4. _V-3 c4 Y.R c8 YL. c8 _V3 YLR < d+4 g+8~ > d+8 _V-3 d+8 _V3 d+16 r16 d+4. d4 d+8 f4 g1~ g2. _V-3 g4 _V3 @@2,2,1 O3 E100,100,95,6,6 r4 [ d+8 _V-3 d+8 _V3 ]2 d+4 f4 d+8 d4 c8 < a+4 > c4 _V-3 c8 _V3 g8~ g8 f8 g4~ g2. _V-3 Y.R g8 YL. g8 _V3 YLR c4 _V-3 c8 _V3 g8~ g8 f8 g4~ g2. _V-3 g8 _V3 d+16 f16 g4 _V-3 g8 _V3 g4 f8 d+8 d8~ d2. _V-3 Y.R d8 YL. d8 _V3 O3 YLR r4 [ d+8 _V-3 d+8 _V3 ]2 d+4 f4 d+8 d4 c8 < a+4 > c4 _V-3 c8 _V3 g8~ g8 f8 g4~ g2. _V-3 Y.R g8 YL. g8 _V3 YLR c4 _V-3 c8 _V3 g8~ g8 f8 g4~ g2. _V-3 g8 _V3 d+16 f16 [ g4 _V-3 g8 _V3 ]2 g4 f4. a+4 _V-3 a+8 _V3 a+8 > c8~ c1~ c2 _V-3 c4 _V3 _3 ]2 
!3  r4 L _1 [ `9F00 `AE00 @A3 V3 YLR E100,100,80,6,6 O1 B2 g4 [ [ c8 ]8 H-4 ]2 H0 < [ a+8 ]8 > [ c8 ]2~ d8 c8~ d+8~ d8~ c8 < g8 >~ [ [ c8 ]8 H-4 ]2 H0 < [ a+8 ]8 > [ c8 ]2~ d8 c8~ d+8~ d8~ c8 < g8~ [ [ g+8 > d+8 g+8 d+8 < ]2 H2 ]2 H0 [ [ g8 > d8 g8 d8 < ]2 H1 ]2 H0 [ [ g+8 > d+8 g+8 d+8 < ]2 H2 ]2 H0 g4 >~ g4 < f4 >~ f4 < d+4 >~ d+4 < d4 >~ d8 < g8 [ O1 [ [ c8 ]8 H-2 ]2 H0 < [ g+8 ]16 [ f8 ]16 [ [ g+8 ]8 H2 ]2 H0 ]2 > [ c8 ]14 _3 ]2 
!4  @19 x4 r4 L [ @8 x4 @7 [ x4 ]15 @7 [ x4 ]16 @8 x4 @7 [ x4 ]15 @8 x4 @7 [ x4 ]7 @8 x4 [ @3 x8 @1 x8 x8 ]4 @3 [ x16 ]4 @8 x4 @7 [ x4 ]15 @7 [ x4 ]16 @8 x4 @7 [ x4 ]15 @7 [ x4 ]21 @18 x2. ]2 
!5  r8. @41 V0 c32 V1 c32 V1 @24 c4 L [ V1 YLR O2 @41 c4 @24 c4 @41 [ c8 ]2 @24 c4 @41 c4 @24 c8 @41 c4 c8 @24 c4 @41 c4 @24 c4 @41 [ c8 ]2 @24 c4 @41 c4 @24 c8 @41 c4 c8 @24 [ c16 ]2 c8 @41 c4 @24 c4 @41 [ c8 ]2 @24 c4 @41 c4 @24 c8 @41 c4 c8 @24 c4 @41 c4 @24 c4 @41 [ c8 ]2 @24 c4 @41 c4 @24 c8 @41 c4 c8 @24 [ c16 ]4 @41 c4 @24 c4 @41 [ c8 ]2 @24 c4 @41 c4 @24 c8 @41 c4 c8 @24 c4 @41 c4 @24 c4 @41 [ c8 ]2 @24 c4 @41 c4 @24 c8 @41 c4 c8 @24 [ c16 ]2 c8 @41 c4 @24 c4 @41 [ c8 ]2 @24 c4 @41 c4 @24 c8 @41 c4 c8 @24 c4 [ @41 c8 c8 @24 c4 ]3 @41 c8 c8 @24 [ c16 ]4 @41 c4 @24 c4 @41 [ c8 ]2 @24 c4 @41 c4 @24 c8 @41 c4 c8 @24 c4 @41 c4 @24 c4 @41 [ c8 ]2 @24 c4 @41 c4 @24 c8 @41 c4 c8 @24 [ c16 ]2 c8 @41 c4 @24 c4 @41 [ c8 ]2 @24 c4 @41 c4 @24 c8 @41 c4 c8 @24 c4 @41 c4 @24 c4 @41 [ c8 ]2 @24 c4 @41 c4 @24 c8 @41 c4 c8 @24 [ c16 ]4 @41 c4 @24 c4 @41 [ c8 ]2 @24 c4 @41 c4 @24 c8 @41 c4 c8 @24 c4 @41 c4 @24 c4 @41 [ c8 ]2 @24 c4 @41 c4 @24 c8 @41 c4 c8 @24 [ c16 ]2 c8 [ @41 c4 @24 c4 @41 [ c8 ]2 @24 c4 @41 c4 @24 c8 @41 c4 c8 @24 c4 ]2 @41 c4 @24 c4 @41 [ c8 ]2 @24 c4 @41 c4 @24 c8 @41 c4 c8 @24 [ c16 ]4 ]2 
!6  r4 r4 L _1 [ @21 V1 O2 [ [ YLR c16 Y.R c16 YLR c16 YL. c16 ]4 H-4 ]2 H0 < [ YLR a+16 Y.R a+16 YLR a+16 YL. a+16 ]4 > YLR c16 Y.R c16 YLR c16 YL. c16~ YLR d16 Y.R d16 YLR c16 YL. c16 YLR d+16 Y.R d+16 YLR d16 YL. d16 YLR c16 Y.R c16 < YLR g16 YL. g16 > [ [ YLR c16 Y.R c16 YLR c16 YL. c16 ]4 H-4 ]2 H0 < [ YLR a+16 Y.R a+16 YLR a+16 YL. a+16 ]4 > YLR c16 Y.R c16 YLR c16 YL. c16~ YLR d16 Y.R d16 YLR c16 YL. c16 YLR d+16 Y.R d+16 YLR d16 YL. d16 YLR c16 Y.R c16 < YLR g16 YL. g16 YLR g+16 Y.R g+16 YLR g+16 YL. g+16 @28 W0,100,39 O1 V1 YLR d+4 d6 d+6 f6 g4. f4 d+8 d4 @21 V1 O1 YLR g16 Y.R g16 YLR g16 YL. g16 @28 W0,100,39 O1 V1 YLR f4 a+8 > d8 r8 d16 r16 d4. d+8~ d+2 Y.R @21 V1 O1 YLR g+16 Y.R g+16 YLR g+16 YL. g+16 @28 W0,100,39 O1 V1 YLR c4 d6 d+6 f6 g4. f4 d+8 d8 c8 < g4 @8 O2 YLR g8 < g8 > g8 f8 < f8 > f8 d+8 < d+8 > d+8 d8 < d8 > d8 g16 g+16 a16 b16 [ @40 W0,95,1 O1 [ YL. c16 g16 > c16 g16 > c16 < g16 c16 < g16 Y.R c16 g16 > c16 g16 > c16 < g16 c16 < g16 H-2 ]2 H0 < [ YL. g+16 > d+16 g+16 > d+16 g+16 d+16 < g+16 d+16 < Y.R g+16 > d+16 g+16 > d+16 g+16 d+16 < g+16 d+16 < ]2 [ YL. f16 > c16 f16 > c16 f16 c16 < f16 c16 < Y.R f16 > c16 f16 > c16 f16 c16 < f16 c16 < ]2 [ YL. g+16 > d+16 g+16 > d+16 g+16 d+16 < g+16 d+16 < Y.R g+16 > d+16 g+16 > d+16 g+16 d+16 < g+16 d+16 < H2 ]2 H0 ]2 > [ YL. c16 g16 > c16 g16 > c16 < g16 c16 < g16 Y.R c16 g16 > c16 g16 > c16 < g16 c16 < g16 ]2 _3 ]2 
