;028 001EE394
!1  T165 B1 E100,80,60,1,8 @1 P16,12,5 V8 H-1 O1 e16 _V-2 g16 ( > c16 ( e16 _V2 g16 e16 g16 > c16 _V2 e16 c16 e16 g16 > c16 < _V-2 g16 ) a16 a+16 ) L [ EP-4,0,0,3,0 E80,100,80,1,13 @@2,2,0 P20,10,4 O3 V8 c2 _V-4 Y.R c4 YLR _V4 e4 d2 _V-4 YL. d4 YLR _V4 f+4 e2 _V-4 Y.R e4 YLR _V2 f+8 g8 _V2 a8 _V-4 g8 _V4 g8 _V-4 g8 _V4 f+8 _V-4 f+8 _V4 e8 _V-4 e8 _V4 c2 _V-4 Y.R c4 YLR _V4 e4 d2 _V-4 YL. d4 YLR _V4 f+4 e2 _V-4 Y.R e4 YLR _V4 f+8 g8 f+2 _V-4 YL. f+4 _V-2 Y.R f+4 YLR _V6 c2 _V-4 Y.R c4 YLR _V4 e4 d2 _V-4 YL. d4 YLR _V4 f+4 e2 _V-4 Y.R e4 YLR _V2 f+8 g8 _V2 a8 _V-4 g8 _V4 g8 _V-4 g8 _V4 f+8 _V-4 f+8 _V4 e8 _V-4 e8 _V4 c2 _V-4 Y.R c4 YLR _V4 e4 d2 _V-4 YL. d4 YLR _V4 f+4 e2 _V-4 Y.R e4 YLR _V4 f+8 g8 f+4 E100,80,60,1,8 @1 EPX P17,12,5 V8 O2 c+16 _V-4 d16 e16 f+16 _V2 g16 a16 b16 > c+16 ) d16 e16 ) f+16 g16 H1 ]2 H-1 
!2  V8 B1 E100,80,60,1,8 @1 P16,12,5 V8 H-1 O1 g16 _V-2 > c16 ( e16 ( g16 _V2 e16 g16 > c16 e16 _V2 c16 e16 g16 > c16 < g16 > c16 _V-2 d16 ) d+16 ) L [ EP-4,0,0,3,0 E80,100,80,1,13 @@2,2,0 P20,10,4 O3 V10 e2 _V-6 Y.R e4 YLR _V6 g4 f+2 _V-6 YL. f+4 YLR _V6 a4 g2 _V-6 Y.R g4 YLR _V4 a8 b8 _V2 > c8 _V-6 c8 _V6 < b8 _V-6 b8 _V6 a8 _V-6 a8 _V6 g8 _V-6 g8 _V6 e2 _V-6 Y.R e4 YLR _V6 g4 f+2 _V-6 YL. f+4 YLR _V6 a4 g2 _V-6 Y.R g4 YLR _V6 a8 b8 a2 _V-6 Y.R a2 YLR _V5 e2 _V-6 Y.R e4 YLR _V6 g4 f+2 _V-6 YL. f+4 YLR _V6 a4 g2 _V-6 Y.R g4 YLR _V4 a8 b8 _V2 > c8 _V-6 c8 _V6 < b8 _V-6 b8 _V6 a8 _V-6 a8 _V6 g8 _V-6 g8 _V6 e2 _V-6 Y.R e4 YLR _V6 g4 f+2 _V-6 YL. f+4 YLR _V6 a4 g2 _V-6 Y.R g4 YLR _V6 a8 b8 a4 E100,80,60,1,8 @1 EPX P16,12,5 V8 O2 a16 _V-4 b16 > c+16 d16 _V2 e16 f+16 g16 a16 ) b16 > c+16 ) d16 e16 V8 @2 EX < H1 ]2 H-1 
!3  `9F00 `2E06 H-1 @A3 `AE00 B1 O0 V3 E100,80,30,5,16 O0 r2. V2 a12 V1 a+12 b12 V3 > L [ [ [ c6 V1 c12 V3 c12 V2 c12 < c12 > V3 ]7 V3 c12 V1 c12 V3 c12 V1 c12 V3 < V2 c6 V3 > [ c6 V1 c12 V3 c12 V2 c12 < c12 > V3 ]6 d6 V1 d12 V3 d12 V2 d12 < d12 > V3 d12 V1 d12 V3 d12 V1 d12 V3 < V2 d6 V3 > ]2 H1 ]2 H-1 
!4  @8 x4. @6 x4 x8 @7 x4 L [ [ @8 x4 @5 x12 x12 x12 [ x4 x12 x12 x12 ]14 @5 x6 x6 x6 ]2 ]2 
!5  O2 V1 H-1 @4 c4 V0 [ c24 c24 c24 c24 c24 c24 ]2 < V1 g4 > L [ @25 W0,70,70 [ [ V1 c12 YL. V0 c12 Y.R c12 YLR V1 c12 c12 c12 V1 c12 Y.R V0 c12 YL. c12 YLR V1 c12 c12 c12 ]3 V1 c12 YL. V0 c12 Y.R c12 YLR V1 c12 c12 c12 V1 c12 Y.R V0 c12 YLR V1 c12 YL. V0 c12 YLR V1 c12 Y.R V0 c12 YLR [ V1 c12 YL. V0 c12 Y.R c12 YLR V1 c12 c12 c12 V1 c12 Y.R V0 c12 YL. c12 YLR V1 c12 c12 c12 ]3 V1 d12 YL. V0 d12 Y.R d12 YLR V1 d12 d12 d12 V1 d12 Y.R V0 d12 YLR V1 d12 YL. V0 d12 YLR V1 d12 Y.R V0 d12 YLR ]2 H1 ]2 H-1 
!6  O2 V1 @0 c2. V0 c4 L [ V1 @8 O1 b4 O2 V0 @0 c4 c4 c4 [ c4 c4 c4 c4 ]6 c4 @4 V0 c4 c24 c24 c24 c24 c24 c24 V1 c8 < g8 > ]2 [ V1 @8 O2 c+4 O2 V0 @0 c4 c4 c4 [ c4 c4 c4 c4 ]6 c4 @4 V0 c4 c24 c24 c24 c24 c24 c24 V1 c8 < g8 > ]2 
