;029 001EE87A
!1  T135 _1 r4 L @@1,2,1 O2 V4 Y.R EX P49,13,4 D2 r32 c8 _V-3 c16 _V3 < g16 > c4 _V-3 Y.R c8 YL. c8 _V3 Y.R c8 _V-3 c16 _V3 < g16 > c2 _V-3 Y.R c8 YL. c8 _V3 Y.R c16 d16 e16 f16 d2.~ d8~ d32 > _V-2 YLR D0 P49,15,2 @@2,2,0 E100,100,85,5,3 O2 V7 a+32 r32 a+2. _V-2 Y.R a+8 YL. a+8 _V4 @@1,2,1 O2 V4 YLR P49,15,2 g8 _V-3 g16 _V3 e16 g4 _V-3 Y.R g8 YL. g8 _V3 YLR g8 _V-3 g16 _V3 e16 g2 _V-3 Y.R g8 YL. g8 _V3 YLR > c16 d16 e16 g16 f2.~ f8. P49,15,2 @@2,2,0 V7 E100,100,60,16,2 < f32 r32 f2. _V-2 Y.R f8 YL. f8 _V2 YLR @@1,2,1 O3 V6 P49,15,2 E100,93,65,33,25 f2~ f16 < a16 > c16 f16 g16 < b16 > d16 g16 a2. _V-4 Y.R a8 YL. a8 _V4 YLR g+2~ g+16 c16 d+16 g+16 d16 < a+16 > d16 f16 d+2. _V-4 Y.R d+8 YL. d+8 _V4 YLR < < a+2~ a+8 _V-4 a+8 _V4 a+4 > c2~ c8 _V-4 c8 _V4 @@1,2,1 f8 r16 c16 g2~ g8 _V-4 g8 _V4 g8 r16 g16 > c2~ c8 _V-4 c8 _V4 c8 r16 c16 d4 _V-4 Y.R d16 YL. d16 _V4 YLR [ d32 r32 ]2 [ d16 r16 ]4 [ c16 r16 ]2 [ c32 r32 ]4 < [ b16 r16 ]2 r4 @@1,2,1 V7 O2 P49,15,4 E100,100,70,33,25 [ r2 r8 [ c32 r32 ]2 e16 r16 c16 r16 d2. _V-5 Y.R d8 YL. d8 _V5 YLR ]2 r2 r8 [ e32 r32 ]2 g16 r16 > c16 r16 d8. _V-4 d16 _V4 d12 c12 < a+12 > d8. _V-4 d16 _V4 f12 e12 d12 c16 d16 e8~ e2 _V-5 Y.R e8 YL. e8 YLR @@1,0,3 V6 < < a+12 > d12 f12 a+4 _V-3 a+8 _V3 a+16 > c16 d8 c16 < a+16 > c8 _V-3 c8 _V2 Y.R c8 _V-2 c8 ) YL. c8 @@1,2,1 V7 O2 YLR [ c32 r32 ]2 e16 r16 c16 r16 d4. > D1 Y.R V6 @@1,1,2 [ a+32 r32 ]2 a+8 a16 g16 f8 g16 a16 g8 _V-3 g8 ) Y.R g8 _V-3 g8 ) YL. g8 YLR @@1,2,1 < D0 V7 [ c32 r32 ]2 e16 r16 c16 r16 d4. @@1,1,2 > D1 YLR V7 [ g32 r32 ]2 g8 f16 e16 d16 e16 f16 d16 e8 _V-3 e8 ) Y.R e8 _V-3 e8 ) YL. e8 YLR < @@1,2,1 D0 V7 [ e32 r32 ]2 g16 r16 > c16 r16 < P4,11,1 [ a+2 _V-4 a+4 _V4 a+16 r16 [ a+32 r32 ]2 H< H< ]2 H0 @@1,0,1 E100,100,50,5,2 > [ [ c16. _V-5 c32 _V5 [ c32 r32 ]2 c16 _V-4 c16 _V4 ]2 c16. _V-5 c32 _V5 [ c32 r32 ]2 ]2 [ r1 ]4 
!2  r4 _1 L @@1,2,1 O2 V7 YLR E93,93,60,33,25 P49,13,4 c8 _V-4 c16 _V4 < g16 > c4 _V-4 Y.R c8 YL. c8 _V4 YLR c8 _V-4 c16 _V4 < g16 > c2 _V-4 Y.R c8 YL. c8 _V4 YLR c16 d16 e16 f16 d2.~ d8. > _V-2 P41,15,2 @@2,2,0 D1 d32 r32 d2. _V-3 Y.R d8 YL. d8 D0 @@1,2,1 O2 V7 YLR P49,13,3 c8 _V-4 c16 _V4 < g16 > c4 _V-4 Y.R c8 YL. c8 _V4 YLR c8 _V-4 c16 _V4 < g16 > c2 _V-4 Y.R c8 YL. c8 _V4 YLR e16 f16 g16 > c16 < a+2.~ a+8. > _V-2 P57,15,1 @@2,2,0 E100,100,60,16,2 < a+32 r32 a+2. _V-3 Y.R a+8 YL. a+8 _V6 YLR @@1,2,1 O2 V8 P49,15,2 E100,93,65,33,25 a2~ a16 c16 f16 a16 b16 d16 g16 b16 > c2. _V-4 Y.R c8 YL. c8 _V4 YLR c2~ c16 < d+16 g+16 > c16 < a+16 d16 f16 a+16 g2. _V-4 Y.R g8 YL. g8 _V4 YLR g2~ g8 _V-4 g8 _V4 g8 f16 g16 g+2~ g+8 _V-4 g+8 _V4 @@1,2,1 g+8 r16 g+16 > c2~ c8 _V-4 c8 _V4 c8 r16 c16 f2~ f8 _V-4 f8 _V4 f8 r16 f16 g4 _V-4 Y.R g16 YL. g16 _V4 YLR [ g32 r32 ]2 [ g16 r16 ]4 [ g16 r16 ]2 [ g32 r32 ]4 [ g16 r16 ]2 r4 @@1,2,1 V8 O2 P49,15,3 E100,100,70,33,25 [ r2 r8 [ g32 r32 ]2 > c16 r16 < g16 r16 a+2. _V-5 Y.R a+8 YL. a+8 _V4 YLR ]2 r2 r8 [ g32 r32 ]2 > c16 r16 e16 r16 f8. _V-4 f16 _V4 f12 e12 d12 a+8. _V-4 a+16 _V4 a12 g12 f12 e16 f16 g8~ g2 _V-5 Y.R g8 YL. g8 _V4 YLR @@1,0,3 < < d12 f12 a+12 > d4 _V-4 d8 _V4 d16 e16 f8 e16 d16 e8 _V-4 e8 _V2 Y.R e8 _V-2 e8 ) YL. e8 @@1,2,1 V8 O2 YLR [ g32 r32 ]2 > c16 r16 < g16 r16 a+4. @@1,1,2 > V6 [ a+32 r32 ]2 a+8 a16 g16 f8 g16 a16 g8 _V-3 g8 ) Y.R g8 _V-3 g8 ) YL. g8 YLR < @@1,2,1 V8 [ g32 r32 ]2 > c16 r16 < g16 r16 a+4. @@1,1,2 > V7 [ a+32 r32 ]2 a+8 a16 g16 f16 g16 a16 f16 g8 _V-3 g8 _V2 Y.R g8 _V-3 g8 ) YL. g8 YLR < @@1,2,1 V8 [ g32 r32 ]2 > c16 r16 e16 r16 P4,11,1 [ f2 _V-4 f4 _V4 f16 r16 [ f32 r32 ]2 H< H< ]2 H0 @@1,0,1 E100,100,50,5,2 D1 [ [ d16. _V-5 d32 _V5 [ d32 r32 ]2 d16 _V-4 d16 _V4 ]2 d16. _V-5 d32 _V5 [ d32 r32 ]2 H5 D0 ]2 H0 [ r1 ]4 
!3  _1 `9F00 `AE00 @A3 E100,100,70,3,2 V3 O0 g4 > L `9F00 `AE00 @A3 E100,100,70,3,2 V3 O1 [ V3 c8 V2 c8 c8 c8 c8 c8 c8 c8 ]8 f8 [ f8 ]3 V3 f8 V2 f8 V3 g8 V2 g8 V3 a8 [ a8 ]3 [ a8 ]4 g+8 [ g+8 ]3 V3 g+8 V2 g+8 V3 a+8 V2 a+8 V3 d+8 [ d+8 ]3 [ d+8 ]4 [ V3 g8 g8 g8 g8 g8 g8 g8 g8 H-2 ]2 H0 [ V3 e8 e8 e8 e8 e8 e8 e8 e8 H-1 ]2 H0 V3 d8 d8 d8 d8 d8 d8 d8 d8 V3 g8 g8 g8 g8 g8 g8 V3 g8 g8 O1 [ c8 c8 c8 c8 c8 c8 c8 < g8 > ]8 O1 [ c8 c8 c8 c8 c8 c8 c8 < g8 > ]4 O1 c8 c8 c8 c8 c8 c8 c8 c8 [ < g+4~ g+8 g+32 r32 V2 g+16 > V3 d+16 r16 c+16 r16 g+4 H< H< ]2 H0 [ d4 r8 ]2 d4 < [ g4 r8 ]2 g4 > V2 [ c1~ c2. r8 < g8 > ]2 
!4  r4 L @8 x4 @5 x8 @6 x8 @5 x8 @6 x8 @5 x8 @6 x8 [ @5 x8 @6 x8 @5 x8 @6 x8 @5 x8 @6 x8 @5 x8 @6 x8 ]2 @5 x8 @6 x8 @5 x8 @6 x8 @5 x8 @6 x8 @5 x8 @7 x8 @8 x4 @5 x8 @6 x8 @5 x8 @6 x8 @5 x8 @6 x8 [ @5 x8 @6 x8 @5 x8 @6 x8 @5 x8 @6 x8 @5 x8 @6 x8 ]2 @5 x8 @6 x8 @5 x8 @6 x8 @5 x8 @6 x8 @5 x8 @7 x8 @8 x4 @5 x8 @6 x8 @5 x8 @6 x8 @5 x8 @6 x8 [ @5 x8 @6 x8 @5 x8 @6 x8 @5 x8 @6 x8 @5 x8 @6 x8 ]7 @8 x4 @5 x8 @6 x8 [ @5 x16 @6 x16 @7 x8 ]2 @8 x4 @5 x8 @6 x8 @8 x8 x8 @5 x16 @6 x16 @7 x8 [ @8 x4 @1 x8 @5 x8 @4 x8 @1 x8 @4 x8 @7 x8 @4 x8 @5 x8 @1 x8 @5 x8 @4 x8 @1 x8 @4 x8 @7 x8 ]4 [ @8 x4 @1 x8 @5 x8 @4 x8 @1 x8 @4 x8 @7 x8 @4 x8 @5 x8 @1 x8 @5 x8 @4 x8 @1 x8 @4 x8 @7 x8 ]2 @8 x4 @1 x8 @5 x8 @4 x8 @1 x8 @4 x8 @7 x8 [ @8 x2. @7 x4 ]2 [ @8 x4 @6 x16 x16 @7 x8 @5 x16 @6 x16 x16 x16 @7 x8 @5 x16 @6 x16 ]2 [ @8 x4 @5 x16 @6 x16 @7 x8 @5 x16 @6 x16 @5 x16 @6 x16 @5 x16 @6 x16 @7 x8 @5 x16 @6 x16 @5 x16 @6 x16 @5 x16 @6 x16 @7 x8 @5 x16 @6 x16 @5 x16 @6 x16 @5 x16 @6 x16 @7 x8 ]2 
!5  V1 YLR O2 @24 c+16 V0 c16 V1 c+16 c16 L V1 YLR O2 [ @0 c4 @1 c4 @0 c4 @1 c4 ]3 @0 c4 @1 c4 @0 c8. r32 V0 @1 c32 V1 c+8 @0 c8 [ @0 c4 @1 c4 @0 c4 @1 c4 ]3 @0 c4 @1 c4 @0 c8. r32 V0 @1 c32 V1 c+8 @0 c8 [ @0 c4 @1 c4 @0 c4 @1 c4 ]7 @0 c4 @1 c4 @0 c8. r32 V0 @1 c32 V1 c+16 @2 c16 < a8 _1 @4 O1 d4 _0 @1 O2 c8 _1 @4 O1 d16 d16 d8 d8 _0 @1 O2 c8 _1 @4 O1 d8 @4 O1 g4 _0 @1 O2 c8 _1 @4 O1 g16 g16 g8 g8 _0 @1 O2 c16 V0 c16 V1 c16 c16 @4 O2 _1 [ c4 r8 c16 c16 c8 V0 c8 c8 c8 V1 c4 r8 c16 c16 c8 V0 c8 < V1 g16 g16 V0 g16 g16 > V1 ]4 [ c4 r8 c16 c16 c8 V0 c8 c8 c8 V1 c4 r8 c16 c16 c8 V0 c8 < V1 g16 g16 V0 g16 g16 > V1 ]2 c4 r8 c16 c16 c8 V0 c8 c8 c8 V1 @4 O1 g+4 r8 _0 @24 O2 d16 V0 c16 V1 c+8 V0 c8 _1 V1 @4 O1 g+8 V0 g+16 V1 g+16 @4 O1 f+4 r8 _0 @24 O2 d16 V0 c16 V1 c+8 V0 c8 _1 V1 @4 O1 f+8 V0 f+16 V1 f+16 O2 d8 _0 @24 c+16 c16 V0 c16 c16 _1 @4 V1 d8 _0 @24 c+16 c16 V0 c16 c16 _1 @4 V1 d8 _0 @24 c+16 c16 O1 V1 _1 @4 g8 _0 @24 O2 c+16 c16 V0 c16 c16 _1 @4 V1 O1 g8 _0 @24 O2 c+16 c16 V0 c16 c16 V1 _1 @4 O1 g16 g16 g16 g16 @24 O2 _0 [ V1 c+8 V0 c+16 c+16 c+8 c+8 c+8 c+8 V1 c+16 V0 c+16 c+16 c+16 ]4 
!6  V1 YLR O1 _1 @4 g8 V0 g16 g16 L @4 V1 O2 c8. O1 @15 W0,77,44 r16 r2. r1 r4 d4 e4 f4 a+2~ a+8 a8 g8 f8 e1 [ r1 ]2 @43 W0,91,11 O1 r4 a+16 f16 d16 < a+16 > f16 d16 < a+16 f16 > d16 < a+16 f16 d16 f2~ f16 a16 > c16 f16 < g16 b16 > d16 g16 e4. @15 O2 e24 e24 e24 a16 V0 a16 V1 e16 V0 e16 V1 c16 V0 c16 < V1 a16 V0 a16 V1 @43 W0,91,11 O0 d+2~ d+16 g+16 > c16 d+16 < f16 a+16 > d16 f16 d+4. @15 O2 a+24 a+24 a+24 > d+16 V0 d+16 < V1 a+16 V0 a+16 V1 g16 V0 g16 V1 d+16 V0 d+16 V1 @43 W0,91,11 O1 d2. d8 c16 d16 d+1 @15 W0,77,44 > d2~ d8 V0 d8 V1 d8 r16 d16 g4. @13 O1 g24 g24 g24 > c16 V0 c16 < V1 g16 V0 g16 V1 > c16 V0 c16 V1 f16 V0 f16 V1 @43 O2 [ g16 d16 < a16 > d16 ]4 [ g16 d16 < b16 > d16 ]2 [ g16 r16 ]2 @4 O1 g16 V0 g16 V1 g16 V0 g16 @43 O2 [ V1 [ c16 < g16 c16 g16 > ]2 V0 [ c16 < g16 c16 g16 > ]2 < V1 [ a+16 f16 c16 f16 ]2 V0 [ a+16 f16 c16 f16 ]2 > ]3 V1 [ c16 < g16 c16 g16 > ]2 V0 [ c16 < g16 c16 g16 > ]2 @15 O1 V1 d12 f12 a+12 > @15 W0,44,12 d4 V0 d8 V1 d16 e16 f8 e16 d16 @43 O2 [ V1 [ c16 < g16 c16 g16 > ]2 V0 [ c16 < g16 c16 g16 > ]2 < V1 [ a+16 f16 c16 f16 ]2 V0 [ a+16 f16 c16 f16 ]2 > ]2 V1 [ c16 < g16 c16 g16 > ]2 V0 [ c16 < g16 c16 g16 > ]2 @15 W0,44,12 O2 P4,11,1 [ V1 c+2. c+16 r16 [ V0 c+32 r32 ]2 H< H< ]2 H0 PX @3 O1 [ [ V1 g8 V0 g16 g16 g8 ]2 V1 g8 V0 g16 g16 ]2 [ @4 O2 V1 YLR c4 _0 @1 V0 YL. r64 c8 c8 c8 c8 c16 c16 c16 c16 c8 c16 c16 c8 c8 c8 c8 c16 c32. _1 @4 O1 V1 YLR g8 ]2 
