;031 001EF952
!1  T180 r8 r2 @@1,2,3 E100,60,20,2,15 D-1 r64 [ V3 O3 [ [ Y.R g16 YL. e16 Y.R c+16 < YL. a+16 > ]2 [ Y.R g16 YL. e16 Y.R c+16 < YL. a+16 > ]2 H> H> H> ]2 H< H< H< H< [ [ Y.R g16 YL. e16 Y.R c+16 < YL. a+16 > ]2 ) [ Y.R g16 YL. e16 Y.R c+16 < YL. a+16 > ]2 H< ]2 H0 ]2 L @1 E80,100,80,4,7 P15,8,0 r64 YLR B2 D0 V4 O3 a+4. >~ c8~ c+4.~ d+8 e2 V2 e8 V4~ e8~ g8~ a+8 a4. f+8~ f+4. V2 f+8 V4~ g+4.~ f4~ d8~ f8 <~ b8 V4 O3 a+4. >~ c8~ c+4.~ d+8 e4.~ f+8~ g4.~ a8 a+4.~ > c8~ c+4.~ d+8~ e2~ e4. V2 e16. [ @@1,2,0 EP-2,0,0,1,0 YLR O3 V4 c+16 c+16 c+16 c+16 c+16 Y.R V2 c+16 YLR V4 c+16 c+16 c+16 c+16 c+16 YL. V2 c+16 YLR V4 c+16 c+16 c+16 c+16 c+16 Y.R V2 c+16 @@1,2,3 E100,60,20,2,15 D-1 r64 V3 O3 Y.R c+16 < YL. a+16 > [ Y.R g16 YL. e16 Y.R c+16 YL. < a+16 > ]2 Y.R g16 YL. e16 Y.R c+16 YL. < a+32. > D0 H> ]2 H0 @@1,2,0 EP-2,0,0,1,0 YLR O3 V4 c+16 c+16 c+16 c+16 c+16 Y.R V2 c+16 YLR V4 c+16 c+16 c+16 c+16 c+16 YL. V2 c+16 YLR V4 c+16 c+16 c+16 c+16 c+16 Y.R V2 c+16 @@1,2,3 E100,60,20,2,15 D-1 r64 V3 O3 Y.R c+16 < YL. a+16 > [ Y.R g16 YL. e16 Y.R c+16 YL. < a+16 > ]2 Y.R g16 YL. e16 Y.R c+16 YL. < a+32. > D0 H< @@1,2,0 EP-2,0,0,1,0 YLR O3 V4 c+16 c+16 c+16 c+16 c+16 Y.R V2 c+16 YLR V4 c+16 c+16 c+16 c+16 c+16 YL. V2 c+16 YLR V4 c+16 c+16 c+16 c+16 c+16 Y.R V2 c+16 @@1,2,3 E100,60,20,2,15 D-1 r64 V3 O3 Y.R c+16 < YL. a+16 > Y.R g16 YL. e16 Y.R c+16 YL. < a+16 ) Y.R g16 YL. a+16 Y.R > c+16 YL. d+16 Y.R ) g16 YL. a+16 Y.R > c+16 YL. d+32. D0 H0 EPX PX EX 
!2  r8 r2 @@1,0,3 [ V4 O3 [ [ g16 e16 c+16 < a+16 > ( ]2 ) [ g16 e16 c+16 < a+16 > ) ]2 H> H> H> ]2 H< H< H< H< [ [ g16 e16 c+16 < a+16 > ( ]2 ) [ g16 e16 c+16 < a+16 > ) ]2 H< ]2 H0 ]2 L @@1,0,3 V4 O3 [ [ g16 e16 c+16 < a+16 > ( ]2 ) [ g16 e16 c+16 < a+16 > ) ]2 H> H> H> ]2 H< H< H< H< [ [ g16 e16 c+16 < a+16 > ( ]2 ) [ g16 e16 c+16 < a+16 > ) ]2 H< ]2 H0 V4 O3 [ [ g16 e16 c+16 < a+16 > ( ]2 ) [ g16 e16 c+16 < a+16 > ) ]2 H> H> H> ]2 [ [ g16 e16 c+16 < a+16 > ( ]2 ) [ g16 e16 c+16 < a+16 > ) ]2 H> H> H> ]2 H0 [ @@1,2,0 EP-2,0,0,1,0 YLR O3 V6 g16 g16 g16 g16 g16 Y.R V3 g16 YLR V6 g16 g16 g16 g16 g16 YL. V3 g16 YLR V6 g16 g16 g16 g16 g16 Y.R V3 g16 @@1,0,3 EPX V2 O3 YLR c+16 < a+16 > [ g16 e16 c+16 < a+16 > ) ]3 H> ]2 H0 @@1,2,0 EP-2,0,0,1,0 YLR O3 V6 g16 g16 g16 g16 g16 Y.R V3 g16 YLR V6 g16 g16 g16 g16 g16 YL. V3 g16 YLR V6 g16 g16 g16 g16 g16 Y.R V3 g16 @@1,0,3 EPX V2 O3 YLR c+16 < a+16 > [ g16 e16 c+16 < a+16 > ) ]3 H< @@1,2,0 EP-2,0,0,1,0 YLR O3 V6 g16 g16 g16 g16 g16 Y.R V3 g16 YLR V6 g16 g16 g16 g16 g16 YL. V3 g16 YLR V6 g16 g16 g16 g16 g16 Y.R V3 g16 @@1,0,3 EPX EX PX V2 O3 YLR c+16 < a+16 > g16 e16 c+16 < a+16 _V2 g16 a+16 > c+16 e16 _V2 g16 a+16 > c+16 e16 H0 EPX 
!3  r8 B2 `9F00 @A3 @B0 @~3 P15,8,12 O0 V3 e6 f6 f+6 [ [ [ g8 >~ g8 < ]4 H> H> H> ]2 H< H< H< H< [ [ g8 >~ g8 < ]4 H< ]2 ]2 L [ [ g8 >~ g8 < ]4 H> H> H> ]2 H< H< H< H< [ [ g8 >~ g8 < ]4 H< ]2 [ [ g8 >~ g8 < ]4 H> H> H> ]2 [ [ g8 >~ g8 < ]4 H> H> H> ]2 H0 B4 [ [ O0 g4. >~ g4. <~ g4 >~ g4. <~ g4. >~ g4~ H> ]2 H0 ]2 O0 V3 
!4  r8 @8 Y.R x6 YL. x6 Y.R x6 [ YLR x4 [ @5 x16 @6 x16 x16 x16 ]6 @5 x16 @6 x16 @7 x8 [ @5 x16 @6 x16 x16 x16 ]7 @5 x16 @6 x16 @7 x8 @8 ]2 L [ YLR x4 [ @5 x16 @6 x16 x16 x16 ]6 @5 x16 @6 x16 @7 x8 [ @5 x16 @6 x16 x16 x16 ]7 @5 x16 @6 x16 @7 x8 @8 ]2 [ @8 x8. @6 x16 [ @5 x16 @6 x16 x16 x16 ]2 @5 x16 @6 x16 @7 x8 [ @5 x16 @6 x16 x16 x16 ]3 @5 x16 @6 x16 @7 x8 ]4 
!5  @0 V0 O2 c16 c16 @24 c6 c6 c6 [ @8 O1 YLR V1 g12. V0 Y.R g12. YLR O2 V1 @0 @24 c4 r8 @0 c8 @24 c8. @0 V0 c16 [ V1 @0 c4 @24 c4 r8 @0 c8 @24 c8. @0 V0 c16 ]3 ]2 L [ @8 O1 YLR V1 g12. V0 Y.R g12. YLR O2 V1 @0 @24 c4 r8 @0 c8 @24 c8. @0 V0 c16 [ V1 @0 c4 @24 c4 r8 @0 c8 @24 c8. @0 V0 c16 ]3 ]2 [ [ @24 V1 c16 c16 c16 V0 c16 V1 c16 @0 V0 c16 ]2 @24 V1 c16 c16 c16 @0 V0 c32 V1 c32 V1 c4 @0 V0 c4 c4 c4 ]4 
!6  r8 @8 V1 O1 YLR e12. V0 YL. e24 V1 YLR f12. V0 Y.R f24 V1 YLR f+12. V0 YL. f+24 [ @44 O3 [ [ YLR V1 g32 Y.R V0 g32 YLR V1 e32 YL. V0 g32 YLR V1 c+32 Y.R V0 e32 YLR V1 < a+32 > YL. V0 c+32 < ]2 O3 [ YLR V1 g32 Y.R V0 g32 YLR V1 e32 YL. V0 g32 YLR V1 c+32 Y.R V0 e32 YLR V1 < a+32 > YL. V0 c+32 < ]2 O3 H> H> H> ]2 H< H< H< H< [ [ YLR V1 g32 Y.R V0 g32 YLR V1 e32 YL. V0 g32 YLR V1 c+32 Y.R V0 e32 YLR V1 < a+32 > YL. V0 c+32 < ]2 O3 [ YLR V1 g32 Y.R V0 g32 YLR V1 e32 YL. V0 g32 YLR V1 c+32 Y.R V0 e32 YLR V1 < a+32 > YL. V0 c+32 < ]2 O3 H< ]2 H0 ]2 L @40 W0,97,0 YLR B2 V1 O1 a+4. >~ c8~ c+4.~ d+8 e2 V0 e8 V1~ e8~ g8~ a+8 a4. f+8~ f+4. V0 f+8 V1~ g+4.~ f4~ d8~ f8 <~ b8 V1 O1 a+4. >~ c8~ c+4.~ d+8 e4.~ f+8~ g4.~ a8 a+4.~ > c8~ c+4.~ d+8 e2.~ e8 V0 e8 V1 [ [ @8 O1 g16 V0 g16 g16 g16 V1 g16 V0 g16 V1 ]2 g16 V0 g16 g16 g16 V1 g8 @4 O2 c8 < g8 Y.R V0 g8 YLR V1 > @4 c8 < g8 YL. V0 g8 YLR V0 g24 g24 g24 H> ]2 H0 [ [ @8 O1 g16 g16 g16 g16 g16 V0 g16 V1 ]2 g16 g16 g16 g16 g8 @4 O2 c8 < g8 Y.R V0 g8 YLR V1 > @4 c8 < g8 YL. V0 g8 YLR V0 g24 g24 g24 H< ]2 H0 
