;034 001F0AAC
!1  T160 r3 L E100,60,0,4,16 @@2,1,3 EPX PX O1 [ V6 f6 V4 f6 f6 f6 ]2 [ V6 g6 V4 g6 g6 ]2 V6 g6 V4 g6 V6 g+6 V4 g+6 g+6 g+6 g+6 V6 g+6 V4 g+6 g+6 [ a+6 V6 a+6 V4 ]2 a+6 a+6 E80,100,80,3,16 EP-2,0,0,1,0 @@0,2,0 P23,11,2 O2 V4 d+12 e12 f12 f+12 V6 f3~ f3~ f3~ f6 e12 f12 e3~ e3~ e6 _V-4 e6 E80,100,80,3,16 EP-2,0,0,1,0 @@0,2,0 O2 V6 < g12 > c12 d12 f12 g3 e3 f3 f12 e6 d12 e3 < g3 > c3 c12 < a+6 a12 a+3 g6 a6 a+6 > c3 d6 e3~ e3 _V-4 EX EPX @0 e3 E80,100,80,3,16 EP-2,0,0,1,0 @@0,2,0 V6 < g12 > c12 d12 f12 g3 e3 f3 f12 e6 d12 e3 < g3 > c3 c12 < a+6 a12 a+3 > c6 d6 e6 f3 g6 d3~ d6~ d12 c+24 d24 c+3~ c+3 E80,100,70,3,16 @3 O2 V4 [ d6 d6 _V-2 d6 _V2 d6 e6 e6 _V-2 e6 _V2 e6 c+6 c+6 _V-2 c+6 _V2 c+6 d6 d6 _V-2 d6 _V2 d6 ]3 O2 V4 D-1 r24 Y.R d12 c+12 d12 e12 f12 e12 f12 g12 a12 g+12 a12 b12 > c+12 d12 e12 c+12 YL. d12 c+12 d12 e12 f12 e12 f12 g12 a12 g+12 a12 b12 > c+12 d12 e12 c+24 D0 V6 YLR < < g+3~ g+3. _V-4 g+6 _V4 a+3 a3~ > B28 a3~ a3~ a6 _V-4 a6 B3 
!2  r3 L E100,60,0,4,16 @@2,1,3 EPX PX O2 [ V8 c6 V4 c6 c6 c6 ]2 [ V8 d6 V4 d6 d6 ]2 V8 d6 V4 d6 V8 d+6 V4 d+6 d+6 d+6 d+6 V8 d+6 V4 d+6 d+6 [ f6 V8 f6 V4 ]2 f6 f6 E80,100,80,3,16 EP-2,0,0,1,0 @@0,2,0 P23,11,2 V6 O2 g+12 a12 a+12 b12 > V8 c3~ c3~ c3~ c3~ c3~ c3~ c6 _V-6 c6 E80,100,80,3,16 EP-2,0,0,1,0 @@0,2,0 V8 O3 c12 f12 g12 a+12 > c3 < g3 a+3 a12 g6 f12 g3 c3 f3 e12 d6 c12 d3 < a+6 > c6 d6 e3 f6 g3~ g3 _V-6 EX EPX @0 g3 E80,100,80,3,16 EP-2,0,0,1,0 @@0,2,0 V8 c12 f12 g12 a+12 > c3 < g3 a+3 a12 g6 f12 g3 c3 f3 e12 d6 c12 d3 e6 f6 g6 a3 b6 a3~ a3 a3~ a3 E80,100,70,3,16 @3 O2 V6 [ f6 f6 _V-4 f6 _V2 f6 _V2 g6 g6 _V-4 g6 _V2 g6 _V2 e6 e6 _V-4 e6 _V2 e6 _V2 f6 f6 _V-4 f6 _V2 f6 _V2 ]3 O2 [ d12 c+12 d12 e12 f12 e12 f12 g12 a12 g+12 a12 b12 > c+12 d12 e12 c+12 ]2 V8 < d3~ d3. _V-4 d6 _V4 e3 c+3~ > B28 c+3~ c+3~ c+6 _V-6 c+6 B3 
!3  r3 L @A3 @B0 @~5 EX O0 [ V3 f6 V2 f6 f6 f6 ]2 [ V3 g6 V2 g6 g6 ]2 V3 g6 V2 g6 V3 g+6 V2 g+6 g+6 g+6 g+6 V3 g+6 V2 g+6 g+6 a+6 V3 a+6 V2 a+6 V3 a+6 V2 a+6 a+6 a+6 a+6 O1 V3 [ V3 c6 V2 c6 c6 c6 ]2 V3 c6 V2 c6 c6 < g6 V3 c3 V2 c3 `9F00 `AE00 E100,70,70,3,0 @A3 @~X [ V3 c6 V2 c6 ]2 [ V3 d6 V2 d6 ]2 V3 e6 V2 e6 V3 f6 V2 f6 V3 a6 V2 a6 V3 g6 V2 g6 < V3 a+6 V2 a+6 > V3 c6 V2 c6 V3 d6 V2 d6 V3 f6 V2 f6 V3 e6 V2 e6 V3 d6 V2 d6 V3 c6 V2 c6 < V3 g6 V2 g6 > [ V3 c6 V2 c6 ]2 [ V3 d6 V2 d6 ]2 V3 e6 V2 e6 V3 f6 V2 f6 V3 a6 V2 a6 V3 g6 V2 g6 < V3 a+6 V2 a+6 V3 g6 V2 g6 > V3 c6 V2 c6 V3 d6 V2 d6 V3 e6 V2 e6 V3 d6 V2 d6 V3 c+6 V2 c+6 < V3 a6 V2 a12 V3 a12 [ V3 d6 V2 d3 < V2 a12 V3 a12 > d6 V1 d3 < V2 a12 V3 a12 > d6 d6 d12 V2 d12 d12 d12 V3 d6 d6 r6 < V2 a12 V3 a12 > ]3 d6 V2 d3 < V2 a12 V3 a12 > d6 V1 d3 < V2 a12 V3 a12 > d6 d6 d12 V2 d12 d12 d12 V3 d6 d6 r3 < f3~ f3~ f3 g6 >~ c+6 < e3 >~ B28 c+3~ c+6~ c+3 V2 c+6 B3 
!4  r3 L @8 x6 @6 x6 x6 x12 x12 @8 x6 @6 x6 x6 x6 [ @8 x6 @6 x6 x6 ]2 @7 x6 @6 x6 @8 x6 @6 x6 x12 x12 x6 x6 @8 x6 @6 x6 x6 x12 x12 [ @8 x6 @6 x6 ]2 @6 x6 @5 x6 @6 x6 [ @8 x6 @6 x6 x6 x12 x12 ]2 @8 x6 @6 x6 x6 x6 @8 x6 @6 x6 @7 x3 @8 x3 [ @1 x6 @5 x6 ]3 [ @1 x6 @5 x6 ]4 [ @1 x6 @5 x6 ]4 [ @1 x6 @5 x6 ]3 @7 x3 @8 x3 [ @1 x6 @5 x6 ]3 [ @1 x6 @5 x6 ]4 [ @1 x6 @5 x6 ]4 [ @1 x6 @5 x6 ]3 Y.R @8 x3 YLR [ [ @1 x6 @5 x6 ]8 ]4 @8 x3. @6 x3 x6 @7 x3 @8 x3. @6 x3 x6 @5 x12 @6 x12 @7 x6 
!5  @1 V1 c24 V0 c24 c24 c24 V1 c24 V0 c24 c24 c24 L V1 YLR O1 @8 f6 Y.R V0 f6 V1 YLR O2 @0 c3 O1 @8 f3 O2 @0 c3 O1 @8 g3 O2 @0 c6 O1 @8 g6 O2 @0 c3 c3 O1 @8 V1 g+6 YL. V0 g+6 V1 YLR O2 @0 c3 c6 O1 @8 V1 g+6 O2 @0 c3 c6 O1 @8 V1 a+6 O2 @0 c6 @8 O1 a+6 O2 @0 c3 c6 V1 O1 @8 c+24 d24 d+24 e24 V1 YLR O2 @8 c6 Y.R V0 c6 V1 YLR O2 @0 c3 [ O2 @8 c3 O2 @0 c3 ]2 O2 @8 c3 @4 O1 V1 g24 V0 g24 g24 g24 g24 g24 g24 g24 > V1 c6 V0 YL. V0 c6 YLR @1 V1 c24 V0 c24 c24 c24 c24 c24 c24 c24 V1 c6 c6 V0 c24 c24 c24 c24 c24 c24 c24 c24 V1 c6. V0 c12 V1 c24 V0 c24 c24 c24 c24 c24 c24 c24 V1 c6 V0 c12 c12 c24 c24 c24 c24 c24 c24 c24 c24 V1 c6 c6 @1 V1 c24 V0 c24 c24 c24 c24 c24 c24 c24 V1 c6 c6 V0 c24 c24 c24 c24 c24 c24 c24 c24 V1 c6. V0 c12 V1 c24 V0 c24 c24 c24 c24 c24 c24 c24 V1 c6 V0 c12 c12 c24 c24 c24 c24 @4 O1 V1 g24 V0 g24 g24 g24 > V1 c6 V0 YL. c6 YLR @1 V1 c24 V0 c24 c24 c24 c24 c24 c24 c24 V1 c6 c6 V0 c24 c24 c24 c24 c24 c24 c24 c24 V1 c6. V0 c12 V1 c24 V0 c24 c24 c24 c24 c24 c24 c24 V1 c6 V0 c12 c12 c24 c24 c24 c24 c24 c24 c24 c24 V1 c6 c6 @1 V1 c24 V0 c24 c24 c24 c24 c24 c24 c24 V1 c12 V0 c12 c12 c12 V1 c24 V0 c24 c24 c24 c24 c24 c24 c24 V1 c6 c6 V1 c12 V0 c12 c12 c12 V1 c6 c12 V0 c12 V1 c24 V0 c24 c24 c24 @8 O1 V0 a6 O2 [ V1 d6 V1 @1 c3 V0 c24 c24 c24 c24 V1 c6 c3 V0 c24 c24 c24 c24 V1 c6 c6 c12 V0 c12 c12 c12 V1 c6 c6 c24 c24 c24 c24 @8 O1 V0 a6 > ]3 V1 d6 V1 @1 c3 V0 c24 c24 c24 c24 V1 c6 c3 V0 c24 c24 c24 c24 V1 c6 c6 c12 V0 c12 c12 c12 V1 c6 c6 c24 c24 c24 c24 @4 O1 V1 a24 V0 a24 a24 a24 V1 d6 Y.R V0 d6 YL. d6 r6 YLR r3 @4 V1 d24 V0 d24 d24 d24 d24 d24 d24 d24 V1 a6 Y.R V0 a6 YL. a6 r6 YLR r3 V1 g24 V0 g24 g24 g24 g24 g24 V1 g24 g24 
!6  @8 V0 O1 a24 a+24 b24 > c24 c+24 d24 d+24 e24 L @25 O0 [ V1 f6 V0 f6 f6 f6 ]2 [ V1 g6 V0 g6 g6 ]2 V1 g6 V0 g6 V1 g+6 V0 g+6 g+6 g+6 g+6 V1 g+6 V0 g+6 g+6 a+6 V1 a+6 V0 a+6 V1 a+6 V0 a+6 a+6 a+6 a+6 O1 [ V1 c6 V0 c6 c6 c6 ]3 V1 c6 V0 c6 @28 W0,95,58 V0 O2 V1 c12 V0 f12 g12 a+12 V1 > c3 < g3 a+3 a12 g6 f12 g3 c3 f3 e12 d6 c12 d3 < a+6 > c6 d6 e3 f6 g3~ g3~ g3 c12 f12 g12 a+12 > c3 < g3 a+3 a12 g6 f12 g3 c3 f3 e12 d6 c12 d3 e6 f6 g6 a3 b6 a3~ a3 a3~ a3 [ @4 YLR O1 V1 d6 Y.R V0 d3 YLR O2 @15 V0 a12 a12 V1 > d12 r12 < a6 V0 a3 r3. f12 e12 V1 d12 r12 < a6 V0 a6 @4 O1 V1 a24 V0 a24 a24 a24 ]3 @4 YLR O1 V1 d6 Y.R V0 d3 YLR O2 @15 V0 a12 a12 V1 > d12 r12 < a6 V0 a3 r3. f12 e12 V1 f3 V0 f6 @4 O1 V1 a24 V0 a24 a24 a24 > @40 W0,88,0 V1 d3~ d3~ d3 e3 c+3~ c+3 < a3 V0 a3 
