;038 001F1A2E
!1  T172 _1 L @1 O4 V4 E100,100,50,4,4 D1 r16 [ YL. d8 < d8 a8 d8 > Y.R d8 < d8 a8 d8 > ]4 YL. d8 < d8 a8 d8 > Y.R d8 @@1,2,1 O2 V5 E100,100,90,6,6 P13,9,4 YLR B15 d8 e8 f8~ f4 e4 d4 c4 d4.~ a8~ a2~ a2. _V-2 a8. D0 @@0,2,1 O1 YLR V5 E100,100,90,6,6 P13,9,3 r8 f16 r16 f8 _V-2 Y.R f8 _V2 YLR g16 r16 g8 _V-2 YL. g8 _V2 YLR a16 r16 a2. @@1,0,1 > > V4 YL. D1 r32 d16 e16 f16 g16 d16. < < D0 @@0,2,1 O1 YLR V5 a+16 r16 a+8 _V-2 Y.R a+8 _V2 YLR > c16 r16 c8 _V-2 YL. c8 _V2 YLR d16 r16 d2. @@1,0,1 > V4 YL. D1 r32 d16 e16 f16 g16 d16. D0 < @@0,2,1 O1 YLR V5 a+16 r16 a+8 _V-2 Y.R a+8 _V2 YLR > c16 r16 c8 _V-2 YL. c8 _V2 YLR d16 r16 d2 r8 d8 e8 f8~ f2~ f8 g8 f8 e8 r8 e8 r8 e8 _V-2 Y.R e8 YL. e8 r4 @@0,0,1 O2 V6 YLR P13,9,2 D1 r16. r4 a8 _V-3 Y.R a8 _V3 YLR a4 a+8 a8~ a2 f8 g8 a16 r16 a8~ a4 _V-3 a8 _V3 a4 g8 f8 e8~ e2 _V-3 Y.R e8 YL. e8 _V3 YLR r4 r4 f8 _V-3 Y.R f8 _V3 YLR f4 g8 f8~ f4. _V-3 f8 _V3 d8 e8 f8 a8~ a4 _V-3 a8 _V3 a4 g8 f8 a8 r2. r8 r32 D0 r4 f8 _V-3 Y.R f8 _V3 YLR f4 _V-3 f8 _V3 f8~ f2 d8 e8 f8 a8~ a4 _V-4 a8 _V4 a2 e8~ e2 r8 g8 a8 a+8~ a+2 _V-3 a+8 _V3 a+8 > c8 d8~ d2 _V-3 d8 _V3 < f4 > d16 _V-4 d16 _V4 d4. c4. < f8 e8~ e2 r2 @@1,1,2 O3 D1 r16. YL. V6 E100,100,80,10,6 r4 c8 _V-3 c8 _V3 c4 f4 g8. r16 g16 r16 g8~ g8 f8 e8 _V-3 e8 _V3 e4. f8 _V-3 Y.R f8 YL. f8 _V3 < a4~ a1 Y.R r4 f8 _V-3 f8 _V3 f4 > d8 r8 d4 _V-3 d8 _V3 c+4 d8 e8 < a8 > e4. f8~ f2~ f1 @@0,0,1 D1 YLR E100,100,90,6,6 r4 d8 _V-3 d8 _V3 d8 e8 f8 g8~ g4 _V-3 g8 _V3 g4 f8 e8 d8 c+4 < a8 r32 D0 P13,9,3 a8 b8 > c+8 d8~ d2 r8 d8 e8 f8~ f2 _V-3 f8 _V3 f8 e8 d8~ d2 _V-3 d8 _V3 < a+8 > d16 r16 d8~ d4. c4. e16 r16 e8 _V-3 Y.R e6 YL. e6 Y.R ( e6 _V4 YLR r2 @@1,2,1 V5 EX O3 f4 e8 d8~ d2 _V-3 d8 _V3 [ c16 _V-3 c16 _V3 ]3 c8 d8 e4 < g4 _V-3 g8 _V3 g4 f8 e16 _V-3 e16 _V3 e8 _V-3 e8 _V3 f4 _V-3 f8 _V3 > D1 d8 D0 c8 d8 e8 f4 e8 d8~ d2 _V-3 d8 _V3 [ c16 _V-3 c16 _V3 ]3 c8 d8 e8 _V-3 e8 _V3 e4 _V-3 e8 _V3 e4 d8 c8 e8 _V-3 e8 _V3 d4. D1 d8 D0 c8 d8 e8 f4 e8 d8~ d2 _V-3 d8 _V3 [ c16 _V-3 c16 _V3 ]3 c8 d8 e4 < g4 _V-3 g8 _V3 g4 f8 e16 _V-3 e16 _V3 e8 _V-3 e8 _V3 f4 _V-3 f8 _V3 > D1 d8 D0 c8 d8 e8 f4 e8 d8~ d2 _V-3 d8 _V3 [ c16 _V-3 c16 _V3 ]3 c8 d8 e8 g8 f4 e8 f8~ f8 _V-3 f8 _V3 f8 e8~ e4 _V-3 e8 _V3 D1 P13,9,2 r32 d16 e16 g8 a8 > c16. D0 < @@1,2,1 _V2 g8~ g2 [ a16 g16 d16 g16 ]2 f+1 < g2 [ a16 g16 d16 g16 ]2 f+2 _V-3 Y.R f+4 YL. f+4 @1 O4 V4 E100,100,50,4,4 D1 r16 [ YL. d8 < d8 a8 d8 > Y.R d8 < d8 a8 d8 > ]3 YL. d8 < d8 a8 d8 > Y.R d8 < d8 a8 d16 > 
!2  _1 L [ r1 ]4 r2 @@1,2,1 O2 V7 E100,100,90,6,6 P13,9,4 YLR B15 r8 d8 e8 f8~ f4 e4 d4 c4 d4.~ a8~ a2~ a2. _V-3 a4 @@0,2,1 O2 YLR V8 E100,100,90,6,6 P13,9,3 r8 d16 r16 d8 _V-3 Y.R d8 _V3 YLR e16 r16 e8 _V-3 YL. e8 _V3 YLR f16 r16 f2. @@1,0,1 > Y.R V4 d16 e16 f16 g16 d8 @@0,2,1 O2 YLR V8 E100,100,90,6,6 P13,9,3 d16 r16 d8 _V-3 Y.R d8 _V3 YLR e16 r16 e8 _V-3 YL. e8 _V3 YLR f16 r16 f2. @@1,0,1 > Y.R V4 d16 e16 f16 g16 d8 < YLR V8 d16 r16 d8 _V-3 Y.R d8 _V3 YLR e16 r16 e8 _V-3 YL. e8 _V3 YLR f16 r16 f2 r8 f8 g8 a8~ a2~ a8 a+8 a8 g8 r8 g8 r8 g8 _V-3 Y.R g8 YL. g8 r4 @@0,0,1 O2 V9 YLR EX P13,9,2 r4 a8 _V-3 Y.R a8 _V3 YLR a4 a+8 a8~ a2 f8 g8 a16 r16 a8~ a4 _V-3 a8 _V3 a4 g8 f8 e8~ e2 _V-3 Y.R e8 YL. e8 _V3 YLR r4 r4 f8 _V-3 Y.R f8 _V3 YLR f4 g8 f8~ f4. _V-3 f8 _V3 d8 e8 f8 a8~ a4 _V-4 a8 _V4 a4 g8 f8 a8 @@1,3,1 O2 V7 YLR E100,100,60,3,3 r8 a8 a+8 a8 > c+8 < a8 > e8 < a8 @@0,0,1 O2 V9 YLR EX P13,9,2 r4 a8 _V-3 Y.R a8 _V3 YLR a4 a+8 a8~ a2 f8 g8 a8 > e8~ e4 _V-3 e8 _V3 e4 f8 e8 < a8~ a2 _V-3 a8 _V3 a+8 > c8 d8~ d2 _V-3 d8 _V3 d8 e8 f8~ f2 _V-3 f8 _V3 < a+4 > f16 _V-4 f16 _V4 f4. e4. d8 c8~ c2 @1 V5 O3 d12 e12 f12 g12 a12 a+12 @@1,1,2 O3 V9 E100,100,80,10,6 r4 c8 _V-3 c8 _V3 c4 f4 g8. r16 g16 r16 g8~ g8 f8 e8 _V-3 e8 _V3 e4. f8 _V-3 Y.R f8 YL. f8 _V3 YLR < a4~ a1 r4 f8 _V-3 f8 _V3 f4 > d8 r8 d4 _V-3 d8 _V3 c+4 d8 e8 < a8 > e4. f8~ f2~ f1 @@0,0,1 E100,100,90,6,6 r4 d8 _V-3 d8 _V3 d8 e8 f8 g8~ g4 _V-3 g8 _V3 g4 f8 e8 d8 c+4 < a4 > g8 f8 e8 f8~ f2 r8 P13,9,3 f8 g8 a8~ a2 _V-3 a8 _V3 a8 g8 f8~ f2 _V-3 f8 _V3 d8 f16 _V-3 f16 _V3 f8~ f4. e4. > c8 < a8 _V-3 Y.R a6 YL. a6 Y.R _V-2 a6 _V5 YLR r2 @@1,2,1 EX a4 g8 f8~ f2 _V-3 f8 _V3 [ e16 _V-3 e16 _V3 ]3 e8 f8 g4 e4 _V-3 e8 _V3 e4 d8 c16 _V-3 c16 _V3 c8 _V-3 c8 _V3 d4 _V-3 d8 _V3 d8 e8 f8 g8 a4 g8 f8~ f2 _V-3 f8 _V3 [ e16 _V-3 e16 _V3 ]3 e8 f8 g8 _V-3 g8 _V3 g4 _V-3 g8 _V3 g4 f8 e8 g8 _V-3 g8 _V3 f4. d8 e8 f8 g8 a4 g8 f8~ f2 _V-3 f8 _V3 [ e16 _V-3 e16 _V3 ]3 e8 f8 g4 e4 _V-3 e8 _V3 e4 d8 c16 _V-3 c16 _V3 c8 _V-3 c8 _V3 d4 _V-3 d8 _V3 d8 e8 f8 g8 a4 g8 f8~ f2 _V-3 f8 _V3 [ e16 _V-3 e16 _V3 ]3 e8 f8 g8 > c8 < a4 g8 a8~ a8 _V-3 a8 _V3 a8 g8~ g4 _V-3 g8 _V3 P13,9,2 d16 e16 g8 a8 > c8 d8~ d1~ d1 < d1~ d2 _V-3 Y.R d4 YL. d4 [ r1 ]4 
!3  _1 L `9F00 `AE00 @A2 V3 YLR O3 B2 E100,100,70,13,13 d1 c1 < b1 a+2 > c2 d1 c1 < b1 a+2 E100,100,70,4,4 @A3 O1 c4 c8 d8~ [ d8 ]14 c8 < a+8~ a+8 [ a+8 ]13 a8 g8~ g8 [ g8 ]14~ > c4 [ c8 ]6 c+8 r8 < a8 r8 > a8~ < a4 >~ a8 < a8 O1 [ d8 ]16 [ c8 ]15 c8 < a+8~ [ a+8 ]15 [ f8 ]7 a4 a8 a+8 a8 > c+8 < a8 > e8 < a8 O1 [ d8 ]16 [ c8 ]14 > c8 < a+8~ [ a+8 ]6 a8 g8~ [ g8 ]8 [ c8 ]8 [ c8 ]2 d8 c8 e8 c8 g8 c8 O1 f4. f8 f4. f8~ e4. e8 e4. e8~ d4. d8 d4. d8~ c4. c8 c4. c8~ < a+4. a+8 a+4. a+8~ a4. a8 a8 b8 > c+4~ d4. d8 d4. d8~ d8 c8 d8 f8 g8~ a8 d8 c8 < [ a+8 ]8 > [ c8 ]8 < [ a8 ]6 a8~ > d4 [ d8 ]3 [ c8 ]4 < [ a+8 ]6 a8 g8~ [ g8 ]7 > c8~ [ c8 ]7 c+8 r1 O0 [ [ a+8 ]8 > [ c8 ]8 < [ a8 ]8 > [ d8 ]4 [ c8 ]4 < ]2 [ a+8 ]8 > [ c8 ]8 < [ a8 ]8 [ a+8 ]4 [ a8 ]4 [ g8 ]8 [ a8 ]8 [ a+8 ]8 > [ c8 ]8 [ d8 ]14 d8~ a8 [ d8 ]7 d8~ d1 `9F00 `AE00 @A2 V3 YLR O3 B2 E100,100,70,13,13 d1 c1 < b1 a+2 > c2 
!4  L [ YL. @5 x8 x8 r4 YLR x8 x8 r4 Y.R x8 x8 r4 YLR x8 x8 r4 ]3 YL. @5 x8 x8 r4 YLR x8 x8 r4 Y.R x8 x8 YLR @7 x4 @3 [ x12 ]6 @19 x4 [ @7 [ x4 ]6 x8 @8 x4. ]2 @7 [ x4 ]6 [ @1 x8 @8 x4 @3 x8 ]2 @1 x8 @7 [ x4 ]3 @5 [ x16 ]4 @7 x8 @8 x4 [ @7 x4 ]15 [ @7 x4 ]16 @8 x4 [ @7 x4 ]15 [ @7 x4 ]12 @8 x4 @7 x4 @3 x4 @5 x4 @8 x4 @5 [ x4 ]7 @5 [ x4 ]7 @7 x4 @5 [ x4 ]8 @5 [ x4 ]7 @7 x4 @8 x4 @7 [ x4 ]26 x8 @8 x4 r8 r4 @18 x4 @3 [ x16 ]4 [ @8 x4 [ @7 x4 ]15 ]2 @8 x4 [ @7 x4 ]15 @8 x4 [ @7 x4 ]23 [ @7 x4 ]4 @8 x4 @5 x4 @18 x2 [ YL. @5 x8 x8 r4 YLR x8 x8 r4 Y.R x8 x8 r4 YLR x8 x8 r4 ]2 
!5  L _1 @60 V0 O1 [ b1 r1 ]3 b1 r2 @8 V0 O2 YL. D1 e12 f12 g12 a12 a+12 > c12 D0 _0 YLR O2 V1 @0 c4 @24 c4 @0 c8 c8 @24 c4 @0 c4 @24 c8 @0 c4 c8 @24 c4 [ @0 c4 @24 c4 @0 c8 c8 @24 c4 @0 c4 @24 c8 @0 c4 c8 @24 c4 ]2 @0 c4 @24 c4 @0 c8 c8 @24 c8 c16 c16 [ @24 c8 @0 c8 ]2 @24 c8 c8 [ c16 ]2 c8 [ @0 c4 @24 c4 @0 c8 c8 @24 c4 @0 c4 @24 c8 @0 c4 c8 @24 c4 ]4 [ @0 c4 @24 c4 @0 c8 c8 @24 c4 @0 c4 @24 c8 @0 c4 c8 @24 c4 ]3 @0 c4 @24 c4 @0 c8 c8 @24 c4 @0 c4 @24 c8 @2 e8 c8 < a8 f8 f8 O2 @0 c4. c8 @24 c4 @0 c8 c8 c8 @24 c4 @0 c8 @24 c4. @0 c8 @0 c4. c8 @24 c4 @0 c8 c8 c8 @24 c4 @0 c8 @24 c4. V0 c16 c16 V1 @0 c4. c8 @24 c4 @0 c8 c8 c8 @24 c4 @0 c8 @24 c4. @0 c8 @0 c4. c8 @24 c4 @0 c8 c8 c8 @24 c4 @0 c8 @24 c4 c8 c16 c16 [ @0 c4 @24 c4 @0 c8 c8 @24 c4 @0 c4 @24 c8 @0 c4 c8 @24 c4 ]3 @0 c4 @24 c4 @0 c8 c8 @24 c8 @0 c8 r2. @24 [ c16 ]4 [ @0 c4 @24 c4 @0 c8 c8 @24 c4 @0 c4 @24 c8 @0 c4 c8 @24 c4 ]4 [ @0 c4 @24 c4 @0 c8 c8 @24 c4 @0 c4 @24 c8 @0 c4 c8 @24 c4 ]5 @0 c8 @24 c16 c16 @2 e16 c16 @0 c16 @24 c16 @2 c16 < a16 > @0 c16 @24 c16 @2 < a16 f16 > @0 c16 @24 c16 O2 @0 c1 @60 V0 O1 [ b1 r1 ]2 
!6  _1 L @58 V0 O3 [ d8 < d8 a8 d8 > ]15 @8 V1 O1 YLR e12 f12 g12 a12 a+12 > c12 d4 @21 YLR O2 [ d8 ]12 @8 V1 YLR d16 e16 f16 g16 d8 @21 YLR O1 [ a+8 ]13 @8 V1 YLR O2 d16 e16 f16 g16 d8 @21 YLR O1 [ g8 ]15 @43 W0,91,11 O1 YLR V1 a4. > c8~ c4. c+4 @8 O2 c+8 @43 W0,91,11 O2 c+8 @8 O2 c+8 @8 O2 [ a16 ]4 YL. a8 Y.R a8 @21 YLR O2 [ d8 ]16 [ c8 ]15 c8 < a+8~ [ a+8 ]15 [ f8 ]7 a4 @8 O2 V1 a16 Y.R a16 YLR a+16 YL. a+16 YLR a16 Y.R a16 > YLR c+16 YL. c+16 < YLR a16 Y.R a16 > YLR e16 YL. e16 < YLR a16 Y.R a16 @21 YLR O2 V1 [ d8 ]16 [ c8 ]14 c8 < a+8~ [ a+8 ]6 a8 g8~ [ g8 ]8 > [ c8 ]8 [ c8 ]2 d8 c8 V1 @43 W0,91,11 O1 d12 e12 f12 g12 a12 a+12 > c1~ c1 < a1 c4 f4 e4 f4 a+1 a2 > c+4 < a4 g4. f8~ f2~ f1 @21 YLR O1 [ a+8 ]8 > [ c8 ]8 < [ a8 ]6 a8~ > d4 [ d8 ]3 [ c8 ]4 < [ a+8 ]2 @61 W0,100,33 O1 YLR d8 Y.R d8 YLR e8 YL. e8 YLR f4 Y.R f8 YL. f8 YLR d8 Y.R d8 YLR e8 YL. e8 YLR f8 Y.R f8 YLR a2~ a8 g8 f8 e8 V0 Y.R e6 YL. e6 Y.R e6 YLR r2 [ @40 W0,95,1 O0 V1 [ YLR [ a+16 > f16 < ]2 Y.R [ a+16 > f16 < ]2 YL. [ a+16 > f16 < ]2 Y.R [ a+16 > f16 < ]2 H> H> ]2 H0 O0 YLR [ a16 > e16 < ]2 Y.R [ a16 > e16 < ]2 YL. [ a16 > e16 < ]2 YLR [ a16 > e16 < ]2 > Y.R [ d16 a16 ]2 YL. [ d16 a16 ]2 H< H< Y.R [ d16 a16 ]2 YL. [ d16 a16 ]2 H0 ]2 @61 W0,100,33 O1 V1 r4 YLR d8 Y.R d8 YLR e8 YL. e8 YLR f8 Y.R f8 YLR e4 Y.R e8 YL. e8 YLR f8 Y.R f8 YLR g8 YL. g8 YLR c2 Y.R c4 YL. c4 YLR d8 Y.R d8 < YLR a8 YL. a8 YLR g8 YL. g8 YLR a8 YL. a8 YLR a+2.~ a+8 a16 a+16 > c2.~ c8 < a+16 > c16 d2.~ d8 c16 d16 e2.~ e8 d16 e16 g1~ f+1 g1~ f+2 V0 Y.R f+4 YL. f+4 YLR @58 V0 O3 [ d8 < d8 a8 d8 > ]8 
