;039 001F2978
!1  T140 _-1 @@1,2,0 E100,40,80,19,38 EP-2,0,0,3,0 P25,11,2 V8 O1 r4 g2~ g8 EX V2 g8 L YLR @@1,1,3 E80,100,80,3,9 EPX P25,11,2 [ H-3 O2 V2 g4 V4 > > g4 f+4 d+4 f4 e4 c+4 e4 d+4 c4 d4 c+4 < a+4 > c4 < b4 g+4 ]2 H0 < d2.~ d8 V2 d8 EPX E100,60,40,5,19 YLR V4 O3 @@0,1,2 D0 [ g24 > _V-2 Y.R c24 _V2 YLR d24 < _V-2 YL. g24 > _V2 YLR c24 _V-2 Y.R d24 _V2 YLR f24 _V-2 YL. c24 _V2 YLR c24 _V-2 Y.R f24 _V2 YLR d24 _V-2 YL. c24 _V2 YLR g24 _V-2 Y.R d24 _V2 YLR c24 _V-2 YL. g24 _V2 YLR d24 _V-2 Y.R c24 _V2 YLR f24 _V-2 YL. d24 _V2 YLR c24 _V-2 Y.R f24 _V2 YLR d24 _V-2 YL. c24 _V2 YLR < ]12 [ @@1,2,0 EP-2,0,0,3,0 E80,100,80,3,9 O2 V4 a+12 > d+12 < a+12 > d+4 @@0,1,3 EPX r48 O4 YLR V4 g+24 V2 < YL. a+24 > V4 YLR d+24 V2 Y.R g+24 < YLR V4 a+24 > V2 YL. d+24 < YLR V4 g+24 V2 < YL. a+24 > V4 YLR d+24 V2 Y.R g+24 < YLR V4 a+24 > V2 YL. d+48 < H> ]2 H0 @@1,2,0 EP-2,0,0,3,0 E80,100,80,3,9 O2 V4 a+12 > d+12 < a+12 > d+4 @@0,1,3 EPX r48 O4 YLR V2 g+24 V1 < YL. a+24 > V2 YLR d+24 V1 Y.R g+24 < YLR V2 a+24 > V1 YL. d+24 < YLR V2 g+24 V1 < YL. a+24 > V2 YLR d+24 V1 Y.R g+24 < YLR V2 a+24 > V1 YL. d+48~ d+64 < [ YLR V2 g32 > YL. V1 d32 < YLR V2 d32 V1 Y.R g32 < V2 YLR a32 > V1 YL. d32 V2 YLR d32 V1 Y.R < a32 > H> ]2 H2 V2 YLR g32 > V1 YL. d32 < V2 YLR d32 V1 Y.R g32 < V2 YLR a32 > V1 YL. d32 V2 YLR d32 V1 Y.R < a32 > H0 V4 YLR a+32 V2 YL. d32 V4 YLR f32 V2 Y.R a+32 V4 YLR a+32 V2 YL. f32 V4 YLR b32 V2 Y.R a+64 H0 @@1,2,0 EP-2,0,0,3,0 E80,100,80,3,9 O3 YLR V4 [ f12. r24 f12. r24 f24 V2 f24 V6 f24 r24 ]3 f12 YL. V3 f12 Y.R V2 f12 r4 
!2  _-1 @@1,2,0 E100,40,80,19,38 EP-2,0,0,3,0 P25,11,2 V8 O1 d2.~ d8 EX V2 d8 L YLR @@1,1,3 E80,100,80,3,9 EPX P25,11,2 [ O2 V3 g4 V6 > > g4 f+4 d+4 f4 e4 c+4 e4 d+4 c4 d4 c+4 < a+4 > c4 < b4 g+4 ]2 < g2.~ g8 V3 g8 @@2,1,0 EPX E60,100,80,19,19 V4 O2 [ g1~ g+1~ a+1~ b1 ]2 r32 D-1 Y.R E80,100,80,5,14 O2 V4 g2 d4 g4 g+2 d+4.~ d+16 V2 d+16 V4 YL. a+2 f4 g4 g+4 b4 > d4 f8. r32 Y.R D0 [ @@1,2,0 EP-2,0,0,3,0 E80,100,80,3,9 O3 V6 r32 d+12 g+12 d+12 g+8. V3 g+32 @@0,1,3 EPX O4 [ YLR V4 g+24 V2 < YL. a+24 > V4 YLR d+24 V2 Y.R g+24 < YLR V4 a+24 > V2 YL. d+24 < ]2 H> ]2 H0 @@1,2,0 EP-2,0,0,3,0 E80,100,80,3,9 YLR O3 V6 r32 d+12 g+12 d+12 g+8.~ g+32 @@0,1,3 EPX O4 [ YLR V4 g+24 V2 < YL. a+24 > V4 YLR d+24 V2 Y.R g+24 < YLR V4 a+24 > V2 YL. d+24 < ]2 [ YLR V4 g32 > YL. V2 d32 < YLR V4 d32 V2 Y.R g32 < V4 YLR a32 > V2 YL. d32 V4 YLR d32 V2 Y.R < a32 > H> ]2 H2 V4 YLR g32 > V2 YL. d32 < V4 YLR d32 V2 Y.R g32 < V4 YLR a32 > V2 YL. d32 V4 YLR d32 V2 Y.R < a32 > H0 V4 YLR a+32 V2 YL. d32 V4 YLR f32 V2 Y.R a+32 V4 YLR a+32 V2 YL. f32 V4 YLR b32 V2 Y.R a+32 H0 @@1,2,0 EP-2,0,0,3,0 E80,100,80,3,9 O3 YLR V6 [ g12. r24 g12. r24 g24 V2 g24 V6 g24 r24 ]3 g12 YL. V3 g12 Y.R V2 g12 r4 
!3  _-1 `9F00 `AE00 @A3 E100,70,70,3,0 V3 O0 d1 L [ V3 g1~ g1~ g1~ g2.~ g8 V2 g8 ]2 g2.~ g8 V2 g8 O0 V3 [ g8.~ g32 r32 g24. r48 g24. r48 g24. r48 g16 r16 g8 r8 g16. r32 ]12 [ g+8.~ g+32 r32 g+24. r48 g+24. r48 g+24. r48 g+16 r16 g+8 r8 g+16. r32 H> ]2 H0 g+8.~ g+32 r32 g+24. r48 g+24. r48 g+24. r48 g+16 r16 g+8 r8 g+16. r32 g4 g+4 a4 a+8 b8 > [ c12. r24 c12. r24 [ c24. r48 ]2 ]3 < c8 r8 d4 
!4  @8 YLR x4. @5 x4 x4 @7 x8 L Y.R [ @8 x4. YLR @6 x4 x4 x4 x4 x4 x4 x8~ x8 x4 YLR @6 x4 x4 x4 x4 x8 @5 x6 x6 x6 YL. ]2 YLR @8 x2 @6 x16 x16 x16 x16 @5 x16 x16 x16 x16 @3 [ x4 x12 x12 x12 x8 x4 x8 ]12 [ x4 x12 x12 x12 x8 x4 x8 ]3 [ Y.R [ @8 x8. YLR @3 x16 YL. ]2 ]2 YLR [ @3 x12 @1 x12 @3 x12 @1 x12 @3 x12 x12 ]2 @3 x12 @1 x12 @3 x12 @1 x12 @3 x12 @2 x24 @1 x24 @8 x2 
!5  _-1 @4 O2 V1 d8. V0 d16 d16 d16 d16 d16 d16 d16 d16 d16 V1 d12 V0 d12 d12 L [ @8 O1 V1 YLR g6 V0 Y.R g12 @4 O1 YLR V0 [ g16 g16 g16 g16 ]13 V1 d6 d6 d6 ]2 @8 O1 V1 YLR g6 V0 Y.R g6 YL. g6 r4 r12 @8 YLR V0 O1 e24 f24 f24 f+24 V1 YLR g4 g24 V0 r24 g24 r24 g24 r24 g8 g8 r8 g8 [ V0 YLR g4 g24 r24 g24 r24 g24 r24 g8 g8 r8 g8 ]11 V0 YLR d+4 d+24 r24 d+24 r24 d+24 r24 d+8 d+8 r8 d+8 e4 e24 r24 e24 r24 e24 r24 e8 e8 r8 e8 d+4 d+24 r24 d+24 r24 d+24 r24 d+8 d+8 r8 d+8 V1 YLR g12 V0 Y.R g12 YL. g12 V1 YLR g+12 V0 Y.R g+12 YL. g+12 V1 YLR a12 Y.R a12 YL. a12 V1 a+12 V0 Y.R a+24 YLR b12 YL. b24 > YLR [ V1 c12 V0 c12 V1 c12 V0 c12 V1 c12 c12 ]3 YLR V1 c12 V0 Y.R c12 YL. c12 @4 O2 V1 YLR d12 V0 YL. d12 Y.R d12 
!6  _-1 @61 W0,97,50 O0 V1 d4. V0 d8 > V1 c4 f4 L V1 YLR @4 O1 V1 YLR g8 V0 Y.R g8 YLR @40 W0,97,0 V1 O2 [ g16 g+16 g16 f+16 ]12 g16 g+16 g16 f+16 [ g16 g+16 g16 f+16 ) ]2 r4 V1 O2 [ g16 g+16 g16 f+16 ]12 g16 g+16 g16 f+16 [ g16 g+16 g16 f+16 ) ]2 g16 g+16 g16 f+16 ( g16 g+16 g16 f+16 g16 g+16 g16 f+16 @4 O1 V0 YLR d4 V1 g12 V0 YL. g12 Y.R g12 YLR @40 W0,97,0 O1 V1 g2.~ g+1~ a+1~ b1 g1~ g+1~ a+1~ b1 O1 V1 g2 d4 g4 g+2 d+4.~ d+16 V0 d+16 V1 a+2 f4 g4 g+4 b4 > d4 f4 @61 W0,97,50 YLR O2 V1 d+24. r48 g+24. r48 d+24. r48 g+4~ g+12 Y.R @25 V1 d+12 < a+12 g+12 d+12 < a+12 YLR @61 W0,97,50 YLR O2 V1 e24. r48 a24. r48 e24. r48 a4~ a12 YL. @25 V1 e12 < b12 a12 e12 < b12 YLR @61 W0,97,50 YLR O2 V1 d+24. r48 g+24. r48 d+24. r48 g+4~ g+12 Y.R @25 V1 d+12 < a+12 g+12 d+12 < a+12 @61 W0,97,50 Y.R O2 V1 g16 d16 < a16 > d16 YL. g+16 d+16 < a+16 > d+16 Y.R a16 e16 < b16 > e16 YL. a+16 f16 a+16 b16 YLR > [ V1 c12 V0 c12 V1 c12 V0 c12 V1 c12 c12 ]3 @52 O2 r48 D-1 YLR V1 c12 V0 YL. c12 Y.R c24. @4 O1 V0 d4 
