;040 001F328C
!1  T155 L _-2 @@2,2,1 O3 Y.R V6 E100,100,95,7,7 P14,10,2 D1 g12 a12 b12 > c4 D0 Y.R _V-2 c8 r8 YL. c4 ( Y.R c4 r1 [ @@0,2,1 O2 YLR V6 d+4 d12 d+12 d12 c12 d12 c12 < b12 > c12 < b12 g12 r12 d+24 r24 d+2. O1 _V-2 r6 a24 r24 a2 g12 a12 g12 a12 r12 g12 a2~ a12 ( Y.R a12 YL. a12 _0 ]2 @@0,1,2 O2 P14,10,3 YL. V6 g12 f12 e12 f12 g12 g+12 a+6 g+12 g6 f12 e12 f12 d12 e4 @1 V8 e12 g12 > c12 e12 g12 > c12 @@1,0,1 O2 V6 [ YLR g4 > d4 c+4~ c+12 Y.R c+12 YL. c+12 < H< H< H< @@1,0,2 ]2 H0 [ @@1,0,1 P14,10,3 O3 H-1 Y.R [ c+24 r24 ]3 c+2 < a+12 > c+12 < a+12 > c+12 r12 < a+12 g2. H0 O0 g12 > [ d+24 r24 ]2 d+12 [ d24 r24 ]2 d12 f12 e12 d+4 @0 PX O4 V4 YLR [ d+4 H< ]4 _3 ]2 H0 _0 @@0,1,2 O2 V4 P14,10,3 [ g12 c12 d12 ]8 H< H< [ g12 c12 d12 ]7 H0 
!2  L _-2 @@2,2,1 O3 YLR V8 E100,100,95,7,7 P14,10,3 g12 a12 b12 > c8 r8 r4 O2 V4 YL. [ [ g16 g+16 ]2 ) ]3 Y.R [ [ g16 g+16 ]2 ( ]3 [ @@0,2,1 O2 V8 YLR g4 f12 g12 f12 d+12 f12 d+12 d12 d+12 d12 c12 r12 < g24 r24 g2. O2 _V-2 r6 d24 r24 d2 c12 d12 c12 d12 r12 c12 d2~ d12 _V-2 Y.R d12 YL. d12 _0 ]2 @@0,1,2 Y.R V8 a+12 g+12 g12 g+12 a+12 > c12 c+6 c12 < a+6 g+12 g12 g+12 f12 g4 @1 g12 > c12 e12 g12 > c12 e12 @@1,0,1 O3 [ YLR d+12 d12 c12 f+12 r6 f4~ f12 Y.R f12 YL. f12 H< H< H< @@1,0,2 ]2 H0 [ @@1,0,1 P14,10,3 O2 H-1 YL. V6 [ a+24 r24 ]3 a+2 g12 a+12 g12 a+12 r12 g12 e2. H0 O1 r12 [ g+24 r24 ]2 g+12 [ g24 r24 ]2 g12 a+12 a12 g+4 @0 PX O4 V4 YLR [ g+4 H< ]4 _3 ]2 H0 _0 @@0,1,2 O3 V7 P14,10,3 [ g12 c12 d12 ]8 H< H< [ g12 c12 d12 ]7 H0 
!3  L _-2 `9F00 `AE00 @A3 V3 YLR O1 E100,100,80,11,11 g4 [ c4 < a+4 g+4 g4 > ]2 [ [ c4 < a+4 g+4 g4 > ]4 _0 ]2 < f4 f4 a+4 a+4 > c4 c4 c4 c4 [ c4 < b4 a+2 > H< H< H< ]2 H0 [ @A3 V3 O1 H-1 [ g4 ]8 H0 O0 g1 @A2 YLR V2 [ O5 g+24 d+24 < g+24 d+24 < g+24 d+24 < H< ]4 H0 _3 ]2 H0 _0 @A3 V3 O1 [ g4 ]4 [ g+4 ]4 [ f4 ]2 [ d+4 ]2 [ c+4 ]2 c4 
!4  L @3 [ x12 ]3 @8 x4 @3 [ x6 x12 ]2 [ x12 ]3 @3 [ x6 x12 ]3 [ x12 ]3 [ @8 x4 @3 [ x6 x12 ]2 @3 [ x12 ]3 [ @3 [ x6 x12 ]3 [ x12 ]3 ]3 ]2 [ @8 x4 @3 x6 x12 ]2 [ @8 x4 @3 [ x6 x12 ]2 [ x12 ]3 ]3 [ @8 x4 @3 [ x6 x12 ]2 [ x12 ]3 @3 [ x6 x12 ]3 [ x12 ]3 @8 x4 @3 [ x12 ]6 @3 [ x12 ]3 @1 [ x4 ]3 @3 [ x12 ]3 ]2 @8 x4 @3 [ x6 x12 ]6 [ x12 ]3 [ @8 x4 @3 x6 x12 ]3 @8 x4 
!5  L _-2 @4 O1 YLR V1 [ g12 ]3 > [ c4 < a+4 g+4 g4 > ]2 [ V0 [ c4 < a+4 g+4 g4 > ]3 c4 < a+4 g+4 V1 [ g12 ]3 > _0 ]2 < f4 f4 a+4 a+4 > c4 < g12 > c12 < g12 c4 c4 > c4 < b4 a+12 f12 a+12 < a+12 > a+12 < a+12 > > H< H< H< c4 < b4 a+12 f12 a+12 > f12 < a+12 > f12 H0 [ O1 H-1 g4 V0 [ g4 ]6 V1 [ g12 ]3 H0 g4 r2 g12 d12 g12 D1 YL. r24 @44 [ O3 g+24 d+24 < g+24 d+24 < g+24 d+24 < H< ]2 O3 g+24 d+24 < g+24 d+24 < g+24 D0 H0 @4 O1 YLR [ g12 ]3 _3 ]2 _0 O1 [ g4 ]4 [ g+4 ]4 [ f4 ]2 [ d+4 ]2 c+4 > c+4 c4 
!6  L _-2 @28 W0,100,39 O1 V1 YLR g12 a12 b12 > c8 r8 r4 @40 O2 [ [ g16 g+16 ]2 ]5 V0 [ g16 g+16 ]2 [ [ r1 ]2 @28 W0,100,39 O1 V1 YLR r6 g24 r24 g2 f12 g12 f12 g12 r12 f12 g2. _0 ]2 O1 f4~ f12 g12 g+12 a+4~ g+12 g12 f12 e2 @25 O1 [ YLR g24 Y.R g24 > YLR c24 YL. c24 YLR e24 Y.R e24 ]2 @40 W0,95,1 O2 YLR [ c4 b4 a+12 f12 c+12 < a+12 > c+12 f12 H< H< H< ]2 H0 V0 [ @28 W0,100,39 O2 V1 YLR H-1 [ f+24 r24 ]3 f+2 d+12 f+12 d+12 f+12 r12 d+12 c2. H0 V1 O0 r12 [ g+24 r24 ]2 g+12 [ g24 r24 ]2 g12 a+12 a12 g+4 @44 Y.R [ O3 g+24 d+24 < g+24 d+24 < g+24 d+24 < H< ]4 _3 ]2 H0 _0 @28 W0,100,39 O2 V1 YLR [ d12 < g12 > c12 ]8 [ c12 < f12 a+12 > ]7 
