;041 001F37FE
!1  T120 L @3 YLR V4 E100,100,90,6,6 O1 [ r12 [ c12 g12 ]2 c12 ]2 r12 [ c12 g12 ]2 c12 r12 [ c12 g12 ]2 @@2,2,1 YL. O1 V5 E100,100,90,13,9 P18,13,4 D1 r16 g12 > c6 _V-3 c12 _V3 c12 d12 d+12 f6 _V-3 f12 _V3 f12 d+12 d12 c2~ c6 _V-3 c12 _V3 g12 > c12 < g12 a+6 _V-3 a+12 _V3 a+12 g+12 g12 f+4 d8. D0 _V2 YLR c4~ c12 < a12 > c12 < D-1 b4~ b12 _V-2 b12 O2 D1 r16 @@1,2,1 P18,13,2 YL. g12 > c6 _V-3 c12 _V3 c12 d12 d+12 f6 _V-3 f12 _V3 f12 d+12 d12 c4~ c8. YLR D0 < g+4~ g+12 g12 f12 ) @@1,1,3 YLR c12 d12 c12 d+12 d12 c12 f12 d+12 d12 c12 < g12 > c12 < ( b4 _V2 Y.R d12 d+12 d12 f12 d12 f+12 d12 g12 d12 H-5 [ @@2,1,0 O2 YLR V6 EX r12 [ d+24 r24 ]2 d+12 d24 r24 d12 _V-3 Y.R d12 _V3 YLR [ f24 r24 ]2 f12 d+24 r24 d+12 _V-3 YL. d+12 _V3 YLR [ g24 r24 ]2 g12 f24 r24 f12 _V-3 Y.R f12 _V3 YLR [ g+24 r24 ]2 g+12 g24 r24 g12 _V-3 YL. g12 > _V3 YLR c12 < b12 a+12 a12 g+12 g6 f+12 f6 e12 d+4~ d+12 f12 d+12 d4 c+4 O3 r12 [ d+24 r24 ]2 d+12 d24 r24 d12 _V-3 Y.R d12 _V3 YLR [ f24 r24 ]2 f12 d+24 r24 d+12 _V-3 YL. d+12 _V3 YLR [ g24 r24 ]2 g12 f24 r24 f12 _V-3 Y.R f12 _V3 YLR [ g+24 r24 ]2 g+12 g24 r24 g12 _V-3 YL. g12 > _V3 YLR c12 < b12 a+12 a12 g+12 g6 f+12 f6 e12 d+4~ d+12 f12 d+12 d4 c+4 _2 ]2 H0 _0 @3 YLR V4 E100,100,90,6,6 O1 [ r12 [ c12 g12 ]2 c12 ]4 
!2  L @1 V4 O3 EX B2 r4 YL. [ [ g24 > c24 < ]3 H< ]3 ( Y.R [ [ g24 > c24 < ]3 H< ]3 H0 ( [ c+24 f+24 ]2 @@2,2,1 YLR O1 V8 E100,100,90,13,9 P18,13,4 g12 > c6 _V-3 c12 _V3 c12 d12 d+12 f6 _V-3 f12 _V3 f12 d+12 d12 c2~ c6 _V-3 c12 _V3 g12 > c12 < g12 a+6 _V-3 a+12 _V3 a+12 g+12 g12 f+4 d4 g2 _V-2 g4~ g12 r12 _V2 @@1,2,1 P18,13,2 g12 > c6 _V-3 c12 _V3 c12 d12 d+12 f6 _V-3 f12 _V3 f12 d+12 d12 c2 > c4~ c12 < a+12 g+12 g1~ g2 _V-3 g4~ g12 _V-2 Y.R g12 YL. g12 [ @@2,1,0 O2 YLR V8 EX r12 [ d+24 r24 ]2 d+12 d24 r24 d12 _V-3 Y.R d12 _V3 YLR [ f24 r24 ]2 f12 d+24 r24 d+12 _V-3 YL. d+12 _V3 YLR [ g24 r24 ]2 g12 f24 r24 f12 _V-3 Y.R f12 _V3 YLR [ g+24 r24 ]2 g+12 g24 r24 g12 _V-3 YL. g12 > _V3 YLR c12 < b12 a+12 a12 g+12 g6 f+12 f6 e12 d+4~ d+12 f12 d+12 d4 c+4 O3 r12 [ d+24 r24 ]2 d+12 d24 r24 d12 _V-3 Y.R d12 _V3 YLR [ f24 r24 ]2 f12 d+24 r24 d+12 _V-3 YL. d+12 _V3 YLR [ g24 r24 ]2 g12 f24 r24 f12 _V-3 Y.R f12 _V3 YLR [ g+24 r24 ]2 g+12 g24 r24 g12 _V-3 YL. g12 > _V3 YLR c12 < b12 a+12 a12 g+12 g6 f+12 f6 e12 d+4~ d+12 f12 d+12 d4 c+4 _2 ]2 _0 [ r1 ]2 
!3  L `9F00 `AE00 @A3 V3 YLR E100,100,80,9,9 O1 [ c2 c4~ c6 < g12 > ]2 c2 d2 d+2 e4~ e12 > e12 < e12 f2 f+2 g2 < g4~ g12 > g12 < g12 O1 c2 d2 d+2 f4~ f12 > f12 < f12 g2 < g2 > g2 < g4~ g12 > g12 < g12 O1 [ c2.~ c6 g12 ]4 [ c2.~ c6 g12 ]4 _2 [ [ c4 ]3 c6 g12 ]7 [ c4 ]2 c12 g6 < g6 g12 _0 `9F00 `AE00 @A3 V3 YLR E100,100,80,9,9 O1 [ c2 c4~ c6 < g12 > ]2 
!4  L @8 x4 @5 [ [ x12 ]3 ]6 [ x12 ]2 @7 x12 @8 x4 @5 [ [ x12 ]3 ]3 x24 x24 x12 x12 [ [ x12 ]3 ]2 [ x12 ]2 @7 x12 @5 [ [ x12 ]3 ]4 x24 x24 x12 x12 [ [ x12 ]3 ]2 [ x12 ]2 @7 x12 @8 x4 @5 [ [ x12 ]3 ]3 x24 x24 x12 x12 [ [ x12 ]3 ]2 [ x12 ]2 @7 x12 @5 [ [ x12 ]3 ]4 x24 x24 x12 x12 [ [ x12 ]3 ]2 [ x12 ]2 @7 x12 @8 x4 @5 [ x12 ]4 @1 x12 @5 [ x12 ]4 x24 x24 [ x12 ]6 @1 x12 @5 [ x12 ]3 @7 x12 @5 [ x12 ]3 @5 [ x12 ]4 @1 x12 @5 [ x12 ]4 x24 x24 [ x12 ]6 @1 x12 @5 x12 @1 [ x12 ]2 @7 x12 @8 x4 @5 [ x12 ]4 @1 x12 @5 [ x12 ]4 x24 x24 [ x12 ]6 @1 x12 @5 [ x12 ]3 @7 x12 @5 [ x12 ]3 @5 [ x12 ]4 @1 x12 @5 [ x12 ]4 x24 x24 [ x12 ]6 @1 x12 @5 x12 @1 [ x12 ]2 @7 x12 @8 x4 @5 [ x12 ]8 @7 x12 @5 [ x12 ]11 @7 x12 @5 [ x12 ]11 @7 x12 @5 [ x12 ]9 @3 [ x12 ]3 @8 x4 @5 [ x12 ]8 @7 x12 @5 [ x12 ]11 @7 x12 @5 [ x12 ]11 @7 x12 @5 [ x12 ]9 @3 [ x12 ]3 @8 x4 @5 [ [ x12 ]3 ]6 [ x12 ]2 @7 x12 
!5  L V1 YLR O2 @0 c12 c6 c6 c12 @59 c2 @0 c12 c6 c6 c12 @59 c4 c12 c12 @0 c12 [ @0 c12 c6 c6 c12 @59 c2 @0 c12 c6 c6 c12 @59 c4 c12 c12 @0 c12 ]2 @0 c12 c6 c6 c12 @59 c2 @0 c12 c6 c6 c12 @59 c4 c12 c12 @0 c12 @0 c12 c6 c6 c12 @59 c2 @0 c12 c6 c6 c12 @59 c6 c24 c24 V1 c12 c12 @0 c12 @0 c12 c6 c6 c12 @59 c2 @0 c12 c6 c6 c12 @59 c4 c12 c12 @0 c12 @0 c12 c6 c6 c12 @59 c2 @0 c12 c6 c6 c12 @59 c6 c24 c24 V1 c12 c12 @0 c12 @0 c12 c6 c6 c12 @59 c2 @0 c12 c6 c6 c12 @59 c4 c12 c12 @0 c12 @0 c12 c6 c6 c12 @59 c2 @0 c12 c6 c6 c12 @59 c6 c24 c24 V1 c12 c12 @0 c12 @0 c4 @59 c4 @0 c6 c12 @59 c4 @0 c4 @59 c4 @0 c12 c6 @59 c6 c12 @0 c4 @59 c4 @0 c6 c12 @59 c4 @0 c4 @59 c4 @0 c12 c6 @59 c12 c12 c24 c24 @0 c4 @59 c4 @0 c6 c12 @59 c4 @0 c4 @59 c4 @0 c12 c6 @59 c6 c12 @0 c4 @59 c4 @0 c6 c12 @59 c4 @0 c4 @59 c4 @0 c12 @59 c12 c12 c12 c12 c24 c24 V1 YLR O2 @0 c12 c6 c6 c12 @59 c2 @0 c12 c6 c6 c12 @59 c4 c12 c12 @0 c12 
!6  L @15 O1 YLR V1 [ r12 [ g12 > c12 < ]2 g12 ]2 ( [ r12 [ g12 > c12 < ]2 g12 ]2 V1 r12 [ g12 > c12 < V0 ]2 g12 V1 r12 [ g12 > d12 < V0 ]2 g12 V1 r12 [ g12 > d+12 < V0 ]2 g12 > V1 r12 [ c12 e12 V0 ]2 c12 V1 r12 [ c12 f12 V0 ]2 c12 V1 r12 [ c12 f+12 V0 ]2 c12 V1 r12 [ d12 g12 V0 ]2 d12 V1 r12 [ d12 g12 V0 ]2 d12 O1 V1 r12 [ g12 > c12 < V0 ]2 g12 V1 r12 [ g12 > d12 < V0 ]2 g12 V1 r12 [ g12 > d+12 < V0 ]2 g12 > V1 r12 [ c12 f12 V0 ]2 c12 @28 W0,100,43 O1 V1 c4 < g4 > g4~ g6 f24 d+24 d4 @15 O1 YL. g12 g+12 g12 a+12 g12 b12 g12 > d12 < g12 [ @40 W0,95,1 O1 V1 [ YLR c12 c+12 c12 c+12 c12 c+12 > Y.R [ c24 c+24 c24 c+24 c24 c+24 ]2 < YLR c12 c+12 c12 c+12 c12 c+12 > YL. [ c24 c+24 c24 c+24 c24 c+24 ]2 < ]2 @58 O1 V1 YLR c12 > c12 Y.R c12 < YLR b12 YL. b12 YLR a+12 Y.R a+12 YLR a12 YL. a12 YLR g+12 Y.R g+12 YLR g12 YL. g12 YLR f+12 YL. f+12 YLR f12 Y.R f12 YLR e12 YL. e12 YLR d+12 Y.R d+12 YLR d12 YL. d12 YLR c+12 @26 O2 V1 YLR [ c24 > c24 < d24 > d24 < c24 > c24 < d+24 > d+24 < c24 > c24 < d24 > d24 < c2 ]2 _2 ]2 _0 @15 O1 YLR V1 [ r12 [ g12 > c12 < ]2 g12 ]2 ( [ r12 [ g12 > c12 < ]2 g12 ]2 
