;042 001F40BC
!1  T88 _0 L @@2,0,1 E100,60,40,5,15 O3 V8 V2 [ YLR d+32 _V-3 Y.R g+32 _V3 YLR f32 _V-3 YL. d+32 _V3 YLR f+32 _V-3 Y.R f32 _V3 YLR g+32 _V-3 YL. f+32 _V4 ]4 [ YLR d+32 _V-3 Y.R g+32 _V3 YLR f32 _V-3 YL. d+32 _V3 YLR f+32 _V-3 Y.R f32 _V3 YLR g+32 _V-3 YL. f+32 _V2 ]4 O3 V8 [ V2 [ YLR d+32 _V-3 Y.R g+32 _V3 YLR f32 _V-3 YL. d+32 _V3 YLR f+32 _V-3 Y.R f32 _V3 YLR g+32 _V-3 YL. f+32 _V4 ]4 [ YLR d32 _V-3 Y.R g+32 _V3 YLR f32 _V-3 YL. d32 _V3 YLR f+32 _V-3 Y.R f32 _V3 YLR g+32 _V-3 YL. f+32 _V2 ]4 ]2 [ V2 [ YLR g+32 _V-3 Y.R > c+32 < _V3 YLR a+32 _V-3 YL. g+32 _V3 YLR b32 _V-3 Y.R a+32 _V3 YLR > c+32 < _V-3 YL. b32 _V4 ]4 [ YLR g32 _V-3 Y.R > c+32 < _V3 YLR a+32 _V-3 YL. g32 _V3 YLR b32 _V-3 Y.R a+32 _V3 YLR > c+32 < _V-3 YL. b32 _V4 ]4 ]2 V2 [ YLR g+32 _V-3 Y.R > c+32 < _V3 YLR a+32 _V-3 YL. g+32 _V3 YLR b32 _V-3 Y.R a+32 _V3 YLR > c+32 < _V-3 YL. b32 _V4 ]4 [ YLR f+32 _V-3 Y.R b32 _V3 YLR g+32 _V-3 YL. f+32 _V3 YLR a+32 _V-3 Y.R g+32 _V3 YLR b32 _V-3 YL. a+32 _V2 ]2 [ YLR e32 _V-3 Y.R a+32 _V3 YLR f+32 _V-3 YL. e32 _V3 YLR g+32 _V-3 Y.R f+32 _V3 YLR a+32 _V-3 YL. g+32 _V5 ]2 V2 [ YLR a+32 _V-3 Y.R > d+32 < _V3 YLR b32 _V-3 YL. a+32 _V3 YLR > c+32 _V-3 Y.R < b32 > _V3 YLR d+32 _V-3 YL. < c+32 _V4 ]4 [ YLR a+32 _V-3 Y.R > d+32 < _V3 YLR b32 _V-3 YL. a+32 _V3 YLR > c+32 _V-3 Y.R < b32 > _V3 YLR d+32 _V-3 YL. < c+32 _V2 ]4 @@2,0,1 E100,60,40,5,15 O3 V4 YLR r64 H-12 Y.R g+16 < g+16 > d+16 < g+16 b16 g+16 > d+16 < g+16 > g+16 < g+16 > d+16 < g+16 > b16 d+16 g+16 d+16 YL. a+16 < a+16 > g+16 < a+16 > g16 < a+16 > g+16 < a+16 > a+16 < a+16 > g16 < g16 > e16 < g16 > c+16 < g16 Y.R b16 d+16 a+16 d+16 b16 d+16 > c+16 < d+16 > d+16 < g+16 > c+16 < g+16 b16 d+16 > c+16 < d+16 > e16 < e16 > c+16 < e16 a+16 e16 g+16 e16 g16 < a+16 > e16 < a+16 > c+16 d+16 e16 g16 O3 Y.R g+16 < g+16 > d+16 < g+16 b16 g+16 > d+16 < g+16 > g+16 < g+16 > d+16 < g+16 > b16 d+16 g+16 d+16 YL. a+16 < a+16 > g+16 < a+16 > g16 < a+16 > g+16 < a+16 > a+16 < a+16 > g16 < g16 > e16 < g16 > c+16 < g16 Y.R b16 d+16 a+16 d+16 b16 d+16 > c+16 < d+16 > d+16 < g+16 > c+16 < g+16 b16 d+16 > c+16 < d+16 YL. g16 a+16 > c+16 e16 g16 a+16 > c+16 e16 g16 a+16 > c+16 e16 g16 e16 c+16 < a+32. E100,40,100,15,46 D0 H0 > YLR < b1 V2 P0,18,2 EX @1 b1 V1 b1 SD3 SR1 O0 [ a8 a8 r4 ) ]4 SR0 SD0 
!2  _0 L E70,100,70,15,5 @@4,1,0 P30,18,2 O2 V5 a2~ ) a+2~ _V2 a2~ a+2 V5 O2 Y.R r32 [ d+4~ a+4 >~ e4~ d+4~ g+2~ d2 YL. < ]2 Y.R [ g+4 >~ d+4~ a4~ g+4 >~ c+2 <~ g2 < YL. ]2 Y.R > g+1~ YL. f+2 Y.R e2 YL. d+16~ e16~ d+16~ c+16~ d+2.~ Y.R > d+2.~ d+8 V2 d+16. @@2,0,1 E100,60,40,5,15 O3 V6 YLR g+16 < g+16 > d+16 < g+16 b16 g+16 > d+16 < g+16 > g+16 < g+16 > d+16 < g+16 > b16 d+16 g+16 d+16 a+16 < a+16 > g+16 < a+16 > g16 < a+16 > g+16 < a+16 > a+16 < a+16 > g16 < g16 > e16 < g16 > c+16 < g16 b16 d+16 a+16 d+16 b16 d+16 > c+16 < d+16 > d+16 < g+16 > c+16 < g+16 b16 d+16 > c+16 < d+16 > e16 < e16 > c+16 < e16 a+16 e16 g+16 e16 g16 < a+16 > e16 < a+16 > c+16 d+16 e16 g16 O3 g+16 < g+16 > d+16 < g+16 b16 g+16 > d+16 < g+16 > g+16 < g+16 > d+16 < g+16 > b16 d+16 g+16 d+16 a+16 < a+16 > g+16 < a+16 > g16 < a+16 > g+16 < a+16 > a+16 < a+16 > g16 < g16 > e16 < g16 > c+16 < g16 b16 d+16 a+16 d+16 b16 d+16 > c+16 < d+16 > d+16 < g+16 > c+16 < g+16 b16 d+16 > c+16 < d+16 g16 a+16 > c+16 e16 g16 a+16 > c+16 e16 g16 a+16 > c+16 e16 g16 e16 c+16 < a+16 E100,40,100,15,46 > d+1 V3 @1 P0,18,2 EX d+1 V1 d+1 r1 r1 
!3  _0 L `9F00 `AE00 EX P46,20,18 B4 @A3 V3 YLR O0 d+3~ d+3~ d+3~ d+3.~ d+3 V2 EX d+6 O0 V3 d+1~ d1 d+1~ d1 g+1~ g1 g+1~ g1 > c+1 < b2 a2 g+1~ g+1 [ [ V3 g+6 V2 g+12 V3 g+24. r48 g+24. r48 g+24. r48 ]2 V3 g6 V2 g12 V3 g24. r48 g24. r48 g24. r48 [ g24. r48 g24. r48 g24. r48 ]2 [ V3 g+6 V2 g+12 V3 g+24. r48 g+24. r48 g+24. r48 ]2 V3 a+6 V2 a+12 V3 a+24. r48 a+24. r48 a+24. r48 [ g24. r48 g24. r48 g24. r48 ]2 ]2 > P46,20,8 V2 g+2.~ g+8 g+8~ g+1~ g+2~ g+4~ g+8 V1 g+8 r1 r1 
!4  L @1 [ x8 x8 r4 x8 x8 r4 ]2 [ [ x8 x8 r4 x8 x8 r4 x8 x8 r4 x8 x8 r4 ]3 ]2 [ [ @4 x4 x12 x12 x12 ]3 x12 x12 x12 x12 x12 x12 ]5 @2 x8 x8 r4 x8 @1 x8 r4 [ x8 x8 r4 ]4 
!5  L [ [ V1 @60 e8 d+8~ d+4 ]2 ]2 [ [ V1 @60 e8 d+8~ d+4 ]2 ]12 [ [ V1 @60 e8 d+8~ d+4 ]2 ]9 [ e8 d+8~ d+4 ]4 [ e8 d+8~ d+4 ]4 
!6  _0 L @58 W0,97,29 O1 B4 V0 P15,18,2 d+1~ d+1 V1 O1 [ d+4~ a+4 >~ e4~ d+4~ g+2~ d2 <~ ]2 [ g+4 >~ d+4~ a4~ g+4 >~ c+2 <~ g2 < ]2 > g+1~ f+2 e2 d+16~ e16~ d+16~ c+16~ d+2.~ > d+2.~ d+8 V0 d+8 < g+1 g1 g+1 a+2 g2 g+1 g1 g+1 a+2 > c+2 < b2.~ b8 V0 b8 r2 r1 r1 r32 D-1 Y.R [ @41 e8 d+8 r4 r32 YL. ]2 Y.R V1 @60 e8 YL. d+8 r8 r32 D0 YLR 
